/* XPM */
static char *Before_after_drop[] = {
/* columns rows colors chars-per-pixel */
"87 141 89 1 ",
"  c black",
". c #070707",
"X c #0B0B0B",
"o c #170F07",
"O c #0B1707",
"+ c #171F07",
"@ c #1F170B",
"# c #131313",
"$ c #1B1B1B",
"% c #2F1B0B",
"& c #2B230F",
"* c #372313",
"= c #332B13",
"- c #3F2F17",
"; c #3F2B1B",
": c #2F371F",
"> c #232323",
", c #272727",
"< c #2F2F2F",
"1 c #373F27",
"2 c #373737",
"3 c gray23",
"4 c #432F1B",
"5 c #43331B",
"6 c #4B371B",
"7 c #533F1F",
"8 c #473323",
"9 c #4F3B23",
"0 c #4F3B27",
"q c #533F2F",
"w c #3F472B",
"e c #5F4323",
"r c #5B472B",
"t c #474F33",
"y c #574333",
"u c #5F4B37",
"i c #6B4727",
"p c #774F2B",
"a c #7F532F",
"s c #675333",
"d c #775F3F",
"f c #434343",
"g c gray28",
"h c #4B4B4B",
"j c gray31",
"k c gray34",
"l c #5B5B5B",
"z c gray39",
"x c gray42",
"c c #6F6F6F",
"v c #777777",
"b c gray50",
"n c #875733",
"m c #8F5F37",
"M c #9B633B",
"N c #A36B3F",
"B c #836B4B",
"V c #AB6F43",
"C c #B37347",
"Z c #BF7B4B",
"A c #CB7F4F",
"S c #CF8353",
"D c #D78B5B",
"F c #DF9363",
"G c #E79B6B",
"H c #EFA373",
"J c #F7AB7B",
"K c #FFB37B",
"L c #838383",
"P c #8B8B8B",
"I c #939393",
"U c #979797",
"Y c #9F9F9F",
"T c #A7A7A7",
"R c gray67",
"E c gray70",
"W c #B7B7B7",
"Q c gray75",
"! c #FFB383",
"~ c #FFBB93",
"^ c #FFBF9B",
"/ c gray78",
"( c #CBCBCB",
") c LightGray",
"_ c gray86",
"` c #DFDFDF",
"' c #E7E7E7",
"] c #EFEFEF",
"[ c None",
/* pixels */
"[[[[[[[[[[[[[[[[[[[[[[[[[[[[[[2<<v[[[[[[[[[[[[[[[[[[[[[[[[[[[[[[[[[[[[[[[[[[[[[[[[[[[[[",
"[[[[[[[[[[[[[[[[[[[[[[[[[[[[[2223cU[[[[[[[[[[[[[[[[[[[[[[[[[[[[[[[[[[[[[[[[[[[[[[[[[[[[",
"[[[[[[[[[[[[[[[[[[[[[[[[[[[[222223xI[[[[[[[[[[[[[[[[[[[[[[[[[[[[[[[[[[[[[[[[[[[[[[[[[[[",
"[[[[[[[[[[[[[[[[[[[[[[[[[[[222<22<flI[[[[[[[[[[[[[[[[[[[[[[[[[[[[[[[[[[[[[[[[[[[[[[[[[[",
"[[[[[[[[[[[[[[[[[[[[[[[[[[<22222222flI[[[[[[[[[[[[[[[[[[[[[[[[[[[[[[[[[[[[[[[[[[[[[[[[[",
"[[[[[[[[[[[[[[[[[[[[[[[[[3<<2<22<322flU[[[[[[[[[[[[[[[[[[[[[[[[[[[[[[[[[[[[[[[[[[[[[[[[",
"[[[[[[[[[[[[[[[[[[[[[[[[ck<<222223332flU[[[[[[[[[[[[[[[[[[[[[[[[[[[[[[[[[[[[[[[[[[[[[[[",
"[[[[[[[[[[[[[[[[[[[[[[[>cLk2<232323233fkP[[[[[[[[[[[[[[[[[[[[[[[[[[[[[[[[[[[[[[[[[[[[[[",
"[[[[[[[[[[[[[[[[[[[[[[$X,zvk2<2322233333jI[[[[[[[[[[[[[[[[[[[[[[[[[[[[[[[[[[[[[[[[[[[[[",
"[[[[[[[[[[[[[[[[[[[[[[$#X>zvk222333323333jPP[[[[[[[[[[[[[[[[[[[[[[[[[[[[[[[[[[[[[[[[[[[",
"[[[[[[[[[[[[[[[[[[[[[[$$#X>zvl2<2333333333jLT[[[[[[[[[[[[[[[[[[[[[[[[[[[[[[[[[[[[[[[[[[",
"[[[[[[[[[[[[[[[[[[[[[[$$$#X>cvl3233333333ffjbY[[[[[[[[[[[[[[[[[[[[[[[[[[[[[[[[[[[[[[[[[",
"[[[[[[[[[[[[[[[[[[[[[[$##$#X<cLl223333f3ffffhbR[[[[[[[[[[[[[[[[[[[[[[[[[[[[[[[[[[[[[[[[",
"[[[[[[[[[[[[[[[[[[[[[[[,#$###,xck2233f3ffffffgcT[[[[[[[[[[[[[[[[[[[[[[[[[[[[[[[[[[[[[[[",
"[[[[[[[[[[[[[[[[[[[[[[[,$#$##X$YUz223fffffffffjbE[[[[[[[[[[[[[[[[[[[[[[[[[[[[[[[[[[[[[[",
"[[[[[[[[[[[[[[[[[[[[[[[[,##$##flILx323fffffghffjcR[[[[[[[[[[[[[[[[[[[[[[[[[[[[[[[[[[[[[",
"[[[[[[[[[[[[[[[[[[[[[[[[2$##>f,#$cLz333fffhghhgghvR[[[[[[[[[[[[[[[[[[[[[[[[[[[[[[[[[[[[",
"[[[[[[[[[[[[[[[[[[[[[[[[[,$,2$###,cbz33fgghhggjhhjxR[[[[[[[[[[[[[[[[[[[[[[[[[[[[[[[[[[[",
"[[[[[[[[[[[[[[[[[[[[[[[[[>,,###$$#2zvz3ffghgggghhjjcRR[[[[[[[[[[[[[[[[[[[[[[[[[[[[[[[[[",
"[[[[[[[[[[[[[[[[[[[[[[[[[[$>>$$$#$#3lbc3fgggghhhhhjjxTY[[[[[[[[[[[[[[[[[[[[[[[[[[[[[[[[",
"[[[[[[[[[[[[[[[[[[[[[[[[[[[X3>#$$$#$hxvxffgggjhhhjjjkzPQ[[[[[[[[[[[[[[[[[[[[[[[[[[[[[[[",
"[[[[[[[[[[[[[[[[[[[[[[[[[[[[Xg>#$#$#<PcUxffhhjjhjjjjjkxIE[[[[[[[[[[[[[[[[[[[[[[[[[[[[[[",
"[[[[[[[[[[[[[[[[[[[[[[[[[[[[ #g>$$$<j.#UQcgghkhjjkjkkjlxIW[[[[[[[[[[[[[[[[[[[[[[[[[[[[[",
"[[[[[[[[[[[[[[[[[[[[[[[[[[[[X#$g>$,kX>vhcIcghhkklkjjkkklxI/[[[[[[[[[[[[[[[[[[[[[[[[[[[[",
"[[[[[[[[[[[[[[[[[[[[[[[[[[[[[[ $2$f#$L,>$xLxhhjkkjkkjkkklxUQ[[[[[[[[[[[[[[[[[[[[[[[[[[[",
"[[[[[[[[[[[[[[[[[[[[[[[[[[[[[[. >fzkI<$##<vvxjhjkkklkklkklxT(U[[[[[[[[[[[[[[[[[[[[[[[[[",
"[[[[[[[[[[[[[[[[[[[[[[[[[[[[[[$. $xx$###$#<cbvjjkkkklkkklllxYQY[[[[[[[[[[[[[[[[[[[[[[[[",
"[[[[[[[[[[[[[[[[[[[[[[[[[[[[[[ X. <<>##$$$>fzbxkjkklkllklzllzT)E[[[[[[[[[[[[[[[[[[[[[[[",
"[[[[[[[[[[[[[[[[[[[[[[[[[[[[$#..X. >2$$$$>,$3lvzkkkkllllllzzlzY(R[[[[[[[[[[[[[[[[[[[[[[",
"[[[[[[[[[[[[[[[[[[[[[[[[[[[$$$X. .  ,3>$$$#$$flcxkklklllllzxzzlE]Q[[[[[[[[[[[[[[[[[[[[[",
"[[[[[[[[[[[[[[[[[[[[[[[[[>$$$$>XX..  22>$$$$#$hzvclllkllllzzxzzxbQb[[[[[[[[[[[[[[[[[[[[",
"[[[[[[[[[[[[[[[[[[[[[[[[#####$$>XX..  22$$$$##>hcvclllklzzzxzxvzcRYvk[[[[[[[[[[[[[[[[[[",
"[[[[[[[[[[[[[[[[[[[[[[#X######$$>XX    2<$$$$$$#hxcczllllzzzxxxxzzR/zj[[[[[[[[[[[[[[[[[",
"[[[[[[[[[[[[[[[[[[[[[XXX######$#$$#.    g<$$$#$##fcvvzlllzzzxxxxxxzP_Pk3[[[[[[[[[[[[[[[",
"[[[[[[[[[[[[[[[[[[[[..XXXmZDZVpe6$>#.   .h,$$$$$#$3xcbzlzlzzxzxxxxxvUWPjg[[[[[[[[[[[[[[",
"[[[[[[[[[[[[[[[[[[[[#..XXmFFDMe%%66[[#   X2,$$$$$#$kvcPxzzzzzxzxxcczcY)Tkfg[[[[[[[[[[[[",
"[[[[[[[[[[[[[[[[[[[[#X..MZFFVi**o%%6<>#   .f,$$$$#$$2bvPczzzxzxxccccccP`Tjh2[[[[[[[[[[[",
"[[[[[[[[[[[[[[[[[[[[XX#.VDFFa4%ooo%%6#$$.  Xf<##$$$##fvxLczxzxzccccccvvv_`kh2332[[[[[[[",
"[[[[[[[[[[[[[[[[[[[[[ X.pCZVa*%ooo &@@464*& #3,$$$$$##3cbPczxxxxcccvvvccI_Rzh2>#X[[[[[[",
"[[[[[[[[[[[[[[[[[[[[[[XXiMmi6*%oo.*6ipaapi666*2,$$#$$$#3PLPvxxxcccvvvcvvcb']vj>X. [[[[[",
"[[[[[[[[[[[[[[[[[[[[[[[,.466*%ooo*6eepnappMnae-h<#$$$$$$<bPLcxxxcccccvvvvbL)(22>. .[[[[",
"[[[[[[[[[[[[[[[[[[[[[[[<$X%o%%oo5666666ppmMMape4f<>$>>>>$<IPIxxccccvvvvvvcxIWPgfh,  [[[",
"[[[[[[[[[[[[[[[[[[[[[[[[>$#.*oO55-*&&==4epnmMaap4j3>>>,>,>2YPLvccvvcvvvcxzPRPlcg,h. .[[",
"[[[[[[[[[[[[[[[[[[[[[[[[[>$##Xo$& .$@&&*6iMVCNmap%jf$$>,,>>3UPIvvvvvvvcczRTf3jf>3,,  [[",
"[[[[[[[[[[[[[[[[[[[[[[[[[[e4o%.@;o  $&@*6iMCSAVMn6Xzvzg<,,<>hQbIbvcvcccb(Y<f#   #2<$ [[",
"[[[[[[[[[[[[[[[[[[[[[[[[pVCi4*o#=o  ooO6pnNCSDSCMe $,2gcvbxh2IEjxvvcccUQk,<  .#XX$<,X[[",
"[[[[[[[[[[[[[[[[[[[[[[[MDZMe**oo#X ooo9pnmVCADFFC6.. X>$>><gzUYP<jcvzU(f<#  $#><  ,,$[[",
"[[[[[[[[[[[[[[[[[[[[[[MDZMi44*o  ##.@-iamMCCSGHHFnXXX #,>$$,$##jf<3vvv3>  X#<,.2,..3,,[",
"[[[[[[[[[[[[[[[[[[[[[pVZMp6*%ooo  #%-ipnMVCAG~!!JC6##X #<>$,$>,3z2$,kf$  #$$ <#.f$ #f>[",
"[[[[[[[[[[[[[[[[[[[[[pMMie*%o%   o@47pnMMVCD~!^^^DsX##X .$$>,$,,lf,#$  X$X$3.X<.#2#.,,X",
"[[[[[[[[[[[[[[[[[[[[[eii6;*ooo  o&*riamMMVSGHJJ~!^V*#$#X .$#>$>>fj<,X ##$< ><.$< ><XX3X",
"[[[[[[[[[[[[[[[[[eaMMp6**ooo    @@-7samMVCSSFGGHJJZr$>3$. ##$$$$>j<<>X#..g# ,$ <>.<$X,$",
"[[[[[[[[[[[[[[[[eaMMi*%oooo    o@@-6pnmNCASDSSFGHHFn,,$X...#$$$$#f3,,>X. $f..2#.2#X#X,[",
"[[[[[[[[[[[[[[[pMVai**%oo       .@4ipnNCAASDAZASDFHV=#...  ##$#$#$g>>>$X#.$g.X2.#$.X$,[",
"[[[[[[[[[[[[[[6MCme**ooo    XXX .&6iaMCCAASSSAZASSGSi&.  X.X#$###$<,>>>$XX << #,..#,>.[",
"[[[[[[[[[[[[[[6ape4%ooo   XXXXX @*6iaNVCAAASZCAASADFVi& X##.$#$###$<,$$$##X.f# .X$,#.[[",
"[[[[[[[[[[[[[64ei*oooo   ####XX.%-5imNCZCVZCVVCZZAADmme@X#X.#$##$##X3$$$##X...X#,>X[[[[",
"[[[[[[[[[[[[6ae**o%o    $>>$#XX.&*7iaNCVCCVVVCZVAASDMMm4@..X.$$#### ,<$$#X.#X#$$#[[[[[[",
"[[[[[[[[[[[iae**%%o    ><,,,$#X.&57pamVCNmmmZZASSAZAMaNp*o.Xo.>$###..>>##X.####[[[[[[[[",
"[[[[[[[[[[iMp4*%%o    <<2<2,$$Xo&4eiamMmpanNZSFGDSZZZMmmi&oXoX#$#X## .$$#.##X[[[[[[[[[[",
"[[[[[[[[[[eaeooo    22<2233<>##o%=7panaiepmZSGGGHDZVZmNVi6&oooX$$#XX# .$XX#.[[[[[[[[[[[",
"[[[[[[[[[[66*o o ok232ff32<<>$.oo=6ippe46pMCAFGJGGACAMMNai4%oo.X$#X##. X##X[[[[[[[[[[[[",
"[[[[[[[[[[[%oo o.$2<f233322<$$oo=*67r764epMMCZSGGSAVCNMVNai4*@oooo#XX#X[[[[[[[[[[[[[[[[",
"[[[[[[[[[[[>># gxf<2<fg3<2<<<,o*44447e6ipaMVMVVAFAZZZVMMMVmpe4*&@@*[[[[[[[[[[[[[[[[[[[[",
"[[[[[[[[[[$$X fc3223f22233<,,<o=6466eppnMMVZCZNVCSZVVZMamCCMnpe97=**[[[[[[[[[[[[[[[[[[[",
"[[[[[[[[[>$# fz2f2<2fj2<2<<22o.+&=-=%47pnmCCCAACVVVVVVCaCCCCMMnni66;[[[[[[[[[[[[[[[[[[[",
"[[[[[[[[$># <Pg<2<g322232<<32%&o+%&&4666ppnnmVCACCVVVVVmAAMNNNNMpii7[[[[[[[[[[[[[[[[[[[",
"[[[[[[[,>$ <cg<j322<f3223<gk#.=*6e7iipnnNCVVNMCVCAVNCZCMZZNMNNCNnie4[[[[[[[[[[[[[[[[[[[",
"[[[[[[<># >zk3332hf22<2223x< &*67ipaaamNNNAAZACMVCACCVNMCCmmMMVnnnp[[[[[[[[[[[[[[[[[[[[",
"[[[[[<,# >x323hh2h<33<<32zh  o&-4666pnMMVMCVCSACMVCVVVMMNNnMMNNnpe4[[[[[[[[[[[[[[[[[[[[",
"[[[[>>$ $zh333j23g<332<<fzX #oX=-667eennnMCCCCAAACNVVVVMmmNnMnme*[[[[[[[[[[[[[[[[[[[[[[",
"[[[>$$ #bf>,,,32f3232<jhz$  o&67iapaaaipppnACaCADFSNVMMMmmmmmaa7%[[[[[[[[[[[[[[[[[[[[[[",
"[[[>$ #g3>h__2h33<2ff<3z3  o46ipNVVNMNmapnnmMMMnCSDSMmmnmmmmmai74[[[[[[[[[[[[[[[[[[[[[[",
"[>$$.Xjk$2Y)E223f3<<,jzz  @47ipCAZMMMMnmmMNNMMMNMnZMMmmnannnppie[[[[[[[[[[[[[[[[[[[[[[[",
">$> #hk22,YTU322<233<xU# &*eiaVSSMaapmNNNmnnppnnVVVVmNNnaanaipie[[[[[[[[[[[[[[[[[[[[[[[",
">$$.333g2#klf#333<23zP#  *epanVCSZnMMVVNaappipnaNZZSZmMnpiaai64.[[[[[[[[[[[[[[[[[[[[[[[",
">$$.,<2j22##<<<2223lI$ o@6paammMVVZZSVVmmNMZNMZZZSZSFNNmieeiee%[[[[[[[[[[[[[[[[[[[[[[[[",
"$$$.#<<fjf22<23<,2xP#.2o@67i4pnnVFGGGZVAVVNMMMVVVNZFGZnNaieee=4[[[[[[[[[[[[[[[[[[[[[[[[",
"[>$$.><2f22f2,f3<zbX.g3o*=46emnNAHGJZVnpnmaeipieiamDHSMNanppe=[[[[[[[[[[[[[[[[[[[[[[[[[",
"[>$$XX<,g3<3222<vc.#j2#@&&eanMVZSZZmnnanNZCAMmai7e7NGDNmmMnp6&[[[[[[[[[[[[[[[[[[[[[[[[[",
"[>$$$.#23gf<<f3jxX$jf>.@&rMVMNVNmmmmVCAAAZAAAZZZNa6nZDNVMVn6-&[[[[[[[[[[[[[[[[[[[[[[[[[",
"[[>$$# 22fj2<<kx.<l2#<#&nNmmVNninCSFDDGCMNMmMmnMVNVmNCCMVVe4&@[[[[[[[[[[[[[[[[[[[[[[[[[",
"[[[$$>XXf33<jLf.2lf<.#&pNMnMmapNFFFDZNMr7e96eeiipnnnnaNCVC4*&[[[[[[[[[[[[[[[[[[[[[[[[[[",
"[[[>$$$ >fflb$.jv<$x>.*nMpaMmMZDCVMdpree7944*;;49eiMNanNMV4=&[[[[[[[[[[[[[[[[[[[[[[[[[[",
"[[[,$$$# fPj ,zxgjX$j$6niiaMZZCBapsiamNCNnppp;#o*7epVMpmnM4=[[[[[[[[[[[[[[[[[[[[[[[[[[[",
"[[[2,$$$.#$#kzk,>Lf#$$6wtnaVVmiepmZZSFGGGGFACCCnr647mZmmMe64[[[[[[[[[[[[[[[[[[[[[[[[[[[",
"[[[[<$$>#.,jf,>2#<c>XX8rpaaaanaCADFFHHJJ!JJGGFDAZa46iMVNm;4[[[[[[[[[[[[[[[[[[[[[[[[[[[[",
"[[[[$$$$>fg,>>>L<#f,##-eiienNZDGHGHH!!!JJ!JHHGGGDZNeenZVp&[[[[[[[[[[[[[[[[[[[[[[[[[[[[[",
"[[[[[>$>f<$$$.$kj$$3#$66766MZFHJJJJJJ!!JJJJJJGGGGFAMaimNs4[[[[[[[[[[[[[[[[[[[[[[[[[[[[[",
"[[[[[>>$$#$$,.#3j<#<$o6666iVSH!JJHJJJJJJJJJJHHGGGFDANpanm7[[[[[[[[[[[[[[[[[[[[[[[[[[[[[",
"[[[[[[<$$$$>,$X<fg$##&=--7nVDJJJJHJJJ!JJJJHJGGHGGFFSVniap7[[[[[[[[[[[[[[[[[[[[[[[[[[[[[",
"[[[[[[[ ,>>,,,X$<k2#.*=&69NCDHJHHJJJJ!!JJ!JHGFHGGFFAZNi7e%[[[[[[[[[[[[[[[[[[[[[[[[[[[[[",
"[[[[[[[[.<,,>,#X><j>#&&$7pCDHHHHJJJJJJJJJJJHHFGHGFFFDSe;;;[[[[[[[[[[[[[[[[[[[[[[[[[[[[[",
"[[[[[[[[X.2,>>>X#><j$.$,inZZGJHHJJJ!JJJJJJJJHGGGGGFGFDM6;6[[[[[[[[[[[[[[[[[[[[[[[[[[[[[",
"[[[[[[[[[  3>>>>.$$ff#X4imCZFHHJJJ!!!!!JHJJJJGFHGFFFGGZq4*[[[[[[[[[[[[[[[[[[[[[[[[[[[[[",
"[[[[[[[[[[..>,>>$.$#j2#,iMCDGHJJ!J!!JJJJHJJJJHFGGFFFGHDmeo[[[[[[[[[[[[[[[[[[[[[[[[[[[[[",
"[[[[[[[[[[[#.#>>$#.$$z>XpVCGGJJJJJJJJJJJJJJJJHGGGGFFFJDVi4[[[[[[[[[[[[[[[[[[[[[[[[[[[[[",
"[[[[[[[[[[[[  #>$$ X#$h<nCSDHKJJHKJJ!!!JHJJHJJGGGGGFAFFCp=[[[[[[[[[[[[[[[[[[[[[[[[[[[[[",
"[[[[[[[[[[[[[..X$$#.X#$,pNZFJJJJH!JJ!!JJHJHHHGGGGHHFDDDZmq[[[[[[[[[[[[[[[[[[[[[[[[[[[[[",
"[[[[[[[[[[[[[XX.#$$#X...aMAGJJJHJ!JJ!JJJHJHGGGGFFGGFSFDCdpr[[[[[[[[[[[[[[[[[[[[[[[[[[[[",
"[[[[[[[[[[[[[[X# #$$$#X.NAFHJJHH!JJJJJHJJJJHHGGGGHGDGSDAadr[[[[[[[[[[[[[[[[[[[[[[[[[[[[",
"[[[[[[[[[[[[[[[X#.X##X#[pDHJHHJJ!JJJJHJHHJJHHGGGGHGFDDAVmirh[[[[[[[[[[[[[[[[[[[[[[[[[[[",
"[[[[[[[[[[[[[[[[X$X.XX[[mADGHJJJJJJJ!JJJJJJJHHGHGFGFDDSAairr[[[[[[[[[[[[[[[[[[[[[[[[[[[",
"[[[[[[[[[[[[[[[[[[##[[[[[CAGHHJHJJ!!!!JJJJJJJHGFGFFGFDDZMai08[[[[[[[[[[[[[[[[[[[[[[[[[[",
"[[[[[[[[[[[[[[[[[[[[[[[[[CSHJHHJ!J!!!JJJHJJJHHGFFDDGFDAZVmii6[[[[[[[[[[[[[[[[[[[[[[[[[[",
"[[[[[[[[[[[[[[[[[[[[[[[[[ZFGJHH!JHJJ~JJJJJHJHHFFGFFDFSSSMNae9&[[[[[[[[[[[[[[[[[[[[[[[[[",
"[[[[[[[[[[[[[[[[[[[[[[[[[SGGGHJJJJJJ!J!JJJHJHGFFGGFFDDDZCNnee5[[[[[[[[[[[[[[[[[[[[[[[[[",
"[[[[[[[[[[[[[[[[[[[[[[[[[ADHHJJHJJJJJJJJHHHJHGGFGGDFDDDZZNnri7[[[[[[[[[[[[[[[[[[[[[[[[[",
"[[[[[[[[[[[[[[[[[[[[[[[[[SFGHJ!JJJJJJHHHGHHHHHGFFGDDFADZAVNnie5[[[[[[[[[[[[[[[[[[[[[[[[",
"[[[[[[[[[[[[[[[[[[[[[[[[[ASGH!!JJJHHHHGHGGHHJHGGFGFFDDSZZVMmie9[[[[[[[[[[[[[[[[[[[[[[[[",
"[[[[[[[[[[[[[[[[[[[[[[[[[ZSGGJ!!J!HHHHHGGGGHHGGDGFGFDFSZZVMmp76,[[[[[[[[[[[[[[[[[[[[[[[",
"[[[[[[[[[[[[[[[[[[[[[[[[[CSSG!!!JJJHHHHHGGHGGGFFFGHFDFSSZCVNmi9=[[[[[[[[[[[[[[[[[[[[[[[",
"[[[[[[[[[[[[[[[[[[[[[[[[[MSFGJJJJJJHHHHGGGGGGFFFFGFFDDSSCCVMMpe4o[[[[[[[[[[[[[[[[[[[[[[",
"[[[[[[[[[[[[[[[[[[[[[[[[[[SSFHJJJJJHHGGHGGHGFDDFFFDDSSZZCCVMMae9*[[[[[[[[[[[[[[[[[[[[[[",
"[[[[[[[[[[[[[[[[[[[[[[[[[[AFGGJ!JHJHGGGGGGHGFFFFFDDDAZCNNMNMMnp7;[[[[[[[[[[[[[[[[[[[[[[",
"[[[[[[[[[[[[[[[[[[[[[[[[[[DGGJ!JHJJHGGFGGGGGFFFFGFDDSZVNMMMMMne94o[[[[[[[[[[[[[[[[[[[[[",
"[[[[[[[[[[[[[[[[[[[[[[[[[[SFGJ!JJHHGGGGGGGGGFFFFFFDDSZVVMMMMMa790&[[[[[[[[[[[[[[[[[[[[[",
"[[[[[[[[[[[[[[[[[[[[[[[[[[SFGJ!!JHHFGFGGGGHHGGFFFFDDDZZVMMMMMMre8o[[[[[[[[[[[[[[[[[[[[[",
"[[[[[[[[[[[[[[[[[[[[[[[[[[ASGH!JJHGFGGGGGGHGGFFFFFFDAZZVVVMMMnpq7;[[[[[[[[[[[[[[[[[[[[[",
"[[[[[[[[[[[[[[[[[[[[[[[[[[ZDFGJ!JHGFFFGGGGHGGFFFFFFSSZZZVMMMMMaie0=[[[[[[[[[[[[[[[[[[[[",
"[[[[[[[[[[[[[[[[[[[[[[[[[[SDFGJ!JHGFDGFGGGGGGFFFFFDADAZZVVMMMMnnir0[[[[[[[[[[[[[[[[[[[[",
"[[[[[[[[[[[[[[[[[[[[[[[[[[SDFG!!!HGFDFFFGGGGGFFFFDSSACZZCVMMMMNaner;[[[[[[[[[[[[[[[[[[[",
"[[[[[[[[[[[[[[[[[[[[[[[[[[CSFGJ!JHGGDDGFGGHGGGFFFDAAZAZCVVVMMMNmape9[[[[[[[[[[[[[[[[[[[",
"[[[[[[[[[[[[[[[[[[[[[[[[[[ASGH!!JHGGFDFFGGGGGFFFFFDAZCZCVVMMMNNMmprrq[[[[[[[[[[[[[[[[[[",
"[[[[[[[[[[[[[[[[[[[[[[[[[[ZDFGJ!JHGFFFGGGGHGGFFDDFDAZZZCCVNMMMVMmnprr=[[[[[[[[[[[[[[[[[",
"[[[[[[[[[[[[[[[[[[[[[[[[[[SDFGJ!JHGFDGFGGGGGGFFFFDDSAZZZCVNMMMVMmairr1[[[[[[[[[[[[[[[[[",
"[[[[[[[[[[[[[[[[[[[[[[[[[[ADFG!!!HGFDFFFGGGGGFFFFDFSSZZZVVVMMMNVmaperq<[[[[[[[[[[[[[[[[",
"[[[[[[[[[[[[[[[[[[[[[[[[[[CSFGJ!JHGGDDGFGGHGGGFFFDADAAZCCVVMNMMVNnpisq:[[[[[[[[[[[[[[[[",
"[[[[[[[[[[[[[[[[[[[[[[[[[[ZSDGH!JHGGFDFFGGGGGFFFFFSASSSZCCVVNNMNVMnip7y[[[[[[[[[[[[[[[[",
"[[[[[[[[[[[[[[[[[[[[[[[[[[mSDGH!!HGFDFFFGGGGGFFDDFDDASZZZVCVVVMNNNmapir&[[[[[[[[[[[[[[[",
"[[[[[[[[[[[[[[[[[[[[[[[[[[BDFGJ!!HHGDDFFGGGGGFDFDDDASSZZCVVVVVVMNNMnapu9[[[[[[[[[[[[[[[",
"[[[[[[[[[[[[[[[[[[[[[[[[[[CAGHJ!JJGGGAGFGGGGGFDFFSFSSSAZZVVVVVVNNNMmaair=[[[[[[[[[[[[[[",
"[[[[[[[[[[[[[[[[[[[[[[[[[[ASFGJJ!HGGGFFFFGGGFSFSFDSSSSAZZCVVVVVNMMMMaapr7[[[[[[[[[[[[[[",
"[[[[[[[[[[[[[[[[[[[[[[[[[[MSFGH!J!HGFSFFGGGGGFSFDSSSSSSZZCVVVNVVMMMMnpppr&[[[[[[[[[[[[[",
"[[[[[[[[[[[[[[[[[[[[[[[[[[pSSFH!JHHGGAFFGGHGGSFDFSSSSSSZZZCVVNVVNMMMmape9,[[[[[[[[[[[[[",
"[[[[[[[[[[[[[[[[[[[[[[[[[[[ASGG!!JGGSFFFFGHHGFDFSFASSSSSZZCVVNVVCMNNMMpi7;[[[[[[[[[[[[[",
"[[[[[[[[[[[[[[[[[[[[[[[[[[[AFFHJ!JHGFDFFGGHHGGFDFSSSSSSSAZZVVVNVVMNNCNnpr9<[[[[[[[[[[[[",
"[[[[[[[[[[[[[[[[[[[[[[[[[[[SDGJ!!JHGGDFFGGGHGGFFFDDSSSSSAZZZVVNMVVMNNVmapir@[[[[[[[[[[[",
"[[[[[[[[[[[[[[[[[[[[[[[[[[[SFHH!JJHGGFDGFGGHGGGSFDDSSSSAASACCVVNVVMNCMNnppq6[[[[[[[[[[[",
"[[[[[[[[[[[[[[[[[[[[[[[[[[[ADGJJJJHGFDFFFGGHGGDDDFDSSSASSSZZCVVVNVMNNCMaapi9=[[[[[[[[[[",
"[[[[[[[[[[[[[[[[[[[[[[[[[[[VDHHJJ!JGGFDFFGGHGFDDFDDSSSSSSSZZZVVVVVCMMVNmapir4[[[[[[[[[["
};
