/* XPM */
static char *Drop[] = {
/* columns rows colors chars-per-pixel */
"137 141 107 2 ",
"   c #030303",
".  c #080708",
"X  c #0B0B0B",
"o  c #170F07",
"O  c #110F0F",
"+  c #0B1707",
"@  c #171F07",
"#  c #1F170B",
"$  c #100C10",
"%  c #131313",
"&  c #181517",
"*  c #1A1619",
"=  c #1B1B1B",
"-  c #2F1B0B",
";  c #211E1E",
":  c #2B230F",
">  c #372313",
",  c #332B13",
"<  c #3F2F17",
"1  c #3F2B1B",
"2  c #2F371F",
"3  c #221F21",
"4  c #252424",
"5  c #292526",
"6  c #2B2729",
"7  c #2E2D2E",
"8  c #312D2E",
"9  c #373F27",
"0  c #322E30",
"q  c #373536",
"w  c #393536",
"e  c #3B3739",
"r  c #3C3A3B",
"t  c #432F1B",
"y  c #43331B",
"u  c #4B371B",
"i  c #533F1F",
"p  c #473323",
"a  c #4F3B24",
"s  c #533F2F",
"d  c #403C3C",
"f  c #3F472B",
"g  c #5F4323",
"h  c #5B472B",
"j  c #474F33",
"k  c #574333",
"l  c #5F4B37",
"z  c #6B4727",
"x  c #774F2B",
"c  c #7F532F",
"v  c #675333",
"b  c #775F3F",
"n  c #443F40",
"m  c #444444",
"M  c #4A4546",
"N  c #4C4748",
"B  c #4D4D4D",
"V  c #534C4E",
"C  c #544E50",
"Z  c #575656",
"A  c #5A5254",
"S  c #5E565A",
"D  c #5B5B5B",
"F  c #60585C",
"G  c #655D61",
"H  c gray39",
"J  c #6A6266",
"K  c #6E666A",
"L  c #6D6D6D",
"P  c #726A6E",
"I  c #746C70",
"U  c #777777",
"Y  c gray50",
"T  c #875733",
"R  c #8F5F37",
"E  c #9B633B",
"W  c #A36B3F",
"Q  c #836B4B",
"!  c #AB6F43",
"~  c #B37347",
"^  c #BF7B4B",
"/  c #CB7F4F",
"(  c #CF8353",
")  c #D78B5B",
"_  c #DF9363",
"`  c #E79B6B",
"'  c #EFA373",
"]  c #F7AB7B",
"[  c #FFB37B",
"{  c #838383",
"}  c #8B8B8B",
"|  c #959595",
" . c #9F9F9F",
".. c #A7A7A7",
"X. c gray67",
"o. c #B4B4B4",
"O. c gray75",
"+. c #FFB383",
"@. c #FFBB93",
"#. c #FFBF9B",
"$. c gray78",
"%. c #CBCBCB",
"&. c LightGray",
"*. c #DCDCDC",
"=. c #E7E7E7",
"-. c #EFEFEF",
";. c None",
/* pixels */
";.;.;.;.;.;.;.;.;.;.;.;.;.;.;.;.;.;.;.;.;.;.;.;.;.;.;.;.;.;.;.;.;.;.;.;.;.;.;.;.;.;.;.;.;.;.;.;.;.;.;.;.;.;.;.;.;.;.;.;.;.;.;.;.;.;.;.;.;.;.;.;.;.;.;.;.;.;.;.;.q q 7 U ;.;.;.;.;.;.;.;.;.;.;.;.;.;.;.;.;.;.;.;.;.;.;.;.;.;.;.;.;.;.;.;.;.;.;.;.;.;.;.;.;.;.;.;.;.;.;.;.;.;.;.;.;.",
";.;.;.;.;.;.;.;.;.;.;.;.;.;.;.;.;.;.;.;.;.;.;.;.;.;.;.;.;.;.;.;.;.;.;.;.;.;.;.;.;.;.;.;.;.;.;.;.;.;.;.;.;.;.;.;.;.;.;.;.;.;.;.;.;.;.;.;.;.;.;.;.;.;.;.;.;.;.;.q q r r L ..;.;.;.;.;.;.;.;.;.;.;.;.;.;.;.;.;.;.;.;.;.;.;.;.;.;.;.;.;.;.;.;.;.;.;.;.;.;.;.;.;.;.;.;.;.;.;.;.;.;.;.;.",
";.;.;.;.;.;.;.;.;.;.;.;.;.;.;.;.;.;.;.;.;.;.;.;.;.;.;.;.;.;.;.;.;.;.;.;.;.;.;.;.;.;.;.;.;.;.;.;.;.;.;.;.;.;.;.;.;.;.;.;.;.;.;.;.;.;.;.;.;.;.;.;.;.;.;.;.;.;.q q q q q r U | ;.;.;.;.;.;.;.;.;.;.;.;.;.;.;.;.;.;.;.;.;.;.;.;.;.;.;.;.;.;.;.;.;.;.;.;.;.;.;.;.;.;.;.;.;.;.;.;.;.;.;.",
";.;.;.;.;.;.;.;.;.;.;.;.;.;.;.;.;.;.;.;.;.;.;.;.;.;.;.;.;.;.;.;.;.;.;.;.;.;.;.;.;.;.;.;.;.;.;.;.;.;.;.;.;.;.;.;.;.;.;.;.;.;.;.;.;.;.;.;.;.;.;.;.;.;.;.;.;.q q e 7 r q 7 m D | ;.;.;.;.;.;.;.;.;.;.;.;.;.;.;.;.;.;.;.;.;.;.;.;.;.;.;.;.;.;.;.;.;.;.;.;.;.;.;.;.;.;.;.;.;.;.;.;.;.;.",
";.;.;.;.;.;.;.;.;.;.;.;.;.;.;.;.;.;.;.;.;.;.;.;.;.;.;.;.;.;.;.;.;.;.;.;.;.;.;.;.;.;.;.;.;.;.;.;.;.;.;.;.;.;.;.;.;.;.;.;.;.;.;.;.;.;.;.;.;.;.;.;.;.;.;.;.0 r q q q q q q q m D | ;.;.;.;.;.;.;.;.;.;.;.;.;.;.;.;.;.;.;.;.;.;.;.;.;.;.;.;.;.;.;.;.;.;.;.;.;.;.;.;.;.;.;.;.;.;.;.;.;.",
";.;.;.;.;.;.;.;.;.;.;.;.;.;.;.;.;.;.;.;.;.;.;.;.;.;.;.;.;.;.;.;.;.;.;.;.;.;.;.;.;.;.;.;.;.;.;.;.;.;.;.;.;.;.;.;.;.;.;.;.;.;.;.;.;.;.;.;.;.;.;.;.;.;.;.r 7 7 r 7 q q q r q q m D  .;.;.;.;.;.;.;.;.;.;.;.;.;.;.;.;.;.;.;.;.;.;.;.;.;.;.;.;.;.;.;.;.;.;.;.;.;.;.;.;.;.;.;.;.;.;.;.;.",
";.;.;.;.;.;.;.;.;.;.;.;.;.;.;.;.;.;.;.;.;.;.;.;.;.;.;.;.;.;.;.;.;.;.;.;.;.;.;.;.;.;.;.;.;.;.;.;.;.;.;.;.;.;.;.;.;.;.;.;.;.;.;.;.;.;.;.;.;.;.;.;.;.;.L D 7 7 q q q q q r r r q m D | ;.;.;.;.;.;.;.;.;.;.;.;.;.;.;.;.;.;.;.;.;.;.;.;.;.;.;.;.;.;.;.;.;.;.;.;.;.;.;.;.;.;.;.;.;.;.;.",
";.;.;.;.;.;.;.;.;.;.;.;.;.;.;.;.;.;.;.;.;.;.;.;.;.;.;.;.;.;.;.;.;.;.;.;.;.;.;.;.;.;.;.;.;.;.;.;.;.;.;.;.;.;.;.;.;.;.;.;.;.;.;.;.;.;.;.;.;.;.;.;.;.4 L { D f 7 q m q r q r q r r m D } ;.;.;.;.;.;.;.;.;.;.;.;.;.;.;.;.;.;.;.;.;.;.;.;.;.;.;.;.;.;.;.;.;.;.;.;.;.;.;.;.;.;.;.;.;.;.",
";.;.;.;.;.;.;.;.;.;.;.;.;.;.;.;.;.;.;.;.;.;.;.;.;.;.;.;.;.;.;.;.;.;.;.;.;.;.;.;.;.;.;.;.;.;.;.;.;.;.;.;.;.;.;.;.;.;.;.;.;.;.;.;.;.;.;.;.;.;.;.;.; X 4 H U Z q 7 q r q q q m r r r r B | ;.;.;.;.;.;.;.;.;.;.;.;.;.;.;.;.;.;.;.;.;.;.;.;.;.;.;.;.;.;.;.;.;.;.;.;.;.;.;.;.;.;.;.;.;.",
";.;.;.;.;.;.;.;.;.;.;.;.;.;.;.;.;.;.;.;.;.;.;.;.;.;.;.;.;.;.;.;.;.;.;.;.;.;.;.;.;.;.;.;.;.;.;.;.;.;.;.;.;.;.;.;.;.;.;.;.;.;.;.;.;.;.;.;.;.;.;.;.= % X 4 H U D q r q r r r q q r r r r B } | ;.;.;.;.;.;.;.;.;.;.;.;.;.;.;.;.;.;.;.;.;.;.;.;.;.;.;.;.;.;.;.;.;.;.;.;.;.;.;.;.;.;.;.",
";.;.;.;.;.;.;.;.;.;.;.;.;.;.;.;.;.;.;.;.;.;.;.;.;.;.;.;.;.;.;.;.;.;.;.;.;.;.;.;.;.;.;.;.;.;.;.;.;.;.;.;.;.;.;.;.;.;.;.;.;.;.;.;.;.;.;.;.;.;.;.;.= = % X 4 H U D q 7 q r r r r r r r r r Z { ..;.;.;.;.;.;.;.;.;.;.;.;.;.;.;.;.;.;.;.;.;.;.;.;.;.;.;.;.;.;.;.;.;.;.;.;.;.;.;.;.;.;.",
";.;.;.;.;.;.;.;.;.;.;.;.;.;.;.;.;.;.;.;.;.;.;.;.;.;.;.;.;.;.;.;.;.;.;.;.;.;.;.;.;.;.;.;.;.;.;.;.;.;.;.;.;.;.;.;.;.;.;.;.;.;.;.;.;.;.;.;.;.;.;.;.= = = % X 4 L U D r q r r r r r r r r m m B Y  .;.;.;.;.;.;.;.;.;.;.;.;.;.;.;.;.;.;.;.;.;.;.;.;.;.;.;.;.;.;.;.;.;.;.;.;.;.;.;.;.;.",
";.;.;.;.;.;.;.;.;.;.;.;.;.;.;.;.;.;.;.;.;.;.;.;.;.;.;.;.;.;.;.;.;.;.;.;.;.;.;.;.;.;.;.;.;.;.;.;.;.;.;.;.;.;.;.;.;.;.;.;.;.;.;.;.;.;.;.;.;.;.;.;.= % % = % X 7 L { D q q r r q r m r m m m m m Y X.;.;.;.;.;.;.;.;.;.;.;.;.;.;.;.;.;.;.;.;.;.;.;.;.;.;.;.;.;.;.;.;.;.;.;.;.;.;.;.;.",
";.;.;.;.;.;.;.;.;.;.;.;.;.;.;.;.;.;.;.;.;.;.;.;.;.;.;.;.;.;.;.;.;.;.;.;.;.;.;.;.;.;.;.;.;.;.;.;.;.;.;.;.;.;.;.;.;.;.;.;.;.;.;.;.;.;.;.;.;.;.;.;.;.4 % = % % % 6 L L D q q r r m r m m m m m m m L X.;.;.;.;.;.;.;.;.;.;.;.;.;.;.;.;.;.;.;.;.;.;.;.;.;.;.;.;.;.;.;.;.;.;.;.;.;.;.;.",
";.;.;.;.;.;.;.;.;.;.;.;.;.;.;.;.;.;.;.;.;.;.;.;.;.;.;.;.;.;.;.;.;.;.;.;.;.;.;.;.;.;.;.;.;.;.;.;.;.;.;.;.;.;.;.;.;.;.;.;.;.;.;.;.;.;.;.;.;.;.;.;.;.7 = % = % % X =  .| H q q r m m m m m m m m m C Y o.;.;.;.;.;.;.;.;.;.;.;.;.;.;.;.;.;.;.;.;.;.;.;.;.;.;.;.;.;.;.;.;.;.;.;.;.;.;.",
";.;.;.;.;.;.;.;.;.;.;.;.;.;.;.;.;.;.;.;.;.;.;.;.;.;.;.;.;.;.;.;.;.;.;.;.;.;.;.;.;.;.;.;.;.;.;.;.;.;.;.;.;.;.;.;.;.;.;.;.;.;.;.;.;.;.;.;.;.;.;.;.;.;.4 % % = % % m D | { L r q r m r m m m m B m m B L X.;.;.;.;.;.;.;.;.;.;.;.;.;.;.;.;.;.;.;.;.;.;.;.;.;.;.;.;.;.;.;.;.;.;.;.;.;.",
";.;.;.;.;.;.;.;.;.;.;.;.;.;.;.;.;.;.;.;.;.;.;.;.;.;.;.;.;.;.;.;.;.;.;.;.;.;.;.;.;.;.;.;.;.;.;.;.;.;.;.;.;.;.;.;.;.;.;.;.;.;.;.;.;.;.;.;.;.;.;.;.;.;.e = % % 4 m 4 % = L { H f r r m m m B m B B m m B U X.;.;.;.;.;.;.;.;.;.;.;.;.;.;.;.;.;.;.;.;.;.;.;.;.;.;.;.;.;.;.;.;.;.;.;.;.",
";.;.;.;.;.;.;.;.;.;.;.;.;.;.;.;.;.;.;.;.;.;.;.;.;.;.;.;.;.;.;.;.;.;.;.;.;.;.;.;.;.;.;.;.;.;.;.;.;.;.;.;.;.;.;.;.;.;.;.;.;.;.;.;.;.;.;.;.;.;.;.;.;.;.;.6 = 6 q = % % % 4 L { H r r m m B m B m B Z N B B L X.;.;.;.;.;.;.;.;.;.;.;.;.;.;.;.;.;.;.;.;.;.;.;.;.;.;.;.;.;.;.;.;.;.;.;.",
";.;.;.;.;.;.;.;.;.;.;.;.;.;.;.;.;.;.;.;.;.;.;.;.;.;.;.;.;.;.;.;.;.;.;.;.;.;.;.;.;.;.;.;.;.;.;.;.;.;.;.;.;.;.;.;.;.;.;.;.;.;.;.;.;.;.;.;.;.;.;.;.;.;.;.4 4 4 % % % = = % q H U H r m m m B B m m m B B B B L X.X.;.;.;.;.;.;.;.;.;.;.;.;.;.;.;.;.;.;.;.;.;.;.;.;.;.;.;.;.;.;.;.;.;.",
";.;.;.;.;.;.;.;.;.;.;.;.;.;.;.;.;.;.;.;.;.;.;.;.;.;.;.;.;.;.;.;.;.;.;.;.;.;.;.;.;.;.;.;.;.;.;.;.;.;.;.;.;.;.;.;.;.;.;.;.;.;.;.;.;.;.;.;.;.;.;.;.;.;.;.;.= 4 4 = = = % = % r D Y L r m m m m m B B B B B B Z L .. .;.;.;.;.;.;.;.;.;.;.;.;.;.;.;.;.;.;.;.;.;.;.;.;.;.;.;.;.;.;.;.;.",
";.;.;.;.;.;.;.;.;.;.;.;.;.;.;.;.;.;.;.;.;.;.;.;.;.;.;.;.;.;.;.;.;.;.;.;.;.;.;.;.;.;.;.;.;.;.;.;.;.;.;.;.;.;.;.;.;.;.;.;.;.;.;.;.;.;.;.;.;.;.;.;.;.;.;.;.;.X f 4 % = = = % = B L U L m m m m m B m B B B Z B Z H } O.;.;.;.;.;.;.;.;.;.;.;.;.;.;.;.;.;.;.;.;.;.;.;.;.;.;.;.;.;.;.;.",
";.;.;.;.;.;.;.;.;.;.;.;.;.;.;.;.;.;.;.;.;.;.;.;.;.;.;.;.;.;.;.;.;.;.;.;.;.;.;.;.;.;.;.;.;.;.;.;.;.;.;.;.;.;.;.;.;.;.;.;.;.;.;.;.;.;.;.;.;.;.;.;.;.;.;.;.;.;.X m 4 % = % = % 7 } L | L m m B B B B B B B B B B Z L | o.;.;.;.;.;.;.;.;.;.;.;.;.;.;.;.;.;.;.;.;.;.;.;.;.;.;.;.;.;.;.",
";.;.;.;.;.;.;.;.;.;.;.;.;.;.;.;.;.;.;.;.;.;.;.;.;.;.;.;.;.;.;.;.;.;.;.;.;.;.;.;.;.;.;.;.;.;.;.;.;.;.;.;.;.;.;.;.;.;.;.;.;.;.;.;.;.;.;.;.;.;.;.;.;.;.;.;.;.;.  % m 4 = = = 7 B X % | $.L B m B Z B B B D C Z Z B Z L | o.;.;.;.;.;.;.;.;.;.;.;.;.;.;.;.;.;.;.;.;.;.;.;.;.;.;.;.;.;.",
";.;.;.;.;.;.;.;.;.;.;.;.;.;.;.;.;.;.;.;.;.;.;.;.;.;.;.;.;.;.;.;.;.;.;.;.;.;.;.;.;.;.;.;.;.;.;.;.;.;.;.;.;.;.;.;.;.;.;.;.;.;.;.;.;.;.;.;.;.;.;.;.;.;.;.;.;.;.X % = m 4 = 4 Z X 4 U B L | L m m B Z Z D Z B C Z Z Z D L | $.;.;.;.;.;.;.;.;.;.;.;.;.;.;.;.;.;.;.;.;.;.;.;.;.;.;.;.;.",
";.;.;.;.;.;.;.;.;.;.;.;.;.;.;.;.;.;.;.;.;.;.;.;.;.;.;.;.;.;.;.;.;.;.;.;.;.;.;.;.;.;.;.;.;.;.;.;.;.;.;.;.;.;.;.;.;.;.;.;.;.;.;.;.;.;.;.;.;.;.;.;.;.;.;.;.;.;.;.;.. = q = m % = Y 4 4 = L { L B B B D Z B Z Z B D Z Z D L | O.;.;.;.;.;.;.;.;.;.;.;.;.;.;.;.;.;.;.;.;.;.;.;.;.;.;.;.",
";.;.;.;.;.;.;.;.;.;.;.;.;.;.;.;.;.;.;.;.;.;.;.;.;.;.;.;.;.;.;.;.;.;.;.;.;.;.;.;.;.;.;.;.;.;.;.;.;.;.;.;.;.;.;.;.;.;.;.;.;.;.;.;.;.;.;.;.;.;.;.;.;.;.;.;.;.;.;.;..   4 m H Z | 7 = & % 7 U U L B B B Z Z Z D Z Z D Z Z D L ..%.| ;.;.;.;.;.;.;.;.;.;.;.;.;.;.;.;.;.;.;.;.;.;.;.;.;.",
";.;.;.;.;.;.;.;.;.;.;.;.;.;.;.;.;.;.;.;.;.;.;.;.;.;.;.;.;.;.;.;.;.;.;.;.;.;.;.;.;.;.;.;.;.;.;.;.;.;.;.;.;.;.;.;.;.;.;.;.;.;.;.;.;.;.;.;.;.;.;.;.;.;.;.;.;.;.;.;.= .   = L L = % % % = + 7 L Y U B B D D Z Z D Z Z Z D D D L  .O. .;.;.;.;.;.;.;.;.;.;.;.;.;.;.;.;.;.;.;.;.;.;.;.;.",
";.;.;.;.;.;.;.;.;.;.;.;.;.;.;.;.;.;.;.;.;.;.;.;.;.;.;.;.;.;.;.;.;.;.;.;.;.;.;.;.;.;.;.;.;.;.;.;.;.;.;.;.;.;.;.;.;.;.;.;.;.;.;.;.;.;.;.;.;.;.;.;.;.;.;.;.;.;.;.;.  X     7 7 4 % % = = = 4 m H Y L Z B Z Z D Z D D Z D H D D H ..&.o.;.;.;.;.;.;.;.;.;.;.;.;.;.;.;.;.;.;.;.;.;.;.;.",
";.;.;.;.;.;.;.;.;.;.;.;.;.;.;.;.;.;.;.;.;.;.;.;.;.;.;.;.;.;.;.;.;.;.;.;.;.;.;.;.;.;.;.;.;.;.;.;.;.;.;.;.;.;.;.;.;.;.;.;.;.;.;.;.;.;.;.;.;.;.;.;.;.;.;.;.;.;.= %   . . .   3 q = = = = 4 4 = f D U H Z D Z Z D D D D D D H H D H  .%.X.;.;.;.;.;.;.;.;.;.;.;.;.;.;.;.;.;.;.;.;.;.;.",
";.;.;.;.;.;.;.;.;.;.;.;.;.;.;.;.;.;.;.;.;.;.;.;.;.;.;.;.;.;.;.;.;.;.;.;.;.;.;.;.;.;.;.;.;.;.;.;.;.;.;.;.;.;.;.;.;.;.;.;.;.;.;.;.;.;.;.;.;.;.;.;.;.;.;.;.;.= = = X .   .     4 e 4 = = = % = = m D L L D Z D Z D D D D D H L H H D o.-.O.;.;.;.;.;.;.;.;.;.;.;.;.;.;.;.;.;.;.;.;.;.",
";.;.;.;.;.;.;.;.;.;.;.;.;.;.;.;.;.;.;.;.;.;.;.;.;.;.;.;.;.;.;.;.;.;.;.;.;.;.;.;.;.;.;.;.;.;.;.;.;.;.;.;.;.;.;.;.;.;.;.;.;.;.;.;.;.;.;.;.;.;.;.;.;.;.;.4 = = = = 4 X X .       q q 4 = = = = % = B H U L D D D Z D D D D H H L H H L Y O.Y ;.;.;.;.;.;.;.;.;.;.;.;.;.;.;.;.;.;.;.;.",
";.;.;.;.;.;.;.;.;.;.;.;.;.;.;.;.;.;.;.;.;.;.;.;.;.;.;.;.;.;.;.;.;.;.;.;.;.;.;.;.;.;.;.;.;.;.;.;.;.;.;.;.;.;.;.;.;.;.;.;.;.;.;.;.;.;.;.;.;.;.;.;.;.;.& & % % % = = 3 X X . .     q q = = = = % % 4 B L U L D D D Z D H H H K H L U H L X. .U D ;.;.;.;.;.;.;.;.;.;.;.;.;.;.;.;.;.;.",
";.;.;.;.;.;.;.;.;.;.;.;.;.;.;.;.;.;.;.;.;.;.;.;.;.;.;.;.;.;.;.;.;.;.;.;.;.;.;.;.;.;.;.;.;.;.;.;.;.;.;.;.;.;.;.;.;.;.;.;.;.;.;.;.;.;.;.;.;.;.;.;.% X % % % % % % = = 4 X X         q 7 = = = = = = + B L L L H D D D D H H H L H L L D H X.$.H B ;.;.;.;.;.;.;.;.;.;.;.;.;.;.;.;.;.",
";.;.;.;.;.;.;.;.;.;.;.;.;.;.;.;.;.;.;.;.;.;.;.;.;.;.;.;.;.;.;.;.;.;.;.;.;.;.;.;.;.;.;.;.;.;.;.;.;.;.;.;.;.;.;.;.;.;.;.;.;.;.;.;.;.;.;.;.;.;.;.X X . % % % % % % = % = = %           m 7 = = = % = % + m L U U H D D D H H H L L L L L L H } *.} Z m ;.;.;.;.;.;.;.;.;.;.;.;.;.;.;.",
";.;.;.;.;.;.;.;.;.;.;.;.;.;.;.;.;.;.;.;.;.;.;.;.;.;.;.;.;.;.;.;.;.;.;.;.;.;.;.;.;.;.;.;.;.;.;.;.;.;.;.;.;.;.;.;.;.;.;.;.;.;.;.;.;.;.;.;.;.;.. . X X X R ^ ) ^ ! x g u = 4 O         . B 4 = = = = = % = r L U Y H D H D H H L H L L L H L U | o.} B m ;.;.;.;.;.;.;.;.;.;.;.;.;.;.",
";.;.;.;.;.;.;.;.;.;.;.;.;.;.;.;.;.;.;.;.;.;.;.;.;.;.;.;.;.;.;.;.;.;.;.;.;.;.;.;.;.;.;.;.;.;.;.;.;.;.;.;.;.;.;.;.;.;.;.;.;.;.;.;.;.;.;.;.;.;.% . . . X R _ _ ) E g - - u u ;.;.%       X q 6 = = = = = % = Z U L } L H H H H H L H L L L U H L  .&...D m B ;.;.;.;.;.;.;.;.;.;.;.;.",
";.;.;.;.;.;.;.;.;.;.;.;.;.;.;.;.;.;.;.;.;.;.;.;.;.;.;.;.;.;.;.;.;.;.;.;.;.;.;.;.;.;.;.;.;.;.;.;.;.;.;.;.;.;.;.;.;.;.;.;.;.;.;.;.;.;.;.;.;.;.% X . X E ^ _ _ ! z > > o - - u 7 4 %         m 4 = = = = % = = q Y U } L H H H H H L H L L L L L U } *.X.B B q ;.;.;.;.;.;.;.;.;.;.;.",
";.;.;.;.;.;.;.;.;.;.;.;.;.;.;.;.;.;.;.;.;.;.;.;.;.;.;.;.;.;.;.;.;.;.;.;.;.;.;.;.;.;.;.;.;.;.;.;.;.;.;.;.;.;.;.;.;.;.;.;.;.;.;.;.;.;.;.;.;.;.X X %   ! ) _ _ c y - o o o - - u % * =       X m 7 % % = = = % % m U L { L H L H L H L U L U L L U U U *.*.Z B e r r q ;.;.;.;.;.;.;.",
";.;.;.;.;.;.;.;.;.;.;.;.;.;.;.;.;.;.;.;.;.;.;.;.;.;.;.;.;.;.;.;.;.;.;.;.;.;.;.;.;.;.;.;.;.;.;.;.;.;.;.;.;.;.;.;.;.;.;.;.;.;.;.;.;.;.;.;.;.;.;.  +   x ~ ^ ! c > - o o o   : # # t u t > :   % e 4 = = = = = % % r L Y } L H L L L L L L L U U U L L | *.X.H B q 4 % X ;.;.;.;.;.;.",
";.;.;.;.;.;.;.;.;.;.;.;.;.;.;.;.;.;.;.;.;.;.;.;.;.;.;.;.;.;.;.;.;.;.;.;.;.;.;.;.;.;.;.;.;.;.;.;.;.;.;.;.;.;.;.;.;.;.;.;.;.;.;.;.;.;.;.;.;.;.;.;.X X z E R z u > - o o   > u z x c c x z u u u > q 4 = = % = = = % r } { } U L H L L L L U U U L U Y L Y =.-.U B 4 X     ;.;.;.;.;.",
";.;.;.;.;.;.;.;.;.;.;.;.;.;.;.;.;.;.;.;.;.;.;.;.;.;.;.;.;.;.;.;.;.;.;.;.;.;.;.;.;.;.;.;.;.;.;.;.;.;.;.;.;.;.;.;.;.;.;.;.;.;.;.;.;.;.;.;.;.;.;.;.;.6 . y u u > - o o o > u g g x T c x x E T c g 2 B 7 % = = = * = = 7 Y } Y L L L L L L L U L U U U U Y { &.$.q r 4 .   . ;.;.;.;.",
";.;.;.;.;.;.;.;.;.;.;.;.;.;.;.;.;.;.;.;.;.;.;.;.;.;.;.;.;.;.;.;.;.;.;.;.;.;.;.;.;.;.;.;.;.;.;.;.;.;.;.;.;.;.;.;.;.;.;.;.;.;.;.;.;.;.;.;.;.;.;.;.;.7 = X - o - - o o y u u u u u u x x R E E c x h < m 7 4 = 4 4 4 3 = 7 | } | L L L L U L U U U U U Y L L | o.} m m B 4     ;.;.;.",
";.;.;.;.;.;.;.;.;.;.;.;.;.;.;.;.;.;.;.;.;.;.;.;.;.;.;.;.;.;.;.;.;.;.;.;.;.;.;.;.;.;.;.;.;.;.;.;.;.;.;.;.;.;.;.;.;.;.;.;.;.;.;.;.;.;.;.;.;.;.;.;.;.;.4 = %   > o + y y < > : : , , t g x T R E c c x < Z f 4 4 4 4 4 4 4 f  .} { U L L U U L U U U L L H } X.} D L N 4 B       ;.;.",
";.;.;.;.;.;.;.;.;.;.;.;.;.;.;.;.;.;.;.;.;.;.;.;.;.;.;.;.;.;.;.;.;.;.;.;.;.;.;.;.;.;.;.;.;.;.;.;.;.;.;.;.;.;.;.;.;.;.;.;.;.;.;.;.;.;.;.;.;.;.;.;.;.;.;.4 = % % X o = :     = # : : > u z E ! ~ W R c x - B m = = 4 4 4 4 4 r | } | U U U U U U U L L H X...m r B m 4 f 4 6     ;.;.",
";.;.;.;.;.;.;.;.;.;.;.;.;.;.;.;.;.;.;.;.;.;.;.;.;.;.;.;.;.;.;.;.;.;.;.;.;.;.;.;.;.;.;.;.;.;.;.;.;.;.;.;.;.;.;.;.;.;.;.;.;.;.;.;.;.;.;.;.;.;.;.;.;.;.;.;.g t o -   # 1 o     = : # > u z E ~ ( / ! E T u . H U H B 7 4 4 q 4 B O.Y | Y U U U L L L Y %. .7 m %       % q 7 =   ;.;.",
";.;.;.;.;.;.;.;.;.;.;.;.;.;.;.;.;.;.;.;.;.;.;.;.;.;.;.;.;.;.;.;.;.;.;.;.;.;.;.;.;.;.;.;.;.;.;.;.;.;.;.;.;.;.;.;.;.;.;.;.;.;.;.;.;.;.;.;.;.;.;.;.;.;.x ! ~ z t > o % , o     o o + u x T W ~ ( ) ( ~ E g   = 4 q m L U Y L B q | o.B L U U L L L | O.Z 4 7       & . . = 7 6 X ;.;.",
";.;.;.;.;.;.;.;.;.;.;.;.;.;.;.;.;.;.;.;.;.;.;.;.;.;.;.;.;.;.;.;.;.;.;.;.;.;.;.;.;.;.;.;.;.;.;.;.;.;.;.;.;.;.;.;.;.;.;.;.;.;.;.;.;.;.;.;.;.;.;.;.;.E ) ^ E g > > o o % X   o o o a x T R ! ~ / ) _ _ ~ a . .   X 4 = 4 4 7 m H |  .} 7 B L U H | %.m 7 %     = % 4 7     4 6 = ;.;.",
";.;.;.;.;.;.;.;.;.;.;.;.;.;.;.;.;.;.;.;.;.;.;.;.;.;.;.;.;.;.;.;.;.;.;.;.;.;.;.;.;.;.;.;.;.;.;.;.;.;.;.;.;.;.;.;.;.;.;.;.;.;.;.;.;.;.;.;.;.;.;.;.E ) ^ E z t t > o     % %   # < z c R E ~ ~ ( ` ' ' _ c . X .   % 4 4 = = 4 = % % B m 0 r U U U r 4     . % 7 6 . q 4 . . r 6 6 ;.",
";.;.;.;.;.;.;.;.;.;.;.;.;.;.;.;.;.;.;.;.;.;.;.;.;.;.;.;.;.;.;.;.;.;.;.;.;.;.;.;.;.;.;.;.;.;.;.;.;.;.;.;.;.;.;.;.;.;.;.;.;.;.;.;.;.;.;.;.;.;.;.x ! ^ E x u > - o o o     % - < z x T E ! ~ / ` @.+.+.] ~ u % % .   % 7 3 = 4 = 3 4 f H r = 7 Z m =     % = =   7 % X m =   % m 4 ;.",
";.;.;.;.;.;.;.;.;.;.;.;.;.;.;.;.;.;.;.;.;.;.;.;.;.;.;.;.;.;.;.;.;.;.;.;.;.;.;.;.;.;.;.;.;.;.;.;.;.;.;.;.;.;.;.;.;.;.;.;.;.;.;.;.;.;.;.;.;.;.;.x E E z g > - o -       o # < i x T E E ! ~ ) @.+.#.#.#.) v X % % X     = = 4 4 = 4 6 D m 4 % =     X = X = r . . 7   % q %   4 6 X ",
";.;.;.;.;.;.;.;.;.;.;.;.;.;.;.;.;.;.;.;.;.;.;.;.;.;.;.;.;.;.;.;.;.;.;.;.;.;.;.;.;.;.;.;.;.;.;.;.;.;.;.;.;.;.;.;.;.;.;.;.;.;.;.;.;.;.;.;.;.;.;.g z z u 1 > o o o     o : > h z c R E E ! ( ` ' ] ] @.+.#.! > % = % X   . = & 4 = 4 4 m B 7 4 X   % % = 0   4 7 . = 7   4 7 + X f X ",
";.;.;.;.;.;.;.;.;.;.;.;.;.;.;.;.;.;.;.;.;.;.;.;.;.;.;.;.;.;.;.;.;.;.;.;.;.;.;.;.;.;.;.;.;.;.;.;.;.;.;.;.;.;.;.;.;.;.;.;.;.;.;.;.;.;.;.g c E E x u > > o o o         # # < i v c R E ! ~ ( ( _ ` ` ' ] ] ^ h = 4 f = .   % % = = = = 4 B 7 7 4 X %   . m %   4 =   7 4   7 = X 6 = ",
";.;.;.;.;.;.;.;.;.;.;.;.;.;.;.;.;.;.;.;.;.;.;.;.;.;.;.;.;.;.;.;.;.;.;.;.;.;.;.;.;.;.;.;.;.;.;.;.;.;.;.;.;.;.;.;.;.;.;.;.;.;.;.;.;.;.g c E E z > - o o o o         o # # < u x T R W ~ / ( ) ( ( _ ` ' ' _ T 4 6 = X . . . % = = = = % m q 4 4 4 X .   = m . . q % X q % X % X 4 ;.",
";.;.;.;.;.;.;.;.;.;.;.;.;.;.;.;.;.;.;.;.;.;.;.;.;.;.;.;.;.;.;.;.;.;.;.;.;.;.;.;.;.;.;.;.;.;.;.;.;.;.;.;.;.;.;.;.;.;.;.;.;.;.;.;.;.x E ! c z > > - o o                 # y z x T W ~ / / ( ) / ^ ( ( ) _ ' ! , % .         + % = % = % = m 4 4 4 = X %   = m   X q . % = . X = 4 ;.",
";.;.;.;.;.;.;.;.;.;.;.;.;.;.;.;.;.;.;.;.;.;.;.;.;.;.;.;.;.;.;.;.;.;.;.;.;.;.;.;.;.;.;.;.;.;.;.;.;.;.;.;.;.;.;.;.;.;.;.;.;.;.;.;.u E ~ R g > > o o o         X . X     : u z c E ~ ~ / / ( ( ( / ~ / ( ( ` ( z :       X . X % = % % % = 7 7 4 4 4 = X X   7 7   % 4 . . % 4 4 . ;.",
";.;.;.;.;.;.;.;.;.;.;.;.;.;.;.;.;.;.;.;.;.;.;.;.;.;.;.;.;.;.;.;.;.;.;.;.;.;.;.;.;.;.;.;.;.;.;.;.;.;.;.;.;.;.;.;.;.;.;.;.;.;.;.;.u c x g y - o o o       X X X X X   # > u z c W ! ~ / / / ( ^ ~ ( / ( ( ) _ ! z :   X % %   = % = % % % = 7 4 = = = % % X   m %   . X = 4 % . ;.;.",
";.;.;.;.;.;.;.;.;.;.;.;.;.;.;.;.;.;.;.;.;.;.;.;.;.;.;.;.;.;.;.;.;.;.;.;.;.;.;.;.;.;.;.;.;.;.;.;.;.;.;.;.;.;.;.;.;.;.;.;.;.;.;.u t g z > o o o O       % % % % . X . - < y z R W ! ( ~ W ( ~ ! W ~ ^ ~ ( ( ) R R g # X % X . % = % % = % % X r = = = % % X . . . X % 4 4 X ;.;.;.;.",
";.;.;.;.;.;.;.;.;.;.;.;.;.;.;.;.;.;.;.;.;.;.;.;.;.;.;.;.;.;.;.;.;.;.;.;.;.;.;.;.;.;.;.;.;.;.;.;.;.;.;.;.;.;.;.;.;.;.;.;.;.;.u c g > > o - o         = 4 4 = % X X . : > i z c W ~ ! ~ ~ W ! ! ~ / W / ( ( ( E E R y #   . X . = = % % % %   4 7 = = % X . % . % = = % ;.;.;.;.;.;.",
";.;.;.;.;.;.;.;.;.;.;.;.;.;.;.;.;.;.;.;.;.;.;.;.;.;.;.;.;.;.;.;.;.;.;.;.;.;.;.;.;.;.;.;.;.;.;.;.;.;.;.;.;.;.;.;.;.;.;.;.;.z c g > > - - o         4 7 4 4 4 = % X   : y i x c R W ~ W R R R ^ ^ ( ( ( ( ^ ( E c W x > o . X o . 4 = % % % .   4 4 + & +   % % % % ;.;.;.;.;.;.;.;.",
";.;.;.;.;.;.;.;.;.;.;.;.;.;.;.;.;.;.;.;.;.;.;.;.;.;.;.;.;.;.;.;.;.;.;.;.;.;.;.;.;.;.;.;.;.;.;.;.;.;.;.;.;.;.;.;.;.;.;.;.z E x t > - - o         7 7 q 7 r 4 = = X o : y g z c R E E x c T W ^ ( ) ` ) ( ^ ^ ^ E R R z : o X o X + = % . % %   . = = %   & % X ;.;.;.;.;.;.;.;.;.;.",
";.;.;.;.;.;.;.;.;.;.;.;.;.;.;.;.;.;.;.;.;.;.;.;.;.;.;.;.;.;.;.;.;.;.;.;.;.;.;.;.;.;.;.;.;.;.;.;.;.;.;.;.;.;.;.;.;.;.;.;.g c g o o o     . . q q 7 q q r f 0 4 % % o - , i x c T c z g x E ^ ( ` ` ` ' ) ^ W ( R ! ! z y : o o o X = = % X X %   . = X X % . ;.;.;.;.;.;.;.;.;.;.;.",
";.;.;.;.;.;.;.;.;.;.;.;.;.;.;.;.;.;.;.;.;.;.;.;.;.;.;.;.;.;.;.;.;.;.;.;.;.;.;.;.;.;.;.;.;.;.;.;.;.;.;.;.;.;.;.;.;.;.;.;.u u > o   o   o Z q f q m m r q 7 7 4 =   o o , u z x x g y u x E ~ ( ) ` ] ` ` ( W ( E E E c z t - o o . X = % X % % .   X % % X ;.;.;.;.;.;.;.;.;.;.;.;.",
";.;.;.;.;.;.;.;.;.;.;.;.;.;.;.;.;.;.;.;.;.;.;.;.;.;.;.;.;.;.;.;.;.;.;.;.;.;.;.;.;.;.;.;.;.;.;.;.;.;.;.;.;.;.;.;.;.;.;.;.;.- o o   o   = q q m q r r r r q 7 = = o o , > u i h i u y g x E E ~ ( ( ` ` ( ( W W W E ! ! c z t > # o o o o % X X % X ;.;.;.;.;.;.;.;.;.;.;.;.;.;.;.;.",
";.;.;.;.;.;.;.;.;.;.;.;.;.;.;.;.;.;.;.;.;.;.;.;.;.;.;.;.;.;.;.;.;.;.;.;.;.;.;.;.;.;.;.;.;.;.;.;.;.;.;.;.;.;.;.;.;.;.;.;.;.4 4 %   m K m 7 q 7 m m r 7 r 7 0 7 4 o > t t t t i g u z x c E W E W W ( ) / ^ / ( W E E E ! R x g t , : # # , ;.;.;.;.;.;.;.;.;.;.;.;.;.;.;.;.;.;.;.;.",
";.;.;.;.;.;.;.;.;.;.;.;.;.;.;.;.;.;.;.;.;.;.;.;.;.;.;.;.;.;.;.;.;.;.;.;.;.;.;.;.;.;.;.;.;.;.;.;.;.;.;.;.;.;.;.;.;.;.;.;.= = + + m L e q q r m q q r r r 7 4 4 q o , u y u u g x x T E E ! ^ ~ ^ W ! ~ ( ^ ! ! ^ E c R ~ ~ E T x g a i , > > ;.;.;.;.;.;.;.;.;.;.;.;.;.;.;.;.;.;.;.",
";.;.;.;.;.;.;.;.;.;.;.;.;.;.;.;.;.;.;.;.;.;.;.;.;.;.;.;.;.;.;.;.;.;.;.;.;.;.;.;.;.;.;.;.;.;.;.;.;.;.;.;.;.;.;.;.;.;.;.4 = %   m H q m q 7 q m B q 7 q 7 7 r r +   @ : , t , - t i x T R ~ ~ ~ / / ~ ! ! ! ! ! ! ~ c ~ ~ ~ ~ E E T T z u u 1 ;.;.;.;.;.;.;.;.;.;.;.;.;.;.;.;.;.;.;.",
";.;.;.;.;.;.;.;.;.;.;.;.;.;.;.;.;.;.;.;.;.;.;.;.;.;.;.;.;.;.;.;.;.;.;.;.;.;.;.;.;.;.;.;.;.;.;.;.;.;.;.;.;.;.;.;.;.;.= 4 %   7 } m 7 q 7 B r q q q r q 7 7 r q = : o @ - : : t u u u x x T T R ! ~ / ~ ~ ! ! ! ! ! R / / E W W W W E x z z i ;.;.;.;.;.;.;.;.;.;.;.;.;.;.;.;.;.;.;.",
";.;.;.;.;.;.;.;.;.;.;.;.;.;.;.;.;.;.;.;.;.;.;.;.;.;.;.;.;.;.;.;.;.;.;.;.;.;.;.;.;.;.;.;.;.;.;.;.;.;.;.;.;.;.;.;.;.6 4 =   7 L m 7 B r r q 7 m r q q m 7 m Z % + , > u g i z z x T T W ~ ! ! W E ~ ! ~ / ! W ~ ^ ~ E ^ ^ W E W W ~ W T z g t ;.;.;.;.;.;.;.;.;.;.;.;.;.;.;.;.;.;.;.",
";.;.;.;.;.;.;.;.;.;.;.;.;.;.;.;.;.;.;.;.;.;.;.;.;.;.;.;.;.;.;.;.;.;.;.;.;.;.;.;.;.;.;.;.;.;.;.;.;.;.;.;.;.;.;.;.0 4 %   4 H Z r r r q B m q q 7 r q q q L 7   : , u i z x c c c R W W W / / ^ / ~ E ! ~ / ~ ~ ! W E ~ ~ R R E E ! T T T x ;.;.;.;.;.;.;.;.;.;.;.;.;.;.;.;.;.;.;.;.",
";.;.;.;.;.;.;.;.;.;.;.;.;.;.;.;.;.;.;.;.;.;.;.;.;.;.;.;.;.;.;.;.;.;.;.;.;.;.;.;.;.;.;.;.;.;.;.;.;.;.;.;.;.;.;.7 6 %   3 L r q r B B q B 7 r r 7 7 r q H B     O : < t u u u x T E E ! E ~ ! ~ ( / ~ E ! ~ ! ! ! E E W W T E E W W T x g t ;.;.;.;.;.;.;.;.;.;.;.;.;.;.;.;.;.;.;.;.",
";.;.;.;.;.;.;.;.;.;.;.;.;.;.;.;.;.;.;.;.;.;.;.;.;.;.;.;.;.;.;.;.;.;.;.;.;.;.;.;.;.;.;.;.;.;.;.;.;.;.;.;.;.;.3 3 =   = H B q r r B r r m 7 r r q 7 7 n H X   % o X , < u u i g g T T T E ~ ~ ~ ~ / / / ~ W ! ! ! ! E R R W T E T R g > ;.;.;.;.;.;.;.;.;.;.;.;.;.;.;.;.;.;.;.;.;.;.",
";.;.;.;.;.;.;.;.;.;.;.;.;.;.;.;.;.;.;.;.;.;.;.;.;.;.;.;.;.;.;.;.;.;.;.;.;.;.;.;.;.;.;.;.;.;.;.;.;.;.;.;.;.4 = =   % Y n 4 7 4 4 f q m r r r r 7 B B H =     o : u i z c x c c c z x x x T / ~ c ~ / ) _ ( W ! E E E R R R R R c c i - ;.;.;.;.;.;.;.;.;.;.;.;.;.;.;.;.;.;.;.;.;.;.",
";.;.;.;.;.;.;.;.;.;.;.;.;.;.;.;.;.;.;.;.;.;.;.;.;.;.;.;.;.;.;.;.;.;.;.;.;.;.;.;.;.;.;.;.;.;.;.;.;.;.;.;.;.4 =   % B q 4 B *.*.q B r r 7 q m m 7 f H e     o t u z x W ! ! W E W R c x T T R E E E T ~ ( ) ( E R R T R R R R R c z i t ;.;.;.;.;.;.;.;.;.;.;.;.;.;.;.;.;.;.;.;.;.;.",
";.;.;.;.;.;.;.;.;.;.;.;.;.;.;.;.;.;.;.;.;.;.;.;.;.;.;.;.;.;.;.;.;.;.;.;.;.;.;.;.;.;.;.;.;.;.;.;.;.;.;.4 = =   X B Z = q  .&.o.q q r m r 7 7 4 B H H     # t i z x ~ ( ^ E E E E T R R E E ! E E E W E T ^ E E R R T c T T T x x z g ;.;.;.;.;.;.;.;.;.;.;.;.;.;.;.;.;.;.;.;.;.;.;.",
";.;.;.;.;.;.;.;.;.;.;.;.;.;.;.;.;.;.;.;.;.;.;.;.;.;.;.;.;.;.;.;.;.;.;.;.;.;.;.;.;.;.;.;.;.;.;.;.;.;.4 = 4   % B Z q q 4  ...| r q q q q f r 7 L | %   : > g z c ! ( ( E c c x R E ! ! R T T x x T T ! ! ! ! R W W T c c T c z x z g ;.;.;.;.;.;.;.;.;.;.;.;.;.;.;.;.;.;.;.;.;.;.;.",
";.;.;.;.;.;.;.;.;.;.;.;.;.;.;.;.;.;.;.;.;.;.;.;.;.;.;.;.;.;.;.;.;.;.;.;.;.;.;.;.;.;.;.;.;.;.;.;.;.;.4 = = . r e r B q % Z D m % r r r 7 q r H } &     > g x c T ! ~ ( ^ T E E ! ! E c c x x z x T c W ^ ^ ( ^ R E T x z c c z u y   ;.;.;.;.;.;.;.;.;.;.;.;.;.;.;.;.;.;.;.;.;.;.;.",
";.;.;.;.;.;.;.;.;.;.;.;.;.;.;.;.;.;.;.;.;.;.;.;.;.;.;.;.;.;.;.;.;.;.;.;.;.;.;.;.;.;.;.;.;.;.;.;.;.;.4 = =   4 7 q B q q % % 7 7 7 r q r r D | =   o # u x c c R R E ! ! ^ ^ ( ! ! R R W E ^ E E ^ ^ ^ ( ^ ( _ W W R z g g z g g - ;.;.;.;.;.;.;.;.;.;.;.;.;.;.;.;.;.;.;.;.;.;.;.;.",
";.;.;.;.;.;.;.;.;.;.;.;.;.;.;.;.;.;.;.;.;.;.;.;.;.;.;.;.;.;.;.;.;.;.;.;.;.;.;.;.;.;.;.;.;.;.;.;.;.;.= = = . & 7 7 m Z m q r 7 r r 7 4 q L } % . q o # u i z t x T T ! _ ` ` ` ^ ! ( ! ! ! E E E ! ! ! W ^ _ ` ^ T W c z g g g , t ;.;.;.;.;.;.;.;.;.;.;.;.;.;.;.;.;.;.;.;.;.;.;.;.",
";.;.;.;.;.;.;.;.;.;.;.;.;.;.;.;.;.;.;.;.;.;.;.;.;.;.;.;.;.;.;.;.;.;.;.;.;.;.;.;.;.;.;.;.;.;.;.;.;.;.;.4 = =   4 7 q m q q m q 4 m r 7 H Y X . m e o > , t u g R T E ( ' ` ] ^ ! T x T R c g z x z g z c R ) ' ( E W c T x x g , ;.;.;.;.;.;.;.;.;.;.;.;.;.;.;.;.;.;.;.;.;.;.;.;.;.",
";.;.;.;.;.;.;.;.;.;.;.;.;.;.;.;.;.;.;.;.;.;.;.;.;.;.;.;.;.;.;.;.;.;.;.;.;.;.;.;.;.;.;.;.;.;.;.;.;.;.;.4 = = X X 7 4 B r 7 r q r q 7 U L . % B q % # : : g c T E ! ^ ( ^ ^ R T T c T W ^ ~ / E R c z i g i W ` ) W R R E T x u : ;.;.;.;.;.;.;.;.;.;.;.;.;.;.;.;.;.;.;.;.;.;.;.;.;.",
";.;.;.;.;.;.;.;.;.;.;.;.;.;.;.;.;.;.;.;.;.;.;.;.;.;.;.;.;.;.;.;.;.;.;.;.;.;.;.;.;.;.;.;.;.;.;.;.;.;.;.4 = = = . % q r m m 7 0 m r B L X = B m 4   # : h E ! E ! ! E R R R R ! ~ ( ( / ^ ( ( / ^ ^ ^ W c u T ^ ) W ! E ! T u < : ;.;.;.;.;.;.;.;.;.;.;.;.;.;.;.;.;.;.;.;.;.;.;.;.;.",
";.;.;.;.;.;.;.;.;.;.;.;.;.;.;.;.;.;.;.;.;.;.;.;.;.;.;.;.;.;.;.;.;.;.;.;.;.;.;.;.;.;.$ 6   ;.;.;.;.;.;.;.4 = = %   q q m B q 7 7 D L X 7 D q % 7 % : T ! R R ! E T z T ~ ( _ ) ) ` ~ E E E T E R T E ! W ! R W ~ ~ E ! ! g t : # ;.;.;.;.;.;.;.;.;.;.;.;.;.;.;.;.;.;.;.;.;.;.;.;.;.",
";.;.;.;.;.;.;.;.;.;.;.;.;.;.;.;.;.;.;.;.;.;.;.;.;.;.;.;.;.;.;.;.;.;.;.;.;.;.;.;.;.3 w d = ;.;.;.;.;.;.;.;.= = 4 X . m r f 7 B { m X q D m 7 X % : x W E T E R c x ! _ _ _ ) ^ E E h i g i u g g z z x T T T T c W ~ ! ~ t > : ;.;.;.;.;.;.;.;.;.;.;.;.;.;.;.;.;.;.;.;.;.;.;.;.;.;.",
";.;.;.;.;.;.;.;.;.;.;.;.;.;.;.;.;.;.;.;.;.;.;.;.;.;.;.;.;.;.;.;.;.;.;.;.;.;.;.;.4 w m e = . ;.;.;.;.;.;.;.4 = = =   3 m m D { = X B U 7 = L 4 X > T E x c E R E ^ ) ~ ! E b x h g g i a < < , 1 1 t a g z E W c T W E ! t , : ;.;.;.;.;.;.;.;.;.;.;.;.;.;.;.;.;.;.;.;.;.;.;.;.;.;.",
";.;.;.;.;.;.;.;.;.;.;.;.;.;.;.;.;.;.;.;.;.;.;.;.;.;.;.;.;.;.;.;.;.;.;.;.;.;.;.$ d d e 5 X   ;.;.X ;.;.;.;.6 = = = %   m } B   4 H L B B X = B = u T z z c E ^ ^ ~ Q c x v z c R E ~ ! T x x x < % o > i g x ! E x R T E t , ;.;.;.;.;.;.;.;.;.;.;.;.;.;.;.;.;.;.;.;.;.;.;.;.;.;.;.",
";.;.;.;.;.;.;.;.;.;.;.;.;.;.;.;.;.;.;.;.;.;.;.;.;.;.;.;.;.;.;.;.;.;.;.;.;.;.7 e j d 4 X   ;.;.X 5 3   ;.;.q 4 = = =   % = % Z H Z 4 4 { m % = = u f j T c ! ! R z g x R ^ ^ ( _ ` ` ` ` _ ( ~ ~ ~ T h u t i R ^ R R E g u t ;.;.;.;.;.;.;.;.;.;.;.;.;.;.;.;.;.;.;.;.;.;.;.;.;.;.;.",
";.;.;.;.;.;.;.;.;.;.;.;.;.;.;.;.;.;.;.;.;.;.;.;.;.;.;.;.;.;.;.;.;.;.;.;.;.3 r n e 8 X   ;.. % 5 d 8 % ;.;.;.7 = = 4 %   4 B m 4 4 q % 7 L 4 + . p h x c c c x T c ~ ( ) _ _ ' ' ] ] +.] ] ` ` _ ) / ^ c t u z E ! W R 1 t ;.;.;.;.;.;.;.;.;.;.;.;.;.;.;.;.;.;.;.;.;.;.;.;.;.;.;.;.",
";.;.;.;.;.;.;.;.;.;.;.;.;.;.;.;.;.;.;.;.;.;.;.;.;.;.;.;.;.;.;.;.;.;.;.;.= j r r 8 d q . ;.; q 6 0 q = X ;.;.= = = = 4 m B 4 4 4 4 { 7 % m 4 % % < g z z h T ! ^ ) ` ' ` ' ' +.+.+.] ] +.] ' ' ` ` ` ) ^ W g g T ^ ! x : ;.;.;.;.;.;.;.;.;.;.;.;.;.;.;.;.;.;.;.;.;.;.;.;.;.;.;.;.;.",
";.;.;.;.;.;.;.;.;.;.;.;.;.;.;.;.;.;.;.;.;.;.;.;.;.;.;.;.;.;.;.;.;.;.. 6 d d w 0 e n d 3 3 d w & $ 0 3 . ;.;.;.4 = 4 m q = = = . = Z B = = f % = u u g y u E ^ _ ' ] ] ] ] ] ] +.+.] ] ] ] ] ] ` ` ` ` _ / E c z R W v t ;.;.;.;.;.;.;.;.;.;.;.;.;.;.;.;.;.;.;.;.;.;.;.;.;.;.;.;.;.",
";.;.;.;.;.;.;.;.;.;.;.;.;.;.;.;.;.;.;.;.;.;.;.;.;.;.;.;.;.;.;.;.;.. 3 M d 0 w d d d d e e w 8 6 ; * O   ;.;.;.4 4 = = % = = 4 . % r B 7 % 7 = X u u u u z ! ( ' +.] ] ' ] ] ] ] ] ] ] ] ] ] ' ' ` ` ` _ ) / W x c T R i ;.;.;.;.;.;.;.;.;.;.;.;.;.;.;.;.;.;.;.;.;.;.;.;.;.;.;.;.;.",
";.;.;.;.;.;.;.;.;.;.;.;.;.;.;.;.;.;.;.;.;.;.;.;.;.;.;.;.;.;.;.;.;.3 d d 0 ; 5 d d d d d w 8 6 8 w 3 X   ;.;.;.;.7 = = = = 4 4 = + 7 m m = % % : , < < g c ! ) ] ] ] ] ' ] ] ] +.] ] ] ] ' ] ` ` ' ` ` _ _ ( ! T z c x i ;.;.;.;.;.;.;.;.;.;.;.;.;.;.;.;.;.;.;.;.;.;.;.;.;.;.;.;.;.",
";.;.;.;.;.;.;.;.;.;.;.;.;.;.;.;.;.;.;.;.;.;.;.;.;.;.;.;.;.;.;.. 6 d d 6 ; & 6 e e d d w 6 6 8 d d 0 = ;.;.$ ;.;.;.  4 4 4 4 6 4 X = 7 Z q % . , , : u p ! ~ ) ' ] ' ' ] ] ] ] +.+.] ] +.] ' ` _ ' ` ` _ _ / ^ W z i g - ;.;.;.;.;.;.;.;.;.;.;.;.;.;.;.;.;.;.;.;.;.;.;.;.;.;.;.;.;.",
";.;.;.;.;.;.;.;.;.;.;.;.;.;.;.;.;.;.;.;.;.;.;.;.;.;.;.;.;.;.$ 6 d d 8 $ * $ 3 0 d d w 0 6 w e r n M M X X 0 $   ;.;.. 7 6 4 4 4 % X 4 7 B 4 % ; : = g x ! ) ' ' ' ' ] ] ] ] ] ] ] ] ] ] ] ' ' _ ` ' ` _ _ _ ) ( g 1 1 1 ;.;.;.;.;.;.;.;.;.;.;.;.;.;.;.;.;.;.;.;.;.;.;.;.;.;.;.;.;.",
";.;.;.;.;.;.;.;.;.;.;.;.;.;.;.;.;.;.;.;.;.;.;.;.;.;.;.;.;.3 6 d d 8 $ O & & $ w d 6 0 6 w e n n N A F C e d w * ;.;.X . q 4 4 4 4 X % 4 7 B = X = 4 z T ^ ^ ` ] ' ' ] ] ] +.] ] ] ] ] ] ] ] ' ` ` ` ` ` _ ` _ ) E y 1 u ;.;.;.;.;.;.;.;.;.;.;.;.;.;.;.;.;.;.;.;.;.;.;.;.;.;.;.;.;.",
";.;.;.;.;.;.;.;.;.;.;.;.;.;.;.;.;.;.;.;.;.;.;.;.;.;.;.;.  8 e d 3 & ; O & 6 0 e w 6 0 6 n e e N S F F J V 0 0 5 X   ;.    e 4 4 4 4 . = = m m % + 1 z R ~ ^ _ ' ' ] ] ] +.+.+.+.+.] ' ] ] ] ] ` _ ' ` _ _ _ ` ` ^ s t > ;.;.;.;.;.;.;.;.;.;.;.;.;.;.;.;.;.;.;.;.;.;.;.;.;.;.;.;.;.",
";.;.;.;.;.;.;.;.;.;.;.;.;.;.;.;.;.;.;.;.;.;.;.;.;.;.;.;.0 d d 8 $ O 8 ; * 0 e 0 0 0 0 e d n N F F G I G m $ % 4 = . ;.;..   4 4 4 4 = . = % B q % 4 z E ~ ) ` ' ] ] +.] +.+.] ] ] ] ' ] ] ] ] ' _ ` ` _ _ _ ` ' ) R z o ;.;.;.;.;.;.;.;.;.;.;.;.;.;.;.;.;.;.;.;.;.;.;.;.;.;.;.;.;.",
";.;.;.;.;.;.;.;.;.;.;.;.;.;.;.;.;.;.;.;.;.;.;.;.;.  = 6 d w 6 $ & * $ * w d 0 8 6 w e d d V A F F G F d 3 $ $ $ = X   ;.;.%   % 4 4 = % . = = H 4 X x ! ~ ` ` ] ] ] ] ] ] ] ] ] ] ] ] ] ] ] ] ' ` ` ` ` _ _ _ ] ) W x t ;.;.;.;.;.;.;.;.;.;.;.;.;.;.;.;.;.;.;.;.;.;.;.;.;.;.;.;.;.",
";.;.;.;.;.;.;.;.;.;.;.;.;.;.;.;.;.;.;.;.;.;.;.;.;.3 d M d 5 & $ * ; 3 0 w 8 6 6 0 e d d V A F F F C e 3 $ $ $ $ X .   ;.;.;.    + 4 = =   X % = B 7 T ~ ( ) ' [ ] ] ' [ ] ] +.+.+.] ' ] ] ' ] ] ` ` ` ` ` _ / _ ` W x , ;.;.;.;.;.;.;.;.;.;.;.;.;.;.;.;.;.;.;.;.;.;.;.;.;.;.;.;.;.",
";.;.;.;.;.;.;.;.;.;.;.;.;.;.;.;.;.;.;.;.;.;.;.;.= m n w 5 $ % $ O 3 w e 6 8 8 0 w d n N F F G K C w $ $ $ $ $ $ .   . ;.;.;.;.. . X = = %   . % = 4 x W ^ _ ] ] ] ] ' +.] ] +.+.] ] ' ] ' ' ' ` ` ` ` ' ' _ ) ) ) / R i ;.;.;.;.;.;.;.;.;.;.;.;.;.;.;.;.;.;.;.;.;.;.;.;.;.;.;.;.;.",
";.;.;.;.;.;.;.;.;.;.;.;.;.;.;.;.;.;.;.;.;.;.;.w r d w ; O $ 3 & 4 d d 8 8 3 w d w d V F F G F C w ; $ $ $ $ $ $     ;.;.;.;.;.X X . % = = % X . . . c E / ` ] ] ] ' ] +.] ] +.] ] ] ' ] ' ` ` ` ` _ _ ` ` _ ( _ ) W b T z ;.;.;.;.;.;.;.;.;.;.;.;.;.;.;.;.;.;.;.;.;.;.;.;.;.;.;.;.",
";.;.;.;.;.;.;.;.;.;.;.;.;.;.;.;.;.;.;.;.;.;.4 M d e & $ * $ ; 8 e e w 8 7 w r r d V F F F K V w & $ $ $ $ $ .     ;.;.;.;.;.;.;.. &   % = = = % X . W ( _ ' ] ] ' ' +.] ] ] ] ] ' ] ] ] ] ' ' ` ` ` ` ' ` ) ` ( ) / c F h ;.;.;.;.;.;.;.;.;.;.;.;.;.;.;.;.;.;.;.;.;.;.;.;.;.;.;.;.",
";.;.;.;.;.;.;.;.;.;.;.;.;.;.;.;.;.;.;.;.;.; d M w * $ $ 5 & 6 e r 6 0 6 w r n k V F F F F V 8 & $ $ $ $ $ .     ;.;.;.;.;.;.;.;.;.X % . X % % X % ;.x ( ' ] ' ' ] ] +.] ] ] ] ' ] ' ' ] ] ' ' ` ` ` ` ' ` _ ) ) / ! R z h B ;.;.;.;.;.;.;.;.;.;.;.;.;.;.;.;.;.;.;.;.;.;.;.;.;.;.;.",
";.;.;.;.;.;.;.;.;.;.;.;.;.;.;.;.;.;.;.;.7 d m d 3 $ $ $ ; 8 d e 0 6 0 0 r d d F F G K G V 8 * $ $ $ $ $ O     ;.;.;.;.;.;.;.;.;.;.;.. = X . X X ;.;.R ( ) ` ' ] ] ] ] ] ] ] +.] ] ] ] ] ] ] ' ' ` ' ` _ ` _ ) ) ( / c z h h ;.;.;.;.;.;.;.;.;.;.;.;.;.;.;.;.;.;.;.;.;.;.;.;.;.;.;.",
";.;.;.;.;.;.;.;.;.;.;.;.;.;.;.;.;.;.;.= M d d ; $ * $ O 8 e w 0 6 0 w d d n A F F P P A 8 & O $ $ $ $ .   . ;.;.;.;.;.;.;.;.;.;.;.;.;.;.% % ;.;.;.;.;.~ / ` ' ' ] ' ] ] +.+.+.+.] ] ] ] ] ] ] ' ` _ ` _ _ ` _ ) ) ^ E c z a p ;.;.;.;.;.;.;.;.;.;.;.;.;.;.;.;.;.;.;.;.;.;.;.;.;.;.",
";.;.;.;.;.;.;.;.;.;.;.;.;.;.;.;.;.  6 d d 0 3 . $ 3 $ 6 d d 6 0 5 w d d N A F F G J C 0 & $ $ $ $ $ $     ;.;.;.;.;.;.;.;.;.;.;.;.;.;.;.;.;.;.;.;.;.;.~ ( ' ] ' ' ] +.] +.+.+.] ] ] ' ] ] ] ' ' ` _ _ ) ) ` _ ) / ^ ! R z z u ;.;.;.;.;.;.;.;.;.;.;.;.;.;.;.;.;.;.;.;.;.;.;.;.;.;.",
";.;.;.;.;.;.;.;.;.;.;.;.;.;.;.;.;.8 n d w ; $ ; * * 8 e w w 8 6 w d d d F F F K J V 0 * $ $ $ $ O X .   ;.;.;.;.;.;.;.;.;.;.;.;.;.;.;.;.;.;.;.;.;.;.;.^ _ ` ] ' ' +.] ' ] ] @.] ] ] ] ] ' ] ' ' _ _ ` _ _ ) _ ( ( ( E W c g a : ;.;.;.;.;.;.;.;.;.;.;.;.;.;.;.;.;.;.;.;.;.;.;.;.;.",
";.;.;.;.;.;.;.;.;.;.;.;.;.;.;.;.* d M e $ $ $ ; ; 6 e e 8 6 8 0 d d M C F F F P N 0 $ $ $ $ $ $ X     ;.;.;.;.;.;.;.;.;.;.;.;.;.;.;.;.;.;.;.;.;.;.;.;.( ` ` ` ' ] ] ] ] ] ] +.] +.] ] ] ' ] ' ` _ _ ` ` _ _ ) ) ) ^ ~ W T g g y ;.;.;.;.;.;.;.;.;.;.;.;.;.;.;.;.;.;.;.;.;.;.;.;.;.",
";.;.;.;.;.;.;.;.;.;.;.;.;.;.;.8 w M d 8 $ $ O * 0 d d 8 8 6 w d d M C F F K K A 0 * $ $ $ $ $ X   ;.;.;.;.;.;.;.;.;.;.;.;.;.;.;.;.;.;.;.;.;.;.;.;.;.;./ ) ' ' ] ] ' ] ] ] ] ] ] ] ] ' ' ' ] ' ` ` _ ` ` ) _ ) ) ) ^ ^ W T h z i ;.;.;.;.;.;.;.;.;.;.;.;.;.;.;.;.;.;.;.;.;.;.;.;.;.",
";.;.;.;.;.;.;.;.;.;.;.;.;.;.5 d d d ; % ; $ $ 5 d w 8 8 6 w d d d A F F P K A w ; $ $ $ $ . .     ;.;.;.;.;.;.;.;.;.;.;.;.;.;.;.;.;.;.;.;.;.;.;.;.;.;.( _ ` ' ] +.] ] ] ] ] ] ' ' ' ` ' ' ' ' ' ` _ _ ` ) ) _ / ) ^ / ! W T z g y ;.;.;.;.;.;.;.;.;.;.;.;.;.;.;.;.;.;.;.;.;.;.;.;.",
";.;.;.;.;.;.;.;.;.;.;.;.;.= d d w ; . $ & * 6 e e 0 8 8 0 d d M F F F F K C 0 $ O $ $ $ $ O   ;.;.;.;.;.;.;.;.;.;.;.;.;.;.;.;.;.;.;.;.;.;.;.;.;.;.;.;.( ( ` ' +.+.] ] ] ' ' ' ' ` ' ` ` ' ' ] ' ` ` _ ` _ _ ) ) ( ^ ^ ! E R z g a ;.;.;.;.;.;.;.;.;.;.;.;.;.;.;.;.;.;.;.;.;.;.;.;.",
";.;.;.;.;.;.;.;.;.;.;.;.q d m w 5 $ * 3 & 6 d d 8 0 3 w d d M C F F J J C 0 * $ $ $ $ X X .   ;.;.;.;.;.;.;.;.;.;.;.;.;.;.;.;.;.;.;.;.;.;.;.;.;.;.;.;.^ ( ` ` ] +.+.] +.' ' ' ' ' ` ` ` ` ' ' ` ` ) ` _ ` _ ) _ ( ^ ^ ! E R x i u 6 ;.;.;.;.;.;.;.;.;.;.;.;.;.;.;.;.;.;.;.;.;.;.;.",
";.;.;.;.;.;.;.;.;.;.;.* d M d & $ $ * 3 6 w d 0 6 0 8 d d n C F F J K M 8 * $ $ $ $ $ . .   ;.;.;.;.;.;.;.;.;.;.;.;.;.;.;.;.;.;.;.;.;.;.;.;.;.;.;.;.;.~ ( ( ` +.+.+.] ] ] ' ' ' ' ' ` ` ' ` ` ` _ _ _ ` ' _ ) _ ( ( ^ ~ ! W R z a , ;.;.;.;.;.;.;.;.;.;.;.;.;.;.;.;.;.;.;.;.;.;.;.",
";.;.;.;.;.;.;.;.;.;.3 d M e 6 $ O $ $ 0 d w 0 8 8 w e d n C F G I K A w & $ $ $ $ O .   ;.;.;.;.;.;.;.;.;.;.;.;.;.;.;.;.;.;.;.;.;.;.;.;.;.;.;.;.;.;.;.E ( _ ` ] ] ] ] ] ] ' ' ' ' ` ` ` ` ` ` _ _ _ _ ` _ _ ) ( ( ( ~ ~ ! E E x g t o ;.;.;.;.;.;.;.;.;.;.;.;.;.;.;.;.;.;.;.;.;.;.",
";.;.;.;.;.;.;.;.;.w e d d 5 $ * * & 3 d e 6 0 5 w d d M A F F K J C w * $ $ $ $ $       ;.;.;.;.;.;.;.;.;.;.;.;.;.;.;.;.;.;.;.;.;.;.;.;.;.;.;.;.;.;.;.;.( ( _ ' ] ] ] ] ] ' ' ` ` ' ` ` ' ` _ ) ) _ _ _ ) ) ( ( ^ ^ ~ ~ ! E E c g a > ;.;.;.;.;.;.;.;.;.;.;.;.;.;.;.;.;.;.;.;.;.;.",
";.;.;.;.;.;.;.;.% M d r $ $ & $ * 6 w e w 6 8 0 d d n A F G G I C w & $ $ $ $ $ $ X   ;.;.;.;.;.;.;.;.;.;.;.;.;.;.;.;.;.;.;.;.;.;.;.;.;.;.;.;.;.;.;.;.;.( _ ` ` ] +.] ' ] ' ` ` ` ` ` ` ' ` _ _ _ _ _ ) ) ) ( ^ ~ W W E W E E T x i 1 ;.;.;.;.;.;.;.;.;.;.;.;.;.;.;.;.;.;.;.;.;.;.",
";.;.;.;.;.;.;.6 d M w 5 $ $ 5 $ 6 d d 6 w 5 w d d n C F F G J C 0 & $ $ $ $ $ .     ;.;.;.;.;.;.;.;.;.;.;.;.;.;.;.;.;.;.;.;.;.;.;.;.;.;.;.;.;.;.;.;.;.;.) ` ` ] +.] ' ] ] ' ` ` _ ` ` ` ` ` _ _ _ _ ` _ ) ) ( ^ ! W E E E E E T g a t o ;.;.;.;.;.;.;.;.;.;.;.;.;.;.;.;.;.;.;.;.;.",
";.;.;.;.;.  8 w d 0 = $ $ $ 3 8 w d 0 6 0 8 d d d S F F J J V 8 * $ $ $ $ $ X     ;.;.;.;.;.;.;.;.;.;.;.;.;.;.;.;.;.;.;.;.;.;.;.;.;.;.;.;.;.;.;.;.;.;.;.( _ ` ] +.] ] ' ' ` ` ` ` ` ` ` ` ` _ _ _ _ _ _ ) ) ( ^ ! ! E E E E E c i a a : ;.;.;.;.;.;.;.;.;.;.;.;.;.;.;.;.;.;.;.;.;.",
";.;.;.;.$ * d d d q X $ 6 & 0 e w 0 8 8 w d d n V F F P I A e & $ $ $ $ X . . ;.;.;.;.;.;.;.;.;.;.;.;.;.;.;.;.;.;.;.;.;.;.;.;.;.;.;.;.;.;.;.;.;.;.;.;.;.( _ ` ] +.+.] ' ' _ ` _ ` ` ` ` ' ' ` ` _ _ _ _ ) ) ) ^ ^ ! E E E E E E h g p o ;.;.;.;.;.;.;.;.;.;.;.;.;.;.;.;.;.;.;.;.;.",
";.;.  ; 7 d d d d 0 $ $ ; 3 d d 5 0 5 w d d n C F F J J C w * $ $ $ $ $ .   ;.;.;.;.;.;.;.;.;.;.;.;.;.;.;.;.;.;.;.;.;.;.;.;.;.;.;.;.;.;.;.;.;.;.;.;.;.;.( ( ` ' +.] ] ' ` _ ` ` ` ` ` ` ' ` ` _ _ _ _ _ _ ) ( ^ ^ ! ! ! E E E T x s i 1 ;.;.;.;.;.;.;.;.;.;.;.;.;.;.;.;.;.;.;.;.;.",
". O q r d d d d d n 8 $ 3 w w 0 6 8 0 d d d S F F J J A w * $ $ $ $ $ $ X   ;.;.;.;.;.;.;.;.;.;.;.;.;.;.;.;.;.;.;.;.;.;.;.;.;.;.;.;.;.;.;.;.;.;.;.;.;.;.^ ) _ ` ] +.] ' ` _ _ _ ` ` ` ` ' ` ` _ _ _ _ _ _ ( ( ^ ^ ^ ! E E E E E c z g a , ;.;.;.;.;.;.;.;.;.;.;.;.;.;.;.;.;.;.;.;.",
"* d m d M d e d M C d d e w 0 6 8 0 d d M C F F F P V 0 & $ $ $ $ $ . .   ;.;.;.;.;.;.;.;.;.;.;.;.;.;.;.;.;.;.;.;.;.;.;.;.;.;.;.;.;.;.;.;.;.;.;.;.;.;.;.( ) _ ` ] +.] ' ` _ ) ` _ ` ` ` ` ` ` _ _ _ _ _ ) ( ) ( ^ ^ ! ! E E E E T T z h a ;.;.;.;.;.;.;.;.;.;.;.;.;.;.;.;.;.;.;.;.",
"X 6 d d d d d M A N d d w 6 w 6 w d d n A F F K J V 8 = $ $ $ $ $ X     ;.;.;.;.;.;.;.;.;.;.;.;.;.;.;.;.;.;.;.;.;.;.;.;.;.;.;.;.;.;.;.;.;.;.;.;.;.;.;.;.( ) _ ` +.+.+.' ` _ ) _ _ _ ` ` ` ` ` _ _ _ _ ) ( ( ( ! ^ ^ ~ ! E E E E ! c T g h 1 ;.;.;.;.;.;.;.;.;.;.;.;.;.;.;.;.;.;.;.",
"  ; r d d d N C N n n 0 8 6 0 w d d n C F F G P V 8 & $ $ $ $ X X     ;.;.;.;.;.;.;.;.;.;.;.;.;.;.;.;.;.;.;.;.;.;.;.;.;.;.;.;.;.;.;.;.;.;.;.;.;.;.;.;.;.~ ( _ ` ] +.] ' ` ` ) ) ` _ ` ` ' ` ` ` _ _ _ ) / / ^ ( ^ ~ ! ! ! E E E E R c x g a ;.;.;.;.;.;.;.;.;.;.;.;.;.;.;.;.;.;.;.",
";.% w d d d N N d r w 0 6 0 0 d d d C F G G F V 6 * O $ $ $ .     ;.;.;.;.;.;.;.;.;.;.;.;.;.;.;.;.;.;.;.;.;.;.;.;.;.;.;.;.;.;.;.;.;.;.;.;.;.;.;.;.;.;.;.( ( ` ' +.+.] ' ` ` _ ) _ _ ` ` ` ` ` _ _ _ _ _ ( ( ^ ! ^ ~ ! ! E E E ! ! E R x h h s ;.;.;.;.;.;.;.;.;.;.;.;.;.;.;.;.;.;.",
";.. 5 d d d d d e 0 7 6 6 n n w n A F F K G M 3 $ $ O $ $ X       ;.;.;.;.;.;.;.;.;.;.;.;.;.;.;.;.;.;.;.;.;.;.;.;.;.;.;.;.;.;.;.;.;.;.;.;.;.;.;.;.;.;.;.^ ) _ ` ] +.] ' ` _ _ _ ` ` ` ` ' ` ` _ _ ) ) _ ) ( ^ ^ ^ ~ ~ ! ! E E E ! E R T x h h , ;.;.;.;.;.;.;.;.;.;.;.;.;.;.;.;.;.",
";.;.* r d d d d 0 6 6 0 q r w n A A F F F n 6 & $ $ $ $ .       ;.;.;.;.;.;.;.;.;.;.;.;.;.;.;.;.;.;.;.;.;.;.;.;.;.;.;.;.;.;.;.;.;.;.;.;.;.;.;.;.;.;.;.;.( ) _ ` ] +.] ' ` _ ) ` _ ` ` ` ` ` ` _ _ _ _ ) ) ( ( ^ ^ ^ ~ ! E E E E ! E R c z h h 9 ;.;.;.;.;.;.;.;.;.;.;.;.;.;.;.;.;.",
";.;.X q d d d 6 6 5 6 w e d k C F F F G n 5 $ $ $ $ $ .     ;.;.;.;.;.;.;.;.;.;.;.;.;.;.;.;.;.;.;.;.;.;.;.;.;.;.;.;.;.;.;.;.;.;.;.;.;.;.;.;.;.;.;.;.;.;./ ) _ ` +.+.[ ' ` _ ) _ _ _ ` ` ` ` ` _ _ _ _ ) _ ( ( ^ ^ ^ ! ! ! E E E ! ! R c x g h s 0 ;.;.;.;.;.;.;.;.;.;.;.;.;.;.;.;.",
";.;.;.# e d d w 7 6 d e w N V A F F A d 3 $ $ $ $ $ O     . ;.;.;.;.;.;.;.;.;.;.;.;.;.;.;.;.;.;.;.;.;.;.;.;.;.;.;.;.;.;.;.;.;.;.;.;.;.;.;.;.;.;.;.;.;.;.~ ( _ ` ] +.] ' ` ` ) ) ` _ ` ` ' ` ` ` _ _ _ ) ( ( / / ^ ~ ~ ! ! E E E E ! E T x z v k 2 ;.;.;.;.;.;.;.;.;.;.;.;.;.;.;.;.",
";.;.;.  8 d d d w w d d M C A F F S w 3 $ $ $ $ $ .       ;.;.;.;.;.;.;.;.;.;.;.;.;.;.;.;.;.;.;.;.;.;.;.;.;.;.;.;.;.;.;.;.;.;.;.;.;.;.;.;.;.;.;.;.;.;.;.^ ( ) ` ' +.] ' ` ` _ ) _ _ ` ` ` ` ` _ _ _ _ _ ( / ( ( ( ^ ~ ~ ! ! W W E W ! E T z x i k ;.;.;.;.;.;.;.;.;.;.;.;.;.;.;.;.",
";.;.;.;.% w d d d d d N A F F F C w * $ $ $ $ $ .       ;.;.;.;.;.;.;.;.;.;.;.;.;.;.;.;.;.;.;.;.;.;.;.;.;.;.;.;.;.;.;.;.;.;.;.;.;.;.;.;.;.;.;.;.;.;.;.;.R ( ) ` ' +.+.' ` _ ) _ _ _ ` ` ` ` ` _ _ ) ) _ ) ) / ( ^ ^ ^ ! ~ ! ! ! E W W W R c x z h : ;.;.;.;.;.;.;.;.;.;.;.;.;.;.;.",
";.;.;.;.O 6 d d d e V F F D P F N 3 $ $ $ $ X .       ;.;.;.;.;.;.;.;.;.;.;.;.;.;.;.;.;.;.;.;.;.;.;.;.;.;.;.;.;.;.;.;.;.;.;.;.;.;.;.;.;.;.;.;.;.;.;.;.;.Q ) _ ` ] +.+.' ' ` ) ) _ _ ` ` ` ` ` _ ) _ ) ) ) / ( ( ^ ^ ~ ! ! ! ! ! ! E W W E T c x l a ;.;.;.;.;.;.;.;.;.;.;.;.;.;.;.",
";.;.;.;.;.= w w d C J F G K G k $ $ X $ $ $ .   . ;.;.;.;.;.;.;.;.;.;.;.;.;.;.;.;.;.;.;.;.;.;.;.;.;.;.;.;.;.;.;.;.;.;.;.;.;.;.;.;.;.;.;.;.;.;.;.;.;.;.;.~ / ` ' ] +.] ] ` ` ` / ` _ ` ` ` ` ` _ ) _ _ ( _ ( ( ( / ^ ^ ! ! ! ! ! ! W W W E R c c z h , ;.;.;.;.;.;.;.;.;.;.;.;.;.;.",
";.;.;.;.;.  4 M S F G S S C r 4 $ $ $ $ $ X       ;.;.;.;.;.;.;.;.;.;.;.;.;.;.;.;.;.;.;.;.;.;.;.;.;.;.;.;.;.;.;.;.;.;.;.;.;.;.;.;.;.;.;.;.;.;.;.;.;.;.;./ ( _ ` ] ] +.' ` ` ` _ _ _ _ ` ` ` _ ( _ ( _ ) ( ( ( ( / ^ ^ ~ ! ! ! ! ! W E E E E c c x h g ;.;.;.;.;.;.;.;.;.;.;.;.;.;.",
";.;.;.;.;.;.% N P S S S A w * $ $ $ $ $ X       ;.;.;.;.;.;.;.;.;.;.;.;.;.;.;.;.;.;.;.;.;.;.;.;.;.;.;.;.;.;.;.;.;.;.;.;.;.;.;.;.;.;.;.;.;.;.;.;.;.;.;.;.E ( _ ` ' +.] +.' ` _ ( _ _ ` ` ` ` ` _ ( _ ) ( ( ( ( ( ( ^ ^ ~ ! ! ! W ! ! E E E E T x x x h : ;.;.;.;.;.;.;.;.;.;.;.;.;.",
";.;.;.;.;.;.;.m G S S C w 3 $ $ $ $ $ . .   ;.;.;.;.;.;.;.;.;.;.;.;.;.;.;.;.;.;.;.;.;.;.;.;.;.;.;.;.;.;.;.;.;.;.;.;.;.;.;.;.;.;.;.;.;.;.;.;.;.;.;.;.;.;.x ( ( _ ' +.] ' ' ` ` / _ _ ` ` ' ` ` ( _ ) _ ( ( ( ( ( ( ^ ^ ^ ~ ! ! W ! ! W E E E R c x g a 4 ;.;.;.;.;.;.;.;.;.;.;.;.;.",
";.;.;.;.;.;.;.;.w A V n 3 & $ $ $ X $     ;.;.;.;.;.;.;.;.;.;.;.;.;.;.;.;.;.;.;.;.;.;.;.;.;.;.;.;.;.;.;.;.;.;.;.;.;.;.;.;.;.;.;.;.;.;.;.;.;.;.;.;.;.;.;.;./ ( ` ` +.+.] ` ` ( _ _ _ _ ` ' ' ` _ ) _ ( _ / ( ( ( ( ( ^ ^ ~ ! ! W ! ! ~ E W W E E x z i 1 ;.;.;.;.;.;.;.;.;.;.;.;.;.",
";.;.;.;.;.;.;.;.  * 6 3 $ $ $ $ X X .   ;.;.;.;.;.;.;.;.;.;.;.;.;.;.;.;.;.;.;.;.;.;.;.;.;.;.;.;.;.;.;.;.;.;.;.;.;.;.;.;.;.;.;.;.;.;.;.;.;.;.;.;.;.;.;.;.;./ _ _ ' ] +.] ' ` _ ) _ _ ` ` ' ' ` ` _ ) _ ( ( ( ( ( ( ( / ^ ^ ! ! ! W ! ! E W W ~ W T x h a 7 ;.;.;.;.;.;.;.;.;.;.;.;.",
";.;.;.;.;.;.;.;.;.;.X $ $ $ $ $ $ .   ;.;.;.;.;.;.;.;.;.;.;.;.;.;.;.;.;.;.;.;.;.;.;.;.;.;.;.;.;.;.;.;.;.;.;.;.;.;.;.;.;.;.;.;.;.;.;.;.;.;.;.;.;.;.;.;.;.;./ ) ` ] +.+.] ' ` ` ) _ _ ` ` ` ' ` ` _ _ _ ) ) ( ( ( ( ( / ^ ^ ^ ! ! W E ! ! E W W ! R c x z h # ;.;.;.;.;.;.;.;.;.;.;.",
";.;.;.;.;.;.;.;.;.;.;.. . X $ $ X     ;.;.;.;.;.;.;.;.;.;.;.;.;.;.;.;.;.;.;.;.;.;.;.;.;.;.;.;.;.;.;.;.;.;.;.;.;.;.;.;.;.;.;.;.;.;.;.;.;.;.;.;.;.;.;.;.;.;.( ` ' ' +.] ] ' ` ` _ ) ` _ ` ` ' ` ` ` ( _ ) ) ( ( ( ( / / ( / ~ ~ ! ! W ! ! E W ~ E W T x x k u ;.;.;.;.;.;.;.;.;.;.;.",
";.;.;.;.;.;.;.;.;.;.;.;.;.X .       ;.;.;.;.;.;.;.;.;.;.;.;.;.;.;.;.;.;.;.;.;.;.;.;.;.;.;.;.;.;.;.;.;.;.;.;.;.;.;.;.;.;.;.;.;.;.;.;.;.;.;.;.;.;.;.;.;.;.;./ ) ` ] ] ] ] ' ` _ ) _ _ _ ` ` ' ` ` ) ) ) _ ) ( ( ( / ( ( ( ^ ^ ~ ! ! ! W ! E W W ~ E c c x z a , ;.;.;.;.;.;.;.;.;.;.",
";.;.;.;.;.;.;.;.;.;.;.;.;.        ;.;.;.;.;.;.;.;.;.;.;.;.;.;.;.;.;.;.;.;.;.;.;.;.;.;.;.;.;.;.;.;.;.;.;.;.;.;.;.;.;.;.;.;.;.;.;.;.;.;.;.;.;.;.;.;.;.;.;.;.! ) ' ' ] ] +.] ` ` _ ) _ _ ` ` ' ` _ ) ) _ ) ) ( ( ( ( ( ( ( ^ ^ ^ ! ! ! ! ! ~ E E ! W R c x z h t ;.;.;.;.;.;.;.;.;.;."
};
