/* XPM */
static char *Reload1[] = {
/* columns rows colors chars-per-pixel */
"155 141 121 2 ",
"   c #030303",
".  c #080708",
"X  c #0B0B0B",
"o  c #170F07",
"O  c #110F0F",
"+  c #0B1707",
"@  c #171F07",
"#  c #1F170B",
"$  c #100C10",
"%  c #131313",
"&  c #181417",
"*  c #1A1619",
"=  c #1B1B1B",
"-  c #2F1B0B",
";  c #211E1E",
":  c #2B230F",
">  c #2E2219",
",  c #372313",
"<  c #332B13",
"1  c #3F2F17",
"2  c #3F2B1B",
"3  c #2F371F",
"4  c #221F21",
"5  c #252425",
"6  c #292526",
"7  c #2B2729",
"8  c #2E2D2E",
"9  c #312D2E",
"0  c #373F27",
"q  c #322E30",
"w  c #373636",
"e  c #393536",
"r  c #3B3739",
"t  c #3C3B3B",
"y  c #432F1B",
"u  c #43331B",
"i  c #4B371B",
"p  c #533F1F",
"a  c #473323",
"s  c #4F3B26",
"d  c #4A3628",
"f  c #533F2F",
"g  c #413D3D",
"h  c #3F472B",
"j  c #5F4323",
"k  c #5B472B",
"l  c #474F33",
"z  c #574333",
"x  c #5C4331",
"c  c #5F4B37",
"v  c #6B4727",
"b  c #774F2B",
"n  c #7F532F",
"m  c #654936",
"M  c #675333",
"N  c #6E503B",
"B  c #775F3F",
"V  c #443F40",
"C  c #444444",
"Z  c #4A4545",
"A  c #4C4748",
"S  c #4D4D4D",
"D  c #524C4E",
"F  c #554E51",
"G  c #575656",
"H  c #5A5254",
"J  c #5E565A",
"K  c #5B5B5B",
"L  c #775740",
"P  c #61595C",
"I  c #655D61",
"U  c gray39",
"Y  c #6A6266",
"T  c #6E666A",
"R  c #6D6D6D",
"E  c #716A6D",
"W  c #746C70",
"Q  c #777777",
"!  c gray50",
"~  c #9B5B00",
"^  c #875733",
"/  c #8F5F37",
"(  c #9B633B",
")  c #A36B3F",
"_  c #89644A",
"`  c #836B4B",
"'  c #9B7153",
"]  c #AB6F43",
"[  c #B37347",
"{  c #BF7B4B",
"}  c #CB7F4F",
"|  c #D77A43",
" . c #D9824D",
".. c #CF8353",
"X. c #D78B5B",
"o. c #DC8958",
"O. c #DF9363",
"+. c #E79B6B",
"@. c #EFA373",
"#. c #E2A079",
"$. c #F7AB7B",
"%. c #FFB37B",
"&. c #838383",
"*. c #8B8B8B",
"=. c #959595",
"-. c #9F9F9F",
";. c #A7A7A7",
":. c gray67",
">. c #B4B4B4",
",. c gray75",
"<. c #FFB383",
"1. c #FFBB93",
"2. c #FFBF9B",
"3. c #FFC79B",
"4. c gray78",
"5. c #CBCBCB",
"6. c LightGray",
"7. c #DCDCDC",
"8. c #E7E7E7",
"9. c #EFEFEF",
"0. c None",
/* pixels */
"0.0.0.0.0.0.0.0.0.0.0.0.0.0.0.0.0.0.0.0.0.0.0.0.0.0.0.0.0.0.0.0.0.0.0.0.0.0.0.0.0.0.0.0.0.0.0.0.0.0.0.0.0.0.0.0.0.0.0.0.0.0.0.0.0.0.0.0.0.0.0.0.0.0.0.0.0.0.0.0.0.0.0.0.0.0.0.0.0.0.0.0.0.0.0.0.0.0.w 8 8 Q 0.0.0.0.0.0.0.0.0.0.0.0.0.0.0.0.0.0.0.0.0.0.0.0.0.0.0.0.0.0.0.0.0.0.0.0.0.0.0.0.0.0.0.0.0.0.0.0.0.0.0.0.0.",
"0.0.0.0.0.0.0.0.0.0.0.0.0.0.0.0.0.0.0.0.0.0.0.0.0.0.0.0.0.0.0.0.0.0.0.0.0.0.0.0.0.0.0.0.0.0.0.0.0.0.0.0.0.0.0.0.0.0.0.0.0.0.0.0.0.0.0.0.0.0.0.0.0.0.0.0.0.0.0.0.0.0.0.0.0.0.0.0.0.0.0.0.0.0.0.0.0.t w w h R -.0.0.0.0.0.0.0.0.0.0.0.0.0.0.0.0.0.0.0.0.0.0.0.0.0.0.0.0.0.0.0.0.0.0.0.0.0.0.0.0.0.0.0.0.0.0.0.0.0.0.0.0.",
"0.0.0.0.0.0.0.0.0.0.0.0.0.0.0.0.0.0.0.0.0.0.0.0.0.0.0.0.0.0.0.0.0.0.0.0.0.0.0.0.0.0.0.0.0.0.0.0.0.0.0.0.0.0.0.0.0.0.0.0.0.0.0.0.0.0.0.0.0.0.0.0.0.0.0.0.0.0.0.0.0.0.0.0.0.0.0.0.0.0.0.0.0.0.0.0.w w w w w t R =.0.0.0.0.0.0.0.0.0.0.0.0.0.0.0.0.0.0.0.0.0.0.0.0.0.0.0.0.0.0.0.0.0.0.0.0.0.0.0.0.0.0.0.0.0.0.0.0.0.0.0.",
"0.0.0.0.0.0.0.0.0.0.0.0.0.0.0.0.0.0.0.0.0.0.0.0.0.0.0.0.0.0.0.0.0.0.0.0.0.0.0.0.0.0.0.0.0.0.0.0.0.0.0.0.0.0.0.0.0.0.0.0.0.0.0.0.0.0.0.0.0.0.0.0.0.0.0.0.0.0.0.0.0.0.0.0.0.0.0.0.0.0.0.0.0.0.0.w w t 8 t w 8 C K =.0.0.0.0.0.0.0.0.0.0.0.0.0.0.0.0.0.0.0.0.0.0.0.0.0.0.0.0.0.0.0.0.0.0.0.0.0.0.0.0.0.0.0.0.0.0.0.0.0.0.",
"0.0.0.0.0.0.0.0.0.0.0.0.0.0.0.0.0.0.0.0.0.0.0.0.0.0.0.0.0.0.0.0.0.0.0.0.0.0.0.0.0.0.0.0.0.0.0.0.0.0.0.0.0.0.0.0.0.0.0.0.0.0.0.0.0.0.0.0.0.0.0.0.0.0.0.0.0.0.0.0.0.0.0.0.0.0.0.0.0.0.0.0.0.0.8 t w w w w w w w C K =.0.0.0.0.0.0.0.0.0.0.0.0.0.0.0.0.0.0.0.0.0.0.0.0.0.0.0.0.0.0.0.0.0.0.0.0.0.0.0.0.0.0.0.0.0.0.0.0.0.",
"0.0.0.0.0.0.0.0.0.0.0.0.0.0.0.0.0.0.0.0.0.0.0.0.0.0.0.0.0.0.0.0.0.0.0.0.0.0.0.0.0.0.0.0.0.0.0.0.0.0.0.0.0.0.0.0.0.0.0.0.0.0.0.0.0.0.0.0.0.0.0.0.0.0.0.0.0.0.0.0.0.0.0.0.0.0.0.0.0.0.0.0.0.t 8 8 w 8 t w 8 t w w C K =.0.0.0.0.0.0.0.0.0.0.0.0.0.0.0.0.0.0.0.0.0.0.0.0.0.0.0.0.0.0.0.0.0.0.0.0.0.0.0.0.0.0.0.0.0.0.0.0.",
"0.0.0.0.0.0.0.0.0.0.0.0.0.0.0.0.0.0.0.0.0.0.0.0.0.0.0.0.0.0.0.0.0.0.0.0.0.0.0.0.0.0.0.0.0.0.0.0.0.0.0.0.0.0.0.0.0.0.0.0.0.0.0.0.0.0.0.0.0.0.0.0.0.0.0.0.0.0.0.0.0.0.0.0.0.0.0.0.0.0.0.0.R G 8 8 w t w t w t t t w C U =.0.0.0.0.0.0.0.0.0.0.0.0.0.0.0.0.0.0.0.0.0.0.0.0.0.0.0.0.0.0.0.0.0.0.0.0.0.0.0.0.0.0.0.0.0.0.0.",
"0.0.0.0.0.0.0.0.0.0.0.0.0.0.0.0.0.0.0.0.0.0.0.0.0.0.0.0.0.0.0.0.0.0.0.0.0.0.0.0.0.0.0.0.0.0.0.0.0.0.0.0.0.0.0.0.0.0.0.0.0.0.0.0.0.0.0.0.0.0.0.0.0.0.0.0.0.0.0.0.0.0.0.0.0.0.0.0.0.0.0.5 Q &.G w 8 w t w t t t w w t C U =.0.0.0.0.0.0.0.0.0.0.0.0.0.0.0.0.0.0.0.0.0.0.0.0.0.0.0.0.0.0.0.0.0.0.0.0.0.0.0.0.0.0.0.0.0.0.",
"0.0.0.0.0.0.0.0.0.0.0.0.0.0.0.0.0.0.0.0.0.0.0.0.0.0.0.0.0.0.0.0.0.0.0.0.0.0.0.0.0.0.0.0.0.0.0.0.0.0.0.0.0.0.0.0.0.0.0.0.0.0.0.0.0.0.0.0.0.0.0.0.0.0.0.0.0.0.0.0.0.0.0.0.0.0.0.0.0.0.= + 5 U Q G w 8 t t w w w t t t t t S =.0.0.0.0.0.0.0.0.0.0.0.0.0.0.0.0.0.0.0.0.0.0.0.0.0.0.0.0.0.0.0.0.0.0.0.0.0.0.0.0.0.0.0.0.0.",
"0.0.0.0.0.0.0.0.0.0.0.0.0.0.0.0.0.0.0.0.0.0.0.0.0.0.0.0.0.0.0.0.0.0.0.0.0.0.0.0.0.0.0.0.0.0.0.0.0.0.0.0.0.0.0.0.0.0.0.0.0.0.0.0.0.0.0.0.0.0.0.0.0.0.0.0.0.0.0.0.0.0.0.0.0.0.0.0.0.0.= % X 5 U Q K w w w t t t t t t t t t S =.*.0.0.0.0.0.0.0.0.0.0.0.0.0.0.0.0.0.0.0.0.0.0.0.0.0.0.0.0.0.0.0.0.0.0.0.0.0.0.0.0.0.0.0.",
"0.0.0.0.0.0.0.0.0.0.0.0.0.0.0.0.0.0.0.0.0.0.0.0.0.0.0.0.0.0.0.0.0.0.0.0.0.0.0.0.0.0.0.0.0.0.0.0.0.0.0.0.0.0.0.0.0.0.0.0.0.0.0.0.0.0.0.0.0.0.0.0.0.0.0.0.0.0.0.0.0.0.0.0.0.0.0.0.0.0.= = % X 5 U Q K w 8 w t t t t t t t t t S ! ;.0.0.0.0.0.0.0.0.0.0.0.0.0.0.0.0.0.0.0.0.0.0.0.0.0.0.0.0.0.0.0.0.0.0.0.0.0.0.0.0.0.0.",
"0.0.0.0.0.0.0.0.0.0.0.0.0.0.0.0.0.0.0.0.0.0.0.0.0.0.0.0.0.0.0.0.0.0.0.0.0.0.0.0.0.0.0.0.0.0.0.0.0.0.0.0.0.0.0.0.0.0.0.0.0.0.0.0.0.0.0.0.0.0.0.0.0.0.0.0.0.0.0.0.0.0.0.0.0.0.0.0.0.0.= = = % X 5 R Q K t w t t t t t t t w C C S ! -.0.0.0.0.0.0.0.0.0.0.0.0.0.0.0.0.0.0.0.0.0.0.0.0.0.0.0.0.0.0.0.0.0.0.0.0.0.0.0.0.0.",
"0.0.0.0.0.0.0.0.0.0.0.0.0.0.0.0.0.0.0.0.0.0.0.0.0.0.0.0.0.0.0.0.0.0.0.0.0.0.0.0.0.0.0.0.0.0.0.0.0.0.0.0.0.0.0.0.0.0.0.0.0.0.0.0.0.0.0.0.0.0.0.0.0.0.0.0.0.0.0.0.0.0.0.0.0.0.0.0.0.0.= % % = % X 8 R &.K w w t t t t C w C C C C S ! :.0.0.0.0.0.0.0.0.0.0.0.0.0.0.0.0.0.0.0.0.0.0.0.0.0.0.0.0.0.0.0.0.0.0.0.0.0.0.0.0.",
"0.0.0.0.0.0.0.0.0.0.0.0.0.0.0.0.0.0.0.0.0.0.0.0.0.0.0.0.0.0.0.0.0.0.0.0.0.0.0.0.0.0.0.0.0.0.0.0.0.0.0.0.0.0.0.0.0.0.0.0.0.0.0.0.0.0.0.0.0.0.0.0.0.0.0.0.0.0.0.0.0.0.0.0.0.0.0.0.0.0.0.6 % = % % % 8 R R K w w t t C w C C C C C C C W ;.0.0.0.0.0.0.0.0.0.0.0.0.0.0.0.0.0.0.0.0.0.0.0.0.0.0.0.0.0.0.0.0.0.0.0.0.0.0.0.",
"0.0.0.0.0.0.0.0.0.0.0.0.0.0.0.0.0.0.0.0.0.0.0.0.0.0.0.0.0.0.0.0.0.0.0.0.0.0.0.0.0.0.0.0.0.0.0.0.0.0.0.0.0.0.0.0.0.0.0.0.0.0.0.0.0.0.0.0.0.0.0.0.0.0.0.0.0.0.0.0.0.0.0.0.0.0.0.0.0.0.0.6 = % = % % + = -.=.U w w t C C C C C C C C C S &.>.0.0.0.0.0.0.0.0.0.0.0.0.0.0.0.0.0.0.0.0.0.0.0.0.0.0.0.0.0.0.0.0.0.0.0.0.0.0.",
"0.0.0.0.0.0.0.0.0.0.0.0.0.0.0.0.0.0.0.0.0.0.0.0.0.0.0.0.0.0.0.0.0.0.0.0.0.0.0.0.0.0.0.0.0.0.0.0.0.0.0.0.0.0.0.0.0.0.0.0.0.0.0.0.0.0.0.0.0.0.0.0.0.0.0.0.0.0.0.0.0.0.0.0.0.0.0.0.0.0.0.0.5 % % = % % C K =.&.R t w t C C C C C C S C C S Q :.0.0.0.0.0.0.0.0.0.0.0.0.0.0.0.0.0.0.0.0.0.0.0.0.0.0.0.0.0.0.0.0.0.0.0.0.0.",
"0.0.0.0.0.0.0.0.0.0.0.0.0.0.0.0.0.0.0.0.0.0.0.0.0.0.0.0.0.0.0.0.0.0.0.0.0.0.0.0.0.0.0.0.0.0.0.0.0.0.0.0.0.0.0.0.0.0.0.0.0.0.0.0.0.0.0.0.0.0.0.0.0.0.0.0.0.0.0.0.0.0.0.0.0.0.0.0.0.0.0.0.w = % % 5 C 5 % = R &.U t t t C C C S C S S C C S Q :.0.0.0.0.0.0.0.0.0.0.0.0.0.0.0.0.0.0.0.0.0.0.0.0.0.0.0.0.0.0.0.0.0.0.0.0.",
"0.0.0.0.0.0.0.0.0.0.0.0.0.0.0.0.0.0.0.0.0.0.0.0.0.0.0.0.0.0.0.0.0.0.0.0.0.0.0.0.0.0.0.0.0.0.0.0.0.0.0.0.0.0.0.0.0.0.0.0.0.0.0.0.0.0.0.0.0.0.0.0.0.0.0.0.0.0.0.0.0.0.0.0.0.0.0.0.0.0.0.0.0.6 = 5 w = % % % 5 R ! U t t C C C S S C C S S S S R :.0.0.0.0.0.0.0.0.0.0.0.0.0.0.0.0.0.0.0.0.0.0.0.0.0.0.0.0.0.0.0.0.0.0.0.",
"0.0.0.0.0.0.0.0.0.0.0.0.0.0.0.0.0.0.0.0.0.0.0.0.0.0.0.0.0.0.0.0.0.0.0.0.0.0.0.0.0.0.0.0.0.0.0.0.0.0.0.0.0.0.0.0.0.0.0.0.0.0.0.0.0.0.0.0.0.0.0.0.0.0.0.0.0.0.0.0.0.0.0.0.0.0.0.0.0.0.0.0.0.5 6 6 % % % = = % h U Q U t C C S S C C C C S S S S R :.:.0.0.0.0.0.0.0.0.0.0.0.0.0.0.0.0.0.0.0.0.0.0.0.0.0.0.0.0.0.0.0.0.0.",
"0.0.0.0.0.0.0.0.0.0.0.0.0.0.0.0.0.0.0.0.0.0.0.0.0.0.0.0.0.0.0.0.0.0.0.0.0.0.0.0.0.0.0.0.0.0.0.0.0.0.0.0.0.0.0.0.0.0.0.0.0.0.0.0.0.0.0.0.0.0.0.0.0.0.0.0.0.0.0.0.0.0.0.0.0.0.0.0.0.0.0.0.0.0.= 5 5 = = = % = % t K ! R t C C C S C S S S S S S G R ;.-.0.0.0.0.0.0.0.0.0.0.0.0.0.0.0.0.0.0.0.0.0.0.0.0.0.0.0.0.0.0.0.0.",
"0.0.0.0.0.0.0.0.0.0.0.0.0.0.0.0.0.0.0.0.0.0.0.0.0.0.0.0.0.0.0.0.0.0.0.0.0.0.0.0.0.0.0.0.0.0.0.0.0.0.0.0.0.0.0.0.0.0.0.0.0.0.0.0.0.0.0.0.0.0.0.0.0.0.0.0.0.0.0.0.0.0.0.0.0.0.0.0.0.0.0.0.0.0.0.X t 5 % = = = % = S R Q R C C C C S S S C S S S S G U *.,.0.0.0.0.0.0.0.0.0.0.0.0.0.0.0.0.0.0.0.0.0.0.0.0.0.0.0.0.0.0.0.",
"0.0.0.0.0.0.0.0.0.0.0.0.0.0.0.0.0.0.0.0.0.0.0.0.0.0.0.0.0.0.0.0.0.0.0.0.0.0.0.0.0.0.0.0.0.0.0.0.0.0.0.0.0.0.0.0.0.0.0.0.0.0.0.0.0.0.0.0.0.0.0.0.0.0.0.0.0.0.0.0.0.0.0.0.0.0.0.0.0.0.0.0.0.0.0.0.$ C 5 % = % = % 8 *.R =.R C C C S S S S S S S S S G T =.>.0.0.0.0.0.0.0.0.0.0.0.0.0.0.0.0.0.0.0.0.0.0.0.0.0.0.0.0.0.0.",
"0.0.0.0.0.0.0.0.0.0.0.0.0.0.0.0.0.0.0.0.0.0.0.0.0.0.0.0.0.0.0.0.0.0.0.0.0.0.0.0.0.0.0.0.0.0.0.0.0.0.0.0.0.0.0.0.0.0.0.0.0.0.0.0.0.0.0.0.0.0.0.0.0.0.0.0.0.0.0.0.0.0.0.0.0.0.0.0.0.0.0.0.0.0.0.0.. % C 5 = = = 8 S X % =.,.R C C S G S S S G S G G S K R =.>.0.0.0.0.0.0.0.0.0.0.0.0.0.0.0.0.0.0.0.0.0.0.0.0.0.0.0.0.0.",
"0.0.0.0.0.0.0.0.0.0.0.0.0.0.0.0.0.0.0.0.0.0.0.0.0.0.0.0.0.0.0.0.0.0.0.0.0.0.0.0.0.0.0.0.0.0.0.0.0.0.0.0.0.0.0.0.0.0.0.0.0.0.0.0.0.0.0.0.0.0.0.0.0.0.0.0.0.0.0.0.0.0.0.0.0.0.0.0.0.0.0.0.0.0.0.0.X % = C 5 = 5 G X 5 Q S R =.Q C S S G G K K S G G G G K R =.4.0.0.0.0.0.0.0.0.0.0.0.0.0.0.0.0.0.0.0.0.0.0.0.0.0.0.0.0.",
"0.0.0.0.0.0.0.0.0.0.0.0.0.0.0.0.0.0.0.0.0.0.0.0.0.0.0.0.0.0.0.0.0.0.0.0.0.0.0.0.0.0.0.0.0.0.0.0.0.0.0.0.0.0.0.0.0.0.0.0.0.0.0.0.0.0.0.0.0.0.0.0.0.0.0.0.0.0.0.0.0.0.0.0.0.0.0.0.0.0.0.0.0.0.0.0.0.0.  = w = C % = &.5 5 = R &.R S S S K G S G G S K K G K R =.,.0.0.0.0.0.0.0.0.0.0.0.0.0.0.0.0.0.0.0.0.0.0.0.0.0.0.0.",
"0.0.0.0.0.0.0.0.0.0.0.0.0.0.0.0.0.0.0.0.0.0.0.0.0.0.0.0.0.0.0.0.0.0.0.0.0.0.0.0.0.0.0.0.0.0.0.0.0.0.0.0.0.0.0.0.0.0.0.0.0.0.0.0.0.0.0.0.0.0.0.0.0.0.0.0.0.0.0.0.0.0.0.0.0.0.0.0.0.0.0.0.0.0.0.0.0.0..   4 C U G =.8 = % % 8 Q Q R S S S G K G K G G K G G K R ;.5.=.0.0.0.0.0.0.0.0.0.0.0.0.0.0.0.0.0.0.0.0.0.0.0.0.0.",
"0.0.0.0.0.0.0.0.0.0.0.0.0.0.0.0.0.0.0.0.0.0.0.0.0.0.0.0.0.0.0.0.0.0.0.0.0.0.0.0.0.0.0.0.0.0.0.0.0.0.0.0.0.0.0.0.0.0.0.0.0.0.0.0.0.0.0.0.0.0.0.0.0.0.0.0.0.0.0.0.0.0.0.0.0.0.0.0.0.0.0.0.0.0.0.0.0.0.4 .   = R R = % % % = % 8 R ! Q S S G K G G K G G G K K K R -.,.-.0.0.0.0.0.0.0.0.0.0.0.0.0.0.0.0.0.0.0.0.0.0.0.0.",
"0.0.0.0.0.0.0.0.0.0.0.0.0.0.0.0.0.0.0.0.0.0.0.0.0.0.0.0.0.0.0.0.0.0.0.0.0.0.0.0.0.0.0.0.0.0.0.0.0.0.0.0.0.0.0.0.0.0.0.0.0.0.0.0.0.0.0.0.0.0.0.0.0.0.0.0.0.0.0.0.0.0.0.0.0.0.0.0.0.0.0.0.0.0.0.0.0.0.  X     8 8 5 % % = = = 5 C U ! R G S G G K G K K G K U K K U ;.6.>.0.0.0.0.0.0.0.0.0.0.0.0.0.0.0.0.0.0.0.0.0.0.0.",
"0.0.0.0.0.0.0.0.0.0.0.0.0.0.0.0.0.0.0.0.0.0.0.0.0.0.0.0.0.0.0.0.0.0.0.0.0.0.0.0.0.0.0.0.0.0.0.0.0.0.0.0.0.0.0.0.0.0.0.0.0.0.0.0.0.0.0.0.0.0.0.0.0.0.0.0.0.0.0.0.0.0.0.0.0.0.0.0.0.0.0.0.0.0.0.0.= % X   X     5 w = = = = 5 5 = h K Q U G G G G K K K K K K U U K U -.5.:.0.0.0.0.0.0.0.0.0.0.0.0.0.0.0.0.0.0.0.0.0.0.",
"0.0.0.0.0.0.0.0.0.0.0.0.0.0.0.0.0.0.0.0.0.0.0.0.0.0.0.0.0.0.0.0.0.0.0.0.0.0.0.0.0.0.0.0.0.0.0.0.0.0.0.0.0.0.0.0.0.0.0.0.0.0.0.0.0.0.0.0.0.0.0.0.0.0.0.0.0.0.0.0.0.0.0.0.0.0.0.0.0.0.0.0.0.0.0.= = = X           5 t 5 = = = % = = C K R R K G K G K K K K K U R U U K >.9.,.0.0.0.0.0.0.0.0.0.0.0.0.0.0.0.0.0.0.0.0.0.",
"0.0.0.0.0.0.0.0.0.0.0.0.0.0.0.0.0.0.0.0.0.0.0.0.0.0.0.0.0.0.0.0.0.0.0.0.0.0.0.0.0.0.0.0.0.0.0.0.0.0.0.0.0.0.0.0.0.0.0.0.0.0.0.0.0.0.0.0.0.0.0.0.0.0.0.0.0.0.0.0.0.0.0.0.0.0.0.0.0.0.0.0.0.5 = = = = 5 . X X       w w 5 = = = = % = S U Q R K K K G K K K G U U R U U R ! ,.! 0.0.0.0.0.0.0.0.0.0.0.0.0.0.0.0.0.0.0.0.",
"0.0.0.0.0.0.0.0.0.0.0.0.0.0.0.0.0.0.0.0.0.0.0.0.0.0.0.0.0.0.0.0.0.0.0.0.0.0.0.0.0.0.0.0.0.0.0.0.0.0.0.0.0.0.0.0.0.0.0.0.0.0.0.0.0.0.0.0.0.0.0.0.0.0.0.0.0.0.0.0.0.0.0.0.0.0.0.0.0.0.0.0.% % % % % = = 5 X X       . w w = = = = % % = S R Q R K K K G K U U U R U R Q U R :.-.Q G 0.0.0.0.0.0.0.0.0.0.0.0.0.0.0.0.0.0.",
"0.0.0.0.0.0.0.0.0.0.0.0.0.0.0.0.0.0.0.0.0.0.0.0.0.0.0.0.0.0.0.0.0.0.0.0.0.0.0.0.0.0.0.0.0.0.0.0.0.0.0.0.0.0.0.0.0.0.0.0.0.0.0.0.0.0.0.0.0.0.0.0.0.0.0.0.0.0.0.0.0.0.0.0.0.0.0.0.0.0.% X % % % % % % = = 5 X X         w 8 = = = = = = % S R R R U K K K K U U U R R R R U U :.4.U S 0.0.0.0.0.0.0.0.0.0.0.0.0.0.0.0.0.",
"0.0.0.0.0.0.0.0.0.0.0.0.0.0.0.0.0.0.0.0.0.0.0.0.0.0.0.0.0.0.0.0.0.0.0.0.0.0.0.0.0.0.0.0.0.0.0.0.0.0.0.0.0.0.0.0.0.0.0.0.0.0.0.0.0.0.0.0.0.0.0.0.0.0.0.0.0.0.0.0.0.0.0.0.0.0.0.0.0.X X X % % % % % % = % = = %           C 8 = = = % = % % C R Q Q U K K K U U U U R R U R R U *.7.*.G t 0.0.0.0.0.0.0.0.0.0.0.0.0.0.0.",
"0.0.0.0.0.0.0.0.0.0.0.0.0.0.0.0.0.0.0.0.0.0.0.0.0.0.0.0.0.0.0.0.0.0.0.0.0.0.0.0.0.0.0.0.0.0.0.0.0.0.0.0.0.0.0.0.0.0.0.0.0.0.0.0.0.0.0.0.0.0.0.0.0.0.0.0.0.0.0.0.0.0.0.0.0.0.0.0.. . X X X / { X.{ ] b j i = 5 %           S 5 = = = = = % = h R R &.U K U K U U R U U R R R R Q =.>.*.S A 0.0.0.0.0.0.0.0.0.0.0.0.0.0.",
"0.0.0.0.0.0.0.0.0.0.0.0.0.0.0.0.0.0.0.0.0.0.0.0.0.0.0.0.0.0.0.0.0.0.0.0.0.0.0.0.0.0.0.0.0.0.0.0.0.0.0.0.0.0.0.0.0.0.0.0.0.0.0.0.0.0.0.0.0.0.0.0.0.0.0.0.0.0.0.0.0.0.0.0.0.0.0.0.% .   X X / O.O.X.( j - - i i 0.0.%       X w 6 = = = = = % = G Q R *.R U U U U U R U R U R R U Q -.6.:.G C C 0.0.0.0.0.0.0.0.0.0.0.0.",
"0.0.0.0.0.0.0.0.0.0.0.0.0.0.0.0.0.0.0.0.0.0.0.0.0.0.0.0.0.0.0.0.0.0.0.0.0.0.0.0.0.0.0.0.0.0.0.0.0.0.0.0.0.0.0.0.0.0.0.0.0.0.0.0.0.0.0.0.0.0.0.0.0.0.0.0.0.0.0.0.0.0.0.0.0.0.0.0.% X . . ( { O.O.] v , , o - - i 8 5 %         C 5 = = = = % = = w ! Q *.R U U U R U R R R R Q R R R *.7.;.S S w 0.0.0.0.0.0.0.0.0.0.0.",
"0.0.0.0.0.0.0.0.0.0.0.0.0.0.0.0.0.0.0.0.0.0.0.0.0.0.0.0.0.0.0.0.0.0.0.0.0.0.0.0.0.0.0.0.0.0.0.0.0.0.0.0.0.0.0.0.0.0.0.0.0.0.0.0.0.0.0.0.0.0.0.0.0.0.0.0.0.0.0.0.0.0.0.0.0.0.0.0.X X + . ] X.O.O.n u - o o o - - i % = =       X C 8 % % = = = % % C Q R &.R U R U U U R Q R R R R Q Q Q 7.8.G S w t t w 0.0.0.0.0.0.0.",
"0.0.0.0.0.0.0.0.0.0.0.0.0.0.0.0.0.0.0.0.0.0.0.0.0.0.0.0.0.0.0.0.0.0.0.0.0.0.0.0.0.0.0.0.0.0.0.0.0.0.0.0.0.0.0.0.0.0.0.0.0.0.0.0.0.0.0.0.0.0.0.0.0.0.0.0.0.0.0.0.0.0.0.0.0.0.0.0.0.  X X b [ { ] n , - o o o   : # # y i y , :   % t 6 = = = = = % % t R &.*.R U R R R R R R R Q Q Q Q R =.7.;.U S w 5 % X 0.0.0.0.0.0.",
"0.0.0.0.0.0.0.0.0.0.0.0.0.0.0.0.0.0.0.0.0.0.0.0.0.0.0.0.0.0.0.0.0.0.0.0.0.0.0.0.0.0.0.0.0.0.0.0.0.0.0.0.0.0.0.0.0.0.0.0.0.0.0.0.0.0.0.0.0.0.0.0.0.0.0.0.0.0.0.0.0.0.0.0.0.0.0.0.0.0.X X v ( / v i , - o o   , i v b n n b v i i i < w 6 = = % = = = % t *.&.*.Q R R U Q R R Q Q Q R Q Q R ! 8.9.Q S 5 X     0.0.0.0.0.",
"0.0.0.0.0.0.0.0.0.0.0.0.0.0.0.0.0.0.0.0.0.0.0.0.0.0.0.0.0.0.0.0.0.0.0.0.0.0.0.0.0.0.0.0.0.0.0.0.0.0.0.0.0.0.0.0.0.0.0.0.0.0.0.0.0.0.0.0.0.0.0.0.0.0.0.0.0.0.0.0.0.0.0.0.0.0.0.0.0.0.0.6 . u i i , - o o o , i j j b ^ n b b ( ^ n j 1 S 8 % = = = = = = 8 ! *.&.R R R R R R R R Q Q Q Q Q ! &.6.5.t w 5 .   . 0.0.0.0.",
"0.0.0.0.0.0.0.0.0.0.0.0.0.0.0.0.0.0.0.0.0.0.0.0.0.0.0.0.0.0.0.0.0.0.0.0.0.0.0.0.0.0.0.0.0.0.0.0.0.0.0.0.0.0.0.0.0.0.0.0.0.0.0.0.0.0.0.0.0.0.0.0.0.0.0.0.0.0.0.0.0.0.0.0.0.0.0.0.0.0.0.8 = X - o - - o o u i i i i i i b b ^ ( ( n b j u C 8 5 = 5 5 5 5 = 8 =.*.=.R R R R R Q Q Q Q Q Q Q R R =.>.*.A C S 5     0.0.0.",
"0.0.0.0.0.0.0.0.0.0.0.0.0.0.0.0.0.0.0.0.0.0.0.0.0.0.0.0.0.0.0.0.0.0.0.0.0.0.0.0.0.0.0.0.0.0.0.0.0.0.0.0.0.0.0.0.0.0.0.0.0.0.0.0.0.0.0.0.0.0.0.0.0.0.0.0.0.0.0.0.0.0.0.0.0.0.0.0.0.0.0.0.5 = %   , o + u u 1 , : : < < y v b ^ / ( n n b 1 S t 5 5 5 5 5 5 5 w -.*.&.Q R R Q Q R Q Q Q R R U *.;.*.K R C 7 S     . 0.0.",
"0.0.0.0.0.0.0.0.0.0.0.0.0.0.0.0.0.0.0.0.0.0.0.0.0.0.0.0.0.0.0.0.0.0.0.0.0.0.0.0.0.0.0.0.0.0.0.0.0.0.0.0.0.0.0.0.0.0.0.0.0.0.0.0.0.0.0.0.0.0.0.0.0.0.0.0.0.0.0.0.0.0.0.0.0.0.0.0.0.0.0.0.0.5 = % % X o = :     = # : : , i v ( ] [ ( / n b - S C % = 5 5 5 5 5 t =.*.=.Q Q Q Q Q Q Q R R U ;.;.C h S C 5 h 6 6     0.0.",
"0.0.0.0.0.0.0.0.0.0.0.0.0.0.0.0.0.0.0.0.0.0.0.0.0.0.0.0.0.0.0.0.0.0.0.0.0.0.0.0.0.0.0.0.0.0.0.0.0.0.0.0.0.0.0.0.0.0.0.0.0.0.0.0.0.0.0.0.0.0.0.0.0.0.0.0.0.0.0.0.0.0.0.0.0.0.0.0.0.0.0.0.0.0.j y o -   # 2 o     = : # , i v ( [ ....] ( ^ i X U Q U S 8 5 5 8 5 S ,.! =.! Q R Q R R Q ! 5.-.8 C %       % w 8 =   0.0.",
"0.0.0.0.0.0.0.0.0.0.0.0.0.0.0.0.0.0.0.0.0.0.0.0.0.0.0.0.0.0.0.0.0.0.0.0.0.0.0.0.0.0.0.0.0.0.0.0.0.0.0.0.0.0.0.0.0.0.0.0.0.0.0.0.0.0.0.0.0.0.0.0.0.0.0.0.0.0.0.0.0.0.0.0.0.0.0.0.0.0.0.0.b ] [ v u , o % < o     o o + i b ^ ) [ ..X...[ ( k   = 5 w C R Q ! R S w =.>.S R Q Q Q R R =.,.G 5 8     . % X X = 8 6 X 0.0.",
"0.0.0.0.0.0.0.0.0.0.0.0.0.0.0.0.0.0.0.0.0.0.0.0.0.0.0.0.0.0.0.0.0.0.0.0.0.0.0.0.0.0.0.0.0.0.0.0.0.0.0.0.0.0.0.0.0.0.0.0.0.0.0.0.0.0.0.0.0.0.0.0.0.0.0.0.0.0.0.0.0.0.0.0.0.0.0.0.0.0.0.( X.{ ( j , , o o % X   o o o s b ^ / ) [ ..X.O.O.[ i . X X X 5 = 5 5 8 C U =.-.*.8 S R Q U =.5.C 8 %     = % 5 8     5 6 = 0.0.",
"0.0.0.0.0.0.0.0.0.0.0.0.0.0.0.0.0.0.0.0.0.0.0.0.0.0.0.0.0.0.0.0.0.0.0.0.0.0.0.0.0.0.0.0.0.0.0.0.0.0.0.0.0.0.0.0.0.0.0.0.0.0.0.0.0.0.0.0.0.0.0.0.0.0.0.0.0.0.0.0.0.0.0.0.0.0.0.0.0.0.( X.{ ( v y y , o     % %   # 1 v n / ( [ [ ..+.@.@.O.n X X X   % 5 5 = = 5 = % % S C 8 t Q Q Q w 5     X % 8 7 . w 5 .   t 5 6 0.",
"0.0.0.0.0.0.0.0.0.0.0.0.0.0.0.0.0.0.0.0.0.0.0.0.0.0.0.0.0.0.0.0.0.0.0.0.0.0.0.0.0.0.0.0.0.0.0.0.0.0.0.0.0.0.0.0.0.0.0.0.0.0.0.0.0.0.0.0.0.0.0.0.0.0.0.0.0.0.0.0.0.0.0.0.0.0.0.0.0.b ] { ( b i , - o o o     % - 1 v b ^ ( ] [ } +.1.<.<.$.[ i % % X   O 8 5 = 6 = 5 5 t U w = 5 K C =     % = =   8 % . C =   % C 5 0.",
"0.0.0.0.0.0.0.0.0.0.0.0.0.0.0.0.0.0.0.0.0.0.0.0.0.0.0.0.0.0.0.0.0.0.0.0.0.0.0.0.0.0.0.0.0.0.0.0.0.0.0.0.0.0.0.0.0.0.0.0.0.0.0.0.0.0.0.0.0.0.0.0.0.0.0.0.0.0.0.0.0.0.0.0.0.0.0.0.0.b ( ( v j , - o -       o # u p b ^ ( ( ] [ X.1.<.2.3.2.X.M X % O X     = = 5 5 = 5 7 K C 5 % =     X = X = h . X 8   % w % . 6 5 X ",
"0.0.0.0.0.0.0.0.0.0.0.0.0.0.0.0.0.0.0.0.0.0.0.0.0.0.0.0.0.0.0.0.0.0.0.0.0.0.0.0.0.0.0.0.0.0.0.0.0.0.0.0.0.0.0.0.0.0.0.0.0.0.0.0.0.0.0.0.0.0.0.0.0.0.0.0.0.0.0.0.0.0.0.0.0.0.0.0.0.j v v i 2 , o o o     o : , k v n / ( ( ] ..+.@.$.$.1.<.2.] , % = O X     = % 5 = 5 5 C S 8 8 X   % % = 8   5 8 . = 8   5 8 X X t X ",
"0.0.0.0.0.0.0.0.0.0.0.0.0.0.0.0.0.0.0.0.0.0.0.0.0.0.0.0.0.0.0.0.0.0.0.0.0.0.0.0.0.0.0.0.0.0.0.0.0.0.0.0.0.0.0.0.0.0.0.0.0.0.0.0.0.0.0.0.0.0.0.0.0.0.0.0.0.0.0.0.0.0.0.0.0.j n ( ( b i , , o o o         # # < j M n / ( ] [ ....O.+.+.@.$.$.{ k = 5 t =     % % = = = = 5 S 8 8 5 X %     C %   5 =   8 5   8 = X 6 = ",
"0.0.0.0.0.0.0.0.0.0.0.0.0.0.0.0.0.0.0.0.0.0.0.0.0.0.0.0.0.0.0.0.0.0.0.0.0.0.0.0.0.0.0.0.0.0.0.0.0.0.0.0.0.0.0.0.0.0.0.0.0.0.0.0.0.0.0.0.0.0.0.0.0.0.0.0.0.0.0.0.0.0.0.0.j n ( ( v , - o o o o         o # # 1 i b ^ / ) [ } ..X.....O.+.@.@.O.^ 6 6 = X       % = = = = % C h 5 5 5 X     = C . . w %   w % X % X 7 0.",
"0.0.0.0.0.0.0.0.0.0.0.0.0.0.0.0.0.0.0.0.0.0.0.0.0.0.0.0.0.0.0.0.0.0.0.0.0.0.0.0.0.0.0.0.0.0.0.0.0.0.0.0.0.0.0.0.0.0.0.0.0.0.0.0.0.0.0.0.0.0.0.0.0.0.0.0.0.0.0.0.0.0.0.b ( ] n v , , - o o                 - 2 v b ^ ) [ } } ..X.} { } ..X.O.@.] < % .   X     % % = % = % = C 5 5 5 = . %   = A . + w . % = . X = 5 0.",
"0.0.0.0.0.0.0.0.0.0.0.0.0.0.0.0.0.0.0.0.0.0.0.0.0.0.0.0.0.0.0.0.0.0.0.0.0.0.0.0.0.0.0.0.0.0.0.0.0.0.0.0.0.0.0.0.0.0.0.0.0.0.0.0.0.0.0.0.0.0.0.0.0.0.0.0.0.0.0.0.0.0.i ( [ / j , , o o o         X X X     : i v n ( [ [ } } ......} { } ....+...v :       X   O % = % % % = 8 6 5 5 5 = X X   8 8   % 7   . % 6 5 X 0.",
"0.0.0.0.0.0.0.0.0.0.0.0.0.0.0.0.0.0.0.0.0.0.0.0.0.0.0.0.0.0.0.0.0.0.0.0.0.0.0.0.0.0.0.0.0.0.0.0.0.0.0.0.0.0.0.0.0.0.0.0.0.0.0.0.0.0.0.0.0.0.0.0.0.0.0.0.0.0.0.0.0.0.i n b j y - o o o       X   X X     # , i v n ) ] [ } } } ..{ [ } } ..} X.O.] v :   X % %   = % = % % % = 8 5 = = = % % X   C %   . + = 6 %   0.0.",
"0.0.0.0.0.0.0.0.0.0.0.0.0.0.0.0.0.0.0.0.0.0.0.0.0.0.0.0.0.0.0.0.0.0.0.0.0.0.0.0.0.0.0.0.0.0.0.0.0.0.0.0.0.0.0.0.0.0.0.0.0.0.0.0.0.0.0.0.0.0.0.0.0.0.0.0.0.0.0.0.0.i y j v , o o o o       % % % % X X   : y u v / ) [ { [ ] { [ ] ] [ { { } } X./ / k # X % X . % = % % = % % X t = = = % % X .     X % 6 5 X 0.0.0.0.",
"0.0.0.0.0.0.0.0.0.0.0.0.0.0.0.0.0.0.0.0.0.0.0.0.0.0.0.0.0.0.0.0.0.0.0.0.0.0.0.0.0.0.0.0.0.0.0.0.0.0.0.0.0.0.0.0.0.0.0.0.0.0.0.0.0.0.0.0.0.0.0.0.0.0.0.0.0.0.0.0.i n j , , o - o         = 5 5 = % X O   : , p v n ) [ ] [ [ ] ] ] [ { ] } } ..X.( ( / 1 # .   + X = = % % % %   5 8 = = % X   % X % = = % 0.0.0.0.0.0.",
"0.0.0.0.0.0.0.0.0.0.0.0.0.0.0.0.0.0.0.0.0.0.0.0.0.0.0.0.0.0.0.0.0.0.0.0.0.0.0.0.0.0.0.0.0.0.0.0.0.0.0.0.0.0.0.0.0.0.0.0.0.0.0.0.0.0.0.0.0.0.0.0.0.0.0.0.0.0.0.v n j , , - - o       . 5 8 5 5 7 = % X   : u p b n / ] [ ) / / / { { } ....} { } ( n ) b , o   X o   5 = % % %   . 5 5 % % X + O % % % 0.0.0.0.0.0.0.0.",
"0.0.0.0.0.0.0.0.0.0.0.0.0.0.0.0.0.0.0.0.0.0.0.0.0.0.0.0.0.0.0.0.0.0.0.0.0.0.0.0.0.0.0.0.0.0.0.0.0.0.0.0.0.0.0.0.0.0.0.0.0.0.0.0.0.0.0.0.0.0.0.0.0.0.0.0.0.0.v ( b 1 , - - o         8 8 w 8 t 7 = = X o : u j v n / ( / b n ^ ) { ..O.+.X...{ { { ( / / v : # X o X % = % X % %   . = = % X % % X 0.0.0.0.0.0.0.0.0.0.",
"0.0.0.0.0.0.0.0.0.0.0.0.0.0.0.0.0.0.0.0.0.0.0.0.0.0.0.0.0.0.0.0.0.0.0.0.0.0.0.0.0.0.0.0.0.0.0.0.0.0.0.0.0.0.0.0.0.0.0.0.0.0.0.0.0.0.0.0.0.0.0.0.0.0.0.0.0.0.j n j o o o         w w 8 w w t t 8 5 % % o - < p b n ^ n v j b / { ..+.+.+.@.X.{ ] { / ) ] v i : o o o X = = % X X %     = X X % . 0.0.0.0.0.0.0.0.0.0.0.",
"0.0.0.0.0.0.0.0.0.0.0.0.0.0.0.0.0.0.0.0.0.0.0.0.0.0.0.0.0.0.0.0.0.0.0.0.0.0.0.0.0.0.0.0.0.0.0.0.0.0.0.0.0.0.0.0.0.0.0.0.0.0.0.0.0.0.0.0.0.0.0.0.0.0.0.0.0.0.i i , o   o   o G w r w C C t w 8 8 5 =   o o < i v b b j y i b ( [ } O.+.$.+.+.} [ } ( ( ) n v y - o o   X = % X % %     X % % X 0.0.0.0.0.0.0.0.0.0.0.0.",
"0.0.0.0.0.0.0.0.0.0.0.0.0.0.0.0.0.0.0.0.0.0.0.0.0.0.0.0.0.0.0.0.0.0.0.0.0.0.0.0.0.0.0.0.0.0.0.0.0.0.0.0.0.0.0.0.0.0.0.0.0.0.0.0.0.0.0.0.0.0.0.0.0.0.0.0.0.0.0.- o o   o   = w 8 C w t t h r t 8 = = o o < , i p k p i y j b ( ( [ { ..+.+...} ] [ ) ( ] ) n v y , # o o o o % X X % X 0.0.0.0.0.0.0.0.0.0.0.0.0.0.0.0.",
"0.0.0.0.0.0.0.0.0.0.0.0.0.0.0.0.0.0.0.0.0.0.0.0.0.0.0.0.0.0.0.0.0.0.0.0.0.0.0.0.0.0.0.0.0.0.0.0.0.0.0.0.0.0.0.0.0.0.0.0.0.0.0.0.0.0.0.0.0.0.0.0.0.0.0.0.0.0.0.5 5 %   C R C 8 w 8 C C t 8 w 8 8 8 5 o , y y y y p j i v b n ( ] ( ] ] } O.} { { { ] ( ( ( ] / b j u < : # # , 0.0.0.0.0.0.0.0.0.0.0.0.0.0.0.0.0.0.0.0.",
"0.0.0.0.0.0.0.0.0.0.0.0.0.0.0.0.0.0.0.0.0.0.0.0.0.0.0.0.0.0.0.0.0.0.0.0.0.0.0.0.0.0.0.0.0.0.0.0.0.0.0.0.0.0.0.0.0.0.0.0.0.0.0.0.0.0.0.0.0.0.0.0.0.0.0.0.0.0.= = + . C R t w t t C w w w t t w 7 7 8 o < i u i i j b b ^ ( ( ] { [ { ) ] [ ..{ ] ] { ( n / [ [ ( ^ b j s p < , , 0.0.0.0.0.0.0.0.0.0.0.0.0.0.0.0.0.0.0.",
"0.0.0.0.0.0.0.0.0.0.0.0.0.0.0.0.0.0.0.0.0.0.0.0.0.0.0.0.0.0.0.0.0.0.0.0.0.0.0.0.0.0.0.0.0.0.0.0.0.0.0.0.0.0.0.0.0.0.0.0.0.0.0.0.0.0.0.0.0.0.0.0.0.0.0.0.0.5 = % + C U w C w 8 w C S w 8 w 8 8 w w X   @ : < 1 < - y p b ^ / [ [ [ } } [ ] ] ] ] ] ] [ n [ [ [ [ ( ( ^ ^ v i i 2 0.0.0.0.0.0.0.0.0.0.0.0.0.0.0.0.0.0.0.",
"0.0.0.0.0.0.0.0.0.0.0.0.0.0.0.0.0.0.0.0.0.0.0.0.0.0.0.0.0.0.0.0.0.0.0.0.0.0.0.0.0.0.0.0.0.0.0.0.0.0.0.0.0.0.0.0.0.0.0.0.0.0.0.0.0.0.0.0.0.0.0.0.0.0.0.0.= 5 %   8 *.C 8 w 8 S t w w w t w 8 8 t w : : O @ - : : y i i i b b ^ ^ / ] [ } [ [ ] ] ] ] ] / } } ( ) ) ) ) ( b v v p 0.0.0.0.0.0.0.0.0.0.0.0.0.0.0.0.0.0.0.",
"0.0.0.0.0.0.0.0.0.0.0.0.0.0.0.0.0.0.0.0.0.0.0.0.0.0.0.0.0.0.0.0.0.0.0.0.0.0.0.0.0.0.0.0.0.0.0.0.0.0.0.0.0.0.0.0.0.0.0.0.0.0.0.0.0.0.0.0.0.0.0.0.0.0.0.5 4 =   8 R S 8 S t w w 8 C t w t t 8 C G % X < , i j p v v b ^ ^ ) [ ] ] ) ( [ ] [ } ] ) [ { [ ( { { ) ( ) ) [ ) ^ v j y 0.0.0.0.0.0.0.0.0.0.0.0.0.0.0.0.0.0.0.",
"0.0.0.0.0.0.0.0.0.0.0.0.0.0.0.0.0.0.0.0.0.0.0.0.0.0.0.0.0.0.0.0.0.0.0.0.0.0.0.0.0.0.0.0.0.0.0.0.0.0.0.0.0.0.0.0.0.0.0.0.0.0.0.0.0.0.0.0.0.0.0.0.0.0.8 5 %   5 U K t t w w S C t w 8 w w w C R 8   : , i p v b n n n / ) ) ) } } { } [ ( ] [ } [ [ ] ) ( [ [ / / ( ( ] ^ ^ ^ b 0.0.0.0.0.0.0.0.0.0.0.0.0.0.0.0.0.0.0.0.",
"0.0.0.0.0.0.0.0.0.0.0.0.0.0.0.0.0.0.0.0.0.0.0.0.0.0.0.0.0.0.0.0.0.0.0.0.0.0.0.0.0.0.0.0.0.0.0.0.0.0.0.0.0.0.0.0.0.0.0.0.0.0.0.0.0.0.0.0.0.0.0.0.0.8 6 O   4 R w w t S S w S 8 t t 8 8 t w U S     o : 1 u i i i b ^ ( ( ] ( [ ] [ ..} [ ( ] [ ] ] ] ( ( ) ) ^ ( ( ) ) ^ b j y 0.0.0.0.0.0.0.0.0.0.0.0.0.0.0.0.0.0.0.0.",
"0.0.0.0.0.0.0.0.0.0.0.0.0.0.0.0.0.0.0.0.0.0.0.0.0.0.0.0.0.0.0.0.0.0.0.0.0.0.0.0.0.0.0.0.0.0.0.0.0.0.0.0.0.0.0.0.0.0.0.0.0.0.0.0.0.0.0.0.0.0.0.0.5 5 =   = U A t t t S w t C 8 t t w 8 8 C U +   % o X < 1 i i p j j ^ ^ ^ ( [ [ [ [ } } } [ ) ] ] ] ] ( / / ) ^ ( ^ / j , 0.0.0.0.0.0.0.0.0.0.0.0.0.0.0.0.0.0.0.0.0.0.",
"0.0.0.0.0.0.0.0.0.0.0.0.0.0.0.0.0.0.0.0.0.0.0.0.0.0.0.0.0.0.0.0.0.0.0.0.0.0.0.0.0.0.0.0.0.0.0.0.0.0.0.0.0.0.0.0.0.0.0.0.0.0.0.0.0.0.0.0.0.0.0.5 = =   % ! C 5 5 8 5 t w C t w t w w S S U = .   o : i p v n b n n n v b b b ^ } [ n [ } X.O...) ] ( ( ( / / / / / n n p - 0.0.0.0.0.0.0.0.0.0.0.0.0.0.0.0.0.0.0.0.0.0.",
"0.0.0.0.0.0.0.0.0.0.0.0.0.0.0.0.0.0.0.0.0.0.0.0.0.0.0.0.0.0.0.0.0.0.0.0.0.0.0.0.0.0.0.0.0.0.0.0.0.0.0.0.0.0.0.0.0.0.0.0.0.0.0.0.0.0.0.0.0.0.0.5 =   % S t 5 S 7.7.w S t t 8 w C C 8 r U r     o y i v b ) ] ] ) ( ) / n b ^ ^ / ( ( ( ^ [ ..X...( / / ^ / / / / / n v s u 0.0.0.0.0.0.0.0.0.0.0.0.0.0.0.0.0.0.0.0.0.0.",
"0.0.0.0.0.0.0.0.0.0.0.0.0.0.0.0.0.0.0.0.0.0.0.0.0.0.0.0.0.0.0.0.0.0.0.0.0.0.0.0.0.0.0.0.0.0.0.0.0.0.0.0.0.0.0.0.0.0.0.0.0.0.0.0.0.0.0.0.0.4 = =   X S G = w -.6.>.t w t C t 8 8 6 S U U     # u p v b [ } { ( ( ( ( ^ / / ( ) ) ( ( ( ) ( ^ { ( ( / / ^ n ^ ^ ^ b b v j 0.0.0.0.0.0.0.0.0.0.0.0.0.0.0.0.0.0.0.0.0.0.0.",
"0.0.0.0.0.0.0.0.0.0.0.0.0.0.0.0.0.0.0.0.0.0.0.0.0.0.0.0.0.0.0.0.0.0.0.0.0.0.0.0.0.0.0.0.0.0.0.0.0.0.0.0.0.0.0.0.0.0.0.0.0.0.0.0.0.0.0.0.5 = 5   % S G w w 5 -.;.=.t w t 8 w t t 8 R =.%   : , j v n ] ....( n n b / ) ) ) / ^ ^ b b ^ ^ ] ] ] ] / ) ) ^ n n ^ n v b v v 0.0.0.0.0.0.0.0.0.0.0.0.0.0.0.0.0.0.0.0.0.0.0.",
"0.0.0.0.0.0.0.0.0.0.0.0.0.0.0.0.0.0.0.0.0.0.0.0.0.0.0.0.0.0.0.0.0.0.0.0.0.0.0.0.0.0.0.0.0.0.0.0.0.0.0.0.0.0.0.0.0.0.0.0.0.0.0.0.0.0.0.0.5 = = . t t t C w % G G C % t t t 8 w t U *.%     , j b n ^ ] [ ..{ ^ ( ( ] ] ) n n b b v b ^ n ) { { ..{ / ( ^ b v n n v i 1   0.0.0.0.0.0.0.0.0.0.0.0.0.0.0.0.0.0.0.0.0.0.0.",
"0.0.0.0.0.0.0.0.0.0.0.0.0.0.0.0.0.0.0.0.0.0.0.0.0.0.0.0.0.0.0.0.0.0.0.0.0.0.0.0.0.0.0.0.0.0.0.0.0.0.0.0.0.0.0.0.0.0.0.0.0.0.0.0.0.0.0.0.5 = = . 5 8 t S w h % % 8 8 8 w w w h G =.=   o # i b n n / / ( ] ] { { ..] ] / / ) ( { ) ( { { { ..{ ..O.) ) / v j j v j j - 0.0.0.0.0.0.0.0.0.0.0.0.0.0.0.0.0.0.0.0.0.0.0.0.",
"0.0.0.0.0.0.0.0.0.0.0.0.0.0.0.0.0.0.0.0.0.0.0.0.0.0.0.0.0.0.0.0.0.0.0.0.0.0.0.0.0.0.0.0.0.0.0.0.0.0.0.0.0.0.0.0.0.0.0.0.0.0.0.0.0.0.0.0.= = = X % 8 8 C S C w w 8 t t 8 7 w R *.%   w o # i p v y b ^ ^ ] O.+.+.+.{ ] } ] ] ) ( ( ( ] ] ] ) { O.+.{ ^ ) n v j j j < y 0.0.0.0.0.0.0.0.0.0.0.0.0.0.0.0.0.0.0.0.0.0.0.0.",
"0.0.0.0.0.0.0.0.0.0.0.0.0.0.0.0.0.0.0.0.0.0.0.0.0.0.0.0.0.0.0.0.0.0.0.0.0.0.0.0.0.0.0.0.0.0.0.0.0.0.0.0.0.0.0.0.0.0.0.0.0.0.0.0.0.0.0.0.0.5 = = X 5 8 w C w w C w 7 C t 8 U &.X X C t o , < u i j / ^ ) } @.+.$.{ ] ^ b ^ / n j v b v j v n / X.@...( ) n ^ b b j < 0.0.0.0.0.0.0.0.0.0.0.0.0.0.0.0.0.0.0.0.0.0.0.0.0.",
"0.0.0.0.0.0.0.0.0.0.0.0.0.0.0.0.0.0.0.0.0.0.0.0.0.0.0.0.0.0.0.0.0.0.0.0.0.0.0.0.0.0.0.0.0.0.0.0.0.0.0.0.0.0.0.0.0.0.0.0.0.0.0.0.0.0.0.0.0.5 = = X X 8 5 S t 8 t w w t 8 Q R   % S w % # : : j n ^ ( ] { ..{ { / ^ ^ n ^ ) { [ } ( / n v p j p ) +.X.) / / ( ^ b i : 0.0.0.0.0.0.0.0.0.0.0.0.0.0.0.0.0.0.0.0.0.0.0.0.0.",
"0.0.0.0.0.0.0.0.0.0.0.0.0.0.0.0.0.0.0.0.0.0.0.0.0.0.0.0.0.0.0.0.0.0.0.0.0.0.0.0.0.0.0.0.0.0.0.0.0.0.0.0.0.0.0.0.0.0.0.0.0.0.0.0.0.0.0.0.0.5 = = =   % w h C C 8 8 C t S R X = S C 5 . # : k ( ] ( ) ] ) / / / / ] [ } } } } } } } { { { ) n i ^ { X.) ] ( ] ^ i 1 : 0.0.0.0.0.0.0.0.0.0.0.0.0.0.0.0.0.0.0.0.0.0.0.0.0.",
"0.0.0.0.0.0.0.0.0.0.0.0.0.0.0.0.0.0.0.0.0.0.0.0.0.0.0.0.0.0.0.0.0.0.0.0.0.0.0.0.0.0.0.0.0.0.0.0.0.0.0.0.0.0.0.0.0.0.0.0.O 6   0.0.0.0.0.0.0.5 = = %   w w C G w 8 8 G R . 8 K w % 8 % : ^ ) / / ] ) ^ v ^ [ ..O.X.X.+.[ ( ) ( / ( / ^ ( ] ) ] / ) [ [ ( ] ] j y : # 0.0.0.0.0.0.0.0.0.0.0.0.0.0.0.0.0.0.0.0.0.0.0.0.0.",
"0.0.0.0.0.0.0.0.0.0.0.0.0.0.0.0.0.0.0.0.0.0.0.0.0.0.0.0.0.0.0.0.0.0.0.0.0.0.0.0.0.0.0.0.0.0.0.0.0.0.0.0.0.0.0.0.0.0.0.; e g = 0.0.0.0.0.0.0.0.= = 5 X X C w t 8 S &.C . w K C 8   % : b ) ( ^ ( / n b ) O.O.O.X.{ ) ( k i j s i j j v v b ^ ^ ^ ^ n ) [ ] [ y , : 0.0.0.0.0.0.0.0.0.0.0.0.0.0.0.0.0.0.0.0.0.0.0.0.0.0.",
"0.0.0.0.0.0.0.0.0.0.0.0.0.0.0.0.0.0.0.0.0.0.0.0.0.0.0.0.0.0.0.0.0.0.0.0.0.0.0.0.0.0.0.0.0.0.0.0.0.0.0.0.0.0.0.0.0.0.5 e C g = . 0.0.0.0.0.0.0.5 = = =   5 C C K &.= . S Q 8 = R 5   < ^ ( b n ( / ( { X.[ ] ( B b k j j p p y y , 2 2 y s j v ( ) n ^ ) ( ] y < : 0.0.0.0.0.0.0.0.0.0.0.0.0.0.0.0.0.0.0.0.0.0.0.0.0.0.",
"0.0.0.0.0.0.0.0.0.0.0.0.0.0.0.0.0.0.0.0.0.0.0.0.0.0.0.0.0.0.0.0.0.0.0.0.0.0.0.0.0.0.0.0.0.0.0.0.0.0.0.0.0.0.0.0.0.% r g g 6 X   0.0.X 0.0.0.0.6 = = = %   C *.S   5 U R C S X = S = i ^ v v n ( { { [ ` n b M v n / ) [ ) ^ b b b 2 O o , p j b ] ( b / ^ ( y < 0.0.0.0.0.0.0.0.0.0.0.0.0.0.0.0.0.0.0.0.0.0.0.0.0.0.0.",
"0.0.0.0.0.0.0.0.0.0.0.0.0.0.0.0.0.0.0.0.0.0.0.0.0.0.0.0.0.0.0.0.0.0.0.0.0.0.0.0.0.0.0.0.0.0.0.0.0.0.0.0.0.0.0.0.7 r C g > .   0.0.X 6 >   0.0.w 5 = = = + % = % G U G 5 5 &.C % = = i h l ^ n ] ] / v j b ^ { { ..O.+.+.+.+.O.} [ [ [ ^ k i y p / { / / ( j i y 0.0.0.0.0.0.0.0.0.0.0.0.0.0.0.0.0.0.0.0.0.0.0.0.0.0.0.",
"0.0.0.0.0.0.0.0.0.0.0.0.0.0.0.0.0.0.0.0.0.0.0.0.0.0.0.0.0.0.0.0.0.0.0.0.0.0.0.0.0.0.0.0.0.0.0.0.0.0.0.0.0.0.0.4 g g t 9 $   0.  & 5 r 9 % 0.0.0.8 = = 5 % . 7 S C 5 5 w % 8 R 5 X X a k b n n n n ^ n [ ..X.O.O.@.@.$.$.<.$.$.+.+.O.X.} { n u i v ( ] ) / 2 y 0.0.0.0.0.0.0.0.0.0.0.0.0.0.0.0.0.0.0.0.0.0.0.0.0.0.0.0.",
"0.0.0.0.0.0.0.0.0.0.0.0.0.0.0.0.0.0.0.0.0.0.0.0.0.0.0.0.0.0.0.0.0.0.0.0.0.0.0.0.0.0.0.0.0.0.0.0.0.0.0.0.0.0.* V g t q g w   0.5 q 7 w w = X 0.0.= = = = 4 C C 5 5 5 5 &.8 % C 8 % % 1 j v v j ^ ) { X.+.@.+.@.@.<.<.<.$.$.<.$.@.@.+.+.+.X.{ ) j j ^ { ] b : 0.0.0.0.0.0.0.0.0.0.0.0.0.0.0.0.0.0.0.0.0.0.0.0.0.0.0.0.0.",
"0.0.0.0.0.0.0.0.0.0.0.0.0.0.0.0.0.0.0.0.0.0.0.0.0.0.0.0.0.0.0.0.0.0.0.0.0.0.0.0.0.0.0.0.0.0.0.0.0.0.0.0.. 7 r V q q e r g 4 4 g e * $ w 4 X 0.0.0.5 = 5 C 8 = = = . = G S = = t % = a i p i i ( { O.@.$.$.$.$.$.$.<.<.$.$.$.$.$.$.+.+.+.+.O.} ( n v / ) M y 0.0.0.0.0.0.0.0.0.0.0.0.0.0.0.0.0.0.0.0.0.0.0.0.0.0.0.0.0.",
"0.0.0.0.0.0.0.0.0.0.0.0.0.0.0.0.0.0.0.0.0.0.0.0.0.0.0.0.0.0.0.0.0.0.0.0.0.0.0.0.0.0.0.0.0.0.0.0.0.0.0.. 4 Z V q e g g g g g e e 8 7 = & X   0.0.0.5 5 = = % = = 5 X % h G 8 % 8 = + i i i i v ] ..@.<.$.$.@.$.$.$.$.$.$.$.$.$.$.@.@.+.+.+.O.X.} ) b n ^ / p 0.0.0.0.0.0.0.0.0.0.0.0.0.0.0.0.0.0.0.0.0.0.0.0.0.0.0.0.0.",
"0.0.0.0.0.0.0.0.0.0.0.0.0.0.0.0.0.0.0.0.0.0.0.0.0.0.0.0.0.0.0.0.0.0.0.0.0.0.0.0.0.0.0.0.0.0.0.0.0.0.0.; g V q ; 4 g g g g g e 9 7 9 e 4 X   0.0.0.0.8 = = = = 5 5 = X 8 C C = % % : < 1 1 p ^ ] X.$.$.$.$.@.$.$.$.<.$.$.$.$.@.$.+.+.@.+.+.O.O...] ^ v n b p 0.0.0.0.0.0.0.0.0.0.0.0.0.0.0.0.0.0.0.0.0.0.0.0.0.0.0.0.0.",
"0.0.0.0.0.0.0.0.0.0.0.0.0.0.0.0.0.0.0.0.0.0.0.0.0.0.0.0.0.0.0.0.0.0.0.0.0.0.0.0.0.0.0.0.0.0.0.0.0.. 9 g l 9 * & 7 g g g g e 7 7 q g g q = 0.0.$ 0.0.0.  5 5 5 7 5 7 X = 8 G w % . < < : u k ( [ X.@.$.@.@.$.$.$.$.<.<.$.$.<.$.@.+.O.@.+.+.O.O.} { ) v p j - 0.0.0.0.0.0.0.0.0.0.0.0.0.0.0.0.0.0.0.0.0.0.0.0.0.0.0.0.0.",
"0.0.0.0.0.0.0.0.0.0.0.0.0.0.0.0.0.0.0.0.0.0.0.0.0.0.0.0.0.0.0.0.0.0.0.0.0.0.0.0.0.0.0.0.0.0.0.0.$ 7 g g 9 & ; $ ; 9 g g e 9 7 9 r g g Z Z $ $ q $   0.0.. q 6 7 5 5 $ X 5 8 S 5 % : : = k b [ X.@.@.@.@.$.$.$.$.$.$.$.$.$.$.$.@.@.O.+.@.+.+.O.O.X...j 2 2 2 0.0.0.0.0.0.0.0.0.0.0.0.0.0.0.0.0.0.0.0.0.0.0.0.0.0.0.0.0.",
"0.0.0.0.0.0.0.0.0.0.0.0.0.0.0.0.0.0.0.0.0.0.0.0.0.0.0.0.0.0.0.0.0.0.0.0.0.0.0.0.0.0.0.0.0.0.0.4 4 g g 7 $ $ & & $ r g 7 q 7 e g g g A J P F r g e = 0.0.X   w 6 5 5 5 X % 5 8 S = . = 6 v n { { +.$.@.@.$.$.$.<.$.$.$.$.$.$.$.$.@.+.+.+.+.+.O.+.O.X.( i 2 i 0.0.0.0.0.0.0.0.0.0.0.0.0.0.0.0.0.0.0.0.0.0.0.0.0.0.0.0.0.",
"0.0.0.0.0.0.0.0.0.0.0.0.0.0.0.0.0.0.0.0.0.0.0.0.0.0.0.0.0.0.0.0.0.0.0.0.0.0.0.0.0.0.0.0.0.0.  q r g 4 & * $ $ 7 9 g e 7 9 7 g g g A J P P Y D q q 7 X   0.    t 5 5 5 5 . = = C C % X u v / [ { O.@.@.$.$.$.<.<.<.<.%.$.@.$.$.$.$.+.O.@.+.X.+.X.+.+.{ f y , 0.0.0.0.0.0.0.0.0.0.0.0.0.0.0.0.0.0.0.0.0.0.0.0.0.0.0.0.0.",
"0.0.0.0.0.0.0.0.0.0.0.0.0.0.0.0.0.0.0.0.0.0.0.0.0.0.0.0.0.0.0.0.0.0.0.0.0.0.0.0.0.0.0.0.0.0.e g g 9 $ $ q 4 * 9 g q q 9 9 g g g A P P P E I V $ & 4 *   0.0.    5 5 5 5 = . = % S w % 5 v ( [ X.+.@.$.$.<.$.<.<.$.$.$.$.@.$.$.$.$.@.O.+.+.+.X.+.+.@.X./ j o 0.0.0.0.0.0.0.0.0.0.0.0.0.0.0.0.0.0.0.0.0.0.0.0.0.0.0.0.0.",
"0.0.0.0.0.0.0.0.0.0.0.0.0.0.0.0.0.0.0.0.0.0.0.0.0.0.0.0.0.0.0.0.0.0.0.0.0.0.0.0.0.0.0.  * 7 g r 6 $ & & $ = e g q 9 7 q g g g A H J I I P t 5 $ $ $ > X   0.0.%   O 5 5 = %   = = U 5 X b ] [ +.+.$.$.$.$.$.$.$.$.$.$.$.$.$.$.$.$.@.+.+.+.+.O.O.O.$.X.) v y 0.0.0.0.0.0.0.0.0.0.0.0.0.0.0.0.0.0.0.0.0.0.0.0.0.0.0.0.0.",
"0.0.0.0.0.0.0.0.0.0.0.0.0.0.0.0.0.0.0.0.0.0.0.0.0.0.0.0.0.0.0.0.0.0.0.0.0.0.0.0.0.0.0.4 g Z g 6 & $ & ; 4 q e q 7 7 9 g g g D J I J J H r 4 $ $ $ $ X     0.0.0.    % 5 = =   + % = S 8 ^ [ ..X.@.%.$.$.@.%.$.$.<.<.<.$.@.$.$.@.$.$.+.+.+.+.+.O...O.O.[ n < 0.0.0.0.0.0.0.0.0.0.0.0.0.0.0.0.0.0.0.0.0.0.0.0.0.0.0.0.0.",
"0.0.0.0.0.0.0.0.0.0.0.0.0.0.0.0.0.0.0.0.0.0.0.0.0.0.0.0.0.0.0.0.0.0.0.0.0.0.0.0.0.0.= C g r 6 $ $ $ $ 6 r r 7 9 7 e g g g A P P I I F e $ $ $ $ $ $ X     0.0.0.0.  . X = = % . X % = 6 b ) { O.$.$.$.$.@.<.$.$.<.<.$.$.@.$.@.@.@.+.+.+.+.@.@.O.o.X.X.{ / z 0.0.0.0.0.0.0.0.0.0.0.0.0.0.0.0.0.0.0.0.0.0.0.0.0.0.0.0.0.",
"0.0.0.0.0.0.0.0.0.0.0.0.0.0.0.0.0.0.0.0.0.0.0.0.0.0.0.0.0.0.0.0.0.0.0.0.0.0.0.0.0.e t g e ; O & 4 & 5 g g 9 9 4 q g e g D J P I I F e ; $ $ $ $ $ X     0.0.0.0.0.X X   O = = % X   .   n ( } +.$.$.$.@.$.%.$.$.<.$.$.$.@.$.@.+.+.+.+.O.O.+.+.O...O.X.] B b k 0.0.0.0.0.0.0.0.0.0.0.0.0.0.0.0.0.0.0.0.0.0.0.0.0.0.0.0.",
"0.0.0.0.0.0.0.0.0.0.0.0.0.0.0.0.0.0.0.0.0.0.0.0.0.0.0.0.0.0.0.0.0.0.0.0.0.0.0.0.5 Z g r & O ; $ ; 7 r r e 7 9 r g g g A P P P I D w & $ $ $ $ $ .     0.0.0.0.0.0.0.X %   % = = = % X . ) } O.@.$.$.@.@.<.$.$.$.$.$.@.$.$.$.$.@.@.+.+.+.+.@.+.o.+...X.} n B k 0.0.0.0.0.0.0.0.0.0.0.0.0.0.0.0.0.0.0.0.0.0.0.0.0.0.0.0.",
"0.0.0.0.0.0.0.0.0.0.0.0.0.0.0.0.0.0.0.0.0.0.0.0.0.0.0.0.0.0.0.0.0.0.0.0.0.0.0.; g Z q ; $ $ 4 % 7 g r 7 9 7 q g g Z F P P P P D 9 & $ $ $ $ $ .     0.0.0.0.0.0.0.0.0.X % . X % % X % 0.b X.@.$.@.@.$.$.<.$.$.$.$.@.$.@.@.$.$.@.@.+.+.+.+.@.+.O.X.X.} ] / v k S 0.0.0.0.0.0.0.0.0.0.0.0.0.0.0.0.0.0.0.0.0.0.0.0.0.0.0.",
"0.0.0.0.0.0.0.0.0.0.0.0.0.0.0.0.0.0.0.0.0.0.0.0.0.0.0.0.0.0.0.0.0.0.0.0.0.0.7 V C g 6 $ $ $ ; 9 g r 9 9 9 e g g V H P I T I A 9 & $ $ $ $ $ $   . 0.0.0.0.0.0.0.0.0.0.0.X = X . X X 0.0./ } X.+.@.$.$.$.$.$.$.$.<.$.$.$.$.$.$.$.@.@.+.@.+.O.+.O.X.X...} n v k k 0.0.0.0.0.0.0.0.0.0.0.0.0.0.0.0.0.0.0.0.0.0.0.0.0.0.0.",
"0.0.0.0.0.0.0.0.0.0.0.0.0.0.0.0.0.0.0.0.0.0.0.0.0.0.0.0.0.0.0.0.0.0.0.0.0.= A V g ; $ * $ $ 9 g e 9 7 9 e g g g H P P E E P e & $ $ $ $ $ .     0.0.0.0.0.0.0.0.0.0.0.0.0.0.% % 0.0.0.0.0.[ } +.@.@.$.@.$.$.<.<.<.<.$.$.$.$.$.$.$.@.+.+.+.O.O.+.O.X.X.{ ( n v s a 0.0.0.0.0.0.0.0.0.0.0.0.0.0.0.0.0.0.0.0.0.0.0.0.0.0.",
"0.0.0.0.0.0.0.0.0.0.0.0.0.0.0.0.0.0.0.0.0.0.0.0.0.0.0.0.0.0.0.0.0.0.0.  7 g g q 4 . O ; $ 6 g g 7 9 6 r g g A F P P I T D q * $ $ $ $ $ $ .   0.0.0.0.0.0.0.0.0.0.0.0.0.0.0.0.0.0.0.0.0.0.[ } @.$.@.@.$.<.$.<.<.<.$.$.$.@.$.$.$.@.@.+.O.O.X.X.+.O.X.} { ] / v v i 0.0.0.0.0.0.0.0.0.0.0.0.0.0.0.0.0.0.0.0.0.0.0.0.0.0.",
"0.0.0.0.0.0.0.0.0.0.0.0.0.0.0.0.0.0.0.0.0.0.0.0.0.0.0.0.0.0.0.0.0.0.0.9 V l e 4 $ ; & * 9 r e e 9 7 r g g g P P P T I D q = $ $ $ $ $ . .   0.0.0.0.0.0.0.0.0.0.0.0.0.0.0.0.0.0.0.0.0.0.0.{ +.+.$.@.@.<.$.@.$.$.1.$.$.$.$.$.@.$.@.@.O.O.+.+.O.X.O.......( ) n j s : 0.0.0.0.0.0.0.0.0.0.0.0.0.0.0.0.0.0.0.0.0.0.0.0.0.",
"0.0.0.0.0.0.0.0.0.0.0.0.0.0.0.0.0.0.0.0.~ m f d y y 0.0.0.0.0.0.0.0.& g Z r & $ $ 4 ; 6 r r 9 7 9 9 g g Z D P P P E A q $ $ $ $ $ $ . .   0.0.0.0.0.0.0.0.0.0.0.0.0.0.0.0.0.0.0.0.0.0.0.0...+.+.+.@.$.$.$.$.$.$.<.$.<.$.$.$.@.$.@.+.O.O.+.+.O.O.X.X.X.{ [ ) ^ j j u 0.0.0.0.0.0.0.0.0.0.0.0.0.0.0.0.0.0.0.0.0.0.0.0.0.",
"0.0.0.0.0.0.0.0.0.0.0.0.0.0.0.0.0.0.0.~ _ _ _ _ x d d 0.0.0.0.0.0.9 t V r 7 $ $ $ & 9 g g 9 9 7 r g g g F P Y T T F q * $ $ $ $ $ . . 0.0.0.0.0.0.0.0.0.0.0.0.0.0.0.0.0.0.0.0.0.0.0.0.0.0.} X.@.@.$.$.@.$.$.$.$.$.$.$.$.@.@.@.%.@.+.+.O.+.+.X.O.X.X.X.{ { ) ^ k v p 0.0.0.0.0.0.0.0.0.0.0.0.0.0.0.0.0.0.0.0.0.0.0.0.0.",
"0.0.0.0.0.0.0.0.0.0.0.0.0.0.0.0.0.0.0._ ' | | O.| N s , 0.0.0.0.6 g g g 4 $ ; & $ 6 r e 9 9 9 e g g g P P P E T P q * $ $ $ $ . .     0.0.0.0.0.0.0.0.0.0.0.0.0.0.0.0.0.0.0.0.0.0.0.0.0.0...+.+.@.$.<.$.$.$.$.$.$.@.@.@.+.@.@.@.@.@.+.O.O.+.X.X.O.} X.{ } ] ) ^ v j u 0.0.0.0.0.0.0.0.0.0.0.0.0.0.0.0.0.0.0.0.0.0.0.0.",
"0.0.0.0.0.0.0.0.0.0.0.0.0.0.0.0.0.0.x | | X.o.O.o.| N d 0.0.0.= g g r ; . O & * 7 r r q 7 9 q g g Z H P P P T D 9 # $ O $ $ $ $ . 0.0.0.0.0.0.0.0.0.0.0.0.0.0.0.0.0.0.0.0.0.0.0.0.0.0.0.0.} ..+.@.<.<.$.$.$.@.@.@.@.+.@.+.+.@.@.$.@.+.+.O.+.O.O.X.X...{ { ] ( / v j s 0.0.0.0.0.0.0.0.0.0.0.0.0.0.0.0.0.0.0.0.0.0.0.0.",
"0.0.0.0.0.0.0.0.0.0.0.0.0.0.0.0.0.0._ O.%.+.+.o.o.| N , > 0.w g V e 6 $ & 4 & 7 g g 9 e 4 r g g g F P P Y Y F e * $ $ $ $ $ X .   0.0.0.0.0.0.0.0.0.0.0.0.0.0.0.0.0.0.0.0.0.0.0.0.0.0.0.0.{ ..+.+.$.<.<.$.<.@.@.@.@.@.+.+.+.+.@.@.+.+.o.+.O.+.O.X.O...{ { ] ( / b p p 5 0.0.0.0.0.0.0.0.0.0.0.0.0.0.0.0.0.0.0.0.0.0.0.",
"0.0.0.0.0.0.0.0.0.0.0.0.0.0.0.0.0.x _ ' o.o.o.o.| | _ , > & g Z g & $ $ * 4 6 r r q 7 q 9 g g V H P P Y T Z 9 * O O $ $ $ .     0.0.0.0.0.0.0.0.0.0.0.0.0.0.0.0.0.0.0.0.0.0.0.0.0.0.0.0.0.[ ....+.<.<.<.$.$.$.@.@.@.@.@.+.+.@.+.+.+.O.O.O.+.@.O.X.O.....{ [ ] ) / v s < 0.0.0.0.0.0.0.0.0.0.0.0.0.0.0.0.0.0.0.0.0.0.0.",
"0.0.0.0.0.0.0.0.0.0.0.0.0.0.0.0.0.> s s _ _ _ ' ' | _ y > t C r 7 $ $ $ $ q r r 9 9 9 e r g V D P I E T H e & $ $ $ $ $ . . 0.0.0.0.0.0.0.0.0.0.0.0.0.0.0.0.0.0.0.0.0.0.0.0.0.0.0.0.0.0.0.( ..O.+.$.$.$.$.$.$.@.@.@.@.+.+.+.+.+.+.O.O.O.O.+.O.O.X.X.....) [ ) ) ( b j y o 0.0.0.0.0.0.0.0.0.0.0.0.0.0.0.0.0.0.0.0.0.0.",
"0.0.0.0.0.0.0.0.0.0.0.0.0.0.0.0.0.> m N _ N _ _ _ | ' , - g V 4 $ = ; & ; g g 9 e 4 e g g Z H P P T Y H e = $ $ $ $ $       0.0.0.0.0.0.0.0.0.0.0.0.0.0.0.0.0.0.0.0.0.0.0.0.0.0.0.0.0.0.0.0.....O.@.$.$.$.$.$.@.@.+.+.@.+.+.@.+.O.X.X.O.O.O.X.X.........[ [ ) ) ( n j s , 0.0.0.0.0.0.0.0.0.0.0.0.0.0.0.0.0.0.0.0.0.0.",
"0.0.0.0.0.0.0.0.0.0.0.0.0.0.0.0.- y _ O.O.| | ' ' o.' y - t & $ & $ = 7 e r e 7 9 9 g g Z H P P I W F q $ $ $ $ $ $ X .   0.0.0.0.0.0.0.0.0.0.0.0.0.0.0.0.0.0.0.0.0.0.0.0.0.0.0.0.0.0.0.0.0.} O.+.+.$.<.$.@.$.@.+.+.+.+.+.+.@.+.O.O.O.O.O.X.X.X...{ ) ) ) ( ) ) ( ^ b p 2 0.0.0.0.0.0.0.0.0.0.0.0.0.0.0.0.0.0.0.0.0.0.",
"0.0.0.0.0.0.0.0.0.0.0.0.0.0.0.0.> y _ ' ' ' ' _ _ ' _ > O 4 $ $ 6 $ 7 g g 7 e 4 e g g V D P P Y Y F e * $ $ $ $ $ X .   0.0.0.0.0.0.0.0.0.0.0.0.0.0.0.0.0.0.0.0.0.0.0.0.0.0.0.0.0.0.0.0.0.0.X.+.+.$.%.$.@.$.%.@.+.+.O.+.+.+.+.+.O.O.O.O.+.O.X.X...{ ) ) ( ( ( ( ( ^ j p y o 0.0.0.0.0.0.0.0.0.0.0.0.0.0.0.0.0.0.0.0.0.",
"0.0.0.0.0.0.0.0.0.0.0.0.0.0.0.0., m _ o.O.+. .' _ ' N > o $ $ $ ; 9 e r q 7 q 9 g g g H P P T I D 9 * $ $ $ $ $ X     0.0.0.0.0.0.0.0.0.0.0.0.0.0.0.0.0.0.0.0.0.0.0.0.0.0.0.0.0.0.0.0.0.0.0...O.+.$.%.$.$.@.@.+.+.+.+.+.+.+.+.+.O.O.O.O.O.O.X.X...{ [ ) ( ( ( ( ( n p s s : 0.0.0.0.0.0.0.0.0.0.0.0.0.0.0.0.0.0.0.0.0.",
"0.0.0.0.0.0.0.0.0.0.0.0.0.0.0.0., _ | %.<.O. .' ' ' N y   $ 7 & 9 r e q 7 q q g g V D P I W E H r & $ $ $ $ . . . 0.0.0.0.0.0.0.0.0.0.0.0.0.0.0.0.0.0.0.0.0.0.0.0.0.0.0.0.0.0.0.0.0.0.0.0.0...O.+.$.<.<.%.@.@.o.+.+.+.+.+.+.@.@.+.+.O.O.O.O.X.X.X.{ } ) ( ( ( ( ( ( k j a o 0.0.0.0.0.0.0.0.0.0.0.0.0.0.0.0.0.0.0.0.0.",
"0.0.0.0.0.0.0.0.0.0.0.0.0.0.0., , ' %.3.3.O.X.' ' ' N y   $ = 5 g g 7 q 7 e g g Z F P P I Y H r * $ $ $ $ $ .   0.0.0.0.0.0.0.0.0.0.0.0.0.0.0.0.0.0.0.0.0.0.0.0.0.0.0.0.0.0.0.0.0.0.0.0.0.0.} ..+.@.<.$.%.+.+.O.+.+.+.+.+.+.@.+.+.O.O.O.O.O.O.X...{ { ) ) ) ( ( ( ^ b f s y 0.0.0.0.0.0.0.0.0.0.0.0.0.0.0.0.0.0.0.0.0.",
"0.0.0.0.0.0.0.0.0.0.0.0.0.0.0.# d o.3.3.3.O.O.} ' ' _ y . $ 4 r e q 7 7 e g r g H P P Y T F e * $ $ $ $ $ $ X   0.0.0.0.0.0.0.0.0.0.0.0.0.0.0.0.0.0.0.0.0.0.0.0.0.0.0.0.0.0.0.0.0.0.0.0.0.0.{ X.O.+.$.<.%.@.+.O.O.O.+.+.+.+.@.+.+.O.O.O.O.O.O.....{ } ..) ( ( ( ( ( n v j s < 0.0.0.0.0.0.0.0.0.0.0.0.0.0.0.0.0.0.0.0.",
"0.0.0.0.0.0.0.0.0.0.0.0.0.0.0.> s o.$.3.3.O.O. .' ' _ x . t r e 9 7 9 q g g Z H P P I T D e & $ $ $ $ $ .     0.0.0.0.0.0.0.0.0.0.0.0.0.0.0.0.0.0.0.0.0.0.0.0.0.0.0.0.0.0.0.0.0.0.0.0.0.0.0...X.+.+.$.<.$.@.+.O.X.+.O.+.+.+.+.+.+.O.O.O.O.X.X.} o...{ { ] ] ( ( ( ( ^ ^ v k s 0.0.0.0.0.0.0.0.0.0.0.0.0.0.0.0.0.0.0.0.",
"0.0.0.0.0.0.0.0.0.0.0.0.0.0.o y N O.O.<.<.O.O.| ' _ _ m o g e 7 e 7 e t g V H P P Y I D 9 * $ $ $ $ $ O     0.0.0.0.0.0.0.0.0.0.0.0.0.0.0.0.0.0.0.0.0.0.0.0.0.0.0.0.0.0.0.0.0.0.0.0.0.0.0.0...X.O.+.<.<.<.@.+.O.X.O.O.O.+.+.+.+.+.O.O.O.O.X.......) { { [ ] ( ( ( ( ) n ^ j k 2 0.0.0.0.0.0.0.0.0.0.0.0.0.0.0.0.0.0.0.",
"0.0.0.0.0.0.0.0.0.0.0.0.> > o L _ O.O.O.O.O. .' ' _ m y - q 9 7 q w t V V F P P I E D 9 & $ $ $ $ X .     0.0.0.0.0.0.0.0.0.0.0.0.0.0.0.0.0.0.0.0.0.0.0.0.0.0.0.0.0.0.0.0.0.0.0.0.0.0.0.0.0.[ ..O.+.$.<.$.@.+.+.X.X.+.O.+.+.@.+.+.+.O.O.O.X.} } {  .} [ ] ] ] ( ( ( ) / n b j s 0.0.0.0.0.0.0.0.0.0.0.0.0.0.0.0.0.0.0.",
"0.0.0.0.0.0.0.0.0.0.0.> d d > _ | O.O.O.O.X.' ' _ L m y   q 7 q e r V z F J I Y I A 7 * $ $ $ $ . .   0.0.0.0.0.0.0.0.0.0.0.0.0.0.0.0.0.0.0.0.0.0.0.0.0.0.0.0.0.0.0.0.0.0.0.0.0.0.0.0.0.0.0.} ..+.@.%.<.$.@.+.+.O.o.O.O.+.+.+.+.+.+.O.O.O.O.X.} { ) { ] ] ] ( ( ( ) ) ( / b k k f 0.0.0.0.0.0.0.0.0.0.0.0.0.0.0.0.0.0.",
"0.0.0.0.0.0.0.0.0.> d s s = d ' O.X.X.O.O.| ' ' _ L m y . o 7 t g g g F P P T P Z 7 $ $ $ $ $ X .     0.0.0.0.0.0.0.0.0.0.0.0.0.0.0.0.0.0.0.0.0.0.0.0.0.0.0.0.0.0.0.0.0.0.0.0.0.0.0.0.0.0.0.{ X.O.+.$.<.$.@.+.O.O.O.+.+.+.+.@.+.+.O.O.X.X.O.X...{ { { [ [ ] ) ( ( ( ] ( / ^ b k k < 0.0.0.0.0.0.0.0.0.0.0.0.0.0.0.0.0.",
"0.0.0.0.0.0.0.0.> m m s s # L O.<.#.#.O.O.' ' ' _ L m y . O w t g g F H P I P V 7 $ $ $ $ $ .       0.0.0.0.0.0.0.0.0.0.0.0.0.0.0.0.0.0.0.0.0.0.0.0.0.0.0.0.0.0.0.0.0.0.0.0.0.0.0.0.0.0.0.0...X.+.+.$.<.$.@.+.O.X.+.O.+.+.+.+.+.+.O.O.O.O.X.X.....{ { { [ ] ) ( ( ( ] ( / n v k k 0 0.0.0.0.0.0.0.0.0.0.0.0.0.0.0.0.0.",
"0.0.0.0.0.0.0.d N ' m s   d ' %.$.<.2.O.O.' ' ' _ L m y > % r g Z F P P I I V 6 $ $ $ $ $ .     0.0.0.0.0.0.0.0.0.0.0.0.0.0.0.0.0.0.0.0.0.0.0.0.0.0.0.0.0.0.0.0.0.0.0.0.0.0.0.0.0.0.0.0.0.0.} X.O.+.<.<.<.@.+.O.X.O.O.O.+.+.+.+.+.O.O.O.O.X.X.....{ { { ] ] ] ( ( ( ) ] / n b j k f 8 0.0.0.0.0.0.0.0.0.0.0.0.0.0.0.0.",
"0.0.0.0.0.0.d N ' N N s   m X.3.3.3.<.2.o. .' ' _ L N s y # # A F H H P F g 4 & $ $ $ $ O       0.0.0.0.0.0.0.0.0.0.0.0.0.0.0.0.0.0.0.0.0.0.0.0.0.0.0.0.0.0.0.0.0.0.0.0.0.0.0.0.0.0.0.0.0.0.[ ..O.+.$.<.$.@.+.+.X.o.+.O.+.+.@.+.+.+.O.O.O.X...X.} ..{ [ [ ] ] ( ) ( ( ] ) ^ b v M z 3 0.0.0.0.0.0.0.0.0.0.0.0.0.0.0.0.",
"0.0.0.0.0.m N '  .N s , , ' 3.%.3.$.%.#.O...' ' ' _ N m z , > H F P J J e 4 $ $ $ $ $ .       0.0.0.0.0.0.0.0.0.0.0.0.0.0.0.0.0.0.0.0.0.0.0.0.0.0.0.0.0.0.0.0.0.0.0.0.0.0.0.0.0.0.0.0.0.0.0.} ..X.+.@.<.$.@.+.+.O.o.O.O.+.+.+.+.+.O.O.O.O.O...........{ [ [ ) ) ) ) ) ) ) ( ^ v b p z 0.0.0.0.0.0.0.0.0.0.0.0.0.0.0.0.",
"0.0.0.0.m N '  .N N s   z | %.%.#.#.+.O. . . .' ' _ N m s y # # I I F e = $ $ $ $ $ X       0.0.0.0.0.0.0.0.0.0.0.0.0.0.0.0.0.0.0.0.0.0.0.0.0.0.0.0.0.0.0.0.0.0.0.0.0.0.0.0.0.0.0.0.0.0.0.0./ ..X.+.@.<.<.@.+.O.X.O.O.O.+.+.+.+.+.O.O.X.X.O.X.......{ { ..) { ) [ ) ) ) ) ) / ^ b v k - 0.0.0.0.0.0.0.0.0.0.0.0.0.0.0.",
"0.0.0.m N ' o.' N s ,   L O.#.#.+.O. . .o. . . .' _ L N d y # # T P Z ; $ $ $ $ X         0.0.0.0.0.0.0.0.0.0.0.0.0.0.0.0.0.0.0.0.0.0.0.0.0.0.0.0.0.0.0.0.0.0.0.0.0.0.0.0.0.0.0.0.0.0.0.0.0.` X.O.+.$.<.<.@.@.+.X.X.O.O.+.+.+.+.+.O.X.O.X.X.X.......{ { [ ) ) [ ) [ ) ) ) ) ( ^ ^ b m s 0.0.0.0.0.0.0.0.0.0.0.0.0.0.0.",
"0.0.d N ' o.' N s s   , ' #.O.o. . .|  .o. . . .' ' L N m y # .   C & O $ $ $ $ X     0.0.0.0.0.0.0.0.0.0.0.0.0.0.0.0.0.0.0.0.0.0.0.0.0.0.0.0.0.0.0.0.0.0.0.0.0.0.0.0.0.0.0.0.0.0.0.0.0.0.0.[ } +.@.$.<.$.$.+.+.+...+.O.+.+.+.+.+.O.X.O.O...O.........{ ..) [ ) [ ) ) ) ) ) ( / ^ b j j < 0.0.0.0.0.0.0.0.0.0.0.0.0.0.",
"0.> m ' o.' N s s   > m | +.}  . .|  . . . . . .' ' _ N m d - . > 4 $ $ $ $ $ .       0.0.0.0.0.0.0.0.0.0.0.0.0.0.0.0.0.0.0.0.0.0.0.0.0.0.0.0.0.0.0.0.0.0.0.0.0.0.0.0.0.0.0.0.0.0.0.0.0.0.0.} ..O.+.$.$.<.@.+.+.+.O.O.O.O.+.+.+.O...+...X.X...........) ..) { ) ) [ [ ) ) ) ( ( n n b k p 0.0.0.0.0.0.0.0.0.0.0.0.0.0.",
"0.d N  . .N N s > ; L ' O.X. . . . .' |  . . . .' ' ' N m d > -   $ $ $ $ $ X       0.0.0.0.0.0.0.0.0.0.0.0.0.0.0.0.0.0.0.0.0.0.0.0.0.0.0.0.0.0.0.0.0.0.0.0.0.0.0.0.0.0.0.0.0.0.0.0.0.0.0.0.( ..O.+.@.<.$.<.@.+.O. .O.O.+.+.+.+.+.O...O.X...............} } ) ) ) ) ) [ ( ( ( ( ^ b b b k : 0.0.0.0.0.0.0.0.0.0.0.0.0.",
"> m | |  .N N s s N ' _ o. . .| | ' ' ' ' | ' ' | ' ' _ m y y , . $ $ $ $ .   . 0.0.0.0.0.0.0.0.0.0.0.0.0.0.0.0.0.0.0.0.0.0.0.0.0.0.0.0.0.0.0.0.0.0.0.0.0.0.0.0.0.0.0.0.0.0.0.0.0.0.0.0.0.0.b ....O.@.<.$.@.@.+.+...O.O.+.+.@.+.+...O.X.O.............) ) ) ) ) [ ) [ ) ) ( ( ( / n b j s 5 0.0.0.0.0.0.0.0.0.0.0.0.0.",
"d _ o.| ' N N s N | ' _ o. . . .' | ' ' ' ' ' ' ' ' ' N m f , ;   $ X X $     0.0.0.0.0.0.0.0.0.0.0.0.0.0.0.0.0.0.0.0.0.0.0.0.0.0.0.0.0.0.0.0.0.0.0.0.0.0.0.0.0.0.0.0.0.0.0.0.0.0.0.0.0.0.0.0.} ..+.+.<.<.$.+.+...O.O.O.O.+.@.@.+.O.X.O...O...................) ) ) ) [ ) ) ) ) ( ( n v p 2 0.0.0.0.0.0.0.0.0.0.0.0.0.",
"d ' O.| ' N N N ' | L _  .|  . .} | | | _ _ _ ' ' ' _ N N f y > . $ X X X   0.0.0.0.0.0.0.0.0.0.0.0.0.0.0.0.0.0.0.0.0.0.0.0.0.0.0.0.0.0.0.0.0.0.0.0.0.0.0.0.0.0.0.0.0.0.0.0.0.0.0.0.0.0.0.0.0.} O.O.@.$.<.$.@.+.O.X.O.O.+.+.@.@.+.+.+.X.O...............} { } ) ] ] ) ] ] ( ) ) [ ) ^ b k s 8 0.0.0.0.0.0.0.0.0.0.0.0.",
"d | #.o.| ' _ | | ' _ | | |  .o.#.O. .| ' L L N _ _ _ N m x y , o $ $ .   0.0.0.0.0.0.0.0.0.0.0.0.0.0.0.0.0.0.0.0.0.0.0.0.0.0.0.0.0.0.0.0.0.0.0.0.0.0.0.0.0.0.0.0.0.0.0.0.0.0.0.0.0.0.0.0.0.0...X.+.$.<.<.$.@.+.+.X.O.O.+.+.+.@.+.+.O.O.O.X.X...........} { { { ] ] ) ( ] ] ( ) ) ] / n b v k # 0.0.0.0.0.0.0.0.0.0.0.",
"f | O.#.| ' ' ' | ' _ | ' | o.#.+.+.#.| | _ N x m N L L N s , ; o X .   . 0.0.0.0.0.0.0.0.0.0.0.0.0.0.0.0.0.0.0.0.0.0.0.0.0.0.0.0.0.0.0.0.0.0.0.0.0.0.0.0.0.0.0.0.0.0.0.0.0.0.0.0.0.0.0.0.0.0...O.@.@.<.$.$.@.+.+.O.X.+.O.+.+.@.+.+.+...O.X.X.........} } ....[ [ ] ] ) ] ] ( ) [ ( ) ^ b b f i 0.0.0.0.0.0.0.0.0.0.0.",
"s ' +.o.| ' ' _ ' _ _  .' | #.+.$.+.O.o.' _ N d d x N N m a , o o       0.0.0.0.0.0.0.0.0.0.0.0.0.0.0.0.0.0.0.0.0.0.0.0.0.0.0.0.0.0.0.0.0.0.0.0.0.0.0.0.0.0.0.0.0.0.0.0.0.0.0.0.0.0.0.0.0.0.0.} X.+.$.$.$.$.@.+.O.X.O.O.O.+.+.@.+.+.X.X.X.O.X.......} ......{ { [ ] ] ] ) ] ( ) ) [ ( n n b v s < 0.0.0.0.0.0.0.0.0.0.",
"- _ X.| | ' ' ' ' _ ' ' '  . .#.+.| | ' _ _ N f y d f k f a , , o     0.0.0.0.0.0.0.0.0.0.0.0.0.0.0.0.0.0.0.0.0.0.0.0.0.0.0.0.0.0.0.0.0.0.0.0.0.0.0.0.0.0.0.0.0.0.0.0.0.0.0.0.0.0.0.0.0.0.0.0.] X.@.@.$.%.%.$.+.+.O.X.O.O.+.+.@.+.O.X.X.X.X.X...............{ { { ] ] ] ] ] [ ( ( ] ) / n b v k y 0.0.0.0.0.0.0.0.0.0."
};
