/* XPM */
static char *Reload3[] = {
/* columns rows colors chars-per-pixel */
"200 141 133 2 ",
"   c #030303",
".  c #090706",
"X  c #0B0906",
"o  c #080708",
"O  c #0B0B0B",
"+  c #170F07",
"@  c #100D09",
"#  c #0B1707",
"$  c #171F07",
"%  c #14100A",
"&  c #1F170B",
"*  c #1F180D",
"=  c #100C10",
"-  c #131313",
";  c #181417",
":  c #1A1619",
">  c #1B1B1B",
",  c #251F0E",
"<  c #2F1B0B",
"1  c #2B1D12",
"2  c #221E1E",
"3  c #2B230F",
"4  c #2E2112",
"5  c #2B231E",
"6  c #372313",
"7  c #332B13",
"8  c #3F2F17",
"9  c #322218",
"0  c #3E2B1B",
"q  c #2F371F",
"w  c #231E20",
"e  c #252525",
"r  c #292526",
"t  c #2B2629",
"y  c #2F2E2E",
"u  c #3F2E23",
"i  c #302D2E",
"p  c #373F27",
"a  c #322E31",
"s  c #373637",
"d  c #393536",
"f  c #3F3835",
"g  c #3B3638",
"h  c #3C3B3B",
"j  c #432F1B",
"k  c #43331B",
"l  c #4B371B",
"z  c #533F1F",
"x  c #473323",
"c  c #4F3B24",
"v  c #45352D",
"b  c #523924",
"n  c #5A3B24",
"m  c #533F2F",
"M  c #403C3C",
"N  c #3F472B",
"B  c #5F4323",
"V  c #5B472B",
"C  c #474F33",
"Z  c #574333",
"A  c #5F4B37",
"S  c #5A483D",
"D  c #624125",
"F  c #6B4727",
"G  c #694529",
"H  c #774F2B",
"J  c #7F532F",
"K  c #675333",
"L  c #71513D",
"P  c #775F3F",
"I  c #443F40",
"U  c #444444",
"Y  c #4A4545",
"T  c #4C4748",
"R  c #4D4D4D",
"E  c #534D4E",
"W  c #554F51",
"Q  c #575757",
"!  c #5A5253",
"~  c #5E565A",
"^  c #5B5B5B",
"/  c #60595C",
"(  c #655D61",
")  c gray39",
"_  c #6A6265",
"`  c #6D6669",
"'  c #6D6D6D",
"]  c #726A6E",
"[  c #777777",
"{  c gray50",
"}  c #875733",
"|  c #8F5F37",
" . c #8E5C38",
".. c #925F3A",
"X. c #97623B",
"o. c #9B633B",
"O. c #A36B3F",
"+. c #836B4B",
"@. c #A26940",
"#. c #AB6F43",
"$. c #AF7045",
"%. c #B37347",
"&. c #B87648",
"*. c #BF7B4B",
"=. c #BC7A50",
"-. c #CB7F4F",
";. c #BB805A",
":. c #CF8353",
">. c #D78B5B",
",. c #DF9363",
"<. c #E79B6B",
"1. c #EFA373",
"2. c #F7AB7B",
"3. c #FFB37B",
"4. c #838383",
"5. c #8B8B8B",
"6. c #959595",
"7. c #9F9F9F",
"8. c #A7A7A7",
"9. c gray67",
"0. c #B4B4B4",
"q. c gray75",
"w. c #FFB383",
"e. c #FFBB93",
"r. c #FFBF9B",
"t. c #FFC79B",
"y. c gray78",
"u. c #CBCBCB",
"i. c LightGray",
"p. c #DCDCDC",
"a. c #E7E7E7",
"s. c #EFEFEF",
"d. c None",
/* pixels */
"d.d.d.d.d.d.d.d.d.d.d.d.d.d.d.d.d.d.d.d.d.d.d.d.d.d.d.d.d.d.d.d.d.d.d.d.d.d.d.d.d.d.d.d.d.d.d.d.d.d.d.d.d.d.d.d.d.d.d.d.d.d.d.d.d.d.d.d.d.d.d.d.d.d.d.d.d.d.d.d.d.d.d.d.d.d.d.d.d.d.d.d.d.d.d.d.d.d.d.d.d.d.d.d.d.d.d.d.d.d.d.d.s y y [ d.d.d.d.d.d.d.d.d.d.d.d.d.d.d.d.d.d.d.d.d.d.d.d.d.d.d.d.d.d.d.d.d.d.d.d.d.d.d.d.d.d.d.d.d.d.d.d.d.d.d.d.d.d.d.d.d.d.d.d.d.d.d.d.d.d.d.d.d.d.d.d.d.d.d.d.d.d.d.d.d.d.d.d.",
"d.d.d.d.d.d.d.d.d.d.d.d.d.d.d.d.d.d.d.d.d.d.d.d.d.d.d.d.d.d.d.d.d.d.d.d.d.d.d.d.d.d.d.d.d.d.d.d.d.d.d.d.d.d.d.d.d.d.d.d.d.d.d.d.d.d.d.d.d.d.d.d.d.d.d.d.d.d.d.d.d.d.d.d.d.d.d.d.d.d.d.d.d.d.d.d.d.d.d.d.d.d.d.d.d.d.d.d.d.d.d.h s s N ' 6.d.d.d.d.d.d.d.d.d.d.d.d.d.d.d.d.d.d.d.d.d.d.d.d.d.d.d.d.d.d.d.d.d.d.d.d.d.d.d.d.d.d.d.d.d.d.d.d.d.d.d.d.d.d.d.d.d.d.d.d.d.d.d.d.d.d.d.d.d.d.d.d.d.d.d.d.d.d.d.d.d.d.d.",
"d.d.d.d.d.d.d.d.d.d.d.d.d.d.d.d.d.d.d.d.d.d.d.d.d.d.d.d.d.d.d.d.d.d.d.d.d.d.d.d.d.d.d.d.d.d.d.d.d.d.d.d.d.d.d.d.d.d.d.d.d.d.d.d.d.d.d.d.d.d.d.d.d.d.d.d.d.d.d.d.d.d.d.d.d.d.d.d.d.d.d.d.d.d.d.d.d.d.d.d.d.d.d.d.d.d.d.d.d.d.s s s s h h ' 6.d.d.d.d.d.d.d.d.d.d.d.d.d.d.d.d.d.d.d.d.d.d.d.d.d.d.d.d.d.d.d.d.d.d.d.d.d.d.d.d.d.d.d.d.d.d.d.d.d.d.d.d.d.d.d.d.d.d.d.d.d.d.d.d.d.d.d.d.d.d.d.d.d.d.d.d.d.d.d.d.d.d.",
"d.d.d.d.d.d.d.d.d.d.d.d.d.d.d.d.d.d.d.d.d.d.d.d.d.d.d.d.d.d.d.d.d.d.d.d.d.d.d.d.d.d.d.d.d.d.d.d.d.d.d.d.d.d.d.d.d.d.d.d.d.d.d.d.d.d.d.d.d.d.d.d.d.d.d.d.d.d.d.d.d.d.d.d.d.d.d.d.d.d.d.d.d.d.d.d.d.d.d.d.d.d.d.d.d.d.d.d.d.h s s a s s a U ^ 6.d.d.d.d.d.d.d.d.d.d.d.d.d.d.d.d.d.d.d.d.d.d.d.d.d.d.d.d.d.d.d.d.d.d.d.d.d.d.d.d.d.d.d.d.d.d.d.d.d.d.d.d.d.d.d.d.d.d.d.d.d.d.d.d.d.d.d.d.d.d.d.d.d.d.d.d.d.d.d.d.d.",
"d.d.d.d.d.d.d.d.d.d.d.d.d.d.d.d.d.d.d.d.d.d.d.d.d.d.d.d.d.d.d.d.d.d.d.d.d.d.d.d.d.d.d.d.d.d.d.d.d.d.d.d.d.d.d.d.d.d.d.d.d.d.d.d.d.d.d.d.d.d.d.d.d.d.d.d.d.d.d.d.d.d.d.d.d.d.d.d.d.d.d.d.d.d.d.d.d.d.d.d.d.d.d.d.d.d.d.d.y s s h s s s s s U ^ 6.d.d.d.d.d.d.d.d.d.d.d.d.d.d.d.d.d.d.d.d.d.d.d.d.d.d.d.d.d.d.d.d.d.d.d.d.d.d.d.d.d.d.d.d.d.d.d.d.d.d.d.d.d.d.d.d.d.d.d.d.d.d.d.d.d.d.d.d.d.d.d.d.d.d.d.d.d.d.d.d.",
"d.d.d.d.d.d.d.d.d.d.d.d.d.d.d.d.d.d.d.d.d.d.d.d.d.d.d.d.d.d.d.d.d.d.d.d.d.d.d.d.d.d.d.d.d.d.d.d.d.d.d.d.d.d.d.d.d.d.d.d.d.d.d.d.d.d.d.d.d.d.d.d.d.d.d.d.d.d.d.d.d.d.d.d.d.d.d.d.d.d.d.d.d.d.d.d.d.d.d.d.d.d.d.d.d.d.d.h y y s y s s y h s s U ^ 7.d.d.d.d.d.d.d.d.d.d.d.d.d.d.d.d.d.d.d.d.d.d.d.d.d.d.d.d.d.d.d.d.d.d.d.d.d.d.d.d.d.d.d.d.d.d.d.d.d.d.d.d.d.d.d.d.d.d.d.d.d.d.d.d.d.d.d.d.d.d.d.d.d.d.d.d.d.d.d.",
"d.d.d.d.d.d.d.d.d.d.d.d.d.d.d.d.d.d.d.d.d.d.d.d.d.d.d.d.d.d.d.d.d.d.d.d.d.d.d.d.d.d.d.d.d.d.d.d.d.d.d.d.d.d.d.d.d.d.d.d.d.d.d.d.d.d.d.d.d.d.d.d.d.d.d.d.d.d.d.d.d.d.d.d.d.d.d.d.d.d.d.d.d.d.d.d.d.d.d.d.d.d.d.d.d.d.' Q y y s s s s s h h h s U ^ 6.d.d.d.d.d.d.d.d.d.d.d.d.d.d.d.d.d.d.d.d.d.d.d.d.d.d.d.d.d.d.d.d.d.d.d.d.d.d.d.d.d.d.d.d.d.d.d.d.d.d.d.d.d.d.d.d.d.d.d.d.d.d.d.d.d.d.d.d.d.d.d.d.d.d.d.d.d.d.",
"d.d.d.d.d.d.d.d.d.d.d.d.d.d.d.d.d.d.d.d.d.d.d.d.d.d.d.d.d.d.d.d.d.d.d.d.d.d.d.d.d.d.d.d.d.d.d.d.d.d.d.d.d.d.d.d.d.d.d.d.d.d.d.d.d.d.d.d.d.d.d.d.d.d.d.d.d.d.d.d.d.d.d.d.d.d.d.d.d.d.d.d.d.d.d.d.d.d.d.d.d.d.d.d.d.e ' 4.Q h y s h s h h h s h h I ^ 5.d.d.d.d.d.d.d.d.d.d.d.d.d.d.d.d.d.d.d.d.d.d.d.d.d.d.d.d.d.d.d.d.d.d.d.d.d.d.d.d.d.d.d.d.d.d.d.d.d.d.d.d.d.d.d.d.d.d.d.d.d.d.d.d.d.d.d.d.d.d.d.d.d.d.d.d.d.",
"d.d.d.d.d.d.d.d.d.d.d.d.d.d.d.d.d.d.d.d.d.d.d.d.d.d.d.d.d.d.d.d.d.d.d.d.d.d.d.d.d.d.d.d.d.d.d.d.d.d.d.d.d.d.d.d.d.d.d.d.d.d.d.d.d.d.d.d.d.d.d.d.d.d.d.d.d.d.d.d.d.d.d.d.d.d.d.d.d.d.d.d.d.d.d.d.d.d.d.d.d.d.d.d.> O r ) [ Q s y h h s s s h h h h h R 6.d.d.d.d.d.d.d.d.d.d.d.d.d.d.d.d.d.d.d.d.d.d.d.d.d.d.d.d.d.d.d.d.d.d.d.d.d.d.d.d.d.d.d.d.d.d.d.d.d.d.d.d.d.d.d.d.d.d.d.d.d.d.d.d.d.d.d.d.d.d.d.d.d.d.d.d.",
"d.d.d.d.d.d.d.d.d.d.d.d.d.d.d.d.d.d.d.d.d.d.d.d.d.d.d.d.d.d.d.d.d.d.d.d.d.d.d.d.d.d.d.d.d.d.d.d.d.d.d.d.d.d.d.d.d.d.d.d.d.d.d.d.d.d.d.d.d.d.d.d.d.d.d.d.d.d.d.d.d.d.d.d.d.d.d.d.d.d.d.d.d.d.d.d.d.d.d.d.d.d.d.d.> - O e ) [ Q s s s h h h h s h h h h R 5.5.d.d.d.d.d.d.d.d.d.d.d.d.d.d.d.d.d.d.d.d.d.d.d.d.d.d.d.d.d.d.d.d.d.d.d.d.d.d.d.d.d.d.d.d.d.d.d.d.d.d.d.d.d.d.d.d.d.d.d.d.d.d.d.d.d.d.d.d.d.d.d.d.d.d.",
"d.d.d.d.d.d.d.d.d.d.d.d.d.d.d.d.d.d.d.d.d.d.d.d.d.d.d.d.d.d.d.d.d.d.d.d.d.d.d.d.d.d.d.d.d.d.d.d.d.d.d.d.d.d.d.d.d.d.d.d.d.d.d.d.d.d.d.d.d.d.d.d.d.d.d.d.d.d.d.d.d.d.d.d.d.d.d.d.d.d.d.d.d.d.d.d.d.d.d.d.d.d.d.d.> > - O r ) [ ^ s y s h h h h h h s h h R 4.9.d.d.d.d.d.d.d.d.d.d.d.d.d.d.d.d.d.d.d.d.d.d.d.d.d.d.d.d.d.d.d.d.d.d.d.d.d.d.d.d.d.d.d.d.d.d.d.d.d.d.d.d.d.d.d.d.d.d.d.d.d.d.d.d.d.d.d.d.d.d.d.d.d.",
"d.d.d.d.d.d.d.d.d.d.d.d.d.d.d.d.d.d.d.d.d.d.d.d.d.d.d.d.d.d.d.d.d.d.d.d.d.d.d.d.d.d.d.d.d.d.d.d.d.d.d.d.d.d.d.d.d.d.d.d.d.d.d.d.d.d.d.d.d.d.d.d.d.d.d.d.d.d.d.d.d.d.d.d.d.d.d.d.d.d.d.d.d.d.d.d.d.d.d.d.d.d.d.d.> > > - # e ' [ ^ h s h h h h h h h h U U R 4.7.d.d.d.d.d.d.d.d.d.d.d.d.d.d.d.d.d.d.d.d.d.d.d.d.d.d.d.d.d.d.d.d.d.d.d.d.d.d.d.d.d.d.d.d.d.d.d.d.d.d.d.d.d.d.d.d.d.d.d.d.d.d.d.d.d.d.d.d.d.d.d.d.",
"d.d.d.d.d.d.d.d.d.d.d.d.d.d.d.d.d.d.d.d.d.d.d.d.d.d.d.d.d.d.d.d.d.d.d.d.d.d.d.d.d.d.d.d.d.d.d.d.d.d.d.d.d.d.d.d.d.d.d.d.d.d.d.d.d.d.d.d.d.d.d.d.d.d.d.d.d.d.d.d.d.d.d.d.d.d.d.d.d.d.d.d.d.d.d.d.d.d.d.d.d.d.d.d.> - - > - O y ' 4.^ s s h h h h U s U U U U R { 9.d.d.d.d.d.d.d.d.d.d.d.d.d.d.d.d.d.d.d.d.d.d.d.d.d.d.d.d.d.d.d.d.d.d.d.d.d.d.d.d.d.d.d.d.d.d.d.d.d.d.d.d.d.d.d.d.d.d.d.d.d.d.d.d.d.d.d.d.d.d.d.",
"d.d.d.d.d.d.d.d.d.d.d.d.d.d.d.d.d.d.d.d.d.d.d.d.d.d.d.d.d.d.d.d.d.d.d.d.d.d.d.d.d.d.d.d.d.d.d.d.d.d.d.d.d.d.d.d.d.d.d.d.d.d.d.d.d.d.d.d.d.d.d.d.d.d.d.d.d.d.d.d.d.d.d.d.d.d.d.d.d.d.d.d.d.d.d.d.d.d.d.d.d.d.d.d.d.e - > - - - e ' ' ^ s s h h U s U U U U U U U ' 8.d.d.d.d.d.d.d.d.d.d.d.d.d.d.d.d.d.d.d.d.d.d.d.d.d.d.d.d.d.d.d.d.d.d.d.d.d.d.d.d.d.d.d.d.d.d.d.d.d.d.d.d.d.d.d.d.d.d.d.d.d.d.d.d.d.d.d.d.d.d.",
"d.d.d.d.d.d.d.d.d.d.d.d.d.d.d.d.d.d.d.d.d.d.d.d.d.d.d.d.d.d.d.d.d.d.d.d.d.d.d.d.d.d.d.d.d.d.d.d.d.d.d.d.d.d.d.d.d.d.d.d.d.d.d.d.d.d.d.d.d.d.d.d.d.d.d.d.d.d.d.d.d.d.d.d.d.d.d.d.d.d.d.d.d.d.d.d.d.d.d.d.d.d.d.d.d.e > - > - - O > 7.6.) s s s U U U U U U U U I Q { 0.d.d.d.d.d.d.d.d.d.d.d.d.d.d.d.d.d.d.d.d.d.d.d.d.d.d.d.d.d.d.d.d.d.d.d.d.d.d.d.d.d.d.d.d.d.d.d.d.d.d.d.d.d.d.d.d.d.d.d.d.d.d.d.d.d.d.d.d.d.",
"d.d.d.d.d.d.d.d.d.d.d.d.d.d.d.d.d.d.d.d.d.d.d.d.d.d.d.d.d.d.d.d.d.d.d.d.d.d.d.d.d.d.d.d.d.d.d.d.d.d.d.d.d.d.d.d.d.d.d.d.d.d.d.d.d.d.d.d.d.d.d.d.d.d.d.d.d.d.d.d.d.d.d.d.d.d.d.d.d.d.d.d.d.d.d.d.d.d.d.d.d.d.d.d.d.d.t - - > - - U ^ 6.4.' h s s U U h U U U R U U R ' 9.d.d.d.d.d.d.d.d.d.d.d.d.d.d.d.d.d.d.d.d.d.d.d.d.d.d.d.d.d.d.d.d.d.d.d.d.d.d.d.d.d.d.d.d.d.d.d.d.d.d.d.d.d.d.d.d.d.d.d.d.d.d.d.d.d.d.d.d.",
"d.d.d.d.d.d.d.d.d.d.d.d.d.d.d.d.d.d.d.d.d.d.d.d.d.d.d.d.d.d.d.d.d.d.d.d.d.d.d.d.d.d.d.d.d.d.d.d.d.d.d.d.d.d.d.d.d.d.d.d.d.d.d.d.d.d.d.d.d.d.d.d.d.d.d.d.d.d.d.d.d.d.d.d.d.d.d.d.d.d.d.d.d.d.d.d.d.d.d.d.d.d.d.d.d.d.h > - - w U e - > ' 4.) h h h U U U R U R R U R R [ 8.d.d.d.d.d.d.d.d.d.d.d.d.d.d.d.d.d.d.d.d.d.d.d.d.d.d.d.d.d.d.d.d.d.d.d.d.d.d.d.d.d.d.d.d.d.d.d.d.d.d.d.d.d.d.d.d.d.d.d.d.d.d.d.d.d.d.d.",
"d.d.d.d.d.d.d.d.d.d.d.d.d.d.d.d.d.d.d.d.d.d.d.d.d.d.d.d.d.d.d.d.d.d.d.d.d.d.d.d.d.d.d.d.d.d.d.d.d.d.d.d.d.d.d.d.d.d.d.d.d.d.d.d.d.d.d.d.d.d.d.d.d.d.d.d.d.d.d.d.d.d.d.d.d.d.d.d.d.d.d.d.d.d.d.d.d.d.d.d.d.d.d.d.d.d.d.e > e s > - - - e ' { ) h h U R U U R U U R U R R ' 9.d.d.d.d.d.d.d.d.d.d.d.d.d.d.d.d.d.d.d.d.d.d.d.d.d.d.d.d.d.d.d.d.d.d.d.d.d.d.d.d.d.d.d.d.d.d.d.d.d.d.d.d.d.d.d.d.d.d.d.d.d.d.d.d.d.d.",
"d.d.d.d.d.d.d.d.d.d.d.d.d.d.d.d.d.d.d.d.d.d.d.d.d.d.d.d.d.d.d.d.d.d.d.d.d.d.d.d.d.d.d.d.d.d.d.d.d.d.d.d.d.d.d.d.d.d.d.d.d.d.d.d.d.d.d.d.d.d.d.d.d.d.d.d.d.d.d.d.d.d.d.d.d.d.d.d.d.d.d.d.d.d.d.d.d.d.d.d.d.d.d.d.d.d.d.e e t - - - > > - s ) [ ) h U U U R U U R U R R R R [ 9.8.d.d.d.d.d.d.d.d.d.d.d.d.d.d.d.d.d.d.d.d.d.d.d.d.d.d.d.d.d.d.d.d.d.d.d.d.d.d.d.d.d.d.d.d.d.d.d.d.d.d.d.d.d.d.d.d.d.d.d.d.d.d.d.d.",
"d.d.d.d.d.d.d.d.d.d.d.d.d.d.d.d.d.d.d.d.d.d.d.d.d.d.d.d.d.d.d.d.d.d.d.d.d.d.d.d.d.d.d.d.d.d.d.d.d.d.d.d.d.d.d.d.d.d.d.d.d.d.d.d.d.d.d.d.d.d.d.d.d.d.d.d.d.d.d.d.d.d.d.d.d.d.d.d.d.d.d.d.d.d.d.d.d.d.d.d.d.d.d.d.d.d.d.d.> e e > > > - > - h ^ { ' h U U U U U R R R R R R R ' 8.7.d.d.d.d.d.d.d.d.d.d.d.d.d.d.d.d.d.d.d.d.d.d.d.d.d.d.d.d.d.d.d.d.d.d.d.d.d.d.d.d.d.d.d.d.d.d.d.d.d.d.d.d.d.d.d.d.d.d.d.d.d.d.d.",
"d.d.d.d.d.d.d.d.d.d.d.d.d.d.d.d.d.d.d.d.d.d.d.d.d.d.d.d.d.d.d.d.d.d.d.d.d.d.d.d.d.d.d.d.d.d.d.d.d.d.d.d.d.d.d.d.d.d.d.d.d.d.d.d.d.d.d.d.d.d.d.d.d.d.d.d.d.d.d.d.d.d.d.d.d.d.d.d.d.d.d.d.d.d.d.d.d.d.d.d.d.d.d.d.d.d.d.d.d.O h e - > > > - > R ' [ ' U U R U U R R R R R R Q Q ) 5.q.d.d.d.d.d.d.d.d.d.d.d.d.d.d.d.d.d.d.d.d.d.d.d.d.d.d.d.d.d.d.d.d.d.d.d.d.d.d.d.d.d.d.d.d.d.d.d.d.d.d.d.d.d.d.d.d.d.d.d.d.d.d.",
"d.d.d.d.d.d.d.d.d.d.d.d.d.d.d.d.d.d.d.d.d.d.d.d.d.d.d.d.d.d.d.d.d.d.d.d.d.d.d.d.d.d.d.d.d.d.d.d.d.d.d.d.d.d.d.d.d.d.d.d.d.d.d.d.d.d.d.d.d.d.d.d.d.d.d.d.d.d.d.d.d.d.d.d.d.d.d.d.d.d.d.d.d.d.d.d.d.d.d.d.d.d.d.d.d.d.d.d.d.d.O Y e - > - > - y 5.' 6.' U U R R R R R R R R R R Q ' 6.0.d.d.d.d.d.d.d.d.d.d.d.d.d.d.d.d.d.d.d.d.d.d.d.d.d.d.d.d.d.d.d.d.d.d.d.d.d.d.d.d.d.d.d.d.d.d.d.d.d.d.d.d.d.d.d.d.d.d.d.d.d.",
"d.d.d.d.d.d.d.d.d.d.d.d.d.d.d.d.d.d.d.d.d.d.d.d.d.d.d.d.d.d.d.d.d.d.d.d.d.d.d.d.d.d.d.d.d.d.d.d.d.d.d.d.d.d.d.d.d.d.d.d.d.d.d.d.d.d.d.d.d.d.d.d.d.d.d.d.d.d.d.d.d.d.d.d.d.d.d.d.d.d.d.d.d.d.d.d.d.d.d.d.d.d.d.d.d.d.d.d.d.d.  - R e > > > y R O - 6.q.' U U R ^ R R R Q R ^ Q R ^ ' 6.0.d.d.d.d.d.d.d.d.d.d.d.d.d.d.d.d.d.d.d.d.d.d.d.d.d.d.d.d.d.d.d.d.d.d.d.d.d.d.d.d.d.d.d.d.d.d.d.d.d.d.d.d.d.d.d.d.d.d.d.d.",
"d.d.d.d.d.d.d.d.d.d.d.d.d.d.d.d.d.d.d.d.d.d.d.d.d.d.d.d.d.d.d.d.d.d.d.d.d.d.d.d.d.d.d.d.d.d.d.d.d.d.d.d.d.d.d.d.d.d.d.d.d.d.d.d.d.d.d.d.d.d.d.d.d.d.d.d.d.d.d.d.d.d.d.d.d.d.d.d.d.d.d.d.d.d.d.d.d.d.d.d.d.d.d.d.d.d.d.d.d.d.O - > U e > e Q O e [ R ' 6.' U R R Q Q ^ ^ R R Q Q Q ^ ' 6.y.d.d.d.d.d.d.d.d.d.d.d.d.d.d.d.d.d.d.d.d.d.d.d.d.d.d.d.d.d.d.d.d.d.d.d.d.d.d.d.d.d.d.d.d.d.d.d.d.d.d.d.d.d.d.d.d.d.d.d.",
"d.d.d.d.d.d.d.d.d.d.d.d.d.d.d.d.d.d.d.d.d.d.d.d.d.d.d.d.d.d.d.d.d.d.d.d.d.d.d.d.d.d.d.d.d.d.d.d.d.d.d.d.d.d.d.d.d.d.d.d.d.d.d.d.d.d.d.d.d.d.d.d.d.d.d.d.d.d.d.d.d.d.d.d.d.d.d.d.d.d.d.d.d.d.d.d.d.d.d.d.d.d.d.d.d.d.d.d.d.d.d.d.  : s : U - > 4.e e > ' 4.' R R R Q Q R Q Q R ^ Q Q ^ ' 6.q.d.d.d.d.d.d.d.d.d.d.d.d.d.d.d.d.d.d.d.d.d.d.d.d.d.d.d.d.d.d.d.d.d.d.d.d.d.d.d.d.d.d.d.d.d.d.d.d.d.d.d.d.d.d.d.d.d.d.",
"d.d.d.d.d.d.d.d.d.d.d.d.d.d.d.d.d.d.d.d.d.d.d.d.d.d.d.d.d.d.d.d.d.d.d.d.d.d.d.d.d.d.d.d.d.d.d.d.d.d.d.d.d.d.d.d.d.d.d.d.d.d.d.d.d.d.d.d.d.d.d.d.d.d.d.d.d.d.d.d.d.d.d.d.d.d.d.d.d.d.d.d.d.d.d.d.d.d.d.d.d.d.d.d.d.d.d.d.d.d.d.d.    e U ) Q 6.y > - - y [ [ ' R R R ^ Q Q ^ Q Q ^ Q Q ^ ' 8.u.6.d.d.d.d.d.d.d.d.d.d.d.d.d.d.d.d.d.d.d.d.d.d.d.d.d.d.d.d.d.d.d.d.d.d.d.d.d.d.d.d.d.d.d.d.d.d.d.d.d.d.d.d.d.d.d.d.",
"d.d.d.d.d.d.d.d.d.d.d.d.d.d.d.d.d.d.d.d.d.d.d.d.d.d.d.d.d.d.d.d.d.d.d.d.d.d.d.d.d.d.d.d.d.d.d.d.d.d.d.d.d.d.d.d.d.d.d.d.d.d.d.d.d.d.d.d.d.d.d.d.d.d.d.d.d.d.d.d.d.d.d.d.d.d.d.d.d.d.d.d.d.d.d.d.d.d.d.d.d.d.d.d.d.d.d.d.d.d.d.d.> o   > ' ' > - - - > - y ' { [ R R Q Q Q Q ^ Q Q Q ^ ^ ^ ' 7.q.7.d.d.d.d.d.d.d.d.d.d.d.d.d.d.d.d.d.d.d.d.d.d.d.d.d.d.d.d.d.d.d.d.d.d.d.d.d.d.d.d.d.d.d.d.d.d.d.d.d.d.d.d.d.d.d.",
"d.d.d.d.d.d.d.d.d.d.d.d.d.d.d.d.d.d.d.d.d.d.d.d.d.d.d.d.d.d.d.d.d.d.d.d.d.d.d.d.d.d.d.d.d.d.d.d.d.d.d.d.d.d.d.d.d.d.d.d.d.d.d.d.d.d.d.d.d.d.d.d.d.d.d.d.d.d.d.d.d.d.d.d.d.d.d.d.d.d.d.d.d.d.d.d.d.d.d.d.d.d.d.d.d.d.d.d.d.d.d.d.  O     y y e - - > > > e U ) { ' ^ R Q Q ^ Q ^ ^ Q ^ ) ^ ^ ) 8.i.0.d.d.d.d.d.d.d.d.d.d.d.d.d.d.d.d.d.d.d.d.d.d.d.d.d.d.d.d.d.d.d.d.d.d.d.d.d.d.d.d.d.d.d.d.d.d.d.d.d.d.d.d.d.d.",
"d.d.d.d.d.d.d.d.d.d.d.d.d.d.d.d.d.d.d.d.d.d.d.d.d.d.d.d.d.d.d.d.d.d.d.d.d.d.d.d.d.d.d.d.d.d.d.d.d.d.d.d.d.d.d.d.d.d.d.d.d.d.d.d.d.d.d.d.d.d.d.d.d.d.d.d.d.d.d.d.d.d.d.d.d.d.d.d.d.d.d.d.d.d.d.d.d.d.d.d.d.d.d.d.d.d.d.d.d.d.> -   o O o   w s > > > > e e > h ^ [ ) Q Q Q Q ^ ^ ^ ^ ^ ^ ) ) Q ) 7.u.9.d.d.d.d.d.d.d.d.d.d.d.d.d.d.d.d.d.d.d.d.d.d.d.d.d.d.d.d.d.d.d.d.d.d.d.d.d.d.d.d.d.d.d.d.d.d.d.d.d.d.d.d.d.",
"d.d.d.d.d.d.d.d.d.d.d.d.d.d.d.d.d.d.d.d.d.d.d.d.d.d.d.d.d.d.d.d.d.d.d.d.d.d.d.d.d.d.d.d.d.d.d.d.d.d.d.d.d.d.d.d.d.d.d.d.d.d.d.d.d.d.d.d.d.d.d.d.d.d.d.d.d.d.d.d.d.d.d.d.d.d.d.d.d.d.d.d.d.d.d.d.d.d.d.d.d.d.d.d.d.d.d.d.d.> > > O o   o     e h e > > > - > > U ^ ' ' Q Q ^ Q ^ ^ ^ ^ ^ ( ' ) ) ^ 0.s.q.d.d.d.d.d.d.d.d.d.d.d.d.d.d.d.d.d.d.d.d.d.d.d.d.d.d.d.d.d.d.d.d.d.d.d.d.d.d.d.d.d.d.d.d.d.d.d.d.d.d.d.d.",
"d.d.d.d.d.d.d.d.d.d.d.d.d.d.d.d.d.d.d.d.d.d.d.d.d.d.d.d.d.d.d.d.d.d.d.d.d.d.d.d.d.d.d.d.d.d.d.d.d.d.d.d.d.d.d.d.d.d.d.d.d.d.d.d.d.d.d.d.d.d.d.d.d.d.d.d.d.d.d.d.d.d.d.d.d.d.d.d.d.d.d.d.d.d.d.d.d.d.d.d.d.d.d.d.d.d.d.e > > > > e O O   o   o s N > > > > > - > R ) [ ' ^ ^ ^ Q ^ ^ ^ ^ ) ) ' ) ) ` 4.q.{ d.d.d.d.d.d.d.d.d.d.d.d.d.d.d.d.d.d.d.d.d.d.d.d.d.d.d.d.d.d.d.d.d.d.d.d.d.d.d.d.d.d.d.d.d.d.d.d.d.d.d.",
"d.d.d.d.d.d.d.d.d.d.d.d.d.d.d.d.d.d.d.d.d.d.d.d.d.d.d.d.d.d.d.d.d.d.d.d.d.d.d.d.d.d.d.d.d.d.d.d.d.d.d.d.d.d.d.d.d.d.d.d.d.d.d.d.d.d.d.d.d.d.d.d.d.d.d.d.d.d.d.d.d.d.d.d.d.d.d.d.d.d.d.d.d.d.d.d.d.d.d.d.d.d.d.d.d.d.- - - - - > : e O O o o   o s s > > > > - - e R ' [ ' ^ ^ ^ Q ^ ) ) ) ' ) ' [ ) ' 9.7.[ Q d.d.d.d.d.d.d.d.d.d.d.d.d.d.d.d.d.d.d.d.d.d.d.d.d.d.d.d.d.d.d.d.d.d.d.d.d.d.d.d.d.d.d.d.d.d.d.d.d.",
"d.d.d.d.d.d.d.d.d.d.d.d.d.d.d.d.d.d.d.d.d.d.d.d.d.d.d.d.d.d.d.d.d.d.d.d.d.d.d.d.d.d.d.d.d.d.d.d.d.d.d.d.d.d.d.d.d.d.d.d.d.d.d.d.d.d.d.d.d.d.d.d.d.d.d.d.d.d.d.d.d.d.d.d.d.d.d.d.d.d.d.d.d.d.d.d.d.d.d.d.d.d.d.d.- X - - - - - - > > e X O         s y > > > > > > - R ' ' ' ) ^ ^ ^ ^ ) ) ) ' ' ' ' ) ) 8.y.) R d.d.d.d.d.d.d.d.d.d.d.d.d.d.d.d.d.d.d.d.d.d.d.d.d.d.d.d.d.d.d.d.d.d.d.d.d.d.d.d.d.d.d.d.d.d.d.d.",
"d.d.d.d.d.d.d.d.d.d.d.d.d.d.d.d.d.d.d.d.d.d.d.d.d.d.d.d.d.d.d.d.d.d.d.d.d.d.d.d.d.d.d.d.d.d.d.d.d.d.d.d.d.d.d.d.d.d.d.d.d.d.d.d.d.d.d.d.d.d.d.d.d.d.d.d.d.d.d.d.d.d.d.d.d.d.d.d.d.d.d.d.d.d.d.d.d.d.d.d.d.d.d.O O O - - - - - - > - > > - o         U y > > > - > - - U ' [ [ ) ^ ^ ^ ) ) ) ' ) ' ) ' ' ) 5.p.5.Q h d.d.d.d.d.d.d.d.d.d.d.d.d.d.d.d.d.d.d.d.d.d.d.d.d.d.d.d.d.d.d.d.d.d.d.d.d.d.d.d.d.d.d.d.d.d.",
"d.d.d.d.d.d.d.d.d.d.d.d.d.d.d.d.d.d.d.d.d.d.d.d.d.d.d.d.d.d.d.d.d.d.d.d.d.d.d.d.d.d.d.d.d.d.d.d.d.d.d.d.d.d.d.d.d.d.d.d.d.d.d.d.d.d.d.d.d.d.d.d.d.d.d.d.d.d.d.d.d.d.d.d.d.d.d.d.d.d.d.d.d.d.d.d.d.d.d.d.d.d.o o O O O | *.>.*.$.H B l > e -           T r > > > > > - > h ' ' { ) ^ ) ^ ) ) ' ) ' ' ) ' ' [ 6.0.5.R U d.d.d.d.d.d.d.d.d.d.d.d.d.d.d.d.d.d.d.d.d.d.d.d.d.d.d.d.d.d.d.d.d.d.d.d.d.d.d.d.d.d.d.d.d.",
"d.d.d.d.d.d.d.d.d.d.d.d.d.d.d.d.d.d.d.d.d.d.d.d.d.d.d.d.d.d.d.d.d.d.d.d.d.d.d.d.d.d.d.d.d.d.d.d.d.d.d.d.d.d.d.d.d.d.d.d.d.d.d.d.d.d.d.d.d.d.d.d.d.d.d.d.d.d.d.d.d.d.d.d.d.d.d.d.d.d.d.d.d.d.d.d.d.d.d.d.d.d.- o o O O | ,.,.>.X.B < , l l d.d.%       O s r > > > > > - > Q [ ' 5.' ) ) ) ) ) ' ) ' ' ' ' ) ' 7.i.8.Q U T d.d.d.d.d.d.d.d.d.d.d.d.d.d.d.d.d.d.d.d.d.d.d.d.d.d.d.d.d.d.d.d.d.d.d.d.d.d.d.d.d.d.d.",
"d.d.d.d.d.d.d.d.d.d.d.d.d.d.d.d.d.d.d.d.d.d.d.d.d.d.d.d.d.d.d.d.d.d.d.d.d.d.d.d.d.d.d.d.d.d.d.d.d.d.d.d.d.d.d.d.d.d.d.d.d.d.d.d.d.d.d.d.d.d.d.d.d.d.d.d.d.d.d.d.d.d.d.d.d.d.d.d.d.d.d.d.d.d.d.d.d.d.d.d.d.d.- O o o o.*.,.,.#.F 6 6 + < < l y e -       o U e > > > > - > > s { [ 5.' ) ) ) ' ^ ' ' ' ' ' ' ' ' 5.p.8.Q R s d.d.d.d.d.d.d.d.d.d.d.d.d.d.d.d.d.d.d.d.d.d.d.d.d.d.d.d.d.d.d.d.d.d.d.d.d.d.d.d.d.d.",
"d.d.d.d.d.d.d.d.d.d.d.d.d.d.d.d.d.d.d.d.d.d.d.d.d.d.d.d.d.d.d.d.d.d.d.d.d.d.d.d.d.d.d.d.d.d.d.d.d.d.d.d.d.d.d.d.d.d.d.d.d.d.d.d.d.d.d.d.d.d.d.d.d.d.d.d.d.d.d.d.d.d.d.d.d.d.d.d.d.d.d.d.d.d.d.d.d.d.d.d.d.d.O O - . $.>.,.,.J j < + + + < < l - > >       O U y - - > > > - - U [ ' 4.' ) ' ) ' ) ' [ ' [ ' [ [ [ [ p.p.Q R s h h s d.d.d.d.d.d.d.d.d.d.d.d.d.d.d.d.d.d.d.d.d.d.d.d.d.d.d.d.d.d.d.d.d.d.d.d.d.d.",
"d.d.d.d.d.d.d.d.d.d.d.d.d.d.d.d.d.d.d.d.d.d.d.d.d.d.d.d.d.d.d.d.d.d.d.d.d.d.d.d.d.d.d.d.d.d.d.d.d.d.d.d.d.d.d.d.d.d.d.d.d.d.d.d.d.d.d.d.d.d.d.d.d.d.d.d.d.d.d.d.d.d.d.d.d.d.d.d.d.d.d.d.d.d.d.d.d.d.d.d.d.d.d.  O   H %.*.#.} 6 < + + +   3 & & j l j 6 3   - h r > > > > > # - h ' { 5.' ) ' ' ' ' [ ' ' [ [ [ ' ' 6.p.9.) R s e - O d.d.d.d.d.d.d.d.d.d.d.d.d.d.d.d.d.d.d.d.d.d.d.d.d.d.d.d.d.d.d.d.d.d.d.d.d.",
"d.d.d.d.d.d.d.d.d.d.d.d.d.d.d.d.d.d.d.d.d.d.d.d.d.d.d.d.d.d.d.d.d.d.d.d.d.d.d.d.d.d.d.d.d.d.d.d.d.d.d.d.d.d.d.d.d.d.d.d.d.d.d.d.d.d.d.d.d.d.d.d.d.d.d.d.d.d.d.d.d.d.d.d.d.d.d.d.d.d.d.d.d.d.d.d.d.d.d.d.d.d.d.d.O O F o.| F l 6 < + + o 6 l F H J J H F l l l 7 s e > > - > > > - h 5.4.5.[ ' ' ' ' ' ' [ [ [ ' [ [ ' { a.s.[ R e O     d.d.d.d.d.d.d.d.d.d.d.d.d.d.d.d.d.d.d.d.d.d.d.d.d.d.d.d.d.d.d.d.d.d.d.d.",
"d.d.d.d.d.d.d.d.d.d.d.d.d.d.d.d.d.d.d.d.d.d.d.d.d.d.d.d.d.d.d.d.d.d.d.d.d.d.d.d.d.d.d.d.d.d.d.d.d.d.d.d.d.d.d.d.d.d.d.d.d.d.d.d.d.d.d.d.d.d.d.d.d.d.d.d.d.d.d.d.d.d.d.d.d.d.d.d.d.d.d.d.d.d.d.d.d.d.d.d.d.d.d.d.d.e O k l l 6 < + + + 6 l B B H } J H H o.} J B 8 R y - : > > > > > y { 5.4.' ' ) ' ' ' ' [ ' [ [ [ [ { 4.i.u.s s e o   . d.d.d.d.d.d.d.d.d.d.d.d.d.d.d.d.d.d.d.d.d.d.d.d.d.d.d.d.d.d.d.d.d.d.d.",
"d.d.d.d.d.d.d.d.d.d.d.d.d.d.d.d.d.d.d.d.d.d.d.d.d.d.d.d.d.d.d.d.d.d.d.d.d.d.d.d.d.d.d.d.d.d.d.d.d.d.d.d.d.d.d.d.d.d.d.d.d.d.d.d.d.d.d.d.d.d.d.d.d.d.d.d.d.d.d.d.d.d.d.d.d.d.d.d.d.d.d.d.d.d.d.d.d.d.d.d.d.d.d.d.d.y > O < % < < + + k l l l l l l H H | o.o.J H B k U y e > e e e e > y 6.5.6.' ' ' ' ' ' [ [ [ [ [ [ ' ' 6.0.5.U U R e     d.d.d.d.d.d.d.d.d.d.d.d.d.d.d.d.d.d.d.d.d.d.d.d.d.d.d.d.d.d.d.d.d.d.",
"d.d.d.d.d.d.d.d.d.d.d.d.d.d.d.d.d.d.d.d.d.d.d.d.d.d.d.d.d.d.d.d.d.d.d.d.d.d.d.d.d.d.d.d.d.d.d.d.d.d.d.d.d.d.d.d.d.d.d.d.d.d.d.d.d.d.d.d.d.d.d.d.d.d.d.d.d.d.d.d.d.d.d.d.d.d.d.d.d.d.d.d.d.d.d.d.d.d.d.d.d.d.d.d.d.d.e > -   6 + # k k 8 6 3 3 7 7 j B H } | o.J J H k R h e e w e e e e s 7.5.4.[ [ ' [ [ ' [ [ [ ' ' ) 5.9.5.^ ' U r R       d.d.d.d.d.d.d.d.d.d.d.d.d.d.d.d.d.d.d.d.d.d.d.d.d.d.d.d.d.d.d.d.d.",
"d.d.d.d.d.d.d.d.d.d.d.d.d.d.d.d.d.d.d.d.d.d.d.d.d.d.d.d.d.d.d.d.d.d.d.d.d.d.d.d.d.d.d.d.d.d.d.d.d.d.d.d.d.d.d.d.d.d.d.d.d.d.d.d.d.d.d.d.d.d.d.d.d.d.d.d.d.d.d.d.d.d.d.d.d.d.d.d.d.d.d.d.d.d.d.d.d.d.d.d.d.d.d.d.d.d.d.e > - - O + > 3     > & 3 3 6 l F o.#.%.O.| J H < R U > > e e e e e h 6.5.6.[ [ [ [ [ [ [ ' ' ) 9.8.U s R U e h r r     d.d.d.d.d.d.d.d.d.d.d.d.d.d.d.d.d.d.d.d.d.d.d.d.d.d.d.d.d.d.d.d.d.",
"d.d.d.d.d.d.d.d.d.d.d.d.d.d.d.d.d.d.d.d.d.d.d.d.d.d.d.d.d.d.d.d.d.d.d.d.d.d.d.d.d.d.d.d.d.d.d.d.d.d.d.d.d.d.d.d.d.d.d.d.d.d.d.d.d.d.d.d.d.d.d.d.d.d.d.d.d.d.d.d.d.d.d.d.d.d.d.d.d.d.d.d.d.d.d.d.d.d.d.d.d.d.d.d.d.d.d.d.B j + <   & 0 +     > 3 & 6 l F o.%.:.-.$.X.} l O ) [ ) U y t e y e U q.{ 6.{ [ ' [ ' ' [ { u.7.y U -       - s y >   d.d.d.d.d.d.d.d.d.d.d.d.d.d.d.d.d.d.d.d.d.d.d.d.d.d.d.d.d.d.d.d.d.",
"d.d.d.d.d.d.d.d.d.d.d.d.d.d.d.d.d.d.d.d.d.d.d.d.d.d.d.d.d.d.d.d.d.d.d.d.d.d.d.d.d.d.d.d.d.d.d.d.d.d.d.d.d.d.d.d.d.d.d.d.d.d.d.d.d.d.d.d.d.d.d.d.d.d.d.d.d.d.d.d.d.d.d.d.d.d.d.d.d.d.d.d.d.d.d.d.d.d.d.d.d.d.d.d.d.d.H #.%.F j 6 + - 7 +     + + # l H } O.%.:.>.:.%.o.B   > e s U ' [ 4.' R s 6.0.R ' [ [ ' [ ' 6.q.Q e y       - O O > y e O d.d.d.d.d.d.d.d.d.d.d.d.d.d.d.d.d.d.d.d.d.d.d.d.d.d.d.d.d.d.d.d.d.",
"d.d.d.d.d.d.d.d.d.d.d.d.d.d.d.d.d.d.d.d.d.d.d.d.d.d.d.d.d.d.d.d.d.d.d.d.d.d.d.d.d.d.d.d.d.d.d.d.d.d.d.d.d.d.d.d.d.d.d.d.d.d.d.d.d.d.d.d.d.d.d.d.d.d.d.d.d.d.d.d.d.d.d.d.d.d.d.d.d.d.d.d.d.d.d.d.d.d.d.d.d.d.d.d.d.o.>.*.o.B 6 6 + + - O   + + + c H } | #.%.-.>.,.,.$.l o .   O e > e e y R ) 6.7.5.y R ' [ ) 6.u.U y -     > - e y     r e > d.d.d.d.d.d.d.d.d.d.d.d.d.d.d.d.d.d.d.d.d.d.d.d.d.d.d.d.d.d.d.d.d.",
"d.d.d.d.d.d.d.d.d.d.d.d.d.d.d.d.d.d.d.d.d.d.d.d.d.d.d.d.d.d.d.d.d.d.d.d.d.d.d.d.d.d.d.d.d.d.d.d.d.d.d.d.d.d.d.d.d.d.d.d.d.d.d.d.d.d.d.d.d.d.d.d.d.d.d.d.d.d.d.d.d.d.d.d.d.d.d.d.d.d.d.d.d.d.d.d.d.d.d.d.d.d.d.d.o.>.*.o.F j j 6 +     - -   & 8 F J | o.%.%.:.<.1.1.,.} O O O   - e e > > e > - - R U y h [ [ [ h e     O - y r   s e o O h t e d.d.d.d.d.d.d.d.d.d.d.d.d.d.d.d.d.d.d.d.d.d.d.d.d.d.d.d.d.d.d.d.",
"d.d.d.d.d.d.d.d.d.d.d.d.d.d.d.d.d.d.d.d.d.d.d.d.d.d.d.d.d.d.d.d.d.d.d.d.d.d.d.d.d.d.d.d.d.d.d.d.d.d.d.d.d.d.d.d.d.d.d.d.d.d.d.d.d.d.d.d.d.d.d.d.d.d.d.d.d.d.d.d.d.d.d.d.d.d.d.d.d.d.d.d.d.d.d.d.d.d.d.d.d.d.d.H #.*.o.H l 6 < + + +     - < 8 F H } o.#.%.-.<.e.w.w.2.$.l - - O   - y e > e > e t N ) s > e Q I >     - > >   y - o U :   - U e d.d.d.d.d.d.d.d.d.d.d.d.d.d.d.d.d.d.d.d.d.d.d.d.d.d.d.d.d.d.d.d.",
"d.d.d.d.d.d.d.d.d.d.d.d.d.d.d.d.d.d.d.d.d.d.d.d.d.d.d.d.d.d.d.d.d.d.d.d.d.d.d.d.d.d.d.d.d.d.d.d.d.d.d.d.d.d.d.d.d.d.d.d.d.d.d.d.d.d.d.d.d.d.d.d.d.d.d.d.d.d.d.d.d.d.d.d.d.d.d.d.d.d.d.d.d.d.d.d.d.d.d.d.d.d.d.H o.o.F B 6 < + <       + & j z H } o.o.#.%.>.e.w.r.t.r.>.K O - - o   . > : e e > t e ^ U e - >     O > O > h . O y o - s - o e e = d.d.d.d.d.d.d.d.d.d.d.d.d.d.d.d.d.d.d.d.d.d.d.d.d.d.d.d.d.d.d.",
"d.d.d.d.d.d.d.d.d.d.d.d.d.d.d.d.d.d.d.d.d.d.d.d.d.d.d.d.d.d.d.d.d.d.d.d.d.d.d.d.d.d.d.d.d.d.d.d.d.d.d.d.d.d.d.d.d.d.d.d.d.d.d.d.d.d.d.d.d.d.d.d.d.d.d.d.d.d.d.d.d.d.d.d.d.d.d.d.d.d.d.d.d.d.d.d.d.d.d.d.d.d.d.B F F l 0 6 + + +     + 3 6 V F J | o.o.#.:.<.1.2.2.e.w.e.#.6 - : - O     > - e > e e U R y t O   - - > y   e y o > y   e y O O N O d.d.d.d.d.d.d.d.d.d.d.d.d.d.d.d.d.d.d.d.d.d.d.d.d.d.d.d.d.d.d.",
"d.d.d.d.d.d.d.d.d.d.d.d.d.d.d.d.d.d.d.d.d.d.d.d.d.d.d.d.d.d.d.d.d.d.d.d.d.d.d.d.d.d.d.d.d.d.d.d.d.d.d.d.d.d.d.d.d.d.d.d.d.d.d.d.d.d.d.d.d.d.d.d.d.d.d.d.d.d.d.d.d.d.d.d.d.d.d.d.d.d.d.d.d.d.d.d.d.d.d.B J o.o.H l 6 6 + + +         & & 8 z K J | o.#.%.:.:.,.<.<.1.2.2.*.V > e h >     - - > > > > e R y y e O -     U -   e >   y e . y > O t > d.d.d.d.d.d.d.d.d.d.d.d.d.d.d.d.d.d.d.d.d.d.d.d.d.d.d.d.d.d.d.",
"d.d.d.d.d.d.d.d.d.d.d.d.d.d.d.d.d.d.d.d.d.d.d.d.d.d.d.d.d.d.d.d.d.d.d.d.d.d.d.d.d.d.d.d.d.d.d.d.d.d.d.d.d.d.d.d.d.d.d.d.d.d.d.d.d.d.d.d.d.d.d.d.d.d.d.d.d.d.d.d.d.d.d.d.d.d.d.d.d.d.d.d.d.d.d.d.d.d.B J o.o.F 6 < + + + +         + , & 8 l H } | O.%.-.:.>.:.:.,.<.1.1.,.} e r > O   O   - > > > > - U h e e e O     > U . . s -   s - O - O e d.d.d.d.d.d.d.d.d.d.d.d.d.d.d.d.d.d.d.d.d.d.d.d.d.d.d.d.d.d.d.d.",
"d.d.d.d.d.d.d.d.d.d.d.d.d.d.d.d.d.d.d.d.d.d.d.d.d.d.d.d.d.d.d.d.d.d.d.d.d.d.d.d.d.d.d.d.d.d.d.d.d.d.d.d.d.d.d.d.d.d.d.d.d.d.d.d.d.d.d.d.d.d.d.d.d.d.d.d.d.d.d.d.d.d.d.d.d.d.d.d.d.d.d.d.d.d.d.d.d.H o.#.J F 6 6 < + +                 & j F H } O.%.-.-.:.>.-.*.-.:.>.,.1.$.7 - o o       - - > - > - > Y e e e > O -   > Y . O s o - > o O > e d.d.d.d.d.d.d.d.d.d.d.d.d.d.d.d.d.d.d.d.d.d.d.d.d.d.d.d.d.d.d.d.",
"d.d.d.d.d.d.d.d.d.d.d.d.d.d.d.d.d.d.d.d.d.d.d.d.d.d.d.d.d.d.d.d.d.d.d.d.d.d.d.d.d.d.d.d.d.d.d.d.d.d.d.d.d.d.d.d.d.d.d.d.d.d.d.d.d.d.d.d.d.d.d.d.d.d.d.d.d.d.d.d.d.d.d.d.d.d.d.d.d.d.d.d.d.d.d.d.l o.%.| B 6 6 + + +         O O O     3 l F J o.%.%.-.-.:.:.:.-.&.:.:.:.<.:.F 3 o     o   O - > - - - > y e e e e > O O   y y   - e o o - e e O d.d.d.d.d.d.d.d.d.d.d.d.d.d.d.d.d.d.d.d.d.d.d.d.d.d.d.d.d.d.d.d.",
"d.d.d.d.d.d.d.d.d.d.d.d.d.d.d.d.d.d.d.d.d.d.d.d.d.d.d.d.d.d.d.d.d.d.d.d.d.d.d.d.d.d.d.d.d.d.d.d.d.d.d.d.d.d.d.d.d.d.d.d.d.d.d.d.d.d.d.d.d.d.d.d.d.d.d.d.d.d.d.d.d.d.d.d.d.d.d.d.d.d.d.d.d.d.d.d.l J H B j < + + +       O O O O O   & 6 l F J O.#.%.-.-.-.:.*.%.-.-.:.:.>.,.#.F 3   O - - O > - > - - - > y r > > > - - O   U -     O > e - X d.d.d.d.d.d.d.d.d.d.d.d.d.d.d.d.d.d.d.d.d.d.d.d.d.d.d.d.d.d.d.d.d.",
"d.d.d.d.d.d.d.d.d.d.d.d.d.d.d.d.d.d.d.d.d.d.d.d.d.d.d.d.d.d.d.d.d.d.d.d.d.d.d.d.d.d.d.d.d.d.d.d.d.d.d.d.d.d.d.d.d.d.d.d.d.d.d.d.d.d.d.d.d.d.d.d.d.d.d.d.d.d.d.d.d.d.d.d.d.d.d.d.d.d.d.d.d.d.d.l j B F 6 + + + +       - - - - O O   < 8 k F | O.%.*.%.#.*.%.#.#.%.*.*.-.-.>.| | B & O - O o - > - - > - - o h > > > - - O o o o = - e e O d.d.d.d.d.d.d.d.d.d.d.d.d.d.d.d.d.d.d.d.d.d.d.d.d.d.d.d.d.d.d.d.d.d.d.",
"d.d.d.d.d.d.d.d.d.d.d.d.d.d.d.d.d.d.d.d.d.d.d.d.d.d.d.d.d.d.d.d.d.d.d.d.d.d.d.d.d.d.d.d.d.d.d.d.d.d.d.d.d.d.d.d.d.d.d.d.d.d.d.d.d.d.d.d.d.d.d.d.d.d.d.d.d.d.d.d.d.d.d.d.d.d.d.d.d.d.d.d.d.d.l J B 6 6 + < +         > w e > - O O   3 6 z F J O.%.#.%.%.#.#.#.%.*.#.-.-.:.>.o.o.| k * o o O . > > - - - -   e y > > - O o - O - > > - d.d.d.d.d.d.d.d.d.d.d.d.d.d.d.d.d.d.d.d.d.d.d.d.d.d.d.d.d.d.d.d.d.d.d.d.d.",
"d.d.d.d.d.d.d.d.d.d.d.d.d.d.d.d.d.d.d.d.d.d.d.d.d.d.d.d.d.d.d.d.d.d.d.d.d.d.d.d.d.d.d.d.d.d.d.d.d.d.d.d.d.d.d.d.d.d.d.d.d.d.d.d.d.d.d.d.d.d.d.d.d.d.d.d.d.d.d.d.d.d.d.d.d.d.d.d.d.d.d.d.d.F J B 6 6 < < +       o e y e e r > - O O 3 k z H J | #.%.O.| | | *.*.-.:.:.-.*.-.o.J O.H 6 + o O +   e > - - - o o e e - - O . - - - - d.d.d.d.d.d.d.d.d.d.d.d.d.d.d.d.d.d.d.d.d.d.d.d.d.d.d.d.d.d.d.d.d.d.d.d.d.d.d.",
"d.d.d.d.d.d.d.d.d.d.d.d.d.d.d.d.d.d.d.d.d.d.d.d.d.d.d.d.d.d.d.d.d.d.d.d.d.d.d.d.d.d.d.d.d.d.d.d.d.d.d.d.d.d.d.d.d.d.d.d.d.d.d.d.d.d.d.d.d.d.d.d.d.d.d.d.d.d.d.d.d.d.d.d.d.d.d.d.d.d.d.d.F o.H j 6 < < +         y y s y s e > > O + 3 j B F J | o.| H J } O.*.:.,.<.>.:.*.*.*.o.| | F 3 + O + O - > - O - -   o > > - o - - O d.d.d.d.d.d.d.d.d.d.d.d.d.d.d.d.d.d.d.d.d.d.d.d.d.d.d.d.d.d.d.d.d.d.d.d.d.d.d.d.d.",
"d.d.d.d.d.d.d.d.d.d.d.d.d.d.d.d.d.d.d.d.d.d.d.d.d.d.d.d.d.d.d.d.d.d.d.d.d.d.d.d.d.d.d.d.d.d.d.d.d.d.d.d.d.d.d.d.d.d.d.d.d.d.d.d.d.d.d.d.d.d.d.d.d.d.d.d.d.d.d.d.d.d.d.d.d.d.d.d.d.d.d.d.B J B + + +         s s y s s h h y r - - + < 7 z H J } J F B H | *.:.<.<.<.1.>.*.#.*.| O.#.F l 3 + + + O > > - O O -     > O O - o d.d.d.d.d.d.d.d.d.d.d.d.d.d.d.d.d.d.d.d.d.d.d.d.d.d.d.d.d.d.d.d.d.d.d.d.d.d.d.d.d.d.",
"d.d.d.d.d.d.d.d.d.d.d.d.d.d.d.d.d.d.d.d.d.d.d.d.d.d.d.d.d.d.d.d.d.d.d.d.d.d.d.d.d.d.d.d.d.d.d.d.d.d.d.d.d.d.d.d.d.d.d.d.d.d.d.d.d.d.d.d.d.d.d.d.d.d.d.d.d.d.d.d.d.d.d.d.d.d.d.d.d.d.d.d.l l 6 +   +   % Q s s s U U h s y y e >   % + 7 l F H H B j l H o.%.-.,.<.2.<.<.-.%.-.o.o.O.J F j < + + o O > - O - -     O - - O d.d.d.d.d.d.d.d.d.d.d.d.d.d.d.d.d.d.d.d.d.d.d.d.d.d.d.d.d.d.d.d.d.d.d.d.d.d.d.d.d.d.d.",
"d.d.d.d.d.d.d.d.d.d.d.d.d.d.d.d.d.d.d.d.d.d.d.d.d.d.d.d.d.d.d.d.d.d.d.d.d.d.d.d.d.d.d.d.d.d.d.d.d.d.d.d.d.d.d.d.d.d.d.d.d.d.d.d.d.d.d.d.d.d.d.d.d.d.d.d.d.d.d.d.d.d.d.d.d.d.d.d.d.d.d.d.d.< + +   +   > s y U s h h h s s y > > + + 7 6 l z V z l j B H o.o.%.*.:.<.<.:.-.#.%.O.o.#.O.J F j 6 & + + + + - O O - O d.d.d.d.d.d.d.d.d.d.d.d.d.d.d.d.d.d.d.d.d.d.d.d.d.d.d.d.d.d.d.d.d.d.d.d.d.d.d.d.d.d.d.d.d.d.d.",
"d.d.d.d.d.d.d.d.d.d.d.d.d.d.d.d.d.d.d.d.d.d.d.d.d.d.d.d.d.d.d.d.d.d.d.d.d.d.d.d.d.d.d.d.d.d.d.d.d.d.d.d.d.d.d.d.d.d.d.d.d.d.d.d.d.d.d.d.d.d.d.d.d.d.d.d.d.d.d.d.d.d.d.d.d.d.d.d.d.d.d.d.d.w e -   U ' U y s y U T N y s y y i r + 6 j k j j z B l F H J o.#.o.#.#.-.,.-.*.*.*.#.o.o.o.#.| H B k 6 3 * * 6 d.d.d.d.d.d.d.d.d.d.d.d.d.d.d.d.d.d.d.d.d.d.d.d.d.d.d.d.d.d.d.d.d.d.d.d.d.d.d.d.d.d.d.d.d.d.d.d.d.d.d.",
"d.d.d.d.d.d.d.d.d.d.d.d.d.d.d.d.d.d.d.d.d.d.d.d.d.d.d.d.d.d.d.d.d.d.d.d.d.d.d.d.d.d.d.d.d.d.d.d.d.d.d.d.d.d.d.d.d.d.d.d.d.d.d.d.d.d.d.d.d.d.d.d.d.d.d.d.d.d.d.d.d.d.d.d.d.d.d.d.d.d.d.d.> > O   U ' h s s h U s s s h h y e e y % 7 x k l l B H H } o.o.#.*.%.*.O.O.&.-.-.#.#.*...H | %.%.o.} H B c z 7 6 6 d.d.d.d.d.d.d.d.d.d.d.d.d.d.d.d.d.d.d.d.d.d.d.d.d.d.d.d.d.d.d.d.d.d.d.d.d.d.d.d.d.d.d.d.d.d.d.d.d.d.",
"d.d.d.d.d.d.d.d.d.d.d.d.d.d.d.d.d.d.d.d.d.d.d.d.d.d.d.d.d.d.d.d.d.d.d.d.d.d.d.d.d.d.d.d.d.d.d.d.d.d.d.d.d.d.d.d.d.d.d.d.d.d.d.d.d.d.d.d.d.d.d.d.d.d.d.d.d.d.d.d.d.d.d.d.d.d.d.d.d.d.d.e > -   U ) s U s y s U R s a s y y s s % o $ 3 7 8 7 < k z H } | %.%.%.-.-.&.#.#.#.#.#.#.&.} %.%.%.%.o.o.} } F l l 0 d.d.d.d.d.d.d.d.d.d.d.d.d.d.d.d.d.d.d.d.d.d.d.d.d.d.d.d.d.d.d.d.d.d.d.d.d.d.d.d.d.d.d.d.d.d.d.d.d.d.",
"d.d.d.d.d.d.d.d.d.d.d.d.d.d.d.d.d.d.d.d.d.d.d.d.d.d.d.d.d.d.d.d.d.d.d.d.d.d.d.d.d.d.d.d.d.d.d.d.d.d.d.d.d.d.d.d.d.d.d.d.d.d.d.d.d.d.d.d.d.d.d.d.d.d.d.d.d.d.d.d.d.d.d.d.d.d.d.d.d.d.> e -   y 5.U y h y U h s s s h s y y h s 1 3 + $ < 3 3 k l l l H H } } | #.&.-.%.%.#.#.#.@.#.| -.-.o.O.O.O.O.o.H F F z d.d.d.d.d.d.d.d.d.d.d.d.d.d.d.d.d.d.d.d.d.d.d.d.d.d.d.d.d.d.d.d.d.d.d.d.d.d.d.d.d.d.d.d.d.d.d.d.d.d.",
"d.d.d.d.d.d.d.d.d.d.d.d.d.d.d.d.d.d.d.d.d.d.d.d.d.d.d.d.d.d.d.d.d.d.d.d.d.d.d.d.d.d.d.d.d.d.d.d.d.d.d.d.d.d.d.d.d.d.d.d.d.d.d.d.d.d.d.d.d.d.d.d.d.d.d.d.d.d.d.d.d.d.d.d.d.d.d.d.d.r e > o a ' U y R h s s y U h s s N y R Q - o 7 6 l B z F F H } } O.%.#.#.O.o.&.O.%.-.#.O.$.-.%.o.&.-.O.o.O.O.%.O.} F B j d.d.d.d.d.d.d.d.d.d.d.d.d.d.d.d.d.d.d.d.d.d.d.d.d.d.d.d.d.d.d.d.d.d.d.d.d.d.d.d.d.d.d.d.d.d.d.d.d.d.",
"d.d.d.d.d.d.d.d.d.d.d.d.d.d.d.d.d.d.d.d.d.d.d.d.d.d.d.d.d.d.d.d.d.d.d.d.d.d.d.d.d.d.d.d.d.d.d.d.d.d.d.d.d.d.d.d.d.d.d.d.d.d.d.d.d.d.d.d.d.d.d.d.d.d.d.d.d.d.d.d.d.d.d.d.d.d.d.d.y e -   e ( Q h h s s R U h s y h s s h ` y   3 6 l z F H J J J | O.O.O.-.-.*.-.%.o.O.&.-.&.&.O.O.o.%.%.| | o.o.$.} } } H d.d.d.d.d.d.d.d.d.d.d.d.d.d.d.d.d.d.d.d.d.d.d.d.d.d.d.d.d.d.d.d.d.d.d.d.d.d.d.d.d.d.d.d.d.d.d.d.d.d.d.",
"d.d.d.d.d.d.d.d.d.d.d.d.d.d.d.d.d.d.d.d.d.d.d.d.d.d.d.d.d.d.d.d.d.d.d.d.d.d.d.d.d.d.d.d.d.d.d.d.d.d.d.d.d.d.d.d.d.d.d.d.d.d.d.d.d.d.d.d.d.d.d.d.d.d.d.d.d.d.d.d.d.d.d.d.d.d.d.y r -   w ' s s h R R s R y h h y y h s ) T     + 4 8 k l l l H } o.o.#.o.%.#.%.:.-.$.O.O.&.%.O.&.o.o.O.O.} o.o.O.O.} H D j d.d.d.d.d.d.d.d.d.d.d.d.d.d.d.d.d.d.d.d.d.d.d.d.d.d.d.d.d.d.d.d.d.d.d.d.d.d.d.d.d.d.d.d.d.d.d.d.d.d.d.",
"d.d.d.d.d.d.d.d.d.d.d.d.d.d.d.d.d.d.d.d.d.d.d.d.d.d.d.d.d.d.d.d.d.d.d.d.d.d.d.d.d.d.d.d.d.d.d.d.d.d.d.d.d.d.d.d.d.d.d.d.d.d.d.d.d.d.d.d.d.d.d.d.d.d.d.d.d.d.d.d.d.d.d.d.d.d.e e >   > ) R h h N R s h U y h h s y y U ) O   - + O 7 8 l l z B B } } } o.%.%.%.%.-.-.-.$.O.O.O.O.#.o.| | O.} o.} | B 6 d.d.d.d.d.d.d.d.d.d.d.d.d.d.d.d.d.d.d.d.d.d.d.d.d.d.d.d.d.d.d.d.d.d.d.d.d.d.d.d.d.d.d.d.d.d.d.d.d.d.d.d.d.",
"d.d.d.d.d.d.d.d.d.d.d.d.d.d.d.d.d.d.d.d.d.d.d.d.d.d.d.d.d.d.d.d.d.d.d.d.d.d.d.d.d.d.d.d.d.d.d.d.d.d.d.d.d.d.d.d.d.d.d.d.d.d.d.d.d.d.d.d.d.d.d.d.d.d.d.d.d.d.d.d.d.d.d.d.d.e > >   - { U w e e t h s U h s h h y R T ) :     + 3 l z F J H J J J F H H H } -.%.J &.-.>.<.:.O.O.o.o.o.| | | | | J J z < d.d.d.d.d.d.d.d.d.d.d.d.d.d.d.d.d.d.d.d.d.d.d.d.d.d.d.d.d.d.d.d.d.d.d.d.d.d.d.d.d.d.d.d.d.d.d.d.d.d.d.d.d.",
"d.d.d.d.d.d.d.d.d.d.d.d.d.d.d.d.d.d.d.d.d.d.d.d.d.d.d.d.d.d.d.d.d.d.d.d.d.d.d.d.d.d.d.d.d.d.d.d.d.d.d.d.d.d.d.d.d.d.d.d.d.d.d.d.d.d.d.d.d.d.d.d.d.d.d.d.d.d.d.d.d.d.d.d.d.e >   - U h e R p.p.s R h h y s U U y h ) h o   + j l F H O.#.#.O.o.O.| J H } } | o.o.o.} O.:.>.:.X.| | } | | | | | J F z k d.d.d.d.d.d.d.d.d.d.d.d.d.d.d.d.d.d.d.d.d.d.d.d.d.d.d.d.d.d.d.d.d.d.d.d.d.d.d.d.d.d.d.d.d.d.d.d.d.d.d.d.d.",
"d.d.d.d.d.d.d.d.d.d.d.d.d.d.d.d.d.d.d.d.d.d.d.d.d.d.d.d.d.d.d.d.d.d.d.d.d.d.d.d.d.d.d.d.d.d.d.d.d.d.d.d.d.d.d.d.d.d.d.d.d.d.d.d.d.d.d.d.d.d.d.d.d.d.d.d.d.d.d.d.d.d.d.e > >   O R Q > s 7.i.0.s s h U h y y e R ) )     & j z F H %.-.*.o.o.o.o.} | | o.O.O.o.o.O.O.O.} -.O.X.| | } J } } } H H F B d.d.d.d.d.d.d.d.d.d.d.d.d.d.d.d.d.d.d.d.d.d.d.d.d.d.d.d.d.d.d.d.d.d.d.d.d.d.d.d.d.d.d.d.d.d.d.d.d.d.d.d.d.d.",
"d.d.d.d.d.d.d.d.d.d.d.d.d.d.d.d.d.d.d.d.d.d.d.d.d.d.d.d.d.d.d.d.d.d.d.d.d.d.d.d.d.d.d.d.d.d.d.d.d.d.d.d.d.d.d.d.d.d.d.d.d.d.d.d.d.d.d.d.d.d.d.d.d.d.d.d.d.d.d.d.d.d.e > e   - R ^ s s e 7.8.6.h s s y s h h y ' 6.-   3 6 B F J #.:.:.o.J J H | O.O.O.| } } H H } } O.O.O.O.X.O.O.} J J } J F H F D d.d.d.d.d.d.d.d.d.d.d.d.d.d.d.d.d.d.d.d.d.d.d.d.d.d.d.d.d.d.d.d.d.d.d.d.d.d.d.d.d.d.d.d.d.d.d.d.d.d.d.d.d.d.",
"d.d.d.d.d.d.d.d.d.d.d.d.d.d.d.d.d.d.d.d.d.d.d.d.d.d.d.d.d.d.d.d.d.d.d.d.d.d.d.d.d.d.d.d.d.d.d.d.d.d.d.d.d.d.d.d.d.d.d.d.d.d.d.d.d.d.d.d.d.d.d.d.d.d.d.d.d.d.d.d.d.d.e > > o s h h U s - Q ^ U - h h h y s s ) 5.-     9 B H J } #.%.:.*.} o.o.#.#.O.J J H H F H } } O.;.&.:.-.| o.} H F J J F l k   d.d.d.d.d.d.d.d.d.d.d.d.d.d.d.d.d.d.d.d.d.d.d.d.d.d.d.d.d.d.d.d.d.d.d.d.d.d.d.d.d.d.d.d.d.d.d.d.d.d.d.d.d.d.",
"d.d.d.d.d.d.d.d.d.d.d.d.d.d.d.d.d.d.d.d.d.d.d.d.d.d.d.d.d.d.d.d.d.d.d.d.d.d.d.d.d.d.d.d.d.d.d.d.d.d.d.d.d.d.d.d.d.d.d.d.d.d.d.d.d.d.d.d.d.d.d.d.d.d.d.d.d.d.d.d.d.d.e > > o e y h R s s - - y y y h s s h ^ 6.>   + & l H J J | | o.#.#.*.*.:.#.#.| | O.o.*.O.o.*.*.*.:.*.:.,.O.O.| F D B F B B < d.d.d.d.d.d.d.d.d.d.d.d.d.d.d.d.d.d.d.d.d.d.d.d.d.d.d.d.d.d.d.d.d.d.d.d.d.d.d.d.d.d.d.d.d.d.d.d.d.d.d.d.d.d.d.",
"d.d.d.d.d.d.d.d.d.d.d.d.d.d.d.d.d.d.d.d.d.d.d.d.d.d.d.d.d.d.d.d.d.d.d.d.d.d.d.d.d.d.d.d.d.d.d.d.d.d.d.d.d.d.d.d.d.d.d.d.d.d.d.d.d.d.d.d.d.d.d.d.d.d.d.d.d.d.d.d.d.d.> > > O - y y U R U s s y s h y e s ' 5.- o s + & l z F k H } } #.,.<.<.<.*.#.-.#.#.O.o.o.o.$.$.#.o.*.,.<.*.} O.J F B B B 7 k d.d.d.d.d.d.d.d.d.d.d.d.d.d.d.d.d.d.d.d.d.d.d.d.d.d.d.d.d.d.d.d.d.d.d.d.d.d.d.d.d.d.d.d.d.d.d.d.d.d.d.d.d.d.d.",
"d.d.d.d.d.d.d.d.d.d.d.d.d.d.d.d.d.d.d.d.d.d.d.d.d.d.d.d.d.d.d.d.d.d.d.d.d.d.d.d.d.d.%.*.$.O.H l d.d.d.d.d.d.d.d.d.d.d.d.d.d.d.d.d.d.d.d.d.d.d.d.d.d.d.d.d.d.d.d.d.d.d.e > > O e y s U s s U h e U h y ) { # o R s + 6 7 j l B | } O.-.1.<.2.*.#.} H } | J B F H F B F J | >.1.:.o.O.J } H H B 7 d.d.d.d.d.d.d.d.d.d.d.d.d.d.d.d.d.d.d.d.d.d.d.d.d.d.d.d.d.d.d.d.d.d.d.d.d.d.d.d.d.d.d.d.d.d.d.d.d.d.d.d.d.d.d.d.",
"d.d.d.d.d.d.d.d.d.d.d.d.d.d.d.d.d.d.d.d.d.d.d.d.d.d.d.d.d.d.d.d.d.d.d.d.d.d.d.d.d.d.:.:.O.| F H d.d.d.d.d.d.d.d.d.d.d.d.d.d.d.d.d.d.d.d.d.d.d.d.d.d.d.d.d.d.d.d.d.d.d.e > > O O y e R h a N s s s y [ ' O - R s - & 3 3 B J } o.#.*.:.*.*.| } } J } O.*.%.-.o.| J F z B z O.<.>.O.| | o.} H l 3 d.d.d.d.d.d.d.d.d.d.d.d.d.d.d.d.d.d.d.d.d.d.d.d.d.d.d.d.d.d.d.d.d.d.d.d.d.d.d.d.d.d.d.d.d.d.d.d.d.d.d.d.d.d.d.d.",
"d.d.d.d.d.d.d.d.d.d.d.d.d.d.d.d.d.d.d.d.d.d.d.d.d.d.d.d.d.d.d.d.d.d.d.d.d.d.d.d.d.%.:.:.#.B F H F d.d.d.d.d.d.d.d.d.d.d.d.d.d.d.d.d.d.d.d.d.d.d.d.d.d.d.d.d.d.d.d.d.d.e > > >   - s s Y U y y U s R ' O > R U e   & 3 V o.#.o.O.#.O.| | | | #.%.-.-.-.*.-.-.-.*.*.*.O.J l } *.>.O.#.o.#.} l 8 3 d.d.d.d.d.d.d.d.d.d.d.d.d.d.d.d.d.d.d.d.d.d.d.d.d.d.d.d.d.d.d.d.d.d.d.d.d.d.d.d.d.d.d.d.d.d.d.d.d.d.d.d.d.d.d.d.",
"d.d.d.d.d.d.d.d.d.d.d.d.d.d.d.d.d.d.d.d.d.d.d.d.d.d.d.d.d.d.d.d.d.d.d.d.d.d.d.d.d.-.>.*.#.F F H H l d.d.d.d.d.d.d.d.d.d.d.d.d.d.d.d.d.d.d.d.d.d.d.d.d.d.d.d.d.d.d.d.d.d.e > > -   s s U R s y y Q ' . y ^ s - y - 3 } O.| | #.O.} F } %.:.,.>.>.<.%.o.O.o.| o.| } o.#.O.#.| O.%.%.o.#.#.B j 3 & d.d.d.d.d.d.d.d.d.d.d.d.d.d.d.d.d.d.d.d.d.d.d.d.d.d.d.d.d.d.d.d.d.d.d.d.d.d.d.d.d.d.d.d.d.d.d.d.d.d.d.d.d.d.d.d.",
"d.d.d.d.d.d.d.d.d.d.d.d.d.d.d.d.d.d.d.d.d.d.d.d.d.d.d.d.d.d.d.d.d.d.d.d.d.d.d.d.*.:.*.o.H F l B B H d.d.d.d.d.d.d.d.d.d.d.d.d.d.d.d.d.d.d.d.d.d.d.d.d.d.d.d.d.d.d.d.d.- M > > e O O U h h y R 4.U o s ^ U y . - 3 H O.o.} o.| J H O.,.,.,.>.*.O.o.V z B c l B B F F H } } } } J O.%.#.%.j 6 3 d.d.d.d.d.d.d.d.d.d.d.d.d.d.d.d.d.d.d.d.d.d.d.d.d.d.d.d.d.d.d.d.d.d.d.d.d.d.d.d.d.d.d.d.d.d.d.d.d.d.d.d.d.d.d.d.d.",
"d.d.d.d.d.d.d.d.d.d.d.d.d.d.d.d.d.d.d.d.d.d.d.d.d.d.d.d.d.d.d.d.d.d.d.d.d.d.d.*.<.*.J H H F B l D F d.d.d.d.d.d.d.d.d.d.d.d.d.d.d.d.d.d.d.d.d.d.d.d.d.d.d.d.d.d.d.d.y h U e > > :   e U U ^ { > o R [ y > ' e o 6 } o.H J o.| o.*.>.%.#.o.P H V B B z c j j 6 0 0 k c B F o.O.J } O.o.#.j 7 3 d.d.d.d.d.d.d.d.d.d.d.d.d.d.d.d.d.d.d.d.d.d.d.d.d.d.d.d.d.d.d.d.d.d.d.d.d.d.d.d.d.d.d.d.d.d.d.d.d.d.d.d.d.d.d.d.d.",
"d.d.d.d.d.d.d.d.d.d.d.d.d.d.d.d.d.d.d.d.d.d.d.d.d.d.d.d.d.d.d.d.d.d.d.d.d.d.:.,.H B H F H B F l l F d.d.d.d.d.d.d.d.d.d.d.d.d.d.d.d.d.d.d.d.d.d.d.d.d.d.d.d.d.d.d.r M M M r > > > #   U 5.R   e ) ' U R O > R > l } F F J o.*.*.%.+.J H K F J | O.%.O.} H H H 0 % + 6 z B H O.X.H | } o.j 7 d.d.d.d.d.d.d.d.d.d.d.d.d.d.d.d.d.d.d.d.d.d.d.d.d.d.d.d.d.d.d.d.d.d.d.d.d.d.d.d.d.d.d.d.d.d.d.d.d.d.d.d.d.d.d.d.d.d.",
"d.d.d.d.d.d.d.d.d.d.d.d.d.d.d.d.d.d.d.d.d.d.d.d.d.d.d.d.d.d.d.d.d.d.d.d.d.H ,.>.z | J H J F l l 8 l d.d.d.d.d.d.d.d.d.d.d.d.d.d.d.d.d.d.d.d.d.d.d.d.d.d.d.d.d.d.> M M d > d r > > > o - > - Q ) Q e e 4.U - > > l N C } J #.#.| F B H | *.*.:.,.<.<.<.<.,.-.%.%.%.} V l j z X.*.| | o.B l j d.d.d.d.d.d.d.d.d.d.d.d.d.d.d.d.d.d.d.d.d.d.d.d.d.d.d.d.d.d.d.d.d.d.d.d.d.d.d.d.d.d.d.d.d.d.d.d.d.d.d.d.d.d.d.d.d.d.",
"d.d.d.d.d.d.d.d.d.d.d.d.d.d.d.d.d.d.d.d.d.d.d.d.d.d.d.d.d.d.d.d.d.d.d.d.d.} :.%.-.%.} J | H J l l l d.d.d.d.d.d.d.d.d.d.d.d.d.d.d.d.d.d.d.d.d.d.d.d.d.d.d.d.d.d M U d e = ; y > > e -   e R U e e N - y ' r O O x V H J J J J } J %.-.>.,.,.1.1.2.2.w.2.2.<.<.,.>.:.&.J j l F X.#.O.| 0 j d.d.d.d.d.d.d.d.d.d.d.d.d.d.d.d.d.d.d.d.d.d.d.d.d.d.d.d.d.d.d.d.d.d.d.d.d.d.d.d.d.d.d.d.d.d.d.d.d.d.d.d.d.d.d.d.d.d.d.",
"d.d.d.d.d.d.d.d.d.d.d.d.d.d.d.d.d.d.d.d.d.d.d.d.d.d.d.d.d.d.d.d.d.d.d.d.d.o.o.<.:.%.} } | F J F F H H d.d.d.d.d.d.d.d.d.d.d.d.d.d.d.d.d.d.%.,.,.,.>.>.d.d.d.- M T M ; = = > > > > > e U R t e e e 4.y - U e - - 8 B F F B } O.*.>.<.1.<.1.1.w.w.w.2.2.w.2.1.1.<.<.<.>.-.O.B B } *.#.H 3 d.d.d.d.d.d.d.d.d.d.d.d.d.d.d.d.d.d.d.d.d.d.d.d.d.d.d.d.d.d.d.d.d.d.d.d.d.d.d.d.d.d.d.d.d.d.d.d.d.d.d.d.d.d.d.d.d.d.d.d.",
"d.d.d.d.d.d.d.d.d.d.d.d.d.d.d.d.d.d.d.d.d.d.d.d.d.d.d.d.d.d.d.d.d.d.d.d.d.O.*.<.,.<.*.*.-.%.J l F H H F d.d.d.d.d.d.d.d.d.d.d.d.d.d.d.<.<.*.%.| | *.:.>.d.w h Y M i @ = = = i e > e U y > > > o > Q Q > > s - > l l z l l o.*.,.1.2.2.2.2.2.2.w.w.2.2.2.2.2.2.<.<.<.<.,.-.o.} G | @.K 8 d.d.d.d.d.d.d.d.d.d.d.d.d.d.d.d.d.d.d.d.d.d.d.d.d.d.d.d.d.d.d.d.d.d.d.d.d.d.d.d.d.d.d.d.d.d.d.d.d.d.d.d.d.d.d.d.d.d.d.d.",
"d.d.d.d.d.d.d.d.d.d.d.d.d.d.d.d.d.d.d.d.d.d.d.d.d.d.d.d.d.d.d.d.d.d.d.d.d.o.-.>.,.,.<.1.>.-.o.B H F F B F d.d.d.d.d.d.d.d.d.d.d.d.o.,.#.%.} } J H %.:.;.d g M M 2 = > > ; 2 M w e ; > - > > e o - s R y - y > - l l l l F #.:.1.w.2.2.1.2.2.2.2.2.2.2.2.2.2.1.1.<.<.<.,.>.-.O.H J } | z d.d.d.d.d.d.d.d.d.d.d.d.d.d.d.d.d.d.d.d.d.d.d.d.d.d.d.d.d.d.d.d.d.d.d.d.d.d.d.d.d.d.d.d.d.d.d.d.d.d.d.d.d.d.d.d.d.d.d.d.",
"d.d.d.d.d.d.d.d.d.d.d.d.d.d.d.d.d.d.d.d.d.d.d.d.d.d.d.d.d.d.d.d.d.d.d.d.d.d.*.,.,.<.1.1.2.>.%.H F B F B H l d.d.d.d.d.d.d.d.d.,.%.o.J H F B l D F } } - Y M M = = ; = 2 t d d d y > > > > e e > O y U U > - - 3 7 8 8 z } #.>.2.2.2.2.1.2.2.2.w.2.2.2.2.1.2.<.<.1.<.<.,.,.:.#.} G J H B d.d.d.d.d.d.d.d.d.d.d.d.d.d.d.d.d.d.d.d.d.d.d.d.d.d.d.d.d.d.d.d.d.d.d.d.d.d.d.d.d.d.d.d.d.d.d.d.d.d.d.d.d.d.d.d.d.d.d.d.",
"d.d.d.d.d.d.d.d.d.d.d.d.d.d.d.d.d.d.d.d.d.d.d.d.d.d.d.d.d.d.d.d.d.d.d.d.d.d.o.<.,.<.1.<.2.e.%.F l B B l l F F d.d.d.d.d.d.d.,.O.B l B B B B B l D k v h Y a r = = t = w M M r d e   r e e t e e O > y Q s - o 9 7 3 l c O.%.>.1.2.1.1.2.2.2.2.w.w.2.2.w.2.1.<.,.1.<.<.,.,.-.*.O.F z B < d.d.d.d.d.d.d.d.d.d.d.d.d.d.d.d.d.d.d.d.d.d.d.d.d.d.d.d.d.d.d.d.d.d.d.d.d.d.d.d.d.d.d.d.d.d.d.d.d.d.d.d.d.d.d.d.d.d.d.d.",
"d.d.d.d.d.d.d.d.d.d.d.d.d.d.d.d.d.d.d.d.d.d.d.d.d.d.d.d.d.d.d.d.d.d.d.d.d.d.o.<.<.,.,.1.1.<.o.l 3 8 l l B l B } %.d.d.d.d.,.,.>.-.+ & k l l l l X i d M d : = = ; w t g M a t a y M   i t e e e - O e y R e - 3 3 > z H %.>.1.1.1.1.2.2.2.2.2.2.2.2.2.2.2.1.1.,.<.1.<.,.,.,.>.:.B 0 0 0 d.d.d.d.d.d.d.d.d.d.d.d.d.d.d.d.d.d.d.d.d.d.d.d.d.d.d.d.d.d.d.d.d.d.d.d.d.d.d.d.d.d.d.d.d.d.d.d.d.d.d.d.d.d.d.d.d.d.d.d.",
"d.d.d.d.d.d.d.d.d.d.d.d.d.d.d.d.d.d.d.d.d.d.d.d.d.d.d.d.d.d.d.d.d.d.d.d.d.d.d.,.>.>.,.,.-.#.F l 3 & 3 l l l l B H } H l O.O.-.-.*.,.-.% & 8 6 7 : M h M a O = t = i g d a i i d M M O . s t e e e O - e y R > o > r F } *.*.<.2.1.1.2.2.2.w.2.2.2.2.2.2.2.2.1.<.<.<.<.<.,.<.,.>.o.l 0 l d.d.d.d.d.d.d.d.d.d.d.d.d.d.d.d.d.d.d.d.d.d.d.d.d.d.d.d.d.d.d.d.d.d.d.d.d.d.d.d.d.d.d.d.d.d.d.d.d.d.d.d.d.d.d.d.d.d.d.d.",
"d.d.d.d.d.d.d.d.d.d.d.d.d.d.d.d.d.d.d.d.d.d.d.d.d.d.d.d.d.d.d.d.d.d.d.d.d.d.d.| >.:.>.>.O.o.F 8 & 7 8 l B B B B F J H o.O.O.:.>.:.:.,.} , X 5 y M M M M d = = 2 w M M r a w d M h T W     h e e e e o > > U U - O k F | %.*.,.1.1.2.2.2.w.w.w.w.w.2.1.2.2.2.2.<.,.1.<.,.,.,.<.<.*.m k 6 d.d.d.d.d.d.d.d.d.d.d.d.d.d.d.d.d.d.d.d.d.d.d.d.d.d.d.d.d.d.d.d.d.d.d.d.d.d.d.d.d.d.d.d.d.d.d.d.d.d.d.d.d.d.d.d.d.d.d.d.",
"d.d.d.d.d.d.d.d.d.d.d.d.d.d.d.d.d.d.d.d.d.d.d.d.d.d.d.d.d.d.d.d.d.d.d.d.d.d.d.} #.*.:.-.F B 8 & + 3 l l l l B z H J J } } } O.O.*.#.o.n O d g h M M M M I t = r M g a t i d M M M ! / / o o w e > e > o > - R s - r F o.%.>.<.1.2.2.w.2.w.w.2.2.2.2.1.2.2.2.2.1.,.<.<.,.,.,.<.1.>.| B % d.d.d.d.d.d.d.d.d.d.d.d.d.d.d.d.d.d.d.d.d.d.d.d.d.d.d.d.d.d.d.d.d.d.d.d.d.d.d.d.d.d.d.d.d.d.d.d.d.d.d.d.d.d.d.d.d.d.d.d.",
"d.d.d.d.d.d.d.d.d.d.d.d.d.d.d.d.d.d.d.d.d.d.d.d.d.d.d.d.d.d.d.d.d.d.d.d.d.d.d.d.| O.:.o.F l 8 3 8 k l l k 8 8 D F J J | O.O.| ;.%.%.X.j M Y M Y M M M T W M M g d a t i a M I I ! / ( ( ` -   - e e > - o > > ) e O H $.$.<.<.2.2.2.2.2.2.2.2.2.2.2.2.2.2.2.2.1.<.<.<.<.,.,.,.2.>.#.F j d.d.d.d.d.d.d.d.d.d.d.d.d.d.d.d.d.d.d.d.d.d.d.d.d.d.d.d.d.d.d.d.d.d.d.d.d.d.d.d.d.d.d.d.d.d.d.d.d.d.d.d.d.d.d.d.d.d.d.d.",
"d.d.d.d.d.d.d.d.d.d.d.d.d.d.d.d.d.d.d.d.d.d.d.d.d.d.d.d.d.d.d.d.d.d.d.d.d.d.d.d.H } H H B H B F z B l l 3 3 3 8 z B F J J | O.%.-.%.=.9 t M M M M M T ! T M h g t d t d M M I ! / / _ ( E y     # e > >   O - > R y } %.:.>.1.3.2.2.1.3.2.2.w.w.w.2.1.2.2.1.2.2.<.<.<.<.<.,.-.,.,.%.H 7 d.d.d.d.d.d.d.d.d.d.d.d.d.d.d.d.d.d.d.d.d.d.d.d.d.d.d.d.d.d.d.d.d.d.d.d.d.d.d.d.d.d.d.d.d.d.d.d.d.d.d.d.d.d.d.d.d.d.d.d.",
"d.d.d.d.d.d.d.d.d.d.d.d.d.d.d.d.d.d.d.d.d.d.d.d.d.d.d.d.d.d.d.d.d.d.d.d.d.d.d.d.l H l l F J F J B z l l 3 3 3 7 l z B F F | | %.-.>.#.4 2 M M M M T E Y I M a a t a d M M I ! / / ( ` E y - = o o O > > # o O - > e H O.*.,.2.2.2.2.1.3.2.2.w.w.2.2.1.2.1.1.1.<.<.<.<.1.1.,.>.>.>.*.| Z d.d.d.d.d.d.d.d.d.d.d.d.d.d.d.d.d.d.d.d.d.d.d.d.d.d.d.d.d.d.d.d.d.d.d.d.d.d.d.d.d.d.d.d.d.d.d.d.d.d.d.d.d.d.d.d.d.d.d.d.",
"d.d.d.d.d.d.d.d.d.d.d.d.d.d.d.d.d.d.d.d.d.d.d.d.d.d.d.d.d.d.d.d.d.d.d.d.d.d.d.d.d.F B l B } J | J H z l 7 7 7 8 8 8 l z B B F } @.>.-...@ d M M M T T M M d a t i d h M I E ( ( _ ( T t : = = O O o - > > - O . o   J X.:.<.2.2.2.1.2.w.2.2.w.2.2.2.1.2.1.<.<.<.<.,.,.<.<.,.:.,.>.%.P H V d.d.d.d.d.d.d.d.d.d.d.d.d.d.d.d.d.d.d.d.d.d.d.d.d.d.d.d.d.d.d.d.d.d.d.d.d.d.d.d.d.d.d.d.d.d.d.d.d.d.d.d.d.d.d.d.d.d.d.",
"d.d.d.d.d.d.d.d.d.d.d.d.d.d.d.d.d.d.d.d.d.d.d.d.d.d.d.d.d.d.d.d.d.d.d.d.d.d.d.d.d.B H F l } | O.| J F B 8 8 8 8 8 8 8 l z B B J  .*.>.2.  r M M M M M d d t t a h M g I ! ~ / ( ( Y r = = = = O O -   - > > > - O   @.:.,.1.2.2.1.1.w.2.2.2.2.2.1.2.2.2.2.1.1.<.<.<.<.1.<.>.<.:.>.-.J P V d.d.d.d.d.d.d.d.d.d.d.d.d.d.d.d.d.d.d.d.d.d.d.d.d.d.d.d.d.d.d.d.d.d.d.d.d.d.d.d.d.d.d.d.d.d.d.d.d.d.d.d.d.d.d.d.d.d.d.",
"d.d.d.d.d.d.d.d.d.d.d.d.d.d.d.d.d.d.d.d.d.d.d.d.d.d.d.d.d.d.d.d.d.d.d.d.d.d.d.d.d.d.H F l F o.*.$.| } F z l 8 8 8 8 8 8 8 z B B D ..*.:.*.1 d M M M M i t t a a h M I W ! / ( / Y t ; = = = = O   O - o O - - O - d.J >.1.2.1.1.2.2.w.2.2.2.2.1.2.1.1.2.2.1.1.<.<.<.<.1.<.,.>.>.-.#.| F V T d.d.d.d.d.d.d.d.d.d.d.d.d.d.d.d.d.d.d.d.d.d.d.d.d.d.d.d.d.d.d.d.d.d.d.d.d.d.d.d.d.d.d.d.d.d.d.d.d.d.d.d.d.d.d.d.d.d.",
"d.d.d.d.d.d.d.d.d.d.d.d.d.d.d.d.d.d.d.d.d.d.d.d.d.d.d.d.d.d.d.d.d.d.d.d.d.d.d.d.d.d.F | F } O.-.*.$.| J z l l 8 8 8 8 8 8 l z z z F | *.&.! d M M M i r r y d d M Y E / / ( ( I w = = = = = o     d.O > O o O O d.d.| -.>.<.1.2.2.2.2.2.2.2.w.2.2.2.2.2.2.2.1.1.<.1.<.,.<.,.>.>.:.-.J F V V d.d.d.d.d.d.d.d.d.d.d.d.d.d.d.d.d.d.d.d.d.d.d.d.d.d.d.d.d.d.d.d.d.d.d.d.d.d.d.d.d.d.d.d.d.d.d.d.d.d.d.d.d.d.d.d.d.d.",
"d.d.d.d.d.d.d.d.d.d.d.d.d.d.d.d.d.d.d.d.d.d.d.d.d.d.d.d.d.d.d.d.d.d.d.d.d.d.d.d.d.d.d.F J } o.-.$.*.O.| F z z l 8 8 8 8 8 8 8 8 8 l B | #. .1 d M M d i t M d d Y E ! ~ / W I w ; = = = = X   X   d.d.d.- - d.d.d.d.d.%.-.<.1.1.2.1.2.2.w.w.w.w.2.2.2.2.2.2.2.1.<.,.<.,.,.<.,.>.>.*.o.J F c x d.d.d.d.d.d.d.d.d.d.d.d.d.d.d.d.d.d.d.d.d.d.d.d.d.d.d.d.d.d.d.d.d.d.d.d.d.d.d.d.d.d.d.d.d.d.d.d.d.d.d.d.d.d.d.d.d.",
"d.d.d.d.d.d.d.d.d.d.d.d.d.d.d.d.d.d.d.d.d.d.d.d.d.d.d.d.d.d.d.d.d.d.d.d.d.d.d.d.d.d.d.B J } %.%.*.*.$.| F F B z l 8 8 8 8 8 8 8 8 l z J | *.j y M M M d g M M Y ! ! / / / d 2 = = = = = o     9 d.d.d.d.d.d.d.d.d.d.d.%.:.1.2.1.1.2.w.2.w.w.w.2.2.2.1.2.2.2.1.1.<.,.,.>.>.<.,.>.-.*.#.| F F l d.d.d.d.d.d.d.d.d.d.d.d.d.d.d.d.d.d.d.d.d.d.d.d.d.d.d.d.d.d.d.d.d.d.d.d.d.d.d.d.d.d.d.d.d.d.d.d.d.d.d.d.d.d.d.d.d.",
"d.d.d.d.d.d.d.d.d.d.d.d.d.d.d.d.d.d.d.d.d.d.d.d.d.d.d.d.d.d.d.d.d.d.d.d.d.d.d.d.d.d.d.F H | o.#.:.$.%.O.| J F B B z l 8 8 8 8 8 8 8 l B F | O.- h h M M h M E ! / / / E d 2 = = = = = o     * d.d.d.d.d.d.d.d.d.d.d.d.*.,.<.2.1.1.w.2.1.2.2.e.2.2.2.2.2.1.2.1.1.,.,.<.,.,.>.,.:.:.:.o.O.J B c 3 d.d.d.d.d.d.d.d.d.d.d.d.d.d.d.d.d.d.d.d.d.d.d.d.d.d.d.d.d.d.d.d.d.d.d.d.d.d.d.d.d.d.d.d.d.d.d.d.d.d.d.d.d.d.d.d.",
"d.d.d.d.d.d.d.d.d.d.d.d.d.d.d.d.d.d.d.d.d.d.d.d.d.d.d.d.d.d.d.d.d.d.d.d.d.d.d.d.d.d.d.d.H #.o.o.$.:.*.$.O.| | F F B z 8 8 8 7 7 7 8 8 8 l D J b t M M M g E / / / ] / Y w = = = = O     o % d.d.d.d.d.d.d.d.d.d.d.d.d.:.<.<.<.1.2.2.2.2.2.2.w.2.w.2.2.2.1.2.1.<.,.,.<.<.,.,.>.>.>.*.%.O.} B B k d.d.d.d.d.d.d.d.d.d.d.d.d.d.d.d.d.d.d.d.d.d.d.d.d.d.d.d.d.d.d.d.d.d.d.d.d.d.d.d.d.d.d.d.d.d.d.d.d.d.d.d.d.d.d.d.",
"d.d.d.d.d.d.d.d.d.d.d.d.d.d.d.d.d.d.d.d.d.d.d.d.d.d.d.d.d.d.d.d.d.d.d.d.d.d.d.d.d.d.d.d.H *.O.o.X.$.%.*.O.O.| } F B l 8 k 7 7 7 7 7 8 8 j z n G 9 d g I W _ / / ` / M : = = = = = o     0 d.d.d.d.d.d.d.d.d.d.d.d.d.d.-.>.1.1.2.2.1.2.2.2.2.2.2.2.2.1.1.1.2.1.<.<.,.<.<.>.,.>.>.>.*.*.O.} V F z d.d.d.d.d.d.d.d.d.d.d.d.d.d.d.d.d.d.d.d.d.d.d.d.d.d.d.d.d.d.d.d.d.d.d.d.d.d.d.d.d.d.d.d.d.d.d.d.d.d.d.d.d.d.d.d.",
"d.d.d.d.d.d.d.d.d.d.d.d.d.d.d.d.d.d.d.d.d.d.d.d.d.d.d.d.d.d.d.d.d.d.d.d.d.d.d.d.d.d.d.d.F :.#.J H H o.%.%.%.O.} J z 8 8 8 7 7 7 7 7 7 8 8 8 l B 1 w Y / / / / / W M w = = = = = O     & d.d.d.d.d.:.<.<.*.d.d.d.d.d.d.:.,.<.1.2.w.2.2.2.2.2.2.1.1.1.<.1.1.1.1.1.<.,.,.<.>.>.,.-.>.*.-.#.O.} F B k d.d.d.d.d.d.d.d.d.d.d.d.d.d.d.d.d.d.d.d.d.d.d.d.d.d.d.d.d.d.d.d.d.d.d.d.d.d.d.d.d.d.d.d.d.d.d.d.d.d.d.d.d.d.d.",
"d.d.d.d.d.d.d.d.d.d.d.d.d.d.d.d.d.d.d.d.d.d.d.d.d.d.d.d.d.d.d.d.d.d.d.d.d.d.d.d.d.d.d.d.H *.#.} l F } O.*.*.%.| } z 8 8 8 7 7 7 7 7 7 7 8 8 8 z b = T ] / / / ! d : = = = = = o     % d.d.d.d.d.J F O.*.<.<.d.d.d.d.d.-.:.<.1.w.w.2.2.2.1.1.1.1.<.1.<.<.1.1.2.1.<.<.,.<.,.,.>.>.:.*.*.#.o.| F B c d.d.d.d.d.d.d.d.d.d.d.d.d.d.d.d.d.d.d.d.d.d.d.d.d.d.d.d.d.d.d.d.d.d.d.d.d.d.d.d.d.d.d.d.d.d.d.d.d.d.d.d.d.d.d.",
"d.d.d.d.d.d.d.d.d.d.d.d.d.d.d.d.d.d.d.d.d.d.d.d.d.d.d.d.d.d.d.d.d.d.d.d.d.d.d.d.d.d.d.d.d.J -.o.8 l F O.<.<.,.*.| D z 8 8 7 7 7 7 7 7 7 7 8 8 8 l D T / / ! W M w = = = = = o   @ 4 d.d.d.d.l 3 4 3 F J :.<.d.d.d.d.d.*.:.<.<.2.w.w.2.w.1.1.1.1.1.<.<.<.<.1.1.<.<.>.<.,.<.,.>.,.:.*.*.#.o.| H z l r d.d.d.d.d.d.d.d.d.d.d.d.d.d.d.d.d.d.d.d.d.d.d.d.d.d.d.d.d.d.d.d.d.d.d.d.d.d.d.d.d.d.d.d.d.d.d.d.d.d.d.d.d.d.",
"d.d.d.d.d.d.d.d.d.d.d.d.d.d.d.d.d.d.d.d.d.d.d.d.d.d.d.d.d.d.d.d.d.d.d.d.d.d.d.d.d.d.d.d.d.J <.o.7 l B | <.2.<.>.O.F z 8 8 7 7 7 7 7 7 7 7 7 7 8 l D D v ! E M w = = = = = =   o l d.d.d.d.l & 3 4 3 l H :.<.d.d.d.d.d.%.:.:.<.w.w.w.2.2.2.1.1.1.1.1.<.<.1.<.<.<.,.,.,.<.1.,.>.,.:.:.*.%.#.O.| F c 7 d.d.d.d.d.d.d.d.d.d.d.d.d.d.d.d.d.d.d.d.d.d.d.d.d.d.d.d.d.d.d.d.d.d.d.d.d.d.d.d.d.d.d.d.d.d.d.d.d.d.d.d.d.d.",
"d.d.d.d.d.d.d.d.d.d.d.d.d.d.d.d.d.d.d.d.d.d.d.d.d.d.d.d.d.d.d.d.d.d.d.d.d.d.d.d.d.d.d.d.d.J :.*.l 3 8 } <.r.t.,.;.F z 8 8 7 7 7 7 7 7 7 7 7 7 8 8 l F + > e e - = = = O O O @ 8 d.d.d.d.& 3 3 & + + * 4 J H d.d.d.d.d.o.:.,.<.2.2.2.2.2.2.1.1.1.1.<.<.<.<.<.<.,.,.,.,.<.,.,.>.>.:.:.%.%.#.o.o.H B k + d.d.d.d.d.d.d.d.d.d.d.d.d.d.d.d.d.d.d.d.d.d.d.d.d.d.d.d.d.d.d.d.d.d.d.d.d.d.d.d.d.d.d.d.d.d.d.d.d.d.d.d.d.",
"d.d.d.d.d.d.d.d.d.d.d.d.d.d.d.d.d.d.d.d.d.d.d.d.d.d.d.d.d.d.d.d.d.d.d.d.d.d.d.d.d.d.d.d.d.H >.:.H 3 B | 1.e.t.<.-.F z 8 8 7 7 7 7 7 7 7 7 7 7 7 8 l l | } 0 O = = = = = o   0 d.d.d.d.+ 3 & & & + o +   l H d.d.d.d.d.d.:.:.,.1.2.2.2.2.2.1.1.<.<.1.<.<.1.<.,.>.>.,.,.,.>.>.:.:.*.*.%.%.#.o.o.J B b 6 d.d.d.d.d.d.d.d.d.d.d.d.d.d.d.d.d.d.d.d.d.d.d.d.d.d.d.d.d.d.d.d.d.d.d.d.d.d.d.d.d.d.d.d.d.d.d.d.d.d.d.d.d.",
"d.d.d.d.d.d.d.d.d.d.d.d.d.d.d.d.d.d.d.d.d.d.d.d.d.d.d.d.d.d.d.d.d.d.d.d.d.d.d.d.d.d.d.d.d.H :.1.o.F J 1.t.t.t.>.O.H F 8 8 7 7 7 7 7 7 7 7 7 7 7 7 8 8 F  .H @ o O = O O   @ d.d.d.+ & + & & & + o + + + 8 B d.d.d.d.d.d.-.,.<.<.2.w.2.1.2.1.<.<.<.<.<.<.1.<.,.,.,.,.,.>.>.>.-.*.%.O.O.o.O.o.o.} H z 0 d.d.d.d.d.d.d.d.d.d.d.d.d.d.d.d.d.d.d.d.d.d.d.d.d.d.d.d.d.d.d.d.d.d.d.d.d.d.d.d.d.d.d.d.d.d.d.d.d.d.d.d.d.",
"d.d.d.d.d.d.d.d.d.d.d.d.d.d.d.d.d.d.d.d.d.d.d.d.d.d.d.d.d.d.d.d.d.d.d.d.d.d.d.d.d.d.d.d.d.8 o.>.H z } :.2.t.t.<.>.o.F F l 8 7 7 7 7 7 7 7 7 7 7 7 7 8 F } @.@.G % o     4 d.d.d.B H + + + + + + + + & & B d.d.d.d.d.d.d.>.<.<.2.w.2.1.2.2.1.<.<.,.<.<.<.<.<.,.,.,.,.<.,.>.>.:.*.#.O.o.o.o.o.o.} B c k + d.d.d.d.d.d.d.d.d.d.d.d.d.d.d.d.d.d.d.d.d.d.d.d.d.d.d.d.d.d.d.d.d.d.d.d.d.d.d.d.d.d.d.d.d.d.d.d.d.d.d.d.",
"d.d.d.d.d.d.d.d.d.d.d.d.d.d.d.d.d.d.d.d.d.d.d.d.d.d.d.d.d.d.d.d.d.d.d.d.d.d.d.d.d.d.d.d.d.3 z B B F F F F F z z } } O.O.J V 8 8 7 7 7 7 7 7 7 7 7 8 8 l D o.%.*.4 .     d.d.d.B } H l 8   O + + * & 8 l d.d.d.d.d.d.d.d.:.,.<.2.w.2.2.1.1.<.<.<.<.<.<.<.<.<.,.,.,.,.,.,.>.>.:.*.#.#.o.o.o.o.o.J z c c 4 d.d.d.d.d.d.d.d.d.d.d.d.d.d.d.d.d.d.d.d.d.d.d.d.d.d.d.d.d.d.d.d.d.d.d.d.d.d.d.d.d.d.d.d.d.d.d.d.d.d.d.d.",
"d.d.d.d.d.d.d.d.d.d.d.d.d.d.d.d.d.d.d.d.d.d.d.d.d.d.d.d.d.d.d.d.d.d.d.d.d.d.d.d.d.d.d.d.d.7 l z | | | | z 8 & 3 & 8 l B F H F l 8 7 7 7 7 7 7 7 7 8 8 8 B  .*.*.} J n   d.d.H } B B 3 3 ,   + + * 3 l d.d.d.d.d.d.d.d.d.:.,.<.2.w.w.2.1.1.,.<.,.<.<.<.<.1.1.<.<.,.,.,.,.>.>.>.*.*.#.o.o.o.o.o.o.V B x + d.d.d.d.d.d.d.d.d.d.d.d.d.d.d.d.d.d.d.d.d.d.d.d.d.d.d.d.d.d.d.d.d.d.d.d.d.d.d.d.d.d.d.d.d.d.d.d.d.d.d.d.",
"d.d.d.d.d.d.d.d.d.d.d.d.d.d.d.d.d.d.d.d.d.d.d.d.d.d.d.d.d.d.d.d.d.d.d.d.d.d.d.d.d.d.d.d.F O.%.,.,.<.t.t.:.*.| j 3 + + 8 8 l l z 8 8 7 7 7 7 7 7 8 8 8 8 l F | O.%.J d.d.B H H F B l 7 3 7 7 7 3 8 z d.d.d.d.d.d.d.d.d.d.-.:.<.1.w.2.2.1.<.,.<.<.<.<.<.<.1.<.<.,.,.,.,.,.,.>.-.*.*.#.#.#.o.o.o.} H m z 0 d.d.d.d.d.d.d.d.d.d.d.d.d.d.d.d.d.d.d.d.d.d.d.d.d.d.d.d.d.d.d.d.d.d.d.d.d.d.d.d.d.d.d.d.d.d.d.d.d.d.d.d.",
"d.d.d.d.d.d.d.d.d.d.d.d.d.d.d.d.d.d.d.d.d.d.d.d.d.d.d.d.d.d.d.d.d.d.d.d.d.d.d.d.d.d.d.d.z B B H | H B F B J o.O.o.F 3 $ % 3 8 8 8 8 7 7 7 7 7 7 7 8 8 8 l B J O.>.O.O.| H H H F l l 8 3 3 8 8 8 l d.d.d.d.d.d.d.d.d.d.d.*.>.,.<.2.w.2.1.<.,.,.,.<.<.<.<.1.<.<.,.,.,.,.,.,.:.:.*.*.*.#.o.o.o.o.o.J F B c 7 d.d.d.d.d.d.d.d.d.d.d.d.d.d.d.d.d.d.d.d.d.d.d.d.d.d.d.d.d.d.d.d.d.d.d.d.d.d.d.d.d.d.d.d.d.d.d.d.d.d.d.",
"d.d.d.d.d.d.d.d.d.d.d.d.d.d.d.d.d.d.d.d.d.d.d.d.d.d.d.d.d.d.d.d.d.d.d.d.d.d.d.d.d.d.d.d.B H } O.#.H z 7 + % 3 j F %.| z & + 3 8 7 7 7 7 7 7 7 7 7 8 8 8 8 B J O.<.,.,.,.| F F B B B 8 8 3 8 8 * d.d.d.d.d.d.d.d.d.d.d.d.:.>.,.<.2.w.2.1.<.,.>.<.,.<.<.<.<.<.<.,.,.,.,.,.>.-.>.-.*.*.#.#.o.o.o.o.} } F V c d.d.d.d.d.d.d.d.d.d.d.d.d.d.d.d.d.d.d.d.d.d.d.d.d.d.d.d.d.d.d.d.d.d.d.d.d.d.d.d.d.d.d.d.d.d.d.d.d.d.d.",
"d.d.d.d.d.d.d.d.d.d.d.d.d.d.d.d.d.d.d.d.d.d.d.d.d.d.d.d.d.d.d.d.d.d.d.d.d.d.d.d.d.d.o.*.*.*.1.e.1.,.%.H 3   . + 3 l | } } & % 8 8 7 8 7 7 7 7 7 7 7 8 8 8 B F J *.>.2.,.*.| F B B B l l 8 7 + d.d.d.d.d.d.d.d.d.d.d.d.d.:.>.,.<.w.w.w.1.<.,.>.,.,.,.<.<.<.<.<.,.,.,.,.>.:.:.-.%.*.*.%.#.o.o.o.o.@.J } B V 0 d.d.d.d.d.d.d.d.d.d.d.d.d.d.d.d.d.d.d.d.d.d.d.d.d.d.d.d.d.d.d.d.d.d.d.d.d.d.d.d.d.d.d.d.d.d.d.d.d.d.",
"d.d.d.d.d.d.d.d.d.d.d.d.d.d.d.d.d.d.d.d.d.d.d.d.d.d.d.d.d.d.d.d.d.d.d.d.d.d.d.d.d.d.J z F B H | } O.-.:.O.| J B B 3 l B H | l 3 l l 8 8 8 7 7 7 7 7 7 8 8 z F J *.,.2.t.1.>.H B l l l l 8 7 d.d.d.d.d.d.d.d.d.d.d.d.d.d.%.:.,.<.2.w.2.1.<.<.>.>.<.,.<.<.1.<.<.<.,.,.,.>.-.-.*.-.*.%.#.#.#.o.o.o.O.| J H B c d.d.d.d.d.d.d.d.d.d.d.d.d.d.d.d.d.d.d.d.d.d.d.d.d.d.d.d.d.d.d.d.d.d.d.d.d.d.d.d.d.d.d.d.d.d.d.d.d.d.",
"d.d.d.d.d.d.d.d.d.d.d.d.d.d.d.d.d.d.d.d.d.d.d.d.d.d.d.d.d.d.d.d.d.d.d.d.d.d.d.d.d.d.3 3 3 B B B | | } } } } O.H H B l l l J } F l l F F l 8 8 8 8 7 7 8 8 z B F O.%.,.,.2.2.*.} F l F l 3 d.d.d.d.d.d.d.d.d.d.d.d.d.d.d.-.:.<.1.w.w.2.1.<.<.,.>.,.,.<.<.<.<.<.,.,.,.,.,.>.-.*.%.*.%.#.#.o.o.o.O.O.o.| H V V Z d.d.d.d.d.d.d.d.d.d.d.d.d.d.d.d.d.d.d.d.d.d.d.d.d.d.d.d.d.d.d.d.d.d.d.d.d.d.d.d.d.d.d.d.d.d.d.d.d.",
"d.d.d.d.d.d.d.d.d.d.d.d.d.d.d.d.d.d.d.d.d.d.d.d.d.d.d.d.d.d.d.d.d.d.d.d.d.d.d.d.d.d.3 3 3 z B | O.O.O.O.$.O.| } | | J H B B H } l l B J } B l 8 8 7 7 8 8 l B B | $.*.,.1.2.:.} F H B l d.d.d.d.d.d.d.d.d.d.d.d.d.d.d.d.*.>.,.<.2.w.2.1.<.,.,.,.<.<.<.<.1.<.<.,.,.>.>.,.>.-.*.*.*.%.%.#.O.o.o.o.#.o.| } H V V 7 d.d.d.d.d.d.d.d.d.d.d.d.d.d.d.d.d.d.d.d.d.d.d.d.d.d.d.d.d.d.d.d.d.d.d.d.d.d.d.d.d.d.d.d.d.d.d.d.",
"d.d.d.d.d.d.d.d.d.d.d.d.d.d.d.d.d.d.d.d.d.d.d.d.d.d.d.d.d.d.d.d.d.d.d.d.d.d.d.d.d.3 3 3 l z o.%.o.| #.#.*.*.:.,.,.:.&.*.O.| H F F z z B J } F l 8 8 7 7 8 8 l z J | $.*.<.<.,.%.} } F d.d.d.d.d.d.d.d.d.d.d.d.d.d.d.d.d.:.>.,.<.2.w.2.1.<.,.>.<.,.<.<.<.<.<.<.,.,.,.,.>.>.:.-.*.*.*.%.#.O.o.o.o.#.o.| J F V V p d.d.d.d.d.d.d.d.d.d.d.d.d.d.d.d.d.d.d.d.d.d.d.d.d.d.d.d.d.d.d.d.d.d.d.d.d.d.d.d.d.d.d.d.d.d.d.d.",
"d.d.d.d.d.d.d.d.d.d.d.d.d.d.d.d.d.d.d.d.d.d.d.d.d.d.d.d.d.d.d.d.d.d.d.d.d.d.d.d.3 3 B } o.%.%.o.} F | | o.o.o.| O.F | O.O.:.,.*.:.O.| z F } J F 8 8 8 7 8 8 l z F | $.*.<.<.>.*.} } F d.d.d.d.d.d.d.d.d.d.d.d.d.d.d.d.d.:.>.,.<.w.w.w.1.<.,.>.,.,.,.<.<.<.<.<.,.,.,.,.>.,.:.:.*.*.*.#.#.#.o.o.o.O.#.| J H B V m y d.d.d.d.d.d.d.d.d.d.d.d.d.d.d.d.d.d.d.d.d.d.d.d.d.d.d.d.d.d.d.d.d.d.d.d.d.d.d.d.d.d.d.d.d.d.d.",
"d.d.d.d.d.d.d.d.d.d.d.d.d.d.d.d.d.d.d.d.d.d.d.d.d.d.d.d.d.d.d.d.d.d.d.d.d.d.d.3 z 8 B F } o.%.>.>.%.%.%.o.} B B B | J F F J O.o.:.:.:.:.| F F J z l 8 8 8 8 l l B J O.o.*.>.*.*.%.$.d.d.d.d.d.d.d.d.d.d.d.d.d.d.d.d.d.d.$.:.,.<.2.w.2.1.<.<.>.>.<.,.<.<.1.<.<.<.,.,.,.>.-.>.-.-.*.%.%.#.#.o.O.o.o.#.O.} H F K m q d.d.d.d.d.d.d.d.d.d.d.d.d.d.d.d.d.d.d.d.d.d.d.d.d.d.d.d.d.d.d.d.d.d.d.d.d.d.d.d.d.d.d.d.d.d.d.",
"d.d.d.d.d.d.d.d.d.d.d.d.d.d.d.d.d.d.d.d.d.d.d.d.d.d.d.d.d.d.d.d.d.d.d.d.d.d.d.7 B 8 B F F } X.%.*.*.:.:.>.,.2.2.<.%.| J F F J F | O.O.:.:.O.| F } B l j j j j l z F } O.O.O.O.&.%.} d.d.d.d.d.d.d.d.d.d.d.d.d.d.d.d.d.d.*.:.>.<.1.w.2.1.<.<.,.>.,.,.<.<.<.<.<.,.,.,.,.,.:.-.:.:.:.*.%.%.#.#.O.O.o.O.#.o.} F H z Z d.d.d.d.d.d.d.d.d.d.d.d.d.d.d.d.d.d.d.d.d.d.d.d.d.d.d.d.d.d.d.d.d.d.d.d.d.d.d.d.d.d.d.d.d.d.d.",
"d.d.d.d.d.d.d.d.d.d.d.d.d.d.d.d.d.d.d.d.d.d.d.d.d.d.d.d.d.d.d.d.d.d.d.d.d.d.d.3 7 8 l H H } } } } | O.O.%.:.,.2.2.1.,.>.%.o.} l l | X.O.O.-.O.} F } H l l k 7 k l z } } O.O.O.&.#.| d.d.d.d.d.d.d.d.d.d.d.d.d.d.d.d.d.d.| :.>.<.1.w.w.1.<.,.>.,.,.,.<.<.<.<.<.,.,.>.>.,.>.>.-.:.*.*.*.#.%.#.#.#.o.O.O.O.| J H F V 3 d.d.d.d.d.d.d.d.d.d.d.d.d.d.d.d.d.d.d.d.d.d.d.d.d.d.d.d.d.d.d.d.d.d.d.d.d.d.d.d.d.d.d.d.d.d.",
"d.d.d.d.d.d.d.d.d.d.d.d.d.d.d.d.d.d.d.d.d.d.d.d.d.d.d.d.d.d.d.d.d.d.d.d.d.d.d.3 3 8 8 8 8 z z z z B } } } } o.$.:.:.<.2.2.:.%.o.} F F F } O.-.-.O.F O.O.B l k 7 j z F } } o.O.o.} d.d.d.d.d.d.d.d.d.d.d.d.d.d.d.d.d.d.d.+.>.,.<.2.w.w.1.1.<.>.>.,.,.<.<.<.<.<.,.>.,.>.>.>.-.:.:.*.*.%.#.#.#.#.#.#.o.O.O.o.} J H A c d.d.d.d.d.d.d.d.d.d.d.d.d.d.d.d.d.d.d.d.d.d.d.d.d.d.d.d.d.d.d.d.d.d.d.d.d.d.d.d.d.d.d.d.d.d.",
"d.d.d.d.d.d.d.d.d.d.d.d.d.d.d.d.d.d.d.d.d.d.d.d.d.d.d.d.d.d.d.d.d.d.d.d.d.d.d.7 z F F } } $.#.| } } } } B B B B F 8 B | O.:.:.:.:.} l l F | O.-.>.O.O.>.O.B l j j 7 F } H H o.} } d.d.d.d.d.d.d.d.d.d.d.d.d.d.d.d.d.d.d.%.-.<.1.2.w.2.2.<.<.<.-.<.,.<.<.<.<.<.,.>.,.,.:.,.:.:.:.-.*.*.#.#.#.#.#.#.O.O.O.o.| J J F V 7 d.d.d.d.d.d.d.d.d.d.d.d.d.d.d.d.d.d.d.d.d.d.d.d.d.d.d.d.d.d.d.d.d.d.d.d.d.d.d.d.d.d.d.d.d.",
"d.d.d.d.d.d.d.d.d.d.d.d.d.d.d.d.d.d.d.d.d.d.d.d.d.d.d.d.d.d.d.d.d.d.d.d.d.d.d.k F ,.,.,.,.,.,.,.,.,.,.,.,.,.2.} } o.B 8 8 H $.:.>.>.O.} F l F F O.>.>.>.O.} z j 8 8 F } H } | } d.d.d.d.d.d.d.d.d.d.d.d.d.d.d.d.d.d.d.d.-.:.,.<.2.2.w.1.<.<.<.,.,.,.,.<.<.<.,.:.,.:.,.>.:.:.:.:.-.*.*.%.#.#.#.#.#.O.o.o.o.o.J J H V z d.d.d.d.d.d.d.d.d.d.d.d.d.d.d.d.d.d.d.d.d.d.d.d.d.d.d.d.d.d.d.d.d.d.d.d.d.d.d.d.d.d.d.d.d.",
"d.d.d.d.d.d.d.d.d.d.d.d.d.d.d.d.d.d.d.d.d.d.d.d.d.d.d.d.d.d.d.d.d.d.d.d.d.d.d.6 O.,.<.<.,.,.<.<.<.,.<.1.2.2.2.2.2.2.O.F B 8 B } O.>.:.:.O.} l l z O.O.*.O.H z j 8 j H H H o.} } d.d.d.d.d.d.d.d.d.d.d.d.d.d.d.d.d.d.d.d.o.:.,.<.1.w.2.w.1.<.,.:.,.,.<.<.<.<.<.,.:.,.>.:.:.:.:.:.:.*.*.%.#.#.#.O.#.#.o.o.o.o.} H H H V 3 d.d.d.d.d.d.d.d.d.d.d.d.d.d.d.d.d.d.d.d.d.d.d.d.d.d.d.d.d.d.d.d.d.d.d.d.d.d.d.d.d.d.d.d.",
"d.d.d.d.d.d.d.d.d.d.d.d.d.d.d.d.d.d.d.d.d.d.d.d.d.d.d.d.d.d.d.d.d.d.d.d.d.d.k o.>.1.<.,.,.,.<.<.<.<.1.1.2.2.2.2.w.w.w.2.F z 8 7 } O.O.:.,.&.} F l z | O.} H z k 8 F } H o.} } d.d.d.d.d.d.d.d.d.d.d.d.d.d.d.d.d.d.d.d.d.H :.:.,.1.w.2.1.1.<.<.-.,.,.<.<.1.<.<.:.,.>.,.:.:.:.:.:.:.*.*.*.%.#.#.O.#.#.O.o.o.o.| J H B c r d.d.d.d.d.d.d.d.d.d.d.d.d.d.d.d.d.d.d.d.d.d.d.d.d.d.d.d.d.d.d.d.d.d.d.d.d.d.d.d.d.d.d.d.",
"d.d.d.d.d.d.d.d.d.d.d.d.d.d.d.d.d.d.d.d.d.d.d.d.d.d.d.d.d.d.d.d.d.d.d.d.d.l J %.,.1.<.,.,.,.<.1.,.<.2.2.2.2.2.2.2.2.2.3.3.1.z 8 B } | | &.,.&.O.} 6 H o.} H z F F H H H } z d.d.d.d.d.d.d.d.d.d.d.d.d.d.d.d.d.d.d.d.d.d.d.-.:.<.<.w.w.2.<.<.:.,.,.,.,.<.1.1.<.,.>.,.:.,.-.:.:.:.:.:.*.*.%.#.#.O.#.#.%.o.O.O.o.o.H F z 0 d.d.d.d.d.d.d.d.d.d.d.d.d.d.d.d.d.d.d.d.d.d.d.d.d.d.d.d.d.d.d.d.d.d.d.d.d.d.d.d.d.d.d.d.",
"d.d.d.d.d.d.d.d.d.d.d.d.d.d.d.d.d.d.d.d.d.d.d.d.d.d.d.d.d.d.d.d.d.d.d.d.c F o.:.,.,.,.,.,.<.<.<.<.1.2.2.2.2.1.2.2.2.2.2.2.1.1.7 7 B J J | $.,.;.%.B 8 B } H z H H H H l l d.d.d.d.d.d.d.d.d.d.d.d.d.d.d.d.d.d.d.d.d.d.d.d.-.,.,.1.2.w.2.1.<.,.>.,.,.<.<.1.1.<.<.,.>.,.:.:.:.:.:.:.:.-.*.*.#.#.#.O.#.#.o.O.O.%.O.} H V c y d.d.d.d.d.d.d.d.d.d.d.d.d.d.d.d.d.d.d.d.d.d.d.d.d.d.d.d.d.d.d.d.d.d.d.d.d.d.d.d.d.d.d.",
"d.d.d.d.d.d.d.d.d.d.d.d.d.d.d.d.d.d.d.d.d.d.d.d.d.d.d.d.d.d.d.d.d.d.d.d.F | %.:.>.>.>.<.<.<.<.<.<.1.2.2.2.2.1.2.w.w.w.w.2.2.2.1.> > l B B | %.%.:.H 8 8 B B l l l l l   d.d.d.d.d.d.d.d.d.d.d.d.d.d.d.d.d.d.d.d.d.d.d.d.d.:.>.<.2.w.w.2.1.<.<.>.,.,.<.<.<.1.<.<.,.,.,.>.>.:.:.:.:.:.-.*.*.*.#.#.O.o.#.#.o.O.O.#.| J H F V & d.d.d.d.d.d.d.d.d.d.d.d.d.d.d.d.d.d.d.d.d.d.d.d.d.d.d.d.d.d.d.d.d.d.d.d.d.d.d.d.d.d.",
"d.d.d.d.d.d.d.d.d.d.d.d.d.d.d.d.d.d.d.d.d.d.d.d.d.d.d.d.d.d.d.d.d.d.6 H H o.%.>.,.>.,.1.1.<.<.<.1.2.2.2.2.2.2.2.2.2.w.w.w.2.2.2.1.>.7 7 B B o.o.$.$.l 8 7 8 4 o o . d.d.d.d.d.d.d.d.d.d.d.d.d.d.d.d.d.d.d.d.d.d.d.d.d.d.d.:.,.1.1.w.2.2.1.<.<.,.>.<.,.<.<.1.<.<.<.:.,.>.>.:.:.:.:.-.-.:.-.%.%.#.#.O.#.#.o.O.%.o.O.} H H Z l d.d.d.d.d.d.d.d.d.d.d.d.d.d.d.d.d.d.d.d.d.d.d.d.d.d.d.d.d.d.d.d.d.d.d.d.d.d.d.d.d.d.",
"d.d.d.d.d.d.d.d.d.d.d.d.d.d.d.d.d.d.d.d.d.d.d.d.d.d.d.d.d.d.d.d.d.d.6 l J O.*.>.,.:.,.<.<.,.<.<.<.1.1.2.2.1.2.2.2.2.2.w.2.w.2.2.2.1.>.> 8 l H H | o.B 3 3 3 o d.d.d.d.d.d.d.d.d.d.d.d.d.d.d.d.d.d.d.d.d.d.d.d.d.d.d.d.d.d.-.>.<.2.2.2.2.1.<.,.>.,.,.,.<.<.1.<.<.>.>.>.,.>.:.:.:.-.:.:.:.*.*.%.#.#.#.O.#.o.O.O.%.o.J J H F c 7 d.d.d.d.d.d.d.d.d.d.d.d.d.d.d.d.d.d.d.d.d.d.d.d.d.d.d.d.d.d.d.d.d.d.d.d.d.d.d.d.d.",
"d.d.d.d.d.d.d.d.d.d.d.d.d.d.d.d.d.d.d.d.d.d.d.d.d.d.d.d.d.d.d.d.d.d V H o.$.:.>.>.>.,.<.<.,.,.<.<.<.1.1.2.1.2.w.w.w.2.2.2.2.2.2.1.1.>.$.> l F F J | H 3 3 3   d.d.d.d.d.d.d.d.d.d.d.d.d.d.d.d.d.d.d.d.d.d.d.d.d.d.d.d.d.d.#.>.1.1.2.2.w.2.<.<.,.>.,.,.<.<.1.<.,.>.>.,.>.>.:.:.:.:.:.:.:.*.*.*.#.#.#.#.#.%.o.o.#.O.| J H F V j d.d.d.d.d.d.d.d.d.d.d.d.d.d.d.d.d.d.d.d.d.d.d.d.d.d.d.d.d.d.d.d.d.d.d.d.d.d.d.d.d."
};
