/* XPM */
static char *Reload2[] = {
/* columns rows colors chars-per-pixel */
"128 141 119 2 ",
"   c #030303",
".  c #080708",
"X  c #0B0B0B",
"o  c #170F07",
"O  c #0B1707",
"+  c #171F07",
"@  c #1F170B",
"#  c #100C10",
"$  c #131313",
"%  c #181417",
"&  c #1A1619",
"*  c #1B1B1B",
"=  c #2F1B0B",
"-  c #221E1F",
";  c #2B230F",
":  c #2E2219",
">  c #372313",
",  c #332B13",
"<  c #3F2F17",
"1  c #3F2B1B",
"2  c #2F371F",
"3  c #231F21",
"4  c #252525",
"5  c #292526",
"6  c #2A2629",
"7  c #2F2E2E",
"8  c #312C2E",
"9  c #373F27",
"0  c #322E30",
"q  c #373636",
"w  c #393536",
"e  c #3B3738",
"r  c #3C3B3B",
"t  c #432F1B",
"y  c #43331B",
"u  c #4B371B",
"i  c #533F1F",
"p  c #473323",
"a  c #4F3B26",
"s  c #4A3628",
"d  c #533F2F",
"f  c #413D3D",
"g  c #3F472B",
"h  c #5F4323",
"j  c #5B472B",
"k  c #474F33",
"l  c #574333",
"z  c #5C4331",
"x  c #5F4B37",
"c  c #6B4727",
"v  c #774F2B",
"b  c #7F532F",
"n  c #654936",
"m  c #675333",
"M  c #6E503B",
"N  c #775F3F",
"B  c #443F40",
"V  c #444444",
"C  c #4A4545",
"Z  c #4D4D4D",
"A  c #534D4E",
"S  c #554F51",
"D  c #575757",
"F  c #5A5254",
"G  c #5E575A",
"H  c #5B5B5B",
"J  c #775740",
"K  c #61595D",
"L  c #655D61",
"P  c gray39",
"I  c #6A6266",
"U  c #6D6569",
"Y  c #6D6D6D",
"T  c #726A6E",
"R  c #746C70",
"E  c #777777",
"W  c gray50",
"Q  c #9B5B00",
"!  c #875733",
"~  c #8F5F37",
"^  c #9B633B",
"/  c #A36B3F",
"(  c #89644A",
")  c #836B4B",
"_  c #9B7153",
"`  c #AB6F43",
"'  c #B37347",
"]  c #BF7B4B",
"[  c #CB7F4F",
"{  c #D77A43",
"}  c #D9824D",
"|  c #CF8353",
" . c #D78B5B",
".. c #DC8958",
"X. c #DF9363",
"o. c #E69B6B",
"O. c #EFA373",
"+. c #E2A079",
"@. c #F7AB7B",
"#. c #FFB37B",
"$. c #838383",
"%. c #8B8B8B",
"&. c #959595",
"*. c #9F9F9F",
"=. c #A7A7A7",
"-. c gray67",
";. c #B4B4B4",
":. c gray75",
">. c #FFB383",
",. c #FFBB93",
"<. c #FFBF9B",
"1. c #FFC79B",
"2. c gray78",
"3. c #CBCBCB",
"4. c LightGray",
"5. c #DCDCDC",
"6. c #E7E7E7",
"7. c #EFEFEF",
"8. c None",
/* pixels */
"8.8.8.8.8.8.8.8.8.8.8.8.8.8.8.8.8.8.8.8.8.8.8.8.8.8.8.8.8.8.8.8.8.8.8.8.8.8.8.8.8.8.8.8.8.8.8.8.8.8.8.8.8.8.8.8.8.8.8.8.8.8.8.8.8.8.8.8.8.8.8.q q 7 E 8.8.8.8.8.8.8.8.8.8.8.8.8.8.8.8.8.8.8.8.8.8.8.8.8.8.8.8.8.8.8.8.8.8.8.8.8.8.8.8.8.8.8.8.8.8.8.8.8.8.8.8.8.",
"8.8.8.8.8.8.8.8.8.8.8.8.8.8.8.8.8.8.8.8.8.8.8.8.8.8.8.8.8.8.8.8.8.8.8.8.8.8.8.8.8.8.8.8.8.8.8.8.8.8.8.8.8.8.8.8.8.8.8.8.8.8.8.8.8.8.8.8.8.8.q q q g Y &.8.8.8.8.8.8.8.8.8.8.8.8.8.8.8.8.8.8.8.8.8.8.8.8.8.8.8.8.8.8.8.8.8.8.8.8.8.8.8.8.8.8.8.8.8.8.8.8.8.8.8.8.",
"8.8.8.8.8.8.8.8.8.8.8.8.8.8.8.8.8.8.8.8.8.8.8.8.8.8.8.8.8.8.8.8.8.8.8.8.8.8.8.8.8.8.8.8.8.8.8.8.8.8.8.8.8.8.8.8.8.8.8.8.8.8.8.8.8.8.8.8.8.q q q q q r Y &.8.8.8.8.8.8.8.8.8.8.8.8.8.8.8.8.8.8.8.8.8.8.8.8.8.8.8.8.8.8.8.8.8.8.8.8.8.8.8.8.8.8.8.8.8.8.8.8.8.8.8.",
"8.8.8.8.8.8.8.8.8.8.8.8.8.8.8.8.8.8.8.8.8.8.8.8.8.8.8.8.8.8.8.8.8.8.8.8.8.8.8.8.8.8.8.8.8.8.8.8.8.8.8.8.8.8.8.8.8.8.8.8.8.8.8.8.8.8.8.8.q q q 7 q q 7 V H &.8.8.8.8.8.8.8.8.8.8.8.8.8.8.8.8.8.8.8.8.8.8.8.8.8.8.8.8.8.8.8.8.8.8.8.8.8.8.8.8.8.8.8.8.8.8.8.8.8.8.",
"8.8.8.8.8.8.8.8.8.8.8.8.8.8.8.8.8.8.8.8.8.8.8.8.8.8.8.8.8.8.8.8.8.8.8.8.8.8.8.8.8.8.8.8.8.8.8.8.8.8.8.8.8.8.8.8.8.8.8.8.8.8.8.8.8.8.8.7 q q q q q r q q V H &.8.8.8.8.8.8.8.8.8.8.8.8.8.8.8.8.8.8.8.8.8.8.8.8.8.8.8.8.8.8.8.8.8.8.8.8.8.8.8.8.8.8.8.8.8.8.8.8.8.",
"8.8.8.8.8.8.8.8.8.8.8.8.8.8.8.8.8.8.8.8.8.8.8.8.8.8.8.8.8.8.8.8.8.8.8.8.8.8.8.8.8.8.8.8.8.8.8.8.8.8.8.8.8.8.8.8.8.8.8.8.8.8.8.8.8.8.q 7 7 q 7 q q 7 r q r V H &.8.8.8.8.8.8.8.8.8.8.8.8.8.8.8.8.8.8.8.8.8.8.8.8.8.8.8.8.8.8.8.8.8.8.8.8.8.8.8.8.8.8.8.8.8.8.8.8.",
"8.8.8.8.8.8.8.8.8.8.8.8.8.8.8.8.8.8.8.8.8.8.8.8.8.8.8.8.8.8.8.8.8.8.8.8.8.8.8.8.8.8.8.8.8.8.8.8.8.8.8.8.8.8.8.8.8.8.8.8.8.8.8.8.8.Y D q 7 q q q q q r r r q V H &.8.8.8.8.8.8.8.8.8.8.8.8.8.8.8.8.8.8.8.8.8.8.8.8.8.8.8.8.8.8.8.8.8.8.8.8.8.8.8.8.8.8.8.8.8.8.8.",
"8.8.8.8.8.8.8.8.8.8.8.8.8.8.8.8.8.8.8.8.8.8.8.8.8.8.8.8.8.8.8.8.8.8.8.8.8.8.8.8.8.8.8.8.8.8.8.8.8.8.8.8.8.8.8.8.8.8.8.8.8.8.8.8.4 Y $.D q q q r q r q r q r r V D %.8.8.8.8.8.8.8.8.8.8.8.8.8.8.8.8.8.8.8.8.8.8.8.8.8.8.8.8.8.8.8.8.8.8.8.8.8.8.8.8.8.8.8.8.8.8.",
"8.8.8.8.8.8.8.8.8.8.8.8.8.8.8.8.8.8.8.8.8.8.8.8.8.8.8.8.8.8.8.8.8.8.8.8.8.8.8.8.8.8.8.8.8.8.8.8.8.8.8.8.8.8.8.8.8.8.8.8.8.8.8.* X 4 P E D q 7 r r r q q r r r r r Z &.8.8.8.8.8.8.8.8.8.8.8.8.8.8.8.8.8.8.8.8.8.8.8.8.8.8.8.8.8.8.8.8.8.8.8.8.8.8.8.8.8.8.8.8.8.",
"8.8.8.8.8.8.8.8.8.8.8.8.8.8.8.8.8.8.8.8.8.8.8.8.8.8.8.8.8.8.8.8.8.8.8.8.8.8.8.8.8.8.8.8.8.8.8.8.8.8.8.8.8.8.8.8.8.8.8.8.8.8.8.* $ X 4 P E D q q q r r r r q r r r r Z %.%.8.8.8.8.8.8.8.8.8.8.8.8.8.8.8.8.8.8.8.8.8.8.8.8.8.8.8.8.8.8.8.8.8.8.8.8.8.8.8.8.8.8.8.",
"8.8.8.8.8.8.8.8.8.8.8.8.8.8.8.8.8.8.8.8.8.8.8.8.8.8.8.8.8.8.8.8.8.8.8.8.8.8.8.8.8.8.8.8.8.8.8.8.8.8.8.8.8.8.8.8.8.8.8.8.8.8.8.* * $ X 4 P E H q 7 q r r r r r r r r r Z $.=.8.8.8.8.8.8.8.8.8.8.8.8.8.8.8.8.8.8.8.8.8.8.8.8.8.8.8.8.8.8.8.8.8.8.8.8.8.8.8.8.8.8.",
"8.8.8.8.8.8.8.8.8.8.8.8.8.8.8.8.8.8.8.8.8.8.8.8.8.8.8.8.8.8.8.8.8.8.8.8.8.8.8.8.8.8.8.8.8.8.8.8.8.8.8.8.8.8.8.8.8.8.8.8.8.8.8.* * * $ X 4 Y E H r q r r r r r r r r V V D W *.8.8.8.8.8.8.8.8.8.8.8.8.8.8.8.8.8.8.8.8.8.8.8.8.8.8.8.8.8.8.8.8.8.8.8.8.8.8.8.8.8.",
"8.8.8.8.8.8.8.8.8.8.8.8.8.8.8.8.8.8.8.8.8.8.8.8.8.8.8.8.8.8.8.8.8.8.8.8.8.8.8.8.8.8.8.8.8.8.8.8.8.8.8.8.8.8.8.8.8.8.8.8.8.8.8.* $ $ * $ X 7 Y $.H q q r r r r V r V V r V Z $.-.8.8.8.8.8.8.8.8.8.8.8.8.8.8.8.8.8.8.8.8.8.8.8.8.8.8.8.8.8.8.8.8.8.8.8.8.8.8.8.8.",
"8.8.8.8.8.8.8.8.8.8.8.8.8.8.8.8.8.8.8.8.8.8.8.8.8.8.8.8.8.8.8.8.8.8.8.8.8.8.8.8.8.8.8.8.8.8.8.8.8.8.8.8.8.8.8.8.8.8.8.8.8.8.8.8.7 $ * $ $ $ 4 Y Y D q q r r V r V r V V V V V Y -.8.8.8.8.8.8.8.8.8.8.8.8.8.8.8.8.8.8.8.8.8.8.8.8.8.8.8.8.8.8.8.8.8.8.8.8.8.8.8.",
"8.8.8.8.8.8.8.8.8.8.8.8.8.8.8.8.8.8.8.8.8.8.8.8.8.8.8.8.8.8.8.8.8.8.8.8.8.8.8.8.8.8.8.8.8.8.8.8.8.8.8.8.8.8.8.8.8.8.8.8.8.8.8.8.4 * $ * $ $ $ * *.&.P q q r V V V V V V V B V Z $.;.8.8.8.8.8.8.8.8.8.8.8.8.8.8.8.8.8.8.8.8.8.8.8.8.8.8.8.8.8.8.8.8.8.8.8.8.8.8.",
"8.8.8.8.8.8.8.8.8.8.8.8.8.8.8.8.8.8.8.8.8.8.8.8.8.8.8.8.8.8.8.8.8.8.8.8.8.8.8.8.8.8.8.8.8.8.8.8.8.8.8.8.8.8.8.8.8.8.8.8.8.8.8.8.8.4 $ $ * $ $ V H &.$.Y r q q V V V V V V Z V V Z Y -.8.8.8.8.8.8.8.8.8.8.8.8.8.8.8.8.8.8.8.8.8.8.8.8.8.8.8.8.8.8.8.8.8.8.8.8.8.",
"8.8.8.8.8.8.8.8.8.8.8.8.8.8.8.8.8.8.8.8.8.8.8.8.8.8.8.8.8.8.8.8.8.8.8.8.8.8.8.8.8.8.8.8.8.8.8.8.8.8.8.8.8.8.8.8.8.8.8.8.8.8.8.8.8.r * $ $ 4 V 4 $ * Y $.P g r r V V V Z V Z Z V V Z E -.8.8.8.8.8.8.8.8.8.8.8.8.8.8.8.8.8.8.8.8.8.8.8.8.8.8.8.8.8.8.8.8.8.8.8.8.",
"8.8.8.8.8.8.8.8.8.8.8.8.8.8.8.8.8.8.8.8.8.8.8.8.8.8.8.8.8.8.8.8.8.8.8.8.8.8.8.8.8.8.8.8.8.8.8.8.8.8.8.8.8.8.8.8.8.8.8.8.8.8.8.8.8.8.4 - 4 r * $ $ $ 4 Y $.P r r V V V Z Z V Z Z Z Z Z Y ;.8.8.8.8.8.8.8.8.8.8.8.8.8.8.8.8.8.8.8.8.8.8.8.8.8.8.8.8.8.8.8.8.8.8.8.",
"8.8.8.8.8.8.8.8.8.8.8.8.8.8.8.8.8.8.8.8.8.8.8.8.8.8.8.8.8.8.8.8.8.8.8.8.8.8.8.8.8.8.8.8.8.8.8.8.8.8.8.8.8.8.8.8.8.8.8.8.8.8.8.8.8.8.4 4 4 $ $ $ * * $ q P E P r V V V Z Z V V V Z V Z D Y -.-.8.8.8.8.8.8.8.8.8.8.8.8.8.8.8.8.8.8.8.8.8.8.8.8.8.8.8.8.8.8.8.8.8.",
"8.8.8.8.8.8.8.8.8.8.8.8.8.8.8.8.8.8.8.8.8.8.8.8.8.8.8.8.8.8.8.8.8.8.8.8.8.8.8.8.8.8.8.8.8.8.8.8.8.8.8.8.8.8.8.8.8.8.8.8.8.8.8.8.8.8.8.- 4 4 * * * $ * $ r H $.Y r V V V V V Z Z Z Z Z Z Z Y =.*.8.8.8.8.8.8.8.8.8.8.8.8.8.8.8.8.8.8.8.8.8.8.8.8.8.8.8.8.8.8.8.8.",
"8.8.8.8.8.8.8.8.8.8.8.8.8.8.8.8.8.8.8.8.8.8.8.8.8.8.8.8.8.8.8.8.8.8.8.8.8.8.8.8.8.8.8.8.8.8.8.8.8.8.8.8.8.8.8.8.8.8.8.8.8.8.8.8.8.8.8.8.X g 4 $ * * * $ * V Y E Y r V V V V Z Z Z Z Z Z Z D P %.:.8.8.8.8.8.8.8.8.8.8.8.8.8.8.8.8.8.8.8.8.8.8.8.8.8.8.8.8.8.8.8.",
"8.8.8.8.8.8.8.8.8.8.8.8.8.8.8.8.8.8.8.8.8.8.8.8.8.8.8.8.8.8.8.8.8.8.8.8.8.8.8.8.8.8.8.8.8.8.8.8.8.8.8.8.8.8.8.8.8.8.8.8.8.8.8.8.8.8.8.8.8.X V 4 $ * $ * $ q %.Y &.Y V V Z Z Z Z Z Z Z Z Z Z D Y &.;.8.8.8.8.8.8.8.8.8.8.8.8.8.8.8.8.8.8.8.8.8.8.8.8.8.8.8.8.8.8.",
"8.8.8.8.8.8.8.8.8.8.8.8.8.8.8.8.8.8.8.8.8.8.8.8.8.8.8.8.8.8.8.8.8.8.8.8.8.8.8.8.8.8.8.8.8.8.8.8.8.8.8.8.8.8.8.8.8.8.8.8.8.8.8.8.8.8.8.8.8.  $ V 4 * * * 7 Z   $ &.:.Y Z V Z H Z Z Z H Z H D Z H Y &.;.8.8.8.8.8.8.8.8.8.8.8.8.8.8.8.8.8.8.8.8.8.8.8.8.8.8.8.8.8.",
"8.8.8.8.8.8.8.8.8.8.8.8.8.8.8.8.8.8.8.8.8.8.8.8.8.8.8.8.8.8.8.8.8.8.8.8.8.8.8.8.8.8.8.8.8.8.8.8.8.8.8.8.8.8.8.8.8.8.8.8.8.8.8.8.8.8.8.8.8.# $ * V 4 * 4 H X 4 E Z Y &.Y V Z Z D D H H Z Z D D D H U &.2.8.8.8.8.8.8.8.8.8.8.8.8.8.8.8.8.8.8.8.8.8.8.8.8.8.8.8.8.",
"8.8.8.8.8.8.8.8.8.8.8.8.8.8.8.8.8.8.8.8.8.8.8.8.8.8.8.8.8.8.8.8.8.8.8.8.8.8.8.8.8.8.8.8.8.8.8.8.8.8.8.8.8.8.8.8.8.8.8.8.8.8.8.8.8.8.8.8.8.8.8.  * q & V $ * $.4 4 * Y $.Y V Z Z D D Z H D Z H D D H Y &.:.8.8.8.8.8.8.8.8.8.8.8.8.8.8.8.8.8.8.8.8.8.8.8.8.8.8.8.",
"8.8.8.8.8.8.8.8.8.8.8.8.8.8.8.8.8.8.8.8.8.8.8.8.8.8.8.8.8.8.8.8.8.8.8.8.8.8.8.8.8.8.8.8.8.8.8.8.8.8.8.8.8.8.8.8.8.8.8.8.8.8.8.8.8.8.8.8.8.8.8..   4 B P D &.7 * $ $ 7 E E Y Z Z Z D D D H D D H D D H Y =.3.&.8.8.8.8.8.8.8.8.8.8.8.8.8.8.8.8.8.8.8.8.8.8.8.8.8.",
"8.8.8.8.8.8.8.8.8.8.8.8.8.8.8.8.8.8.8.8.8.8.8.8.8.8.8.8.8.8.8.8.8.8.8.8.8.8.8.8.8.8.8.8.8.8.8.8.8.8.8.8.8.8.8.8.8.8.8.8.8.8.8.8.8.8.8.8.8.8.8.* .   * Y U * $ $ $ * $ 7 Y W E Z Z H D D D H D D D H H H U *.2.*.8.8.8.8.8.8.8.8.8.8.8.8.8.8.8.8.8.8.8.8.8.8.8.8.",
"8.8.8.8.8.8.8.8.8.8.8.8.8.8.8.8.8.8.8.8.8.8.8.8.8.8.8.8.8.8.8.8.8.8.8.8.8.8.8.8.8.8.8.8.8.8.8.8.8.8.8.8.8.8.8.8.8.8.8.8.8.8.8.8.8.8.8.8.8.8.8.  X     7 7 4 $ $ * * * 4 V P W Y D Z D D H D H H D H P H H P =.4.;.8.8.8.8.8.8.8.8.8.8.8.8.8.8.8.8.8.8.8.8.8.8.8.",
"8.8.8.8.8.8.8.8.8.8.8.8.8.8.8.8.8.8.8.8.8.8.8.8.8.8.8.8.8.8.8.8.8.8.8.8.8.8.8.8.8.8.8.8.8.8.8.8.8.8.8.8.8.8.8.8.8.8.8.8.8.8.8.8.8.8.8.8.8.* $ . . .     4 q * * * * 4 4 * r H E P H D D D H H H H H H P P D P *.2.-.8.8.8.8.8.8.8.8.8.8.8.8.8.8.8.8.8.8.8.8.8.8.",
"8.8.8.8.8.8.8.8.8.8.8.8.8.8.8.8.8.8.8.8.8.8.8.8.8.8.8.8.8.8.8.8.8.8.8.8.8.8.8.8.8.8.8.8.8.8.8.8.8.8.8.8.8.8.8.8.8.8.8.8.8.8.8.8.8.8.8.8.* * * X .   .     4 q 4 * * * $ * * V D Y Y D D H D H H H H H P Y P P H ;.7.:.8.8.8.8.8.8.8.8.8.8.8.8.8.8.8.8.8.8.8.8.8.",
"8.8.8.8.8.8.8.8.8.8.8.8.8.8.8.8.8.8.8.8.8.8.8.8.8.8.8.8.8.8.8.8.8.8.8.8.8.8.8.8.8.8.8.8.8.8.8.8.8.8.8.8.8.8.8.8.8.8.8.8.8.8.8.8.8.8.4 * * * * 4 . X . .     q q 4 * * * * $ * Z P E Y H H H D H H H D P P Y P P Y W :.W 8.8.8.8.8.8.8.8.8.8.8.8.8.8.8.8.8.8.8.8.",
"8.8.8.8.8.8.8.8.8.8.8.8.8.8.8.8.8.8.8.8.8.8.8.8.8.8.8.8.8.8.8.8.8.8.8.8.8.8.8.8.8.8.8.8.8.8.8.8.8.8.8.8.8.8.8.8.8.8.8.8.8.8.8.8.8.% $ $ $ $ * * 4 X X   .     q q * * * * $ $ 4 Z Y E Y H H H D H P P P Y P Y E P Y -.=.E D 8.8.8.8.8.8.8.8.8.8.8.8.8.8.8.8.8.8.",
"8.8.8.8.8.8.8.8.8.8.8.8.8.8.8.8.8.8.8.8.8.8.8.8.8.8.8.8.8.8.8.8.8.8.8.8.8.8.8.8.8.8.8.8.8.8.8.8.8.8.8.8.8.8.8.8.8.8.8.8.8.8.8.$ X $ $ $ $ $ $ * * 4 X X         q 7 * * * * * * $ Z Y Y Y P H H H H P P P P Y Y P P P -.2.P Z 8.8.8.8.8.8.8.8.8.8.8.8.8.8.8.8.8.",
"8.8.8.8.8.8.8.8.8.8.8.8.8.8.8.8.8.8.8.8.8.8.8.8.8.8.8.8.8.8.8.8.8.8.8.8.8.8.8.8.8.8.8.8.8.8.8.8.8.8.8.8.8.8.8.8.8.8.8.8.8.8.X X X $ $ $ $ $ $ * $ * * $ .         Z 7 * * * $ * $ $ V Y E E P H H H P P P Y Y Y Y Y Y P %.5.%.H r 8.8.8.8.8.8.8.8.8.8.8.8.8.8.8.",
"8.8.8.8.8.8.8.8.8.8.8.8.8.8.8.8.8.8.8.8.8.8.8.8.8.8.8.8.8.8.8.8.8.8.8.8.8.8.8.8.8.8.8.8.8.8.8.8.8.8.8.8.8.8.8.8.8.8.8.8.8.. . X X X ~ ]  .] / v h u * 4 $           Z 4 * * * * * $ * r Y Y W P H P H P P Y P P Y Y Y Y E &.;.%.Z V 8.8.8.8.8.8.8.8.8.8.8.8.8.8.",
"8.8.8.8.8.8.8.8.8.8.8.8.8.8.8.8.8.8.8.8.8.8.8.8.8.8.8.8.8.8.8.8.8.8.8.8.8.8.8.8.8.8.8.8.8.8.8.8.8.8.8.8.8.8.8.8.8.8.8.8.8.$ . . X X ~ X.X. .^ c = = u u 8.8.$       X q 4 * * * * * $ * D E Y %.Y P P P P P Y P Y Y Y Y P Y *.4.-.D V Z 8.8.8.8.8.8.8.8.8.8.8.8.",
"8.8.8.8.8.8.8.8.8.8.8.8.8.8.8.8.8.8.8.8.8.8.8.8.8.8.8.8.8.8.8.8.8.8.8.8.8.8.8.8.8.8.8.8.8.8.8.8.8.8.8.8.8.8.8.8.8.8.8.8.8.$ X . . ^ ] X.X.` c > > o = = u 7 4 $       . V 4 * * * * $ * * q W E %.Y P P P P P Y Y Y Y Y Y Y Y %.5.-.Z Z q 8.8.8.8.8.8.8.8.8.8.8.",
"8.8.8.8.8.8.8.8.8.8.8.8.8.8.8.8.8.8.8.8.8.8.8.8.8.8.8.8.8.8.8.8.8.8.8.8.8.8.8.8.8.8.8.8.8.8.8.8.8.8.8.8.8.8.8.8.8.8.8.8.8.X X $   `  .X.X.b t = o o o = = u $ & * .     X V 7 $ $ * * * $ $ V E Y $.Y P Y P Y P E Y Y Y Y E E E E 5.5.D Z q r q e 8.8.8.8.8.8.8.",
"8.8.8.8.8.8.8.8.8.8.8.8.8.8.8.8.8.8.8.8.8.8.8.8.8.8.8.8.8.8.8.8.8.8.8.8.8.8.8.8.8.8.8.8.8.8.8.8.8.8.8.8.8.8.8.8.8.8.8.8.8.8.  X . v ' ] / b > = o o o   ; @ @ t u t > ;   $ r 6 * * * * * $ $ r Y W %.Y P Y Y Y Y Y E Y E E E Y Y &.5.-.P Z q 4 % X 8.8.8.8.8.8.",
"8.8.8.8.8.8.8.8.8.8.8.8.8.8.8.8.8.8.8.8.8.8.8.8.8.8.8.8.8.8.8.8.8.8.8.8.8.8.8.8.8.8.8.8.8.8.8.8.8.8.8.8.8.8.8.8.8.8.8.8.8.8.8.X X c ^ ~ c u > = o o . > u c v b b v c u u u : q 4 * * $ * * * O r %.$.%.E Y Y P Y Y Y E E E Y E E Y W 6.7.E Z 4 X .   8.8.8.8.8.",
"8.8.8.8.8.8.8.8.8.8.8.8.8.8.8.8.8.8.8.8.8.8.8.8.8.8.8.8.8.8.8.8.8.8.8.8.8.8.8.8.8.8.8.8.8.8.8.8.8.8.8.8.8.8.8.8.8.8.8.8.8.8.8.8.4 X y u u > = o o o > u h h v ! b v v ^ ! b h < C 7 $ * * * * * * 7 W %.$.Y Y P Y Y Y Y E Y E E E E $.$.4.3.q q 4 .   . 8.8.8.8.",
"8.8.8.8.8.8.8.8.8.8.8.8.8.8.8.8.8.8.8.8.8.8.8.8.8.8.8.8.8.8.8.8.8.8.8.8.8.8.8.8.8.8.8.8.8.8.8.8.8.8.8.8.8.8.8.8.8.8.8.8.8.8.8.8.7 * X = o = = o o y u u u u u u v v ~ ^ ^ b v h t V 7 4 * 4 4 4 4 * 7 &.%.&.Y Y Y Y Y E E E E E E E Y Y &.;.%.C V V 4     8.8.8.",
"8.8.8.8.8.8.8.8.8.8.8.8.8.8.8.8.8.8.8.8.8.8.8.8.8.8.8.8.8.8.8.8.8.8.8.8.8.8.8.8.8.8.8.8.8.8.8.8.8.8.8.8.8.8.8.8.8.8.8.8.8.8.8.8.8.4 * $ . > o O y y < > ; ; , , t h v ! ~ ^ b b v < Z q 4 4 4 4 4 4 4 q *.%.$.E Y Y E E Y E E E Y Y P %.-.%.D Y V 4 Z .   . 8.8.",
"8.8.8.8.8.8.8.8.8.8.8.8.8.8.8.8.8.8.8.8.8.8.8.8.8.8.8.8.8.8.8.8.8.8.8.8.8.8.8.8.8.8.8.8.8.8.8.8.8.8.8.8.8.8.8.8.8.8.8.8.8.8.8.8.8.8.4 * $ $ X o & ;   . * @ ; ; > u c ^ ` ' / ~ b b = Z V * & 4 4 4 4 4 g &.%.&.E E E E E E E Y Y P -.=.V r Z V 4 r 4 6     8.8.",
"8.8.8.8.8.8.8.8.8.8.8.8.8.8.8.8.8.8.8.8.8.8.8.8.8.8.8.8.8.8.8.8.8.8.8.8.8.8.8.8.8.8.8.8.8.8.8.8.8.8.8.8.8.8.8.8.8.8.8.8.8.8.8.8.8.8.8.h < o = . @ 1 o     * ; @ > u c ^ ' | [ ` ^ ! u X P E P V 7 4 4 7 4 Z :.W &.$.E E E Y Y Y $.3.*.7 V $       $ q 7 *   8.8.",
"8.8.8.8.8.8.8.8.8.8.8.8.8.8.8.8.8.8.8.8.8.8.8.8.8.8.8.8.8.8.8.8.8.8.8.8.8.8.8.8.8.8.8.8.8.8.8.8.8.8.8.8.8.8.8.8.8.8.8.8.8.8.8.8.8.v ` ' c y > o $ , o     o o O u v ! / ' |  .| ' ^ h   * 4 q V Y E W Y Z q &.;.Z Y E E Y Y E &.:.D 4 7       $ X X * 7 4 X 8.8.",
"8.8.8.8.8.8.8.8.8.8.8.8.8.8.8.8.8.8.8.8.8.8.8.8.8.8.8.8.8.8.8.8.8.8.8.8.8.8.8.8.8.8.8.8.8.8.8.8.8.8.8.8.8.8.8.8.8.8.8.8.8.8.8.8.^  .] ^ h > > o o $ X   o o o u v ! ~ / ' [  .X.X.' u . X   X 4 * 4 4 7 V P &.*.%.7 Z Y E P &.3.V 7 $     * $ 4 7     4 4 * 8.8.",
"8.8.8.8.8.8.8.8.8.8.8.8.8.8.8.8.8.8.8.8.8.8.8.8.8.8.8.8.8.8.8.8.8.8.8.8.8.8.8.8.8.8.8.8.8.8.8.8.8.8.8.8.8.8.8.8.8.8.8.8.8.8.8.^  .] ^ c t t > o     $ $ . @ < c ! ~ ^ ' ' | o.O.O.X.! X X X   $ 6 4 * * 4 * $ $ Z V 7 r E E E r -     X $ 7 4 . q 4 . . r 6 4 8.",
"8.8.8.8.8.8.8.8.8.8.8.8.8.8.8.8.8.8.8.8.8.8.8.8.8.8.8.8.8.8.8.8.8.8.8.8.8.8.8.8.8.8.8.8.8.8.8.8.8.8.8.8.8.8.8.8.8.8.8.8.8.8.v ` ] ^ v u > = o o o     $ = < c v ! ^ ` ' [ o.,.>.>.@.' u $ $ X   $ q 4 * 6 * 4 4 r P q * 4 D V &     $ * *   7 $ . V *   $ V 4 8.",
"8.8.8.8.8.8.8.8.8.8.8.8.8.8.8.8.8.8.8.8.8.8.8.8.8.8.8.8.8.8.8.8.8.8.8.8.8.8.8.8.8.8.8.8.8.8.8.8.8.8.8.8.8.8.8.8.8.8.8.8.8.8.v ^ ^ c h > = o =       o @ t i v ! ^ ^ ` '  .,.#.<.<.<. .m X $ $ X     * * 4 4 * 4 6 H V 4 $ &     X * . * r   X 7   $ q $ . 4 4 X ",
"8.8.8.8.8.8.8.8.8.8.8.8.8.8.8.8.8.8.8.8.8.8.8.8.8.8.8.8.8.8.8.8.8.8.8.8.8.8.8.8.8.8.8.8.8.8.8.8.8.8.8.8.8.8.8.8.8.8.8.8.8.8.h c c u 1 > o o o     o ; > j c b ~ ^ ^ ` | o.O.@.@.,.>.<.` > $ * $ X     * $ 4 * 4 4 V Z 7 4 X   $ $ * 7   4 7 . * 7   4 7 X X r X ",
"8.8.8.8.8.8.8.8.8.8.8.8.8.8.8.8.8.8.8.8.8.8.8.8.8.8.8.8.8.8.8.8.8.8.8.8.8.8.8.8.8.8.8.8.8.8.8.8.8.8.8.8.8.8.8.8.8.8.h b ^ ^ v u > > o o o         @ @ < i m b ~ ^ ` ' | | X.o.o.O.@.@.] j * 4 q *     $ $ * * * * 4 Z q 7 4 X $ . . V $   4 *   7 4   7 * X 6 * ",
"8.8.8.8.8.8.8.8.8.8.8.8.8.8.8.8.8.8.8.8.8.8.8.8.8.8.8.8.8.8.8.8.8.8.8.8.8.8.8.8.8.8.8.8.8.8.8.8.8.8.8.8.8.8.8.8.8.h b ^ ^ c > = o o o o         o o @ < u v ! ~ / ' [ |  .| | X.o.O.o.o.! 4 4 * X   . . $ * * * * $ V q 4 4 4 O .   * g . . q $ . q $ X $ X 4 8.",
"8.8.8.8.8.8.8.8.8.8.8.8.8.8.8.8.8.8.8.8.8.8.8.8.8.8.8.8.8.8.8.8.8.8.8.8.8.8.8.8.8.8.8.8.8.8.8.8.8.8.8.8.8.8.8.8.v ^ ` b c > > = o o               . @ t c v ! / ' [ [ |  .[ ] [ |  .o.O.` , $ . . .     $ $ * $ * O * Z 4 4 4 * X $ . * V . X q   $ * . X * 6 8.",
"8.8.8.8.8.8.8.8.8.8.8.8.8.8.8.8.8.8.8.8.8.8.8.8.8.8.8.8.8.8.8.8.8.8.8.8.8.8.8.8.8.8.8.8.8.8.8.8.8.8.8.8.8.8.8.u ^ ' ~ h > > o o o         X . X   . ; u c b ^ ' ' [ [ | | | [ ] [ | | o.[ c ; .     X . X $ * $ $ $ * 7 4 4 - 4 & X X   0 7   $ 6 . X $ 4 4 X 8.",
"8.8.8.8.8.8.8.8.8.8.8.8.8.8.8.8.8.8.8.8.8.8.8.8.8.8.8.8.8.8.8.8.8.8.8.8.8.8.8.8.8.8.8.8.8.8.8.8.8.8.8.8.8.8.8.u b v h t = o o o       X X X X X   @ > u c b / ` ' [ [ [ | ] ' [ [ | [  .X.` c ;   . $ $   * $ * $ $ $ * 7 4 * * * $ $ X . V $     O * 4 $ . 8.8.",
"8.8.8.8.8.8.8.8.8.8.8.8.8.8.8.8.8.8.8.8.8.8.8.8.8.8.8.8.8.8.8.8.8.8.8.8.8.8.8.8.8.8.8.8.8.8.8.8.8.8.8.8.8.8.u t h c > o o o o       $ $ $ $ X X . = < y c ~ / ' [ ' / [ ` ` ` ' ] ] [ [  .~ ~ h @ X $ X . $ * $ $ * $ $ X r * * * $ $ X . . . X $ 6 4 X 8.8.8.8.",
"8.8.8.8.8.8.8.8.8.8.8.8.8.8.8.8.8.8.8.8.8.8.8.8.8.8.8.8.8.8.8.8.8.8.8.8.8.8.8.8.8.8.8.8.8.8.8.8.8.8.8.8.8.u b h > > o = o         * 4 4 * $ X X   ; > i c b / ' / ' ' ` ` ` ' ] ` [ [ |  .^ ^ ~ t @ .   . . * * $ $ $ $   4 7 * * $ X X $ X $ * * $ 8.8.8.8.8.8.",
"8.8.8.8.8.8.8.8.8.8.8.8.8.8.8.8.8.8.8.8.8.8.8.8.8.8.8.8.8.8.8.8.8.8.8.8.8.8.8.8.8.8.8.8.8.8.8.8.8.8.8.8.c b h > > = = o         4 7 4 4 4 * $ X . ; y i v b ~ ` ' / ~ ~ ~ ] ] [ | | [ ] [ ^ b / v > o . X o . - * $ $ $ . . - 4 $ $ X   $ $ $ $ 8.8.8.8.8.8.8.8.",
"8.8.8.8.8.8.8.8.8.8.8.8.8.8.8.8.8.8.8.8.8.8.8.8.8.8.8.8.8.8.8.8.8.8.8.8.8.8.8.8.8.8.8.8.8.8.8.8.8.8.8.c ^ v t > = = o         7 7 q 7 q 6 * * X o ; t h c b ~ ^ ~ v b ! / ] | X.o. .| ] ] ] ^ ~ ~ c ; o X o X $ * $ X $ $   . * * $ . $ $ X 8.8.8.8.8.8.8.8.8.8.",
"8.8.8.8.8.8.8.8.8.8.8.8.8.8.8.8.8.8.8.8.8.8.8.8.8.8.8.8.8.8.8.8.8.8.8.8.8.8.8.8.8.8.8.8.8.8.8.8.8.8.8.h b h o o o         q q 7 q q g r 7 4 $ $ o = , i v b ! b c c v ~ ] [ o.o.o.O. .] ` ] ~ / ` c u ; o o o X * * $ X X $   . * X X $ . 8.8.8.8.8.8.8.8.8.8.8.",
"8.8.8.8.8.8.8.8.8.8.8.8.8.8.8.8.8.8.8.8.8.8.8.8.8.8.8.8.8.8.8.8.8.8.8.8.8.8.8.8.8.8.8.8.8.8.8.8.8.8.8.u u > o   o   o D q q q V V q q 7 7 4 * . o o , u c v v h t u v ^ ' [ o.o.@.o.o.[ ' [ ^ ^ / b c t ; o o   X * $ X $ $ .   X $ $ X 8.8.8.8.8.8.8.8.8.8.8.8.",
"8.8.8.8.8.8.8.8.8.8.8.8.8.8.8.8.8.8.8.8.8.8.8.8.8.8.8.8.8.8.8.8.8.8.8.8.8.8.8.8.8.8.8.8.8.8.8.8.8.8.8.8.= o o   o . * q 7 V q r r r q r 7 * * o o , > u i j i u t i v ^ ^ ' ] | o.o.| [ ` ' / ^ ` / b c t > = O o o o $ X X $ X 8.8.8.8.8.8.8.8.8.8.8.8.8.8.8.8.",
"8.8.8.8.8.8.8.8.8.8.8.8.8.8.8.8.8.8.8.8.8.8.8.8.8.8.8.8.8.8.8.8.8.8.8.8.8.8.8.8.8.8.8.8.8.8.8.8.8.8.8.8.4 4 $   V U V 7 q 7 V V r 7 q 7 7 7 4 o > t t t t i h u c v ! ^ / ^ ` ` [ X.[ ] ] ] ` ^ ^ ^ ` ~ v h t > ; @ @ > 8.8.8.8.8.8.8.8.8.8.8.8.8.8.8.8.8.8.8.8.",
"8.8.8.8.8.8.8.8.8.8.8.8.8.8.8.8.8.8.8.8.8.8.8.8.8.8.8.8.8.8.8.8.8.8.8.8.8.8.8.8.8.8.8.8.8.8.8.8.8.8.8.* * O X V Y r q q r V q q q r r 7 6 6 7 o , u y u u h v v ! / ^ / [ ' [ / / ' } ] ` ` ] ^ b ~ ' ' ^ ! v h a i , > > 8.8.8.8.8.8.8.8.8.8.8.8.8.8.8.8.8.8.8.",
"8.8.8.8.8.8.8.8.8.8.8.8.8.8.8.8.8.8.8.8.8.8.8.8.8.8.8.8.8.8.8.8.8.8.8.8.8.8.8.8.8.8.8.8.8.8.8.8.8.8.4 * $   V P q V q 7 q V Z q 7 r 7 7 q q o . + ; , < , = y i v ! ~ ' ' ' [ [ ' / ` ` ` ` ` ' b ' ' ' ' ^ ^ ! ! c u u 1 8.8.8.8.8.8.8.8.8.8.8.8.8.8.8.8.8.8.8.",
"8.8.8.8.8.8.8.8.8.8.8.8.8.8.8.8.8.8.8.8.8.8.8.8.8.8.8.8.8.8.8.8.8.8.8.8.8.8.8.8.8.8.8.8.8.8.8.8.8.* 4 $   7 %.V 7 q 7 Z r q q q r r 7 7 q q = ; o + = ; ; t u u u v v ! ! ~ / ' [ ' ' ` ` ` ` ` ~ [ [ ^ / / / / ^ v c c i 8.8.8.8.8.8.8.8.8.8.8.8.8.8.8.8.8.8.8.",
"8.8.8.8.8.8.8.8.8.8.8.8.8.8.8.8.8.8.8.8.8.8.8.8.8.8.8.8.8.8.8.8.8.8.8.8.8.8.8.8.8.8.8.8.8.8.8.8.5 4 * . 7 Y V 7 Z r r q 7 V r q q r 7 V D $   , > u h i c c v ! ! / ' / / / / ' ` ' [ ` / ' ] ' ^ ] ] / ^ / / ' / ! c h t 8.8.8.8.8.8.8.8.8.8.8.8.8.8.8.8.8.8.8.",
"8.8.8.8.8.8.8.8.8.8.8.8.8.8.8.8.8.8.8.8.8.8.8.8.8.8.8.8.8.8.8.8.8.8.8.8.8.8.8.8.8.8.8.8.8.8.8.q 4 $   4 P D r r r q Z V q q 7 r q q q Y 7   ; > u i c v b b b ~ / / / | [ ] [ ' ^ ` ' [ ' ' ` / ^ ' ' ~ ~ ^ ^ ` ! ! ! v 8.8.8.8.8.8.8.8.8.8.8.8.8.8.8.8.8.8.8.8.",
"8.8.8.8.8.8.8.8.8.8.8.8.8.8.8.8.8.8.8.8.8.8.8.8.8.8.8.8.8.8.8.8.8.8.8.8.8.8.8.8.8.8.8.8.8.8.7 4 $   * Y r q r Z Z q Z 7 r r 7 7 r r P Z     o ; < t u u u v ! ^ ^ / ^ ' / ' | [ ' ^ ` ' ` ` ` ^ ^ / / ! ^ ^ / / ! v h t 8.8.8.8.8.8.8.8.8.8.8.8.8.8.8.8.8.8.8.8.",
"8.8.8.8.8.8.8.8.8.8.8.8.8.8.8.8.8.8.8.8.8.8.8.8.8.8.8.8.8.8.8.8.8.8.8.8.8.8.8.8.8.8.8.8.8.4 4 *   & P C r r r Z q r V 7 r r r 7 7 V P X   $ o X , < u u i h h ! ! ! ^ ' ' ' ' | [ [ ' / ` ` ` ` ^ ~ ~ / ! ^ ! ~ h > 8.8.8.8.8.8.8.8.8.8.8.8.8.8.8.8.8.8.8.8.8.8.",
"8.8.8.8.8.8.8.8.8.8.8.8.8.8.8.8.8.8.8.8.8.8.8.8.8.8.8.8.8.8.8.8.8.8.8.8.8.8.8.8.8.8.8.8.4 * *   $ $.V 4 7 4 4 r q V r q r q 7 Z Z P *     o ; u i c b v b b b c v v v ! | ' b ' [  .X.| / ` ^ ^ ^ ~ ~ ~ ~ ~ b b i = 8.8.8.8.8.8.8.8.8.8.8.8.8.8.8.8.8.8.8.8.8.8.",
"8.8.8.8.8.8.8.8.8.8.8.8.8.8.8.8.8.8.8.8.8.8.8.8.8.8.8.8.8.8.8.8.8.8.8.8.8.8.8.8.8.8.8.8.4 *   $ V r 4 V 5.5.q Z r r 7 r V V 7 r P q     o t u c v / ` ` / ^ / ~ b v ! ! ~ ^ ^ ^ ! ' |  .| ^ ~ ~ ! ~ ~ ~ ~ ~ b c i t 8.8.8.8.8.8.8.8.8.8.8.8.8.8.8.8.8.8.8.8.8.8.",
"8.8.8.8.8.8.8.8.8.8.8.8.8.8.8.8.8.8.8.8.8.8.8.8.8.8.8.8.8.8.8.8.8.8.8.8.8.8.8.8.8.8.4 * * . X Z D * q *.4.;.q q r V r 7 7 4 Z P P     @ t i c v ' [ ] ^ ^ ^ ^ ! ~ ~ ^ / / ^ ^ ^ / ^ ! ] ^ ^ ~ ~ ! b ! ! ! v v c h 8.8.8.8.8.8.8.8.8.8.8.8.8.8.8.8.8.8.8.8.8.8.8.",
"8.8.8.8.8.8.8.8.8.8.8.8.8.8.8.8.8.8.8.8.8.8.8.8.8.8.8.8.8.8.8.8.8.8.8.8.8.8.8.8.8.4 * 4   $ C D q q 6 *.=.&.g q q 7 q r r 7 Y &.$   ; > h c b ` | | ^ b b v ~ / / / ~ ! ! v v ! ! ` ` ` ` ~ / / ! b b ! b c v c h 8.8.8.8.8.8.8.8.8.8.8.8.8.8.8.8.8.8.8.8.8.8.8.",
"8.8.8.8.8.8.8.8.8.8.8.8.8.8.8.8.8.8.8.8.8.8.8.8.8.8.8.8.8.8.8.8.8.8.8.8.8.8.8.8.8.4 * * . q r r V q $ H H V $ r r r 7 q r P %.$     > h v b ! ` ' | ] ! ^ ^ ` ` / b b b v c v ! b / ] ] | ] ~ ^ ! v c b b c u t . 8.8.8.8.8.8.8.8.8.8.8.8.8.8.8.8.8.8.8.8.8.8.8.",
"8.8.8.8.8.8.8.8.8.8.8.8.8.8.8.8.8.8.8.8.8.8.8.8.8.8.8.8.8.8.8.8.8.8.8.8.8.8.8.8.8.4 * * X 4 7 r Z q q $ $ 7 7 7 q q q r H &.*   o @ u v b b ~ ~ ^ ` ` ] ] | ` ` ~ ~ / ^ ] / ^ ] ] ] | ] | X./ / ~ c h h c h h = 8.8.8.8.8.8.8.8.8.8.8.8.8.8.8.8.8.8.8.8.8.8.8.8.",
"8.8.8.8.8.8.8.8.8.8.8.8.8.8.8.8.8.8.8.8.8.8.8.8.8.8.8.8.8.8.8.8.8.8.8.8.8.8.8.8.8.* * * X $ 7 7 V Z V q q 7 r r 7 6 q Y %.$ . r o @ u i c t v ! ! ` X.o.o.o.] ` | / / / ^ ^ ^ ` ` ` / ] X.o.] ! / b c h h h , t 8.8.8.8.8.8.8.8.8.8.8.8.8.8.8.8.8.8.8.8.8.8.8.8.",
"8.8.8.8.8.8.8.8.8.8.8.8.8.8.8.8.8.8.8.8.8.8.8.8.8.8.8.8.8.8.8.8.8.8.8.8.8.8.8.8.8.8.4 * * . 4 7 q V q r V q 4 V r 7 P W X . V g o > , t u h ~ ! / [ O.o.@.] ` ! v ! ~ b h c v c h c b ~  .O.| ^ / b ! v v h , 8.8.8.8.8.8.8.8.8.8.8.8.8.8.8.8.8.8.8.8.8.8.8.8.8.",
"8.8.8.8.8.8.8.8.8.8.8.8.8.8.8.8.8.8.8.8.8.8.8.8.8.8.8.8.8.8.8.8.8.8.8.8.8.8.8.8.8.8.4 * * X X 7 6 V r 7 r q q q 7 E Y . $ Z q $ @ ; ; h b ! ^ ` ] | ] ] ~ ! ! b ! / ] ' | ^ ~ b c i h i / o. ./ ~ ~ ^ ! v u ; 8.8.8.8.8.8.8.8.8.8.8.8.8.8.8.8.8.8.8.8.8.8.8.8.8.",
"8.8.8.8.8.8.8.8.8.8.8.8.8.8.8.8.8.8.8.8.8.8.8.8.8.8.8.8.8.8.8.8.8.8.8.8.8.8.8.8.8.8.4 * * * . $ q r V V 7 7 V r Z Y X * Z V 4   @ ; j ^ ` ^ / ` / ~ ~ ~ ~ / ' | | [ ] [ [ [ ] ] [ ^ b u ! ]  ./ ` ^ ` ! u < ; 8.8.8.8.8.8.8.8.8.8.8.8.8.8.8.8.8.8.8.8.8.8.8.8.8.",
"8.8.8.8.8.8.8.8.8.8.8.8.8.8.8.8.8.8.8.8.8.8.8.8.8.8.8.8.8.8.8.8.8.8.8.8.8.8.8.8.8.8.8.4 * * $   q q V Z r 7 7 D Y . 7 H q $ 7 $ ; ! / ~ ~ ` / ! c ! ' | X... .o.` ^ / ^ ~ ^ ~ ! ^ / / ` ~ / ' ' ^ ` ` h t ; @ 8.8.8.8.8.8.8.8.8.8.8.8.8.8.8.8.8.8.8.8.8.8.8.8.8.",
"8.8.8.8.8.8.8.8.8.8.8.8.8.8.8.8.8.8.8.8.8.8.8.8.8.8.8.8.8.8.8.8.8.8.8.8.8.8.8.8.8.8.* B * * 4 . X V g q 7 Z $.V . q H V 7   $ ; v / ^ ! ^ ~ b v / o.X.X. .] / ^ j i h a u h h c c v ! ! ! ! b / ' ` ' t > ; 8.8.8.8.8.8.8.8.8.8.8.8.8.8.8.8.8.8.8.8.8.8.8.8.8.8.",
"8.8.8.8.8.8.8.8.8.8.8.8.8.8.8.8.8.8.8.8.8.8.8.8.8.8.8.8.8.8.8.8.8.8.8.8.8.8.8.8.8.w r f 4 * * *   4 V V H W * . Z E 7 * Y 4 . > ! ^ v b ^ ~ ^ ]  .' / ^ N v j h h i i t t > 1 1 t a h c ^ / b ! / ^ ` t , ; 8.8.8.8.8.8.8.8.8.8.8.8.8.8.8.8.8.8.8.8.8.8.8.8.8.8.",
"8.8.8.8.8.8.8.8.8.8.8.8.8.8.8.8.8.8.8.8.8.8.8.8.8.8.8.8.8.8.8.8.8.8.8.8.8.8.8.8.4 C f e 4 * * * $   V %.Z   4 P Y V Z X * Z * u ! c c b ^ ] ] ' ) b v m c b ~ ^ ' / ! v v v 1 $ o > i h v / ^ v ~ ! ^ t , 8.8.8.8.8.8.8.8.8.8.8.8.8.8.8.8.8.8.8.8.8.8.8.8.8.8.8.",
"8.8.8.8.8.8.8.8.8.8.8.8.8.8.8.8.8.8.8.8.8.8.8.8.8.8.8.8.8.8.8.8.8.8.8.8.8.8.8.* f C 0 - q 4 * * *   $ * $ D P D 4 4 $.V $ * * u g k ! b ` ` ~ c h v ~ ] ] | X.o.o.o.o.X.[ ' ' ' ! h u y i ~ ] ^ ~ ^ h u t 8.8.8.8.8.8.8.8.8.8.8.8.8.8.8.8.8.8.8.8.8.8.8.8.8.8.8.",
"8.8.8.8.8.8.8.8.8.8.8.8.8.8.8.8.8.8.8.8.8.8.8.8.8.8.8.8.8.8.8.8.8.8.8.8.8.8.7 f V f 4 X # 7 * * 4 $   4 Z V 4 4 q $ 7 Y 4 X X s j v b b b b ! b ' |  .X.X.O.O.@.@.>.@.@.o.o.X. .[ ] ! y u c ^ / / ~ 1 t 8.8.8.8.8.8.8.8.8.8.8.8.8.8.8.8.8.8.8.8.8.8.8.8.8.8.8.8.",
"8.8.8.8.8.8.8.8.8.8.8.8.8.8.8.8.8.8.8.8.8.8.8.8.8.8.8.8.8.8.8.8.8.8.8.8.8.* C B f - $ * # * * * * 4 V Z 4 4 4 4 $.7 $ V 6 $ $ 2 h c c h ! / ]  .o.O.o.O.O.>.>.>.@.@.#.@.O.O.o.o.o. .] / h h ! ] ` v ; 8.8.8.8.8.8.8.8.8.8.8.8.8.8.8.8.8.8.8.8.8.8.8.8.8.8.8.8.8.",
"8.8.8.8.8.8.8.8.8.8.8.8.8.8.8.8.8.8.8.8.8.8.8.8.8.8.8.8.8.8.8.8.8.8.8.  8 f f 0 3 . # 3 # 3 5 * 4 V 7 * * * . * H Z * * r $ * u u i u u ^ [ X.O.@.@.@.@.@.@.>.>.@.@.@.@.@.@.o.o.o.o.X.[ ^ b c ~ / m t 8.8.8.8.8.8.8.8.8.8.8.8.8.8.8.8.8.8.8.8.8.8.8.8.8.8.8.8.8.",
"8.8.8.8.8.8.8.8.8.8.8.8.8.8.8.8.8.8.8.8.8.8.8.8.8.8.8.8.8.8.8.8.8.8.8.8 f f w - # - % & 8 f 3 5 * * $ & * 4 X $ r Z 7 $ 7 * o u u u u c ` | O.>.@.@.O.@.@.@.@.@.@.@.@.@.@.O.O.o.o.o.X...| / v b ! ~ i 8.8.8.8.8.8.8.8.8.8.8.8.8.8.8.8.8.8.8.8.8.8.8.8.8.8.8.8.8.",
"8.8.8.8.8.8.8.8.8.8.8.8.8.8.8.8.8.8.8.8.Q n z s t t 8.8.8.8.8.8.8.8.% f C f % # # - - 6 e e 7 7 * * * * 4 4 * X 7 V V * $ $ ; , < < i ! `  .@.@.@.@.O.@.@.@.>.@.@.@.@.O.@.o.o.O.o.o.X.X.| / ! c b v i 8.8.8.8.8.8.8.8.8.8.8.8.8.8.8.8.8.8.8.8.8.8.8.8.8.8.8.8.8.",
"8.8.8.8.8.8.8.8.8.8.8.8.8.8.8.8.8.8.8.Q ( ( ( ( z s s 8.8.8.8.8.8.7 f f f 6 # # # % 8 f r 0 6 6   4 4 4 4 6 4 X * 7 D q $ . , , ; u a / '  .O.@.O.O.@.@.@.@.>.>.@.@.>.@.O.o.o.o.o.o.X.X.| ] / c i h = 8.8.8.8.8.8.8.8.8.8.8.8.8.8.8.8.8.8.8.8.8.8.8.8.8.8.8.8.8.",
"8.8.8.8.8.8.8.8.8.8.8.8.8.8.8.8.8.8.8.( _ { { X.{ M a > 8.8.8.8.4 f f f - $ - # # 5 f w 0 8 6 w f . 7 4 4 4 4 $ X 4 7 Z 4 $ ; ; & i v '  .O.O.O.O.@.@.@.@.@.@.@.@.@.@.@.O.O.o.o.O.o.X.X.X...| h 1 1 1 8.8.8.8.8.8.8.8.8.8.8.8.8.8.8.8.8.8.8.8.8.8.8.8.8.8.8.8.8.",
"8.8.8.8.8.8.8.8.8.8.8.8.8.8.8.8.8.8.z { { ....X...{ M s 8.8.8.* f f e - X # % % 6 e e 8 7 8 w f r X . q 4 4 4 - X $ 4 7 Z *   * 4 c ! ] ] o.@.O.O.@.@.@.>.@.@.@.@.@.@.@.@.O.o.o.o.o.o.X.o.X. .^ u 1 u 8.8.8.8.8.8.8.8.8.8.8.8.8.8.8.8.8.8.8.8.8.8.8.8.8.8.8.8.8.",
"8.8.8.8.8.8.8.8.8.8.8.8.8.8.8.8.8.8.( X.#.X.o. ...{ M > : 8.w f f w 5 # % 3 % 6 f f 8 w 5 w e f B F     g 4 4 4 4   * * V V $ X y c ~ ' ] o.o.O.@.@.@.>.>.>.>.>.@.O.@.@.@.@.o.X.O.o.X.X.X.o.o.] d t > 8.8.8.8.8.8.8.8.8.8.8.8.8.8.8.8.8.8.8.8.8.8.8.8.8.8.8.8.8.",
"8.8.8.8.8.8.8.8.8.8.8.8.8.8.8.8.8.z ( _ .. .....{ { ( > : % f C f % # # % - 8 e e 8 6 8 8 f f B F G G . . 4 4 4 4 * X * $ Z q $ 4 c ^ '  .o.O.@.@.>.@.>.>.@.@.@.@.O.@.@.@.@.O.X.o.o.X.X.X.o.O. .~ h o 8.8.8.8.8.8.8.8.8.8.8.8.8.8.8.8.8.8.8.8.8.8.8.8.8.8.8.8.8.",
"8.8.8.8.8.8.8.8.8.8.8.8.8.8.8.8.8.: a a ( ( ( _ _ { ( t - r V e 6 # # # # 8 f w 8 8 8 w f f B S K L R T # . $ 4 4 * $   * * P 4 X v ` ' o.o.@.@.@.@.@.@.@.@.@.@.@.@.@.@.@.@.O.o.o.o.o.X.X. .#. .` c t 8.8.8.8.8.8.8.8.8.8.8.8.8.8.8.8.8.8.8.8.8.8.8.8.8.8.8.8.8.",
"8.8.8.8.8.8.8.8.8.8.8.8.8.8.8.8.8.: n M ( M ( ( ( { _ > = B f 3 # - - % - f f 8 0 3 w B B B F K K U L F w     $ 4 * *   X $ * Z 7 ! ' |  .O.#.@.@.O.#.@.@.>.>.>.@.O.@.@.O.@.#.o.o.o.o.o.X.| X.X.' v , 8.8.8.8.8.8.8.8.8.8.8.8.8.8.8.8.8.8.8.8.8.8.8.8.8.8.8.8.8.",
"8.8.8.8.8.8.8.8.8.8.8.8.8.8.8.8.= t ( X.o.{ { _ _ .._ t = e # # & # - 3 w f w 6 8 0 f f B F K L L R S 0 % # . . . * * $ . X $ * 6 v ^ ] X.@.@.@.@.O.>.@.@.>.>.@.@.O.@.O.O.O.o.o.o.o.O.O.X. . . .] ~ d 8.8.8.8.8.8.8.8.8.8.8.8.8.8.8.8.8.8.8.8.8.8.8.8.8.8.8.8.8.",
"8.8.8.8.8.8.8.8.8.8.8.8.8.8.8.8.: t ( _ _ _ _ ( ( _ ( = X 5 # % 3 % 3 f f 3 0 5 w f f B S K K L L F w % # # X . . $ * * $ X .   X b ^ | o.@.@.@.O.@.>.@.@.>.@.@.@.O.@.O.o.o.o.o.X.X.o.o.X.| X. .' N v j 8.8.8.8.8.8.8.8.8.8.8.8.8.8.8.8.8.8.8.8.8.8.8.8.8.8.8.8.",
"8.8.8.8.8.8.8.8.8.8.8.8.8.8.8.8.> n ( ..X.X.} _ ( _ M : o # # $ - 8 w f 0 6 8 8 f f f F K K U L A 8 & # # # # X $   $ * * * $ X . / | X.O.@.@.O.O.>.@.@.@.@.@.O.@.@.@.@.O.O.X.o.o.o.O.o. .o.|  .| b N j 8.8.8.8.8.8.8.8.8.8.8.8.8.8.8.8.8.8.8.8.8.8.8.8.8.8.8.8.",
"8.8.8.8.8.8.8.8.8.8.8.8.8.8.8.8.> ( { #.>.X.} _ _ _ M t . X 8 # 6 f w 0 8 8 w f f B S K L R T F e % # # X # X . X $ . X $ $ X $ 8.v  .O.@.O.O.@.@.>.@.@.@.@.O.@.O.O.@.@.O.O.o.o.o.o.O.o.X. . .| ` ~ c j C 8.8.8.8.8.8.8.8.8.8.8.8.8.8.8.8.8.8.8.8.8.8.8.8.8.8.8.",
"8.8.8.8.8.8.8.8.8.8.8.8.8.8.8.> > _ #.1.1.X.X._ _ _ M t   # & 5 f f 3 0 3 w f f C S K K L L F w & # # # # # .   8.X * X . X X 8.8.~ |  .o.O.@.@.@.@.@.@.@.>.@.@.@.@.@.@.@.O.O.o.O.o.X.o.X. . .| [ b c j j 8.8.8.8.8.8.8.8.8.8.8.8.8.8.8.8.8.8.8.8.8.8.8.8.8.8.8.",
"8.8.8.8.8.8.8.8.8.8.8.8.8.8.8.@ s ..1.1.1.X.X.[ _ _ ( t . # 5 e w 0 8 8 w f f f G K K L U S w - # # # # # # X   8.8.8.$ $ 8.8.8.8.8./ | o.O.O.@.O.@.@.>.>.>.>.@.@.@.@.@.#.#.O.o.X.o.X.X.o.X. . .] ^ b c a s 8.8.8.8.8.8.8.8.8.8.8.8.8.8.8.8.8.8.8.8.8.8.8.8.8.8.",
"8.8.8.8.8.8.8.8.8.8.8.8.8.8.8.: s ..#.1.<.X.X.} _ _ ( n   f e w 8 8 8 8 f f B F K K L U A w % # # # # # X     8.8.8.8.8.8.8.8.8.8.8.' | O.@.O.O.@.>.@.>.>.>.@.@.@.O.@.@.@.O.O.o.X.X. . .o.X. .| ] ` ~ c c u 8.8.8.8.8.8.8.8.8.8.8.8.8.8.8.8.8.8.8.8.8.8.8.8.8.8.",
"8.8.8.8.8.8.8.8.8.8.8.8.8.8.o t M X.X.@.>.X.X.{ _ ( ( n o f w 6 w 6 w f f f F K K U L A 8 * # # # # # #     8.8.8.8.8.8.8.8.8.8.8.8.] X.o.@.O.O.>.@.O.@.@.1.@.@.@.@.@.O.@.O.O.X.X.o.X.X. .X.| } | ^ / b h a ; 8.8.8.8.8.8.8.8.8.8.8.8.8.8.8.8.8.8.8.8.8.8.8.8.8.",
"8.8.8.8.8.8.8.8.8.8.8.8.: : o J ( X.X.X.X.X.} _ _ ( n t = 0 8 6 8 w f f f S K K L U A 8 % # # # # X .   . 8.8.8.8.8.8.8.8.8.8.8.8.8.| o.o.o.O.@.@.@.@.@.@.#.@.>.@.@.@.O.@.O.o.X.X.o.o.X.X. . . .] ' / ! h h y 8.8.8.8.8.8.8.8.8.8.8.8.8.8.8.8.8.8.8.8.8.8.8.8.8.",
"8.8.8.8.8.8.8.8.8.8.8.: s s : ( [ X.X.X.X.X._ _ ( M n y   0 6 8 w f f f S K K U K A 6 % # # # # . .   8.8.8.8.8.8.8.8.8.8.8.8.8.8.8.|  .O.O.@.@.O.@.@.@.@.@.@.@.@.O.O.O.@.O.o.o.X.o.o. .X. . . .] ] / ! j c i 8.8.8.8.8.8.8.8.8.8.8.8.8.8.8.8.8.8.8.8.8.8.8.8.8.",
"8.8.8.8.8.8.8.8.8.: s a a * s _ X.X.X.X.X.{ _ _ ( J n t . o 7 r f f f F K K U K C 6 # # # # X X     . 8.8.8.8.8.8.8.8.8.8.8.8.8.8.8.| X.o.O.@.>.@.@.@.@.@.#.O.O.O.o.O.O.O.O.O.o.X.X.o. . .X.|  .] [ ` / ! c h y 8.8.8.8.8.8.8.8.8.8.8.8.8.8.8.8.8.8.8.8.8.8.8.8.",
"8.8.8.8.8.8.8.8.: n n a a & J X.+.+.o.X.X._ _ _ ( J n t . X 0 f f f S F K L K C 6 # # # # # X       8.8.8.8.8.8.8.8.8.8.8.8.8.8.8.8.| | o.O.>.>.@.@.@.O.O.O.O.o.O.o.o.O.O.@.O.o.o.X.o.X.X. .| | ] ] ` ^ ~ c h a 8.8.8.8.8.8.8.8.8.8.8.8.8.8.8.8.8.8.8.8.8.8.8.8.",
"8.8.8.8.8.8.8.s M _ n a   p _ #.#.#.<.o.X._ _ _ ( J n y : $ e f C S F K L L B 3 # # # # # .     8.8.8.8.8.8.8.8.8.8.8.8.8.8.8.8.8.8.] | o.o.@.>.#.@.#.O.O.O.O.O.o.o.o.o.O.O.o.o. .o.X.o.X. .X.| ] ] ` ^ ~ v i u 4 8.8.8.8.8.8.8.8.8.8.8.8.8.8.8.8.8.8.8.8.8.8.8.",
"8.8.8.8.8.8.s J _ M M a   n ..1.1.1.@.1. .} _ _ ( J M a 1 @ = C S F K K S f 3 % # # # # X     . 8.8.8.8.8.8.8.8.8.8.8.8.8.8.8.8.8.8.' | | o.>.>.#.@.@.@.O.O.O.O.O.o.o.O.o.o.o.X.X.X.o.O.X. .X.| | ] ' ` / ~ c a , 8.8.8.8.8.8.8.8.8.8.8.8.8.8.8.8.8.8.8.8.8.8.8.",
"8.8.8.8.8.n M _ { M a > > _ 1.#.1.>.#.+.o.} _ _ _ ( M n n > : S S K K G w 3 # # # # # . .     8.8.8.8.8.8.8.8.8.8.8.8.8.8.8.8.8.8.8.^ | X.o.@.@.@.@.@.@.O.O.O.O.o.o.o.o.o.o.X.X.X.X.o.X.X. . .| | ' ' ` ^ ^ v h t o 8.8.8.8.8.8.8.8.8.8.8.8.8.8.8.8.8.8.8.8.8.8.",
"8.8.8.8.n M _ } M M a   z { #.#.+.o.X.X.} } } _ _ ( M n s t @ = L L A w * # # # # # .       8.8.8.8.8.8.8.8.8.8.8.8.8.8.8.8.8.8.8.8.8.| [ o.O.@.@.@.@.@.O.O.o.o.O.o.o.O.o.X.....X.X.X... .| | ] ] ' ' ` ^ ^ b h a > 8.8.8.8.8.8.8.8.8.8.8.8.8.8.8.8.8.8.8.8.8.8.",
"8.8.8.n M _ .._ M a >   J X.+.+.X.o.| } ..[ } } _ ( J M s t @ @ T K C 3 # # # # X       . 8.8.8.8.8.8.8.8.8.8.8.8.8.8.8.8.8.8.8.8.8.8.[ X.o.o.@.#.@.O.@.O.o.o.o.o.o.o.O.o.X.X.X.X.X..... .| ] ' / / ^ / ^ ^ ! v i 1 8.8.8.8.8.8.8.8.8.8.8.8.8.8.8.8.8.8.8.8.8.8.",
"8.8.s M _ .._ M a a   > _ +.X...} } { }  .} } } _ _ J M n t @   . B # # # # # # . .   8.8.8.8.8.8.8.8.8.8.8.8.8.8.8.8.8.8.8.8.8.8.8.8. .o.o.@.>.@.O.@.@.O.o.o.X.o.o.o.o.o.X.X.X.X.o.X... .| ] ' / ^ ^ ^ ^ ^ ! h a t o 8.8.8.8.8.8.8.8.8.8.8.8.8.8.8.8.8.8.8.8.8.",
"8.: n _  ._ M a a   : n { o...[ } { } } } } } } _ _ ( M n s : . - : # # # # X X     . 8.8.8.8.8.8.8.8.8.8.8.8.8.8.8.8.8.8.8.8.8.8.8.8.| X.o.@.>.@.@.O.O.o.o.o.o.o.O.o.o.o.X.X.X.X.X.X. . .| ] / ` ^ ^ ^ ^ ^ b i a a ; 8.8.8.8.8.8.8.8.8.8.8.8.8.8.8.8.8.8.8.8.8.",
"8.s M } } M M a : : M _ X...{ ..} } _ { } } } } _ _ _ M n s > @   # # # # # .       8.8.8.8.8.8.8.8.8.8.8.8.8.8.8.8.8.8.8.8.8.8.8.8.8.| o.o.@.>.>.@.O.O.o.o...o.o.o.o.O.O.o.o.X.X.X.X... . .] ] ` ^ ^ ^ ^ ^ ^ h h y o 8.8.8.8.8.8.8.8.8.8.8.8.8.8.8.8.8.8.8.8.8.",
": n { { } M M s a M _ ( ..} ..{ { _ _ _ _ { _ _ { _ _ ( n t t : . # # # # .   . 8.8.8.8.8.8.8.8.8.8.8.8.8.8.8.8.8.8.8.8.8.8.8.8.8.8.8.[ [ o.O.>.@.@.O.o.X.o.o.o.o.o.o.O.o.o.X.X.X.X.X.X. .| ] ] ` ` ` ^ ^ ^ ! v l a t 8.8.8.8.8.8.8.8.8.8.8.8.8.8.8.8.8.8.8.8.8.",
"s ( ..{ _ M M s J { _ ( ..} } { _ { _ _ _ _ _ _ _ _ _ M n a > : . # X X #   . 8.8.8.8.8.8.8.8.8.8.8.8.8.8.8.8.8.8.8.8.8.8.8.8.8.8.8.8.]  .X.o.@.>.@.O.o.X...o.o.o.o.o.O.o.o.X.X.X.X.X.X.| | ] ] ] ` ^ ^ ^ ^ ^ b c h a , 8.8.8.8.8.8.8.8.8.8.8.8.8.8.8.8.8.8.8.8.",
"s _ +.{ _ n M M _ { J ( } { { ....{ { { ( ( ( _ _ _ ( M M a t : . X X . X   8.8.8.8.8.8.8.8.8.8.8.8.8.8.8.8.8.8.8.8.8.8.8.8.8.8.8.8.8.|  .X.o.@.>.@.O.o.o. .o.X.o.o.o.o.o.o.X.X.X.X.X. .[  .[ ] ] ` ` ^ ^ ^ ^ ! ! c j a 8.8.8.8.8.8.8.8.8.8.8.8.8.8.8.8.8.8.8.8.",
"a { o. .{ _ ( { { _ ( { { { [  .o.X.} { _ J J M ( ( ( M n z t : o # # .   8.8.8.8.8.8.8.8.8.8.8.8.8.8.8.8.8.8.8.8.8.8.8.8.8.8.8.8.8.8.|  .X.o.>.>.>.O.o.X. .X.X.X.o.o.o.o.o.X.X.X.X. .| | [ ' ] ] ' ` ^ ^ ^ ^ / b ! h j 1 8.8.8.8.8.8.8.8.8.8.8.8.8.8.8.8.8.8.8.",
"d { X.o.{ _ _ _ .._ ( { _ { ..+.o.+.o.[ { ( M d n M J J M a > : o X .   . 8.8.8.8.8.8.8.8.8.8.8.8.8.8.8.8.8.8.8.8.8.8.8.8.8.8.8.8.8.8.' | X.o.@.>.@.O.o.o. . .o.X.o.o.O.o.o.o.X.X.X. .[ [ ] | ] ' ` ` ` ^ ^ ^ / ~ b v h a 8.8.8.8.8.8.8.8.8.8.8.8.8.8.8.8.8.8.8.",
"a _ o. .{ _ _ ( _ ( ( { _ } o.o.>.X.X.} _ ( M s s l M M n s > o o     . 8.8.8.8.8.8.8.8.8.8.8.8.8.8.8.8.8.8.8.8.8.8.8.8.8.8.8.8.8.8.8.[ | o.O.#.>.@.O.o.o.X. .X.X.o.o.o.o.o.X.X.X.X.X. .[ ] ` ] ' ` ` ^ ^ ^ / / ^ ~ v j j d 8.8.8.8.8.8.8.8.8.8.8.8.8.8.8.8.8.8.",
"- ( ..{ { _ _ _ _ ( _ _ _ ..[ o.o.{ { _ ( ( M d t s a z a s > > o .   8.8.8.8.8.8.8.8.8.8.8.8.8.8.8.8.8.8.8.8.8.8.8.8.8.8.8.8.8.8.8.8.]  .X.o.@.#.@.O.o.X.X.X.o.o.o.o.O.o.o.X.X. . .X. .[ ] ] ] ' ' ` / ^ ^ ^ ` ^ ~ ! v j j , 8.8.8.8.8.8.8.8.8.8.8.8.8.8.8.8.8.",
"> n _ { _ _ { ( ( ( _ { { { { X.[ _ _ ( _ ( M M n s z a t t t t > 8.  8.8.8.8.8.8.8.8.8.8.8.8.8.8.8.8.8.8.8.8.8.8.8.8.8.8.8.8.8.8.8.8.|  .X.o.@.>.@.O.o.X. .o.X.o.o.o.o.o.o.X.X.X.X. . .| [ ] ] ] ' ` / ^ ^ ^ ` ^ ~ b c j j 9 8.8.8.8.8.8.8.8.8.8.8.8.8.8.8.8.8.",
"t n _ _ _ { { ( M ( { _ _ { .._ _ _ { _ { _ ( ( J M M z s s s s > 8.8.8.8.8.8.8.8.8.8.8.8.8.8.8.8.8.8.8.8.8.8.8.8.8.8.8.8.8.8.8.8.8.8.[  .X.o.>.>.>.O.o.X. .X.X.X.o.o.o.o.o.X.X.X.X. .X.| | ] ] ] ` ` ` ^ ^ ^ / ` ~ b v h j d 7 8.8.8.8.8.8.8.8.8.8.8.8.8.8.8.8.",
"a a _ _ { _ _ _ M _ _ _ _ _ _ _ _ { .._ _ _ ( J J a t : > t > : @ . 8.8.8.8.8.8.8.8.8.8.8.8.8.8.8.8.8.8.8.8.8.8.8.8.8.8.8.8.8.8.8.8.8.' | o.o.@.>.@.O.o.o. . .o.X.o.o.O.o.o.o.X.X.X. .|  .[ | ] ' ' ` ` ^ / ^ ^ ` / ! v c m d 9 8.8.8.8.8.8.8.8.8.8.8.8.8.8.8.8.",
"n n _ _ _ ( } } ( _ _ _ _ _ _ _ } _ _ ( J J M M s s s s - > : = X : 8.8.8.8.8.8.8.8.8.8.8.8.8.8.8.8.8.8.8.8.8.8.8.8.8.8.8.8.8.8.8.8.8.] |  .o.O.>.@.O.o.o.X. .X.X.o.o.o.o.o.X.X.X.X.X.| | | | | ] / / / ' / / / / / ^ ! c v i j 8.8.8.8.8.8.8.8.8.8.8.8.8.8.8.8.",
"t n _ _ ( ( { { ( _ { _ _ _ } _ _ _ ( _ _ _ _ _ J J M n n a z s > > $ 8.8.8.8.8.8.8.8.8.8.8.8.8.8.8.8.8.8.8.8.8.8.8.8.8.8.8.8.8.8.8.8.~ |  .o.O.>.>.O.o.X. .X.X.X.o.o.o.o.o.X.X. . .X. .| | | ] ] ] / | / ' / / / / / ~ ! c c h ; 8.8.8.8.8.8.8.8.8.8.8.8.8.8.8.",
": n J ( ( ( _ _ ( _ _ _ _ } _ _ ( _ } { } } _ _ _ ( M M M M n a s > : 7 8.8.8.8.8.8.8.8.8.8.8.8.8.8.8.8.8.8.8.8.8.8.8.8.8.8.8.8.8.8.8.)  .X.o.@.>.>.O.O.o. . .X.X.o.o.o.o.o.X...X. . . .| | | ] | / / / ' / ' / / / / ^ ! b v x a 8.8.8.8.8.8.8.8.8.8.8.8.8.8.8.",
": z J _ ( J _ _ ( ( _ _ _ _ _ ( _ } } _ _ _ ( _ ( ( J M s s s s t : o   8.8.8.8.8.8.8.8.8.8.8.8.8.8.8.8.8.8.8.8.8.8.8.8.8.8.8.8.8.8.8.' [ o.O.@.>.@.@.o.o.o.[ o.X.o.o.o.o.o.X...X.X.| X.| | | | ] | ] / / ' / ' / / / / ~ b b c j , 8.8.8.8.8.8.8.8.8.8.8.8.8.8.",
"8.> z J J _ ( ( ( _ _ _ _ _ _ } ..} _ _ _ _ ( J J J n d d p s t > . o     8.8.8.8.8.8.8.8.8.8.8.8.8.8.8.8.8.8.8.8.8.8.8.8.8.8.8.8.8.8.[ | X.o.@.@.>.O.o.o.o.X.X.X.X.o.o.o.X.| X.| X. .| | | | | ] ] ' / / ' ' / / ^ ^ ^ ^ b b v j i 8.8.8.8.8.8.8.8.8.8.8.8.8.8.",
"8.: a M ( ( ( ( ( ( ( _ _ } X...{ _ M _ [ J M M M n M M M M J n a p : o     8.8.8.8.8.8.8.8.8.8.8.8.8.8.8.8.8.8.8.8.8.8.8.8.8.8.8.8.8.^ | X.o.O.>.@.>.O.o.o.| X.X.o.o.o.o.o.X.| X. .| | | | | | ] ] ' / ' / / / ` ^ ^ ^ ^ ! v v v j ; 8.8.8.8.8.8.8.8.8.8.8.8.8.",
"8.: a M ( ( ( ( J ( ( ( } ..} _ J ( ( ( ( J J M M ( _ ( _ _ _ _ M n p s o     8.8.8.8.8.8.8.8.8.8.8.8.8.8.8.8.8.8.8.8.8.8.8.8.8.8.8.8.v | | X.O.>.@.O.O.o.o.[ X.X.o.o.O.o.o.| X. .X.| | | | | | ] ] ] ] / ' / ' ` / ^ ^ ^ ~ b v c u 4 8.8.8.8.8.8.8.8.8.8.8.8.8.",
"8.8.s M J J J J J ( ( ( ( { J ( ( ( ( ( ( ( ( ( ( J ( ( ( ( { { _ M n a t @   8.8.8.8.8.8.8.8.8.8.8.8.8.8.8.8.8.8.8.8.8.8.8.8.8.8.8.8.8.[ | o.o.>.>.@.o.o.| X.X.X.X.o.O.O.o.X. .X.|  .| | | | | | ] ] / ' / / / ` ' ^ / / ^ ^ v c a t 8.8.8.8.8.8.8.8.8.8.8.8.8.",
"8.8.s J J J ! M J _ _ ( _ _ _ _ J J M M J J ( _ _ _ ( J n J ( } } _ M n z > :   8.8.8.8.8.8.8.8.8.8.8.8.8.8.8.8.8.8.8.8.8.8.8.8.8.8.8.8.| X.X.O.@.>.@.O.o.X. .X.X.o.o.O.O.o.o.X...X.| | | | | | | [ ] ] ` ` ` / ` ` ^ / / ' / ! v j a 7 8.8.8.8.8.8.8.8.8.8.8.8.",
"8.8.. n n J n M J ( ( { [ { { _ M J M n M M M M _ _ _ ( ( J { } _ _ J J M z >   8.8.8.8.8.8.8.8.8.8.8.8.8.8.8.8.8.8.8.8.8.8.8.8.8.8.8.8.|  .o.@.>.>.@.O.o.o. .X.X.o.o.o.O.o.o.o.X.X. . .| | | | | [ ] ] ] ` ` / ^ ` ` ^ / / ` ~ b v c j @ 8.8.8.8.8.8.8.8.8.8.8.",
"8.8.: d n d n n ( _ _ X.} { } { { { ( ( { ( ( ( ( _ _ [ { { _ _ ( ( ( M M M s @ o 8.8.8.8.8.8.8.8.8.8.8.8.8.8.8.8.8.8.8.8.8.8.8.8.8.8.8.| X.O.O.>.@.@.O.o.o.X. .o.X.o.o.O.o.o.o.| X. . .| | | | [ [ | [ ' ' ` ` / ` ` ^ / ' ^ / ! v v d u 8.8.8.8.8.8.8.8.8.8.8.",
"8.8.t > n d n M _ J { o.o.{ _ _ _ _ ( ( ( _ _ _ { _ { X.+.o.X._ J J M t n a s @ o 8.8.8.8.8.8.8.8.8.8.8.8.8.8.8.8.8.8.8.8.8.8.8.8.8.8.8.|  .o.@.@.@.@.O.o.X. ...X.X.o.o.O.o.o... . .X. .| | | | | | | ] ] ' ` ` ` / ` ^ / / ' ^ b b v c a , 8.8.8.8.8.8.8.8.8.8.",
"8.8.8.> M M N M _ ( [ +...( M n d n M n d J ( J J J _ { #.o.+.} _ J ( z s s > > o 8.8.8.8.8.8.8.8.8.8.8.8.8.8.8.8.8.8.8.8.8.8.8.8.8.8.8.`  .O.O.@.@.>.@.o.o.o. .X.X.o.o.O.o.X... .X. . .| | | | | | | ] ] ] ` ` ` ` ` ' ^ ^ ` / ~ b v c j t 8.8.8.8.8.8.8.8.8.8."
};
