/* XPM */
static char *Reload4[] = {
/* columns rows colors chars-per-pixel */
"129 141 90 1 ",
"  c black",
". c #070707",
"X c #0B0B0B",
"o c #170F07",
"O c #0B1707",
"+ c #171F07",
"@ c #1F170B",
"# c #131313",
"$ c #1B1B1B",
"% c #2F1B0B",
"& c #2B230F",
"* c #372313",
"= c #332B13",
"- c #3F2F17",
"; c #3F2B1B",
": c #2F371F",
"> c #232323",
", c #272727",
"< c #2F2F2F",
"1 c #373F27",
"2 c #373737",
"3 c gray23",
"4 c #432F1B",
"5 c #43331B",
"6 c #4B371B",
"7 c #533F1F",
"8 c #473323",
"9 c #4F3B23",
"0 c #4F3B27",
"q c #533F2F",
"w c #3F472B",
"e c #5F4323",
"r c #5B472B",
"t c #474F33",
"y c #574333",
"u c #5F4B37",
"i c #6B4727",
"p c #774F2B",
"a c #7F532F",
"s c #675333",
"d c #775F3F",
"f c #434343",
"g c gray28",
"h c #4B4B4B",
"j c gray31",
"k c gray34",
"l c #5B5B5B",
"z c gray39",
"x c gray42",
"c c #6F6F6F",
"v c #777777",
"b c gray50",
"n c #875733",
"m c #8F5F37",
"M c #9B633B",
"N c #A36B3F",
"B c #836B4B",
"V c #AB6F43",
"C c #B37347",
"Z c #BF7B4B",
"A c #CB7F4F",
"S c #CF8353",
"D c #D78B5B",
"F c #DF9363",
"G c #E79B6B",
"H c #EFA373",
"J c #F7AB7B",
"K c #FFB37B",
"L c #838383",
"P c #8B8B8B",
"I c #939393",
"U c #979797",
"Y c #9F9F9F",
"T c #A7A7A7",
"R c gray67",
"E c gray70",
"W c #B7B7B7",
"Q c gray75",
"! c #FFB383",
"~ c #FFBB93",
"^ c #FFBF9B",
"/ c #FFC79B",
"( c gray78",
") c #CBCBCB",
"_ c LightGray",
"` c gray86",
"' c #DFDFDF",
"] c #E7E7E7",
"[ c #EFEFEF",
"{ c None",
/* pixels */
"{{{{{{{{{{{{{{{{{{{{{{{{{{{{{{{{{{{{{{{{{{{{{{{{{{{{{{{{{{{{{{{{{{{{{{{{2<<v{{{{{{{{{{{{{{{{{{{{{{{{{{{{{{{{{{{{{{{{{{{{{{{{{{{{{",
"{{{{{{{{{{{{{{{{{{{{{{{{{{{{{{{{{{{{{{{{{{{{{{{{{{{{{{{{{{{{{{{{{{{{{{{2223cU{{{{{{{{{{{{{{{{{{{{{{{{{{{{{{{{{{{{{{{{{{{{{{{{{{{{",
"{{{{{{{{{{{{{{{{{{{{{{{{{{{{{{{{{{{{{{{{{{{{{{{{{{{{{{{{{{{{{{{{{{{{{{222223xI{{{{{{{{{{{{{{{{{{{{{{{{{{{{{{{{{{{{{{{{{{{{{{{{{{{",
"{{{{{{{{{{{{{{{{{{{{{{{{{{{{{{{{{{{{{{{{{{{{{{{{{{{{{{{{{{{{{{{{{{{{{222<22<flI{{{{{{{{{{{{{{{{{{{{{{{{{{{{{{{{{{{{{{{{{{{{{{{{{{",
"{{{{{{{{{{{{{{{{{{{{{{{{{{{{{{{{{{{{{{{{{{{{{{{{{{{{{{{{{{{{{{{{{{{{<22222222flI{{{{{{{{{{{{{{{{{{{{{{{{{{{{{{{{{{{{{{{{{{{{{{{{{",
"{{{{{{{{{{{{{{{{{{{{{{{{{{{{{{{{{{{{{{{{{{{{{{{{{{{{{{{{{{{{{{{{{{{3<<2<22<322flU{{{{{{{{{{{{{{{{{{{{{{{{{{{{{{{{{{{{{{{{{{{{{{{{",
"{{{{{{{{{{{{{{{{{{{{{{{{{{{{{{{{{{{{{{{{{{{{{{{{{{{{{{{{{{{{{{{{{{ck<<222223332flU{{{{{{{{{{{{{{{{{{{{{{{{{{{{{{{{{{{{{{{{{{{{{{{",
"{{{{{{{{{{{{{{{{{{{{{{{{{{{{{{{{{{{{{{{{{{{{{{{{{{{{{{{{{{{{{{{{{>cLk2<232323233fkP{{{{{{{{{{{{{{{{{{{{{{{{{{{{{{{{{{{{{{{{{{{{{{",
"{{{{{{{{{{{{{{{{{{{{{{{{{{{{{{{{{{{{{{{{{{{{{{{{{{{{{{{{{{{{{{{{$X,zvk2<2322233333jI{{{{{{{{{{{{{{{{{{{{{{{{{{{{{{{{{{{{{{{{{{{{{",
"{{{{{{{{{{{{{{{{{{{{{{{{{{{{{{{{{{{{{{{{{{{{{{{{{{{{{{{{{{{{{{{{$#X>zvk222333323333jPP{{{{{{{{{{{{{{{{{{{{{{{{{{{{{{{{{{{{{{{{{{{",
"{{{{{{{{{{{{{{{{{{{{{{{{{{{{{{{{{{{{{{{{{{{{{{{{{{{{{{{{{{{{{{{{$$#X>zvl2<2333333333jLT{{{{{{{{{{{{{{{{{{{{{{{{{{{{{{{{{{{{{{{{{{",
"{{{{{{{{{{{{{{{{{{{{{{{{{{{{{{{{{{{{{{{{{{{{{{{{{{{{{{{{{{{{{{{{$$$#X>cvl3233333333ffjbY{{{{{{{{{{{{{{{{{{{{{{{{{{{{{{{{{{{{{{{{{",
"{{{{{{{{{{{{{{{{{{{{{{{{{{{{{{{{{{{{{{{{{{{{{{{{{{{{{{{{{{{{{{{{$##$#X<cLl223333f3ffffhbR{{{{{{{{{{{{{{{{{{{{{{{{{{{{{{{{{{{{{{{{",
"{{{{{{{{{{{{{{{{{{{{{{{{{{{{{{{{{{{{{{{{{{{{{{{{{{{{{{{{{{{{{{{{{,#$###,xck2233f3ffffffgcT{{{{{{{{{{{{{{{{{{{{{{{{{{{{{{{{{{{{{{{",
"{{{{{{{{{{{{{{{{{{{{{{{{{{{{{{{{{{{{{{{{{{{{{{{{{{{{{{{{{{{{{{{{{,$#$##X$YUz223fffffffffjbE{{{{{{{{{{{{{{{{{{{{{{{{{{{{{{{{{{{{{{",
"{{{{{{{{{{{{{{{{{{{{{{{{{{{{{{{{{{{{{{{{{{{{{{{{{{{{{{{{{{{{{{{{{{,##$##flILx323fffffghffjcR{{{{{{{{{{{{{{{{{{{{{{{{{{{{{{{{{{{{{",
"{{{{{{{{{{{{{{{{{{{{{{{{{{{{{{{{{{{{{{{{{{{{{{{{{{{{{{{{{{{{{{{{{{2$##>f,#$cLz333fffhghhgghvR{{{{{{{{{{{{{{{{{{{{{{{{{{{{{{{{{{{{",
"{{{{{{{{{{{{{{{{{{{{{{{{{{{{{{{{{{{{{{{{{{{{{{{{{{{{{{{{{{{{{{{{{{{,$,2$###,cbz33fgghhggjhhjxR{{{{{{{{{{{{{{{{{{{{{{{{{{{{{{{{{{{",
"{{{{{{{{{{{{{{{{{{{{{{{{{{{{{{{{{{{{{{{{{{{{{{{{{{{{{{{{{{{{{{{{{{{>,,###$$#2zvz3ffghgggghhjjcRR{{{{{{{{{{{{{{{{{{{{{{{{{{{{{{{{{",
"{{{{{{{{{{{{{{{{{{{{{{{{{{{{{{{{{{{{{{{{{{{{{{{{{{{{{{{{{{{{{{{{{{{{$>>$$$#$#3lbc3fgggghhhhhjjxTY{{{{{{{{{{{{{{{{{{{{{{{{{{{{{{{{",
"{{{{{{{{{{{{{{{{{{{{{{{{{{{{{{{{{{{{{{{{{{{{{{{{{{{{{{{{{{{{{{{{{{{{{X3>#$$$#$hxvxffgggjhhhjjjkzPQ{{{{{{{{{{{{{{{{{{{{{{{{{{{{{{{",
"{{{{{{{{{{{{{{{{{{{{{{{{{{{{{{{{{{{{{{{{{{{{{{{{{{{{{{{{{{{{{{{{{{{{{{Xg>#$#$#<PcUxffhhjjhjjjjjkxIE{{{{{{{{{{{{{{{{{{{{{{{{{{{{{{",
"{{{{{{{{{{{{{{{{{{{{{{{{{{{{{{{{{{{{{{{{{{{{{{{{{{{{{{{{{{{{{{{{{{{{{{ #g>$$$<j.#UQcgghkhjjkjkkjlxIW{{{{{{{{{{{{{{{{{{{{{{{{{{{{{",
"{{{{{{{{{{{{{{{{{{{{{{{{{{{{{{{{{{{{{{{{{{{{{{{{{{{{{{{{{{{{{{{{{{{{{{X#$g>$,kX>vhcIcghhkklkjjkkklxI({{{{{{{{{{{{{{{{{{{{{{{{{{{{",
"{{{{{{{{{{{{{{{{{{{{{{{{{{{{{{{{{{{{{{{{{{{{{{{{{{{{{{{{{{{{{{{{{{{{{{{{ $2$f#$L,>$xLxhhjkkjkkjkkklxUQ{{{{{{{{{{{{{{{{{{{{{{{{{{{",
"{{{{{{{{{{{{{{{{{{{{{{{{{{{{{{{{{{{{{{{{{{{{{{{{{{{{{{{{{{{{{{{{{{{{{{{{. >fzkI<$##<vvxjhjkkklkklkklxT)U{{{{{{{{{{{{{{{{{{{{{{{{{",
"{{{{{{{{{{{{{{{{{{{{{{{{{{{{{{{{{{{{{{{{{{{{{{{{{{{{{{{{{{{{{{{{{{{{{{{{$. $xx$###$#<cbvjjkkkklkkklllxYQY{{{{{{{{{{{{{{{{{{{{{{{{",
"{{{{{{{{{{{{{{{{{{{{{{{{{{{{{{{{{{{{{{{{{{{{{{{{{{{{{{{{{{{{{{{{{{{{{{{{ X. <<>##$$$>fzbxkjkklkllklzllzT_E{{{{{{{{{{{{{{{{{{{{{{{",
"{{{{{{{{{{{{{{{{{{{{{{{{{{{{{{{{{{{{{{{{{{{{{{{{{{{{{{{{{{{{{{{{{{{{{{$#..X. >2$$$$>,$3lvzkkkkllllllzzlzY)R{{{{{{{{{{{{{{{{{{{{{{",
"{{{{{{{{{{{{{{{{{{{{{{{{{{{{{{{{{{{{{{{{{{{{{{{{{{{{{{{{{{{{{{{{{{{{{$$$X. .  ,3>$$$#$$flcxkklklllllzxzzlE[Q{{{{{{{{{{{{{{{{{{{{{",
"{{{{{{{{{{{{{{{{{{{{{{{{{{{{{{{{{{{{{{{{{{{{{{{{{{{{{{{{{{{{{{{{{{{>$$$$>XX..  22>$$$$#$hzvclllkllllzzxzzxbQb{{{{{{{{{{{{{{{{{{{{",
"{{{{{{{{{{{{{{{{{{{{{{{{{{{{{{{{{{{{{{{{{{{{{{{{{{{{{{{{{{{{{{{{{{#####$$>XX..  22$$$$##>hcvclllklzzzxzxvzcRYvk{{{{{{{{{{{{{{{{{{",
"{{{{{{{{{{{{{{{{{{{{{{{{{{{{{{{{{{{{{{{{{{{{{{{{{{{{{{{{{{{{{{{{#X######$$>XX    2<$$$$$$#hxcczllllzzzxxxxzzR(zj{{{{{{{{{{{{{{{{{",
"{{{{{{{{{{{{{{{{{{{{{{{{{{{{{{{{{{{{{{{{{{{{{{{{{{{{{{{{{{{{{{{XXX######$#$$#.    g<$$$#$##fcvvzlllzzzxxxxxxzP`Pk3{{{{{{{{{{{{{{{",
"{{{{{{{{{{{{{{{{{{{{{{{{{{{{{{{{{{{{{{{{{{{{{{{{{{{{{{{{{{{{{{..XXXmZDZVpe6$>#.   .h,$$$$$#$3xcbzlzlzzxzxxxxxvUWPjg{{{{{{{{{{{{{{",
"{{{{{{{{{{{{{{{{{{{{{{{{{{{{{{{{{{{{{{{{{{{{{{{{{{{{{{{{{{{{{{#..XXmFFDMe%%66{{#   X2,$$$$$#$kvcPxzzzzzxzxxcczcY_Tkfg{{{{{{{{{{{{",
"{{{{{{{{{{{{{{{{{{{{{{{{{{{{{{{{{{{{{{{{{{{{{{{{{{{{{{{{{{{{{{#X..MZFFVi**o%%6<>#   .f,$$$$#$$2bvPczzzxzxxccccccP'Tjh2{{{{{{{{{{{",
"{{{{{{{{{{{{{{{{{{{{{{{{{{{{{{{{{{{{{{{{{{{{{{{{{{{{{{{{{{{{{{XX#.VDFFa4%ooo%%6#$$.  Xf<##$$$##fvxLczxzxzccccccvvv`'kh2332{{{{{{{",
"{{{{{{{{{{{{{{{{{{{{{{{{{{{{{{{{{{{{{{{{{{{{{{{{{{{{{{{{{{{{{{{ X.pCZVa*%ooo &@@464*& #3,$$$$$##3cbPczxxxxcccvvvccI`Rzh2>#X{{{{{{",
"{{{{{{{{{{{{{{{{{{{{{{{{{{{{{{{{{{{{{{{{{{{{{{{{{{{{{{{{{{{{{{{{XXiMmi6*%oo.*6ipaapi666*2,$$#$$$#3PLPvxxxcccvvvcvvcb][vj>X. {{{{{",
"{{{{{{{{{{{{{{{{{{{{{{{{{{{{{{{{{{{{{{{{{{{{{{{{{{{{{{{{{{{{{{{{{,.466*%ooo*6eepnappMnae-h<#$$$$$$<bPLcxxxcccccvvvvbL_)22>. .{{{{",
"{{{{{{{{{{{{{{{{{{{{{{{{{{{{{{{{{{{{{{{{{{{{{{{{{{{{{{{{{{{{{{{{{<$X%o%%oo5666666ppmMMape4f<>$>>>>$<IPIxxccccvvvvvvcxIWPgfh,  {{{",
"{{{{{{{{{{{{{{{{{{{{{{{{{{{{{{{{{{{{{{{{{{{{{{{{{{{{{{{{{{{{{{{{{{>$#.*oO55-*&&==4epnmMaap4j3>>>,>,>2YPLvccvvcvvvcxzPRPlcg,h. .{{",
"{{{{{{{{{{{{{{{{{{{{{{{{{{{{{{{{{{{{{{{{{{{{{{{{{{{{{{{{{{{{{{{{{{{>$##Xo$& .$@&&*6iMVCNmap%jf$$>,,>>3UPIvvvvvvvcczRTf3jf>3,,  {{",
"{{{{{{{{{{{{{{{{{{{{{{{{{{{{{{{{{{{{{{{{{{{{{{{{{{{{{{{{{{{{{{{{{{{{e4o%.@;o  $&@*6iMCSAVMn6Xzvzg<,,<>hQbIbvcvcccb)Y<f#   #2<$ {{",
"{{{{{{{{{{{{{{{{{{{{{{{{{{{{{{{{{{{{{{{{{{{{{{{{{{{{{{{{{{{{{{{{{{pVCi4*o#=o  ooO6pnNCSDSCMe $,2gcvbxh2IEjxvvcccUQk,<  .#XX$<,X{{",
"{{{{{{{{{{{{{{{{{{{{{{{{{{{{{{{{{{{{{{{{{{{{{{{{{{{{{{{{{{{{{{{{{MDZMe**oo#X ooo9pnmVCADFFC6.. X>$>><gzUYP<jcvzU)f<#  $#><  ,,${{",
"{{{{{{{{{{{{{{{{{{{{{{{{{{{{{{{{{{{{{{{{{{{{{{{{{{{{{{{{{{{{{{{{MDZMi44*o  ##.@-iamMCCSGHHFnXXX #,>$$,$##jf<3vvv3>  X#<,.2,..3,,{",
"{{{{{{{{{{{{{{{{{{{{{{{{{{{{{{{{{{{{{{{{{{{{{{{{{{{{{{{{{{{{{{{pVZMp6*%ooo  #%-ipnMVCAG~!!JC6##X #<>$,$>,3z2$,kf$  #$$ <#.f$ #f>{",
"{{{{{{{{{{{{{{{{{{{{{{{{{{{{{{{{{{{{{{{{{{{{{{{{{{{{{{{{{{{{{{{pMMie*%o%   o@47pnMMVCD~!^^^DsX##X .$$>,$,,lf,#$  X$X$3.X<.#2#.,,X",
"{{{{{{{{{{{{{{{{{{{{{{{{{{{{{{{{{{{{{{{{{{{{{{{{{{{{{{{{{{{{{{{eii6;*ooo  o&*riamMMVSGHJJ~!^V*#$#X .$#>$>>fj<,X ##$< ><.$< ><XX3X",
"{{{{{{{{{{{{{{{{{{{{{{{{{{{{{{{{{{{{{{{{{{{{{{{{{{{{{{{{{{{eaMMp6**ooo    @@-7samMVCSSFGGHJJZr$>3$. ##$$$$>j<<>X#..g# ,$ <>.<$X,$",
"{{{{{{{{{{{{{{{{{{{{{{{{{{{{{{{{{{{{{{{{{{{{{{{{{{{{{{{{{{eaMMi*%oooo    o@@-6pnmNCASDSSFGHHFn,,$X...#$$$$#f3,,>X. $f..2#.2#X#X,{",
"{{{{{{{{{{{{{{{{{{{{{{{{{{{{{{{{{{{{{{{{{{{{{{{{{{{{{{{{{pMVai**%oo       .@4ipnNCAASDAZASDFHV=#...  ##$#$#$g>>>$X#.$g.X2.#$.X$,{",
"{{{{{{{{{{{{{{{{{{{{{{{{{{{{{{{{{{{{{{{{{{{{{{{{{{{{{{{{6MCme**ooo    XXX .&6iaMCCAASSSAZASSGSi&.  X.X#$###$<,>>>$XX << #,..#,>.{",
"{{{{{{{{{{{{{{{{{{{{{{{{{{{{{{{{{{{{{{{{{{{{{{{{{{{{{{{{6ape4%ooo   XXXXX @*6iaNVCAAASZCAASADFVi& X##.$#$###$<,$$$##X.f# .X$,#.{{",
"{{{{{{{{{{{{{{{{{{{{{{{{{{{{{{{{{{{{{{{{{{{{{{{{{{{{{{{64ei*oooo   ####XX.%-5imNCZCVZCVVCZZAADmme@X#X.#$##$##X3$$$##X...X#,>X{{{{",
"{{{{{{{{{{{{{{{{{{{{{{{{{{{{{{{{{{{{{{{{{{{{{{{{{{{{{{6ae**o%o    $>>$#XX.&*7iaNCVCCVVVCZVAASDMMm4@..X.$$#### ,<$$#X.#X#$$#{{{{{{",
"{{{{{{{{{{{{{{{{{{{{{{{{{{{{{{{{{{{{{{{{{{{{{{{{{{{{{iae**%%o    ><,,,$#X.&57pamVCNmmmZZASSAZAMaNp*o.Xo.>$###..>>##X.####{{{{{{{{",
"{{{{{{{{{{{{{{{{{{{{{{{{{{{{{{{{{{{{{{{{{{{{{{{{{{{{iMp4*%%o    <<2<2,$$Xo&4eiamMmpanNZSFGDSZZZMmmi&oXoX#$#X## .$$#.##X{{{{{{{{{{",
"{{{{{{{{{{{{{{{{{{{{{{{{{{{{{{{{{{{{{{{{{{{{{{{{{{{{eaeooo    22<2233<>##o%=7panaiepmZSGGGHDZVZmNVi6&oooX$$#XX# .$XX#.{{{{{{{{{{{",
"{{{{{{{{{{{{{{{{{{{{{{{{{{{{{{{{{{{{{{{{{{{{{{{{{{{{66*o o ok232ff32<<>$.oo=6ippe46pMCAFGJGGACAMMNai4%oo.X$#X##. X##X{{{{{{{{{{{{",
"{{{{{{{{{{{{{{{{{{{{{{{{{{{{{{{{{{{{{{{{{{{{{{{{{{{{{%oo o.$2<f233322<$$oo=*67r764epMMCZSGGSAVCNMVNai4*@oooo#XX#X{{{{{{{{{{{{{{{{",
"{{{{{{{{{{{{{{{{{{{{CZVNp6{{{{{{{{{{{{{{{{{{{{{{{{{{{>># gxf<2<fg3<2<<<,o*44447e6ipaMVMVVAFAZZZVMMMVmpe4*&@@*{{{{{{{{{{{{{{{{{{{{",
"{{{{{{{{{{{{{{{{{{{{SSNmip{{{{{{{{{{{{{{{{{{{{{{{{{{$$X fc3223f22233<,,<o=6466eppnMMVZCZNVCSZVVZMamCCMnpe97=**{{{{{{{{{{{{{{{{{{{",
"{{{{{{{{{{{{{{{{{{{CSSVeipi{{{{{{{{{{{{{{{{{{{{{{{{>$# fz2f2<2fj2<2<<22o.+&=-=%47pnmCCCAACVVVVVVCaCCCCMMnni66;{{{{{{{{{{{{{{{{{{{",
"{{{{{{{{{{{{{{{{{{{ADZViipp6{{{{{{{{{{{{{{{{{{{{{{$># <Pg<2<g322232<<32%&o+%&&4666ppnnmVCACCVVVVVmAAMNNNNMpii7{{{{{{{{{{{{{{{{{{{",
"{{{{{{{{{{{{{{{{{{ZSZMpi6eep{{{{{{{{{{{{{{{{{{{{{,>$ <cg<j322<f3223<gk#.=*6e7iipnnNCVVNMCVCAVNCZCMZZNMNNCNnie4{{{{{{{{{{{{{{{{{{{",
"{{{{{{{{{{{{{{{{{ZGZappie6ei{{{{{{{{{{{{{{{{{{{{<># >zk3332hf22<2223x< &*67ipaaamNNNAAZACMVCACCVNMCCmmMMVnnnp{{{{{{{{{{{{{{{{{{{{",
"{{{{{{{{{{{{{{{{AFpepipei66i{{{{{{{{{{{{{{{{{{{<,# >x323hh2h<33<<32zh  o&-4666pnMMVMCVCSACMVCVVVMMNNnMMNNnpe4{{{{{{{{{{{{{{{{{{{{",
"{{{{{{{{{{{{{{{pFD7mapai66-6{{{{{{{{{{{{{{{{{{>>$ $zh333j23g<332<<fzX #oX=-667eennnMCCCCAAACNVVVVMmmNnMnme*{{{{{{{{{{{{{{{{{{{{{{",
"{{{{{{{{{{{{{{{nSCACnampa666{{{{{{{{{{{{{{{{{>$$ #bf>,,,32f3232<jhz$  o&67iapaaaipppnACaCADFSNVMMMmmmmmaa7%{{{{{{{{{{{{{{{{{{{{{{",
"{{{{{{{{{{{{{{{MMGSCnnmiaiipp{{{{{{{{{{{{{{{{>$ #g3>h``2h33<2ff<3z3  o46ipNVVNMNmapnnmMMMnCSDSMmmnmmmmmai74{{{{{{{{{{{{{{{{{{{{{{",
"{{{{{{{{{{{{{{{NZGFGZZACa6ippi{{{{{{{{{{{{{>$$.Xjk$2Y_E223f3<<,jzz  @47ipCAZMMMMnmmMNNMMMNMnZMMmmnannnppie{{{{{{{{{{{{{{{{{{{{{{{",
"{{{{{{{{{{{{{{{MADFFGHDAMepiiei{{{{{{{{{{{>$> #hk22,YTU322<233<xU# &*eiaVSSMaapmNNNmnnppnnVVVVmNNnaanaipie{{{{{{{{{{{{{{{{{{{{{{{",
"{{{{{{{{{{{{{{{{ZFFGHHJDCpieiep6{{{{{{{{{F>$$.333g2#klf#333<23zP#  *epanVCSZnMMVVNaappipnaNZZSZmMnpiaai64.{{{{{{{{{{{{{{{{{{{{{{{",
"{{{{{{{{{{{{{{{{MGFGHGJ~Ci6ee66ii{{{{{{{FV>$$.,<2j22##<<<2223lI$ o@6paammMVVZZSVVmmNMZNMZZZSZSFNNmieeiee%{{{{{{{{{{{{{{{{{{{{{{{{",
"{{{{{{{{{{{{{{{{MGGFFHHGM6&-66e6enV{{{{DFD$$$.#<<fjf22<23<,2xP#.2o@67i4pnnVFGGGZVAVVNMMMVVVNZFGZnNaieee=4{{{{{{{{{{{{{{{{{{{{{{{{",
"{{{{{{{{{{{{{{{{{FDDFFAVi6&@&6666epap6MVZAZ>$$.><2f22f2,f3<zbX.g3o*=46emnNAHGJZVnpnmaeipieiamDHSMNanppe={{{{{{{{{{{{{{{{{{{{{{{{{",
"{{{{{{{{{{{{{{{{{mDSDDNMi-@=-6eeeeiapMNCZDS>$$XX<,g3<3222<vc.#j2#@&&eanMVZSZZmnnanNZCAMmai7e7NGDNmmMnp6&{{{{{{{{{{{{{{{{{{{{{{{{{",
"{{{{{{{{{{{{{{{{{nVZSAie-@o&6666e7paannnVCZ>$$$.#23gf<<f3jxX$jf>.@&rMVMNVNmmmmVCAAAZAAAZZZNa6nZDNVMVn6-&{{{{{{{{{{{{{{{{{{{{{{{{{",
"{{{{{{{{{{{{{{{{{{mNSMi6-&-5665--eiaamNNmZCC>$$# 22fj2<<kx.<l2#<#&nNmmVNninCSFDDGCMNMmMmnMVNVmNCCMVVe4&@{{{{{{{{{{{{{{{{{{{{{{{{{",
"{{{{{{{{{{{{{{{{{{pnppepei7e66&&&-7eiaamNCACZ$$>XXf33<jLf.2lf<.#&pNMnMmapNFFFDZNMr7e96eeiipnnnnaNCVC4*&{{{{{{{{{{{{{{{{{{{{{{{{{{",
"{{{{{{{{{{{{{{{{{{6p66iaiae766&&&=67eiimmCZDC>$$$ >fflb$.jv<$x>.*nMpaMmMZDCVMdpree7944*;;49eiMNanNMV4=&{{{{{{{{{{{{{{{{{{{{{{{{{{",
"{{{{{{{{{{{{{{{{{{{ie6enamap76===---67eeinNDA,$$$# fPj ,zxgjX$j$6niiaMZZCBapsiamNCNnppp;#o*7epVMpmnM4={{{{{{{{{{{{{{{{{{{{{{{{{{{",
"{{{{{{{{{{{{{{{{{{{epi6nmNmaie-------67eeamZD2,$$$.#$#kzk,>Lf#$$6wtnaVVmiepmZZSFGGGGFACCCnr647mZmmMe64{{{{{{{{{{{{{{{{{{{{{{{{{{{",
"{{{{{{{{{{{{{{{{{{{{pi6iMZVmni76-------7eeimZS<$$>#.,jf,>2#<c>XX8rpaaaanaCADFFHHJJ!JJGGFDAZa46iMVNm;4{{{{{{{{{{{{{{{{{{{{{{{{{{{{",
"{{{{{{{{{{{{{{{{{{{{iminNAZVma766------6777imZ$$$$>fg,>>>L<#f,##-eiienNZDGHGHH!!!JJ!JHHGGGDZNeenZVp&{{{{{{{{{{{{{{{{{{{{{{{{{{{{{",
"{{{{{{{{{{{{{{{{{{{{{ianMACZNmi776---------6emV>$>f<$$$.$kj$$3#$66766MZFHJJJJJJ!!JJJJJJGGGGFAMaimNs4{{{{{{{{{{{{{{{{{{{{{{{{{{{{{",
"{{{{{{{{{{{{{{{{{{{{{eanCCZZVmiie76--------67am>>$$#$$,.#3j<#<$o6666iVSH!JJHJJJJJJJJJJHHGGGFDANpanm7{{{{{{{{{{{{{{{{{{{{{{{{{{{{{",
"{{{{{{{{{{{{{{{{{{{{{ipmMVACCVmaiee76-------6eim<$$$$>,$X<fg$##&=--7nVDJJJJHJJJ!JJJJHJGGHGGFFSVniap7{{{{{{{{{{{{{{{{{{{{{{{{{{{{{",
"{{{{{{{{{{{{{{{{{{{{{{pVMMCAZVNmmiie7---===---6ea ,>>,,,X$<k2#.*=&69NCDHJHHJJJJ!!JJ!JHGFHGGFFAZNi7e%{{{{{{{{{{{{{{{{{{{{{{{{{{{{{",
"{{{{{{{{{{{{{{{{{{{{{{pZNMMVCZNNmaie6--=====---7en.<,,>,#X><j>#&&$7pCDHHHHJJJJJJJJJJJHHFGHGFFFDSe;;;{{{{{{{{{{{{{{{{{{{{{{{{{{{{{",
"{{{{{{{{{{{{{{{{{{{{{{iSVappMCCCVna7---======---6eX.2,>>>X#><j$.$,inZZGJHHJJJ!JJJJJJJJHGGGGGFGFDM6;6{{{{{{{{{{{{{{{{{{{{{{{{{{{{{",
"{{{{{{{{{{{{{{{{{{{{{{pZVn6iaVZZCmn7---=======---7e  3>>>>.$$ff#X4imCZFHHJJJ!!!!!JHJJJJGFHGFFFGGZq4*{{{{{{{{{{{{{{{{{{{{{{{{{{{{{",
"{{{{{{{{{{{{{{{{{{{{{{{aAM-6iNGGFZme7--========---6i..>,>>$.$#j2#,iMCDGHJJ!J!!JJJJHJJJJHFGGFFFGHDmeo{{{{{{{{{{{{{{{{{{{{{{{{{{{{{",
"{{{{{{{{{{{{{{{{{{{{{{{aGM=6emGJGDVi7--==========-6ea#.#>>$#.$$z>XpVCGGJJJJJJJJJJJJJJJJHGGGGFFFJDVi4{{{{{{{{{{{{{{{{{{{{{{{{{{{{{",
"{{{{{{{{{{{{{{{{{{{{{{{aSZ6&-nG^^FZi7--==========--6im  #>$$ X#$h<nCSDHKJJHKJJ!!!JHJJHJJGGGGGFAFFCp={{{{{{{{{{{{{{{{{{{{{{{{{{{{{",
"{{{{{{{{{{{{{{{{{{{{{{{pDSp&emH^/GZi7--===========-66mN..X$$#.X#$,pNZFJJJJH!JJ!!JJHJHHHGGGGHHFDDDZmq{{{{{{{{{{{{{{{{{{{{{{{{{{{{{",
"{{{{{{{{{{{{{{{{{{{{{{{pAHMiaH///DCpi--============--imXX.#$$#X...aMAGJJJHJ!JJ!JJJHJHGGGGFFGGFSFDCdpr{{{{{{{{{{{{{{{{{{{{{{{{{{{{",
"{{{{{{{{{{{{{{{{{{{{{{{-MDp7nSJ//GDMii6-============-inNX# #$$$#X.NAFHJJHH!JJJJJHJJJJHHGGGGHGDGSDAadr{{{{{{{{{{{{{{{{{{{{{{{{{{{{",
"{{{{{{{{{{{{{{{{{{{{{{{&7eeiiiii77anNNar--=========--6eNCX#.X##X#epDHJHHJJ!JJJJHJHHJJHHGGGGHGFDDAVmirh{{{{{{{{{{{{{{{{{{{{{{{{{{{",
"{{{{{{{{{{{{{{{{{{{{{{{=67mmmm7-@&@-6ripi6-========---7mZZX$X.XXpnmADGHJJJJJJJ!JJJJJJJHHGHGFGFDDSAairr{{{{{{{{{{{{{{{{{{{{{{{{{{{",
"{{{{{{{{{{{{{{{{{{{{{{iNCFFG//SZm-&oo--667--======----6imNCa##eppieCAGHHJHJJ!!!!JJJJJJJHGFGFFGFDDZMai08{{{{{{{{{{{{{{{{{{{{{{{{{{",
"{{{{{{{{{{{{{{{{{{{{{{7eepmpeieaMNMi&@o&----=======---6eaNDNNmpppi6CSHJHHJ!J!!!JJJHJJJHHGFFDDGFDAZVmii6{{{{{{{{{{{{{{{{{{{{{{{{{{",
"{{{{{{{{{{{{{{{{{{{{{{epnNVp7=oo&-iCm7@o&-=========----eaNGFFFmiieeZFGJHH!JHJJ~JJJJJHJHHFFGFFDFSSSMNae9&{{{{{{{{{{{{{{{{{{{{{{{{{",
"{{{{{{{{{{{{{{{{{{{{MZZZH~HFCp&..o&6mnn@#--=-=======---eiaZDJFZmieeSGGGHJJJJJJ!J!JJJHJHGFFGGFFDDDZCNnee5{{{{{{{{{{{{{{{{{{{{{{{{{",
"{{{{{{{{{{{{{{{{{{{{a7iepmnNASVmpee&6epm6&66---======--7iaZFJ^HDpe6ADHHJJHJJJJJJJJHHHJHGGFGGDFDDDZZNnri7{{{{{{{{{{{{{{{{{{{{{{{{{",
"{{{{{{{{{{{{{{{{{{{{&&&eeemmnnnnNppe666ani66ii6----==--7eiNCFFJJZniSFGHJ!JJJJJJHHHGHHHHHGFFGDDFADZAVNnie5{{{{{{{{{{{{{{{{{{{{{{{{",
"{{{{{{{{{{{{{{{{{{{{&&&7emNNNNVNmnmmapeepn66eane6--==--6eemVZFHJAniASGH!!JJJHHHHGHGGHHJHGGFGFFDDSZZVMmie9{{{{{{{{{{{{{{{{{{{{{{{{",
"{{{{{{{{{{{{{{{{{{{&&&67MCMmVVZZSFFZZZVmpii77eani6--==--67amCZGGFCnZSGGJ!!J!HHHHHGGGGHHGGDGFGFDFSZZVMmp76,{{{{{{{{{{{{{{{{{{{{{{{",
"{{{{{{{{{{{{{{{{{{&&enMCCMnimmMMMmVimNNSFZAVm7inai---=--67imVZGGDZnCSSG!!!JJJHHHHHGGHGGGFFFGHFDFSSZCVNmi9={{{{{{{{{{{{{{{{{{{{{{{",
"{{{{{{{{{{{{{{{{{&7-einMCDDCCCMneeemaiipNNSAAAmiia76----66eaNNZDZZCMSFGJJJJJJHHHHGGGGGGFFFFGFFDDSSCCVMMpe4o{{{{{{{{{{{{{{{{{{{{{{",
"{{{{{{{{{{{{{{{{{=e-eiinMCZZASDFJJGCmaiiaimVVAAMmiae6----67imVCCVVCnSSFHJJJJJHHGGHGGHGFDDFFFDDSSZZCCVMMae9*{{{{{{{{{{{{{{{{{{{{{{",
"{{{{{{{{{{{{{{{{{&=-6ppnnnnmNVCSFJJHFDCMn66mmVNAVniaa66---67amNMNCVmAFGGJ!JHJHGGGGGGHGFFFFFDDDAZCNNMNMMnp7;{{{{{{{{{{{{{{{{{{{{{{",
"{{{{{{{{{{{{{{{{{&&----7777ennnnMVSSGJJSCMniiimNAANiNVe6---7ianMMMa{DGGJ!JHJJHGGFGGGGGFFFFGFDDSZVNMMMMMne94o{{{{{{{{{{{{{{{{{{{{{",
"{{{{{{{{{{{{{{{{{=7iinnVVmnnnneeeei-emVSSAAn66imNADVNDVe6---iappMnn{SFGJ!JJHHGGGGGGGGGFFFFFFDDSZVVMMMMMa790&{{{{{{{{{{{{{{{{{{{{{",
"{{{{{{{{{{{{{{{{{5iFFFFFFFFFFFFFJnnMe--pVSDDCni6iiMDDDVp7---iappMn{{SFGJ!!JHHFGFGGGGHHGGFFFFDDDZZVMMMMMMre8o{{{{{{{{{{{{{{{{{{{{{",
"{{{{{{{{{{{{{{{{{*NFGGFFGGGFGHJJJJJJNie-enNDAACa667MCZNp7---aapMnn{{ASGH!JJHGFGGGGGGHGGFFFFFFDAZZVVVMMMnpq7;{{{{{{{{{{{{{{{{{{{{{",
"{{{{{{{{{{{{{{{{5MDHGFFFGGGGHHJJJJ!!!Ji7-=nNNAFCai67mNnp7--iapMnn{{{ZDFGJ!JHGFFFGGGGHGGFFFFFFSSZZZVMMMMMaie0={{{{{{{{{{{{{{{{{{{{",
"{{{{{{{{{{{{{{{6aCFHGFFFGHFGJJJJJJJJJ!KH7-enmmCFCCa-pMnp7iipppn6{{{{SDFGJ!JHGFDGFGGGGGGFFFFFDADAZZVVMMMMnnir0{{{{{{{{{{{{{{{{{{{{",
"{{{{{{{{{{{{{{9iMSFFFFFGGGGHJJJJHJJJJJJHH==eaamCFZCe-enp7pppp66{{{{{SDFG!!!HGFDFFFGGGGGFFFFDSSACZZCVMMMMNaner;{{{{{{{{{{{{{{{{{{{",
"{{{{{{{{{{{{{{imCSDDDGGGGGGHJJJJHJ!!!!JJJH$$6eemCCSp--ee66666.{{{{{{CSFGJ!JHGGDDGFGGHGGGFFFDAAZAZCVVVMMMNmape9{{{{{{{{{{{{{{{{{{{",
"{{{{{{{{{{{{*ppMCDFDFHHGGGHJJJJJJJJJ!!!JJJHD==eeMMVC6-=-&...{{{{{{{{ASGH!!JHGGFDFFGGGGGFFFFFDAZCZCVVMMMNNMmprrq{{{{{{{{{{{{{{{{{{",
"{{{{{{{{{{{{*6aNZDFSFGGFGGGHHJJHJJJJJ!J!JJJHD$-6ppmMe&&&.{{{{{{{{{{{ZDFGJ!JHGFFFGGGGHGGFFDDFDAZZZCCVNMMMVMmnprr={{{{{{{{{{{{{{{{{",
"{{{{{{{{{{{2rpMVSDDDFGGFFGGGHHJHJ!!!JJJJJJHHDV$6iiamp&&&.{{{{{{{{{{{SDFGJ!JHGFDGFGGGGGGFFFFDDSAZZZCVNMMMVMmairr1{{{{{{{{{{{{{{{{{",
"{{{{{{{{{{{3pNVCZSDFFHGGGGGGGHJHJJ!!JJ!HJJJGFVN$eeiie&&.{{{{{{{{{{{{ADFG!!!HGFDFFFGGGGGFFFFDFSSZZZVVVMMMNVmaperq<{{{{{{{{{{{{{{{{",
"{{{{{{{{{{rrMVCASDDFGHGGGGHHHJHJJJJ!JJJHJJJGDZVN66e76&.{{{{{{{{{{{{{CSFGJ!JHGGDDGFGGHGGGFFFDADAAZCCVVMNMMVNnpisq:{{{{{{{{{{{{{{{{",
"{{{{{{{{{*9aCVZZDDFFGFGGGGHHJJJJJJ!JJ!JHJJJHDZVN$676-={{{{{{{{{{{{{{ZSDGH!JHGGFDFFGGGGGFFFFFSASSSZCCVVNNMNVMnip7y{{{{{{{{{{{{{{{{",
"{{{{{{{{{9iMCZZZSDFGFFGGGHHJJJHHHJJJJ!JHJJJHSVVV${{{{{{{{{{{{{{{{{{{mSDGH!!HGFDFFFGGGGGFFDDFDDASZZZVCVVVMNNNmapir&{{{{{{{{{{{{{{{",
"{{{{{{{{*7mNCZASSDFFDFFFGHJJJJJJJHJJJJ!HHJJGSVVV{{{{{{{{{{{{{{{{{{{{BDFGJ!!HHGDDFFGGGGGFDFDDDASSZZCVVVVVVMNNMnapu9{{{{{{{{{{{{{{{",
"{{{{{{*r7pNVZSZDDDFFFGFFHHJJJJJJJJ!JJJ!JJJJHDZVV{{{{{{{{{{{{{{{{{{{{CAGHJ!JJGGGAGFGGGGGFDFFSFSSSAZZVVVVVVNNNMmaair={{{{{{{{{{{{{{",
"{{{{{{*6nMCVCAZDDDFFGGFFHHJJJHJJJ!!!JJJJJHHHFZN{{{{{{{{{{{{{{{{{{{{{ASFGJJ!HGGGFFFFGGGFSFSFDSSSSAZZCVVVVVNMMMMaapr7{{{{{{{{{{{{{{",
"{{{{{&97pMVVCZADSFDDGGFFGHJHJJJJJ!!!JJHJJHGFDNM{{{{{{{{{{{{{{{{{{{{{MSFGH!J!HGFSFFGGGGGFSFDSSSSSSZZCVVVNVVMMMMnpppr&{{{{{{{{{{{{{",
"{{{{{=7pnmNVCZADDDDFGFFGGHJHJJJJJ~JJJ!JHHHGSZVV{{{{{{{{{{{{{{{{{{{{{pSSFH!JHHGGAFFGGHGGSFDFSSSSSSZZZCVVNVVNMMMmape9,{{{{{{{{{{{{{",
"{{{**9rnMMVCZAAFDFFGFFGHHHHHHHJJJ!JJHJ!HHJHSCD{{{{{{{{{{{{{{{{{{{{{{{ASGG!!JGGSFFFFGHHGFDFSFASSSSSZZCVVNVVCMNNMMpi7;{{{{{{{{{{{{{",
"{{{;4epnMMVCCSSFDFGFGFGHJHHHGHHJJJJJJJJHHHGDZS{{{{{{{{{{{{{{{{{{{{{{{AFFHJ!JHGFDFFGGHHGGFDFSSSSSSSAZZVVVNVVMNNCNnpr9<{{{{{{{{{{{{",
"{{{46eamMMVCCASDDFGGFFGGHHHGGHGHJJJJJHJJHGGDSS{{{{{{{{{{{{{{{{{{{{{{{SDGJ!!JHGGDFFGGGHGGFFFDDSSSSSAZZZVVNMVVMNNVmapir@{{{{{{{{{{{",
"{{&597pmMMMNVCZSDDFGFFFGGGGGGGHHHHHJJJ!JHHFSSA{{{{{{{{{{{{{{{{{{{{{{{SFHH!JJHGGFDGFGGHGGGSFDDSSSSAASACCVVNVVMNCMNnppq6{{{{{{{{{{{",
"&&o877aMMMMMNVZADDDFFFFFGGGGGHHHHHHJJJ!JHGFSA{{{{{{{{{{{{{{{{{{{{{{{{ADGJJJJHGFDFFFGGHGGDDDFDSSSASSSZZCVVVNVMNNCMaapi9={{{{{{{{{{",
"&=;9eiMMMMMMVVZSDDDFFFDFGGGGGHHHHHJJJ!!JHFSAZ{{{{{{{{{{{{{{{{{{{{{{{{VDHHJJ!JGGFDFFGGHGFDDFDDSSSSSSSZZZVVVVVCMMVNmapir4{{{{{{{{{{"
};
