/* XPM */
static char *Reload5[] = {
/* columns rows colors chars-per-pixel */
"129 141 90 1 ",
"  c black",
". c #070707",
"X c #0B0B0B",
"o c #170F07",
"O c #0B1707",
"+ c #171F07",
"@ c #1F170B",
"# c #131313",
"$ c #1B1B1B",
"% c #2F1B0B",
"& c #2B230F",
"* c #372313",
"= c #332B13",
"- c #3F2F17",
"; c #3F2B1B",
": c #2F371F",
"> c #232323",
", c #272727",
"< c #2F2F2F",
"1 c #373F27",
"2 c #373737",
"3 c gray23",
"4 c #432F1B",
"5 c #43331B",
"6 c #4B371B",
"7 c #533F1F",
"8 c #473323",
"9 c #4F3B23",
"0 c #4F3B27",
"q c #533F2F",
"w c #3F472B",
"e c #5F4323",
"r c #5B472B",
"t c #474F33",
"y c #574333",
"u c #5F4B37",
"i c #6B4727",
"p c #774F2B",
"a c #7F532F",
"s c #675333",
"d c #775F3F",
"f c #434343",
"g c gray28",
"h c #4B4B4B",
"j c gray31",
"k c gray34",
"l c #5B5B5B",
"z c gray39",
"x c gray42",
"c c #6F6F6F",
"v c #777777",
"b c gray50",
"n c #875733",
"m c #8F5F37",
"M c #9B633B",
"N c #A36B3F",
"B c #836B4B",
"V c #AB6F43",
"C c #B37347",
"Z c #BF7B4B",
"A c #CB7F4F",
"S c #CF8353",
"D c #D78B5B",
"F c #DF9363",
"G c #E79B6B",
"H c #EFA373",
"J c #F7AB7B",
"K c #FFB37B",
"L c #838383",
"P c #8B8B8B",
"I c #939393",
"U c #979797",
"Y c #9F9F9F",
"T c #A7A7A7",
"R c gray67",
"E c gray70",
"W c #B7B7B7",
"Q c gray75",
"! c #FFB383",
"~ c #FFBB93",
"^ c #FFBF9B",
"/ c #FFC79B",
"( c gray78",
") c #CBCBCB",
"_ c LightGray",
"` c gray86",
"' c #DFDFDF",
"] c #E7E7E7",
"[ c #EFEFEF",
"{ c None",
/* pixels */
"{{{{{{{{{{{{{{{{{{{{{{{{{{{{{{{{{{{{{{{{{{{{{{{{{{{{{{{{{{{{{{{{{{{{{{{{2<<v{{{{{{{{{{{{{{{{{{{{{{{{{{{{{{{{{{{{{{{{{{{{{{{{{{{{{",
"{{{{{{{{{{{{{{{{{{{{{{{{{{{{{{{{{{{{{{{{{{{{{{{{{{{{{{{{{{{{{{{{{{{{{{{2223cU{{{{{{{{{{{{{{{{{{{{{{{{{{{{{{{{{{{{{{{{{{{{{{{{{{{{",
"{{{{{{{{{{{{{{{{{{{{{{{{{{{{{{{{{{{{{{{{{{{{{{{{{{{{{{{{{{{{{{{{{{{{{{222223xI{{{{{{{{{{{{{{{{{{{{{{{{{{{{{{{{{{{{{{{{{{{{{{{{{{{",
"{{{{{{{{{{{{{{{{{{{{{{{{{{{{{{{{{{{{{{{{{{{{{{{{{{{{{{{{{{{{{{{{{{{{{222<22<flI{{{{{{{{{{{{{{{{{{{{{{{{{{{{{{{{{{{{{{{{{{{{{{{{{{",
"{{{{{{{{{{{{{{{{{{{{{{{{{{{{{{{{{{{{{{{{{{{{{{{{{{{{{{{{{{{{{{{{{{{{<22222222flI{{{{{{{{{{{{{{{{{{{{{{{{{{{{{{{{{{{{{{{{{{{{{{{{{",
"{{{{{{{{{{{{{{{{{{{{{{{{{{{{{{{{{{{{{{{{{{{{{{{{{{{{{{{{{{{{{{{{{{{3<<2<22<322flU{{{{{{{{{{{{{{{{{{{{{{{{{{{{{{{{{{{{{{{{{{{{{{{{",
"{{{{{{{{{{{{{{{{{{{{{{{{{{{{{{{{{{{{{{{{{{{{{{{{{{{{{{{{{{{{{{{{{{ck<<222223332flU{{{{{{{{{{{{{{{{{{{{{{{{{{{{{{{{{{{{{{{{{{{{{{{",
"{{{{{{{{{{{{{{{{{{{{{{{{{{{{{{{{{{{{{{{{{{{{{{{{{{{{{{{{{{{{{{{{{>cLk2<232323233fkP{{{{{{{{{{{{{{{{{{{{{{{{{{{{{{{{{{{{{{{{{{{{{{",
"{{{{{{{{{{{{{{{{{{{{{{{{{{{{{{{{{{{{{{{{{{{{{{{{{{{{{{{{{{{{{{{{$X,zvk2<2322233333jI{{{{{{{{{{{{{{{{{{{{{{{{{{{{{{{{{{{{{{{{{{{{{",
"{{{{{{{{{{{{{{{{{{{{{{{{{{{{{{{{{{{{{{{{{{{{{{{{{{{{{{{{{{{{{{{{$#X>zvk222333323333jPP{{{{{{{{{{{{{{{{{{{{{{{{{{{{{{{{{{{{{{{{{{{",
"{{{{{{{{{{{{{{{{{{{{{{{{{{{{{{{{{{{{{{{{{{{{{{{{{{{{{{{{{{{{{{{{$$#X>zvl2<2333333333jLT{{{{{{{{{{{{{{{{{{{{{{{{{{{{{{{{{{{{{{{{{{",
"{{{{{{{{{{{{{{{{{{{{{{{{{{{{{{{{{{{{{{{{{{{{{{{{{{{{{{{{{{{{{{{{$$$#X>cvl3233333333ffjbY{{{{{{{{{{{{{{{{{{{{{{{{{{{{{{{{{{{{{{{{{",
"{{{{{{{{{{{{{{{{{{{{{{{{{{{{{{{{{{{{{{{{{{{{{{{{{{{{{{{{{{{{{{{{$##$#X<cLl223333f3ffffhbR{{{{{{{{{{{{{{{{{{{{{{{{{{{{{{{{{{{{{{{{",
"{{{{{{{{{{{{{{{{{{{{{{{{{{{{{{{{{{{{{{{{{{{{{{{{{{{{{{{{{{{{{{{{{,#$###,xck2233f3ffffffgcT{{{{{{{{{{{{{{{{{{{{{{{{{{{{{{{{{{{{{{{",
"{{{{{{{{{{{{{{{{{{{{{{{{{{{{{{{{{{{{{{{{{{{{{{{{{{{{{{{{{{{{{{{{{,$#$##X$YUz223fffffffffjbE{{{{{{{{{{{{{{{{{{{{{{{{{{{{{{{{{{{{{{",
"{{{{{{{{{{{{{{{{{{{{{{{{{{{{{{{{{{{{{{{{{{{{{{{{{{{{{{{{{{{{{{{{{{,##$##flILx323fffffghffjcR{{{{{{{{{{{{{{{{{{{{{{{{{{{{{{{{{{{{{",
"{{{{{{{{{{{{{{{{{{{{{{{{{{{{{{{{{{{{{{{{{{{{{{{{{{{{{{{{{{{{{{{{{{2$##>f,#$cLz333fffhghhgghvR{{{{{{{{{{{{{{{{{{{{{{{{{{{{{{{{{{{{",
"{{{{{{{{{{{{{{{{{{{{{{{{{{{{{{{{{{{{{{{{{{{{{{{{{{{{{{{{{{{{{{{{{{{,$,2$###,cbz33fgghhggjhhjxR{{{{{{{{{{{{{{{{{{{{{{{{{{{{{{{{{{{",
"{{{{{{{{{{{{{{{{{{{{{{{{{{{{{{{{{{{{{{{{{{{{{{{{{{{{{{{{{{{{{{{{{{{>,,###$$#2zvz3ffghgggghhjjcRR{{{{{{{{{{{{{{{{{{{{{{{{{{{{{{{{{",
"{{{{{{{{{{{{{{{{{{{{{{{{{{{{{{{{{{{{{{{{{{{{{{{{{{{{{{{{{{{{{{{{{{{{$>>$$$#$#3lbc3fgggghhhhhjjxTY{{{{{{{{{{{{{{{{{{{{{{{{{{{{{{{{",
"{{{{{{{{{{{{{{{{{{{{{{{{{{{{{{{{{{{{{{{{{{{{{{{{{{{{{{{{{{{{{{{{{{{{{X3>#$$$#$hxvxffgggjhhhjjjkzPQ{{{{{{{{{{{{{{{{{{{{{{{{{{{{{{{",
"{{{{{{{{{{{{{{{{{{{{{{{{{{{{{{{{{{{{{{{{{{{{{{{{{{{{{{{{{{{{{{{{{{{{{{Xg>#$#$#<PcUxffhhjjhjjjjjkxIE{{{{{{{{{{{{{{{{{{{{{{{{{{{{{{",
"{{{{{{{{{{{{{{{{{{{{{{{{{{{{{{{{{{{{{{{{{{{{{{{{{{{{{{{{{{{{{{{{{{{{{{ #g>$$$<j.#UQcgghkhjjkjkkjlxIW{{{{{{{{{{{{{{{{{{{{{{{{{{{{{",
"{{{{{{{{{{{{{{{{{{{{{{{{{{{{{{{{{{{{{{{{{{{{{{{{{{{{{{{{{{{{{{{{{{{{{{X#$g>$,kX>vhcIcghhkklkjjkkklxI({{{{{{{{{{{{{{{{{{{{{{{{{{{{",
"{{{{{{{{{{{{{{{{{{{{{{{{{{{{{{{{{{{{{{{{{{{{{{{{{{{{{{{{{{{{{{{{{{{{{{{{ $2$f#$L,>$xLxhhjkkjkkjkkklxUQ{{{{{{{{{{{{{{{{{{{{{{{{{{{",
"{{{{{{{{{{{{{{{{{{{{{{{{{{{{{{{{{{{{{{{{{{{{{{{{{{{{{{{{{{{{{{{{{{{{{{{{. >fzkI<$##<vvxjhjkkklkklkklxT)U{{{{{{{{{{{{{{{{{{{{{{{{{",
"{{{{{{{{{{{{{{{{{{{{{{{{{{{{{{{{{{{{{{{{{{{{{{{{{{{{{{{{{{{{{{{{{{{{{{{{$. $xx$###$#<cbvjjkkkklkkklllxYQY{{{{{{{{{{{{{{{{{{{{{{{{",
"{{{{{{{{{{{{{{{{{{{{{{{{{{{{{{{{{{{{{{{{{{{{{{{{{{{{{{{{{{{{{{{{{{{{{{{{ X. <<>##$$$>fzbxkjkklkllklzllzT_E{{{{{{{{{{{{{{{{{{{{{{{",
"{{{{{{{{{{{{{{{{{{{{{{{{{{{{{{{{{{{{{{{{{{{{{{{{{{{{{{{{{{{{{{{{{{{{{{$#..X. >2$$$$>,$3lvzkkkkllllllzzlzY)R{{{{{{{{{{{{{{{{{{{{{{",
"{{{{{{{{{{{{{{{{{{{{{{{{{{{{{{{{{{{{{{{{{{{{{{{{{{{{{{{{{{{{{{{{{{{{{$$$X. .  ,3>$$$#$$flcxkklklllllzxzzlE[Q{{{{{{{{{{{{{{{{{{{{{",
"{{{{{{{{{{{{{{{{{{{{{{{{{{{{{{{{{{{{{{{{{{{{{{{{{{{{{{{{{{{{{{{{{{{>$$$$>XX..  22>$$$$#$hzvclllkllllzzxzzxbQb{{{{{{{{{{{{{{{{{{{{",
"{{{{{{{{{{{{{{{{{{{{{{{{{{{{{{{{{{{{{{{{{{{{{{{{{{{{{{{{{{{{{{{{{{#####$$>XX..  22$$$$##>hcvclllklzzzxzxvzcRYvk{{{{{{{{{{{{{{{{{{",
"{{{{{{{{{{{{{{{{{{{{{{{{{{{{{{{{{{{{{{{{{{{{{{{{{{{{{{{{{{{{{{{{#X######$$>XX    2<$$$$$$#hxcczllllzzzxxxxzzR(zj{{{{{{{{{{{{{{{{{",
"{{{{{{{{{{{{{{{{{{{{{{{{{{{{{{{{{{{{{{{{{{{{{{{{{{{{{{{{{{{{{{{XXX######$#$$#.    g<$$$#$##fcvvzlllzzzxxxxxxzP`Pk3{{{{{{{{{{{{{{{",
"{{{{{{{{{{{{{{{{{{{{{{{{{{{{{{{{{{{{{{{{{{{{{{{{{{{{{{{{{{{{{{..XXXmZDZVpe6$>#.   .h,$$$$$#$3xcbzlzlzzxzxxxxxvUWPjg{{{{{{{{{{{{{{",
"{{{{{{{{{{{{{{{{{{{{{{{{{{{{{{{{{{{{{{{{{{{{{{{{{{{{{{{{{{{{{{#..XXmFFDMe%%66{{#   X2,$$$$$#$kvcPxzzzzzxzxxcczcY_Tkfg{{{{{{{{{{{{",
"{{{{{{{{{{{{{{{{{{{{{{{{{{{{{{{{{{{{{{{{{{{{{{{{{{{{{{{{{{{{{{#X..MZFFVi**o%%6<>#   .f,$$$$#$$2bvPczzzxzxxccccccP'Tjh2{{{{{{{{{{{",
"{{{{{{{{{{{{{{{{{{{{{{{{{{{{{{{{{{{{{{{{{{{{{{{{{{{{{{{{{{{{{{XX#.VDFFa4%ooo%%6#$$.  Xf<##$$$##fvxLczxzxzccccccvvv`'kh2332{{{{{{{",
"{{{{{{{{{{{{{{{{{{{{{{{{{{{{{{{{{{{{{{{{{{{{{{{{{{{{{{{{{{{{{{{ X.pCZVa*%ooo &@@464*& #3,$$$$$##3cbPczxxxxcccvvvccI`Rzh2>#X{{{{{{",
"{{{{{{{{{{{{{{{{{{{{{{{{{{{{{{{{{{{{{{{{{{{{{{{{{{{{{{{{{{{{{{{{XXiMmi6*%oo.*6ipaapi666*2,$$#$$$#3PLPvxxxcccvvvcvvcb][vj>X. {{{{{",
"{{{{{{{{{{{{{{{{{{{{{{{{{{{{{{{{{{{{{{{{{{{{{{{{{{{{{{{{{{{{{{{{{,.466*%ooo*6eepnappMnae-h<#$$$$$$<bPLcxxxcccccvvvvbL_)22>. .{{{{",
"{{{{{{{{{{{{{{{{{{{{{{{{{{{{{{{{{{{{{{{{{{{{{{{{{{{{{{{{{{{{{{{{{<$X%o%%oo5666666ppmMMape4f<>$>>>>$<IPIxxccccvvvvvvcxIWPgfh,  {{{",
"{{{{{{{{{{{{{{{{{{{{{{{{{{{{{{{{{{{{{{{{{{{{{{{{{{{{{{{{{{{{{{{{{{>$#.*oO55-*&&==4epnmMaap4j3>>>,>,>2YPLvccvvcvvvcxzPRPlcg,h. .{{",
"{{{{{{{{{{{{{{{{{{{{{{{{{{{{{{{{{{{{{{{{{{{{{{{{{{{{{{{{{{{{{{{{{{{>$##Xo$& .$@&&*6iMVCNmap%jf$$>,,>>3UPIvvvvvvvcczRTf3jf>3,,  {{",
"{{{{{{{{{{{{{{{{{{{{{{{{{{{{{{{{{{{{{{{{{{{{{{{{{{{{{{{{{{{{{{{{{{{{e4o%.@;o  $&@*6iMCSAVMn6Xzvzg<,,<>hQbIbvcvcccb)Y<f#   #2<$ {{",
"{{{{{{{{{{{{{{{{{{{{{{{{{{{{{{{{{{{{{{{{{{{{{{{{{{{{{{{{{{{{{{{{{{pVCi4*o#=o  ooO6pnNCSDSCMe $,2gcvbxh2IEjxvvcccUQk,<  .#XX$<,X{{",
"{{{{{{{{{{{{{{{{{{{{{{{{{{{{{{{{{{{{{{{{{{{{{{{{{{{{{{{{{{{{{{{{{MDZMe**oo#X ooo9pnmVCADFFC6.. X>$>><gzUYP<jcvzU)f<#  $#><  ,,${{",
"{{{{{{{{{{{{{{{{{{{{{{{{{{{{{{{{{{{{{{{{{{{{{{{{{{{{{{{{{{{{{{{{MDZMi44*o  ##.@-iamMCCSGHHFnXXX #,>$$,$##jf<3vvv3>  X#<,.2,..3,,{",
"{{{{{{{{{{{{{{{{{{{{{{{{{{{{{{{{{{{{{{{{{{{{{{{{{{{{{{{{{{{{{{{pVZMp6*%ooo  #%-ipnMVCAG~!!JC6##X #<>$,$>,3z2$,kf$  #$$ <#.f$ #f>{",
"{{{{{{{{{{{{{{{{{{{{{{{{{{{{{{{{{{{{{{{{{{{{{{{{{{{{{{{{{{{{{{{pMMie*%o%   o@47pnMMVCD~!^^^DsX##X .$$>,$,,lf,#$  X$X$3.X<.#2#.,,X",
"{{{{{{{{{{{{{{{{{{{{{{{{{{{{{{{{{{{{{{{{{{{{{{{{{{{{{{{{{{{{{{{eii6;*ooo  o&*riamMMVSGHJJ~!^V*#$#X .$#>$>>fj<,X ##$< ><.$< ><XX3X",
"{{{{{{{{{{{{{{{{{{{{{{{{{{{{{{{{{{{{{{{{{{{{{{{{{{{{{{{{{{{eaMMp6**ooo    @@-7samMVCSSFGGHJJZr$>3$. ##$$$$>j<<>X#..g# ,$ <>.<$X,$",
"{{{{{{{{{{{{{{{{{{{{{{{{{{{{{{{{{{{{{{{{{{{{{{{{{{{{{{{{{{eaMMi*%oooo    o@@-6pnmNCASDSSFGHHFn,,$X...#$$$$#f3,,>X. $f..2#.2#X#X,{",
"{{{{{{{{{{{{{{{{{{{{{{{{{{{{{{{{{{{{{{{{{{{{{{{{{{{{{{{{{pMVai**%oo       .@4ipnNCAASDAZASDFHV=#...  ##$#$#$g>>>$X#.$g.X2.#$.X$,{",
"{{{{{{{{{{{{{{{{{{{{{{{{{{{{{{{{{{{{{{{{{{{{{{{{{{{{{{{{6MCme**ooo    XXX .&6iaMCCAASSSAZASSGSi&.  X.X#$###$<,>>>$XX << #,..#,>.{",
"{{{{{{{{{{{{{{{{{{{{{{{{{{{{{{{{{{{{{{{{{{{{{{{{{{{{{{{{6ape4%ooo   XXXXX @*6iaNVCAAASZCAASADFVi& X##.$#$###$<,$$$##X.f# .X$,#.{{",
"{{{{{{{{{{{{{{{{{{{{{{{{{{{{{{{{{{{{{{{{{{{{{{{{{{{{{{{64ei*oooo   ####XX.%-5imNCZCVZCVVCZZAADmme@X#X.#$##$##X3$$$##X...X#,>X{{{{",
"{{{{{{{{{{{{{{{{{{{{{{{{{{{{{{{{{{{{{{{{{{{{{{{{{{{{{{6ae**o%o    $>>$#XX.&*7iaNCVCCVVVCZVAASDMMm4@..X.$$#### ,<$$#X.#X#$$#{{{{{{",
"{{{{{{{{{{{{{{{{{{{{{{{{{{{{{{{{{{{{{{{{{{{{{{{{{{{{{iae**%%o    ><,,,$#X.&57pamVCNmmmZZASSAZAMaNp*o.Xo.>$###..>>##X.####{{{{{{{{",
"{{{{{{{{{{{{{{{{{{{{{{{{{{{{{{{{{{{{{{{{{{{{{{{{{{{{iMp4*%%o    <<2<2,$$Xo&4eiamMmpanNZSFGDSZZZMmmi&oXoX#$#X## .$$#.##X{{{{{{{{{{",
"{{{{{{{{{{{{{{{{{{{{{{{{{{{{{{{{{{{{{{{{{{{{{{{{{{{{eaeooo    22<2233<>##o%=7panaiepmZSGGGHDZVZmNVi6&oooX$$#XX# .$XX#.{{{{{{{{{{{",
"{{{{{{{{{{{{{{{{{{{{{{{{{{{{{{{{{{{{{{{{{{{{{{{{{{{{66*o o ok232ff32<<>$.oo=6ippe46pMCAFGJGGACAMMNai4%oo.X$#X##. X##X{{{{{{{{{{{{",
"{{{{{{{{{{{{{{{{{{{{{{{{{{{{{{{{{{{{{{{{{{{{{{{{{{{{{%oo o.$2<f233322<$$oo=*67r764epMMCZSGGSAVCNMVNai4*@oooo#XX#X{{{{{{{{{{{{{{{{",
"{{{{{{{{{{{{{{{{{{{{{{{{{{{{{{{{{{{{{{{{{{{{{{{{{{{{{>># gxf<2<fg3<2<<<,o*44447e6ipaMVMVVAFAZZZVMMMVmpe4*&@@*{{{{{{{{{{{{{{{{{{{{",
"{{{{{{{{{{{{{{{{{{{{{{{{{{{{{{{{{{{{{{{{{{{{{{{{{{{{$$X fc3223f22233<,,<o=6466eppnMMVZCZNVCSZVVZMamCCMnpe97=**{{{{{{{{{{{{{{{{{{{",
"{{{{{{{{{{{{{{{{{{{{{{{{{{{{{{{{{{{{{{{{{{{{{{{{{{{>$# fz2f2<2fj2<2<<22o.+&=-=%47pnmCCCAACVVVVVVCaCCCCMMnni66;{{{{{{{{{{{{{{{{{{{",
"{{{{{{{{{{{{{{{{{{{{{{{{{{{{{{{{{{{{{{{{{{{{{{{{{{$># <Pg<2<g322232<<32%&o+%&&4666ppnnmVCACCVVVVVmAAMNNNNMpii7{{{{{{{{{{{{{{{{{{{",
"{{{{{{{{{{{{{{{{{{{{{{{{{{{{{{{{{{{{{{{{{{{{{{{{{,>$ <cg<j322<f3223<gk#.=*6e7iipnnNCVVNMCVCAVNCZCMZZNMNNCNnie4{{{{{{{{{{{{{{{{{{{",
"{{{{{{{{{{{{{{{{{{{{{{{{{{{{{{{{{{{{{{{{{{{{{{{{<># >zk3332hf22<2223x< &*67ipaaamNNNAAZACMVCACCVNMCCmmMMVnnnp{{{{{{{{{{{{{{{{{{{{",
"{{{{{{{{{{{{{{{{{{{{{{{{{{{{{{{{{{{{{{{{{{{{{{{<,# >x323hh2h<33<<32zh  o&-4666pnMMVMCVCSACMVCVVVMMNNnMMNNnpe4{{{{{{{{{{{{{{{{{{{{",
"{{{{{{{{{{{{{{{{{{{{{{{{{{{{{{{{{{{{{{{{{{{{{{>>$ $zh333j23g<332<<fzX #oX=-667eennnMCCCCAAACNVVVVMmmNnMnme*{{{{{{{{{{{{{{{{{{{{{{",
"{{{{{{{{{{{{{{{{{{{{{{{{{{{{{{{{{{{{{{{{{{{{{>$$ #bf>,,,32f3232<jhz$  o&67iapaaaipppnACaCADFSNVMMMmmmmmaa7%{{{{{{{{{{{{{{{{{{{{{{",
"{{{{{{{{{{{{{{{{{{{{{{{{{{{{{{{{{{{{{{{{{{{{{>$ #g3>h``2h33<2ff<3z3  o46ipNVVNMNmapnnmMMMnCSDSMmmnmmmmmai74{{{{{{{{{{{{{{{{{{{{{{",
"{{{{{{{{{{{{{{{{{{{{{{{{{{{{{{{{{{{{{{{{{{{>$$.Xjk$2Y_E223f3<<,jzz  @47ipCAZMMMMnmmMNNMMMNMnZMMmmnannnppie{{{{{{{{{{{{{{{{{{{{{{{",
"{{{{{{{{{{{{{{{{{{{{{{{{{{{{{{{{{{{{{{{{{{>$> #hk22,YTU322<233<xU# &*eiaVSSMaapmNNNmnnppnnVVVVmNNnaanaipie{{{{{{{{{{{{{{{{{{{{{{{",
"{{{{{{{{{{{{{{{{{{{{{{{{{{{{{{{{{{{{{{{{{{>$$.333g2#klf#333<23zP#  *epanVCSZnMMVVNaappipnaNZZSZmMnpiaai64.{{{{{{{{{{{{{{{{{{{{{{{",
"{{{{{{{{{{{{{{{{{{{{{{{{{{{{{{{{{{{{{{{{{{>$$.,<2j22##<<<2223lI$ o@6paammMVVZZSVVmmNMZNMZZZSZSFNNmieeiee%{{{{{{{{{{{{{{{{{{{{{{{{",
"{{{{{{{{{CZVNp6{{{{{{{{{{{{{{{{{{{{{{{{{{{$$$.#<<fjf22<23<,2xP#.2o@67i4pnnVFGGGZVAVVNMMMVVVNZFGZnNaieee=4{{{{{{{{{{{{{{{{{{{{{{{{",
"{{{{{{{{{SSNmip{{{{{{{{{{{{{{{{{{{{{{{{{{{{>$$.><2f22f2,f3<zbX.g3o*=46emnNAHGJZVnpnmaeipieiamDHSMNanppe={{{{{{{{{{{{{{{{{{{{{{{{{",
"{{{{{{{{CSSVeipi{{{{{{{{{{{{{{{{{{{{{{{{{{{>$$XX<,g3<3222<vc.#j2#@&&eanMVZSZZmnnanNZCAMmai7e7NGDNmmMnp6&{{{{{{{{{{{{{{{{{{{{{{{{{",
"{{{{{{{{ADZViipp6{{{{{{{{{{{{{{{{{{{{{{{{{{>$$$.#23gf<<f3jxX$jf>.@&rMVMNVNmmmmVCAAAZAAAZZZNa6nZDNVMVn6-&{{{{{{{{{{{{{{{{{{{{{{{{{",
"{{{{{{{ZSZMpi6eep{{{{{{{{{{{{{{{{{{{{{{{{{{{>$$# 22fj2<<kx.<l2#<#&nNmmVNninCSFDDGCMNMmMmnMVNVmNCCMVVe4&@{{{{{{{{{{{{{{{{{{{{{{{{{",
"{{{{{{ZGZappie6ei{{{{{{{{{{{{{{{{{{{{{{{{{{{{$$>XXf33<jLf.2lf<.#&pNMnMmapNFFFDZNMr7e96eeiipnnnnaNCVC4*&{{{{{{{{{{{{{{{{{{{{{{{{{{",
"{{{{{AFpepipei66i{{{{{{{{{{{{{{{{{{{{{{{{{{{{>$$$ >fflb$.jv<$x>.*nMpaMmMZDCVMdpree7944*;;49eiMNanNMV4=&{{{{{{{{{{{{{{{{{{{{{{{{{{",
"{{{{pFD7mapai66-6{{{{{{{{{{{{{{{{{{{{{{{{{{{{,$$$# fPj ,zxgjX$j$6niiaMZZCBapsiamNCNnppp;#o*7epVMpmnM4={{{{{{{{{{{{{{{{{{{{{{{{{{{",
"{{{{nSCACnampa666{{{{{{{{{{{{{{{{{{{{{{{{{{{{2,$$$.#$#kzk,>Lf#$$6wtnaVVmiepmZZSFGGGGFACCCnr647mZmmMe64{{{{{{{{{{{{{{{{{{{{{{{{{{{",
"{{{{MMGSCnnmiaiipp{{{{{{{{{{{{{{{{{{CFFFDD{{{{<$$>#.,jf,>2#<c>XX8rpaaaanaCADFFHHJJ!JJGGFDAZa46iMVNm;4{{{{{{{{{{{{{{{{{{{{{{{{{{{{",
"{{{{NZGFGZZACa6ippi{{{{{{{{{{{{{{{GGZCmmZAD{{{$$$$>fg,>>>L<#f,##-eiienNZDGHGHH!!!JJ!JHHGGGDZNeenZVp&{{{{{{{{{{{{{{{{{{{{{{{{{{{{{",
"{{{{MADFFGHDAMepiiei{{{{{{{{{{{{MFVCnnapCAH{{{{>$>f<$$$.$kj$$3#$66766MZFHJJJJJJ!!JJJJJJGGGGFAMaimNs4{{{{{{{{{{{{{{{{{{{{{{{{{{{{{",
"{{{{{ZFFGHHJDCpieiep6{{{{{{{{{FCMapie6einMC{{{{>>$$#$$,.#3j<#<$o6666iVSH!JJHJJJJJJJJJJHHGGGFDANpanm7{{{{{{{{{{{{{{{{{{{{{{{{{{{{{",
"{{{{{MGFGHGJ~Ci6ee66ii{{{{{{{FVe6eeeee6iin{{{{{{<$$$$>,$X<fg$##&=--7nVDJJJJHJJJ!JJJJHJGGHGGFFSVniap7{{{{{{{{{{{{{{{{{{{{{{{{{{{{{",
"{{{{{MGGFFHHGM6&-66e6enV{{{{DFDAo@666666ia{{{{{{{ ,>>,,,X$<k2#.*=&69NCDHJHHJJJJ!!JJ!JHGFHGGFFAZNi7e%{{{{{{{{{{{{{{{{{{{{{{{{{{{{{",
"{{{{{{FDDFFAVi6&@&6666epap6MVZAZFZo@--eee{{{{{{{GC.<,,>,#X><j>#&&$7pCDHHHHJJJJJJJJJJJHHFGHGFFFDSe;;;{{{{{{{{{{{{{{{{{{{{{{{{{{{{{",
"{{{{{{mDSDDNMi-@=-6eeeeiapMNCZDSSFn&o-ee{{{{{{{HmaX.2,>>>X#><j$.$,inZZGJHHJJJ!JJJJJJJJHGGGGGFGFDM6;6{{{{{{{{{{{{{{{{{{{{{{{{{{{{{",
"{{{{{{nVZSAie-@o&6666e7paannnVCZVVCZ.&p{{{{{{JDi6&@  3>>>>.$$ff#X4imCZFHHJJJ!!!!!JHJJJJGFHGFFFGGZq4*{{{{{{{{{{{{{{{{{{{{{{{{{{{{{",
"{{{{{{{mNSMi6-&-5665--eiaamNNmZCCVVa@&{{{{{NGSM6-@@@..>,>>$.$#j2#,iMCDGHJJ!J!!JJJJHJJJJHFGGFFFGHDmeo{{{{{{{{{{{{{{{{{{{{{{{{{{{{{",
"{{{{{{{pnppepei7e66&&&-7eiaamNCACZmpn{{{{{Gn6=&@ooooo#.#>>$#.$$z>XpVCGGJJJJJJJJJJJJJJJJHGGGGFFFJDVi4{{{{{{{{{{{{{{{{{{{{{{{{{{{{{",
"{{{{{{{6p66iaiae766&&&=67eiimmCZDCnp{{{{{pna=.@oooooo&  #>$$ X#$h<nCSDHKJJHKJJ!!!JHJJHJJGGGGGFAFFCp={{{{{{{{{{{{{{{{{{{{{{{{{{{{{",
"{{{{{{{{ie6enamap76===---67eeinNDAZ{{{{{i6--&o.oooo@@6{..X$$#.X#$,pNZFJJJJH!JJ!!JJHJHHHGGGGHHFDDDZmq{{{{{{{{{{{{{{{{{{{{{{{{{{{{{",
"{{{{{{{{epi6nmNmaie-------67eeamZDJ{{{{i76=-&&o.ooo@-{&XX.#$$#X...aMAGJJJHJ!JJ!JJJHJHGGGGFFGGFSFDCdpr{{{{{{{{{{{{{{{{{{{{{{{{{{{{",
"{{{{{{{{{pi6iMZVmni76-------7eeimZSD{{ppii7e---&&ooi{&@&X# #$$$#X.NAFHJJHH!JJJJJHJJJJHHGGGGHGDGSDAadr{{{{{{{{{{{{{{{{{{{{{{{{{{{{",
"{{{{{{{{{iminNAZVma766------6777imZZ!ppppi7e66-ee.&{&@&@@X#.X##X#{pDHJHHJJ!JJJJHJHHJJHHGGGGHGFDDAVmirh{{{{{{{{{{{{{{{{{{{{{{{{{{{",
"{{{{{{{{{{ianMACZNmi776---------6emVZDppppe66666e6{@@@@@@@X$X.XX{{mADGHJJJJJJJ!JJJJJJJHHGHGFGFDDSAairr{{{{{{{{{{{{{{{{{{{{{{{{{{{",
"{{{{{{{{{{eanCCZZVmiie76--------67amZZDieepe67eep{H=&ooo@@@@##e{{{{CAGHHJHJJ!!!!JJJJJJJHGFGFFGFDDZMai08{{{{{{{{{{{{{{{{{{{{{{{{{{",
"{{{{{{{{{{ipmMVACCVmaiee76-------6eimVDDieeeeee={Gn67oooo@@&--{{{{{CSHJHHJ!J!!!JJJHJJJHHGFFDDGFDAZVmii6{{{{{{{{{{{{{{{{{{{{{{{{{{",
"{{{{{{{{{{{pVMMCAZVNmmiie7---===---6eaNZSipee66{Vi6&&=eo.@&6e{{{{{{ZFGJHH!JHJJ~JJJJJHJHHFFGFFDFSSSMNae9&{{{{{{{{{{{{{{{{{{{{{{{{{",
"{{{{{{{{{{{pZNMMVCZNNmaie6--=====---7enNDZpie6{Gne6&&&6@o@&e{{{{{{{SGGGHJJJJJJ!J!JJJHJHGFFGGFFDDDZCNnee5{{{{{{{{{{{{{{{{{{{{{{{{{",
"{{{{{{{{{{{iSVappMCCCVna7---======---6eiNVmaa{Ae6&==--666&6{{{{{SGGADHHJJHJJJJJJJJHHHJHGGFGGDFDDDZZNnri7{{{{{{{{{{{{{{{{{{{{{{{{{",
"{{{{{{{{{{{pZVn6iaVZZCmn7---=======---7emNMnana6-&&==-6ee={{{{{aiNZSFGHJ!JJJJJJHHHGHHHHHGFFGDDFADZAVNnie5{{{{{{{{{{{{{{{{{{{{{{{{",
"{{{{{{{{{{{{aAM-6iNGGFZme7--========---6inCmm7e6-===666e6{{{{6&&&iaASGH!!JJJHHHHGHGGHHJHGGFGFFDDSZZVMmie9{{{{{{{{{{{{{{{{{{{{{{{{",
"{{{{{{{{{{{{aGM=6emGJGDVi7--==========-6eaCMaaie76=-e6-6{{{{6@&&&6pZSGGJ!!J!HHHHHGGGGHHGGDGFGFDFSZZVMmp76,{{{{{{{{{{{{{{{{{{{{{{{",
"{{{{{{{{{{{{aSZ6&-nG^^FZi7--==========--6imNmnnpp7667=e{{{{@&&@oo@&CSSG!!!JJJHHHHHGGHGGGFFFGHFDFSSZCVNmi9={{{{{{{{{{{{{{{{{{{{{{{",
"{{{{{{{{{{{{pDSp&emH^/GZi7--===========-66mNMnnp7e7666{{{{o&@@@o.o.MSFGJJJJJJHHHHGGGGGGFFFFGFFDDSSCCVMMpe4o{{{{{{{{{{{{{{{{{{{{{{",
"{{{{{{{{{{{{pAHMiaH///DCpi--============--imNmiipe6-6{{{o@o@@@o.ooo-SSFHJJJJJHHGGHGGHGFDDFFFDDSSZZCCVMMae9*{{{{{{{{{{{{{{{{{{{{{{",
"{{{{{{{{{{{{-MDp7nSJ//GDMii6-============-inNNmiie6e{{{epoooooooo@@eAFGGJ!JHJHGGGGGGHGFFFFFDDDAZCNNMNMMnp7;{{{{{{{{{{{{{{{{{{{{{{",
"{{{{{{{{{{{{&7eeiiiii77anNNar--=========--6eNCZpee6{{{enp6-..oo@@-6{DGGJ!JHJJHGGFGGGGGFFFFGFDDSZVNMMMMMne94o{{{{{{{{{{{{{{{{{{{{{",
"{{{{{{{{{{{{=67mmmm7-@&@-6ripi6-========---7mZZnaa{{{pnee&&@.oo@&6{{SFGJ!JJHHGGGGGGGGGFFFFFFDDSZVVMMMMMa790&{{{{{{{{{{{{{{{{{{{{{",
"{{{{{{{{{{{iNCFFG//SZm-&oo--667--======----6imNCa{{eppie6=&===&-7{{{SFGJ!!JHHFGFGGGGHHGGFFFFDDDZZVMMMMMMre8o{{{{{{{{{{{{{{{{{{{{{",
"{{{{{{{{{{{7eepmpeieaMNMi&@o&----=======---6eaNDNNmpppi66-&&---6{{{{ASGH!JJHGFGGGGGGHGGFFFFFFDAZZVVVMMMnpq7;{{{{{{{{{{{{{{{{{{{{{",
"{{{{{{{{{{{epnNVp7=oo&-iCm7@o&-=========----eaNGFFFmiieee--&--@{{{{{ZDFGJ!JHGFFFGGGGHGGFFFFFFSSZZZVMMMMMaie0={{{{{{{{{{{{{{{{{{{{",
"{{{{{{{{{MZZZH~HFCp&..o&6mnn@#--=-=======---eiaZDJFZmieee66-=o{{{{{{SDFGJ!JHGFDGFGGGGGGFFFFFDADAZZVVMMMMnnir0{{{{{{{{{{{{{{{{{{{{",
"{{{{{{{{{a7iepmnNASVmpee&6epm6&66---======--7iaZFJ^HDpe6666-={{{{{{{SDFG!!!HGFDFFFGGGGGFFFFDSSACZZCVMMMMNaner;{{{{{{{{{{{{{{{{{{{",
"{{{{{{{{{&&&eeemmnnnnNppe666ani66ii6----==--7eiNCFFJJZni6i6&{{{{{{{{CSFGJ!JHGGDDGFGGHGGGFFFDAAZAZCVVVMMMNmape9{{{{{{{{{{{{{{{{{{{",
"{{{{{{{{{&&&7emNNNNVNmnmmapeepn66eane6--==--6eemVZFHJAnipe6{{{{{{{{{ASGH!!JHGGFDFFGGGGGFFFFFDAZCZCVVMMMNNMmprrq{{{{{{{{{{{{{{{{{{",
"{{{{{{{{&&&67MCMmVVZZSFFZZZVmpii77eani6--==--67amCZGGFCnni{{{{{{{{{{ZDFGJ!JHGFFFGGGGHGGFFDDFDAZZZCCVNMMMVMmnprr={{{{{{{{{{{{{{{{{",
"{{{{{{{&&enMCCMnimmMMMmVimNNSFZAVm7inai---=--67imVZGGDZnni{{{{{{{{{{SDFGJ!JHGFDGFGGGGGGFFFFDDSAZZZCVNMMMVMmairr1{{{{{{{{{{{{{{{{{",
"{{{{{{&7-einMCDDCCCMneeemaiipNNSAAAmiia76----66eaNNZDZZCV{{{{{{{{{{{ADFG!!!HGFDFFFGGGGGFFFFDFSSZZZVVVMMMNVmaperq<{{{{{{{{{{{{{{{{",
"{{{{{{=e-eiinMCZZASDFJJGCmaiiaimVVAAMmiae6----67imVCCVVCn{{{{{{{{{{{CSFGJ!JHGGDDGFGGHGGGFFFDADAAZCCVVMNMMVNnpisq:{{{{{{{{{{{{{{{{",
"{{{{{{&=-6ppnnnnmNVCSFJJHFDCMn66mmVNAVniaa66---67amNMNCVm{{{{{{{{{{{ZSDGH!JHGGFDFFGGGGGFFFFFSASSSZCCVVNNMNVMnip7y{{{{{{{{{{{{{{{{",
"{{{{{{&&----7777ennnnMVSSGJJSCMniiimNAANiNVe6---7ianMMMa{{{{{{{{{{{{mSDGH!!HGFDFFFGGGGGFFDDFDDASZZZVCVVVMNNNmapir&{{{{{{{{{{{{{{{",
"{{{{{{=7iinnVVmnnnneeeei-emVSSAAn66imNADVNDVe6---iappMnn{{{{{{{{{{{{BDFGJ!!HHGDDFFGGGGGFDFDDDASSZZCVVVVVVMNNMnapu9{{{{{{{{{{{{{{{",
"{{{{{{5iFFFFFFFFFFFFFJnnMe--pVSDDCni6iiMDDDVp7---iappMn{{{{{{{{{{{{{CAGHJ!JJGGGAGFGGGGGFDFFSFSSSAZZVVVVVVNNNMmaair={{{{{{{{{{{{{{",
"{{{{{{*NFGGFFGGGFGHJJJJJJNie-enNDAACa667MCZNp7---aapMnn{{{{{{{{{{{{{ASFGJJ!HGGGFFFFGGGFSFSFDSSSSAZZCVVVVVNMMMMaapr7{{{{{{{{{{{{{{",
"{{{{{5MDHGFFFGGGGHHJJJJ!!!Ji7-=nNNAFCai67mNnp7--iapMnn{{{{{{{{{{{{{{MSFGH!J!HGFSFFGGGGGFSFDSSSSSSZZCVVVNVVMMMMnpppr&{{{{{{{{{{{{{",
"{{{{6aCFHGFFFGHFGJJJJJJJJJ!KH7-enmmCFCCa-pMnp7iipppn6{{{{{{{{{{{{{{{pSSFH!JHHGGAFFGGHGGSFDFSSSSSSZZZCVVNVVNMMMmape9,{{{{{{{{{{{{{",
"{{{9iMSFFFFFGGGGHJJJJHJJJJJJHH==eaamCFZCe-enp7pppp66{{{{{{{{{{{{{{{{{ASGG!!JGGSFFFFGHHGFDFSFASSSSSZZCVVNVVCMNNMMpi7;{{{{{{{{{{{{{",
"{{{imCSDDDGGGGGGHJJJJHJ!!!!JJJH$$6eemCCSp--ee66666.{{{{{{{{{{{{{{{{{{AFFHJ!JHGFDFFGGHHGGFDFSSSSSSSAZZVVVNVVMNNCNnpr9<{{{{{{{{{{{{",
"{*ppMCDFDFHHGGGHJJJJJJJJJ!!!JJJHD==eeMMVC6-=-&...{{{{{{{{{{{{{{{{{{{{SDGJ!!JHGGDFFGGGHGGFFFDDSSSSSAZZZVVNMVVMNNVmapir@{{{{{{{{{{{",
"{*6aNZDFSFGGFGGGHHJJHJJJJJ!J!JJJHD$-6ppmMe&&&.{{{{{{{{{{{{{{{{{{{{{{{SFHH!JJHGGFDGFGGHGGGSFDDSSSSAASACCVVNVVMNCMNnppq6{{{{{{{{{{{",
"2rpMVSDDDFGGFFGGGHHJHJ!!!JJJJJJHHDV$6iiamp&&&.{{{{{{{{{{{{{{{{{{{{{{{ADGJJJJHGFDFFFGGHGGDDDFDSSSASSSZZCVVVNVMNNCMaapi9={{{{{{{{{{",
"3pNVCZSDFFHGGGGGGGHJHJJ!!JJ!HJJJGFVN$eeiie&&.{{{{{{{{{{{{{{{{{{{{{{{{VDHHJJ!JGGFDFFGGHGFDDFDDSSSSSSSZZZVVVVVCMMVNmapir4{{{{{{{{{{"
};
