/* XPM */
static char *STPOC0[] = {
/* columns rows colors chars-per-pixel */
"86 86 77 1 ",
"  c #070707",
". c #0B000B",
"X c #0B0B0B",
"o c #170F07",
"O c #0B1707",
"+ c #171F07",
"@ c #1F170B",
"# c #170017",
"$ c #131313",
"% c #1B1B1B",
"& c #232B0F",
"* c #332B13",
"= c #2F371F",
"- c #220023",
"; c #2E002F",
": c #3A003B",
"> c #232323",
", c #272727",
"< c #2F2F2F",
"1 c #373F27",
"2 c #373737",
"3 c gray23",
"4 c #3F472B",
"5 c #474F33",
"6 c #53573B",
"7 c #460047",
"8 c #510053",
"9 c #69006B",
"0 c #434343",
"q c gray28",
"w c #4B4B4B",
"e c gray31",
"r c gray34",
"t c #5B5B5B",
"y c #5B6347",
"u c #676B4F",
"i c #6F7357",
"p c gray39",
"a c gray42",
"s c #6F6F6F",
"d c #7B7F63",
"f c #777777",
"g c gray50",
"h c #9F876F",
"j c #A78F77",
"k c #800083",
"l c #98009B",
"z c #B000B3",
"x c #C700CB",
"c c #DF00E3",
"v c #FB1BFF",
"b c #FB37FF",
"n c #FC53FF",
"m c #FC73FF",
"M c #838383",
"N c #8B8B8B",
"B c #939393",
"V c #979797",
"C c #9F9F9F",
"Z c #A7A7A7",
"A c gray67",
"S c gray70",
"D c #B7B7B7",
"F c gray75",
"G c #FD8FFF",
"H c #FDABFF",
"J c gray78",
"K c #CBCBCB",
"L c LightGray",
"P c gray86",
"I c #DFDFDF",
"U c #FEC7FF",
"Y c #E7E7E7",
"T c #EFEFEF",
"R c #FFE7FF",
"E c white",
"W c None",
/* pixels */
"WWWWWWWWWWWWWWWWWWWWWWWWWWWWWWWWWWWWWW%>%$X$OXXXWWWWWWWWWWWWWWWWWWWWWWWWWWWWWWWWWWWWWW",
"WWWWWWWWWWWWWWWWWWWWWWWWWWWWWWWWWWWWw2<%XX XXX    WWWWWWWWWWWWWWWWWWWWWWWWWWWWWWWWWWWW",
"WWWWWWWWWWWWWWWWWWWWWWWWWWWWWWWWWWWrCw$X    X X   XWWWWWWWWWWWWWWWWWWWWWWWWWWWWWWWWWWW",
"WWWWWWWWWWWWWWWWWWWWWWWWWWWWWWWW  $NJfX        X$ XX  WWWWWWWWWWWWWWWWWWWWWWWWWWWWWWWW",
"WWWWWWWWWWWWWWWWWWWWWWWWWWWWWWW  $tFp  X$$XX$%$  $XX   WWWWWWWWWWWWWWWWWWWWWWWWWWWWWWW",
"WWWWWWWWWWWWWWWWWWWWWWWWWWWWWW   >a%%p3$XXXX   X$X X    WWWWWWWWWWWWWWWWWWWWWWWWWWWWWW",
"WWWWWWWWWWWWWWWWWWWWWWWWWWWWWXX$ $ $SrX    OX    %X      WWWWWWWWWWWWWWWWWWWWWWWWWWWWW",
"WWWWWWWWWWWWWWWWWWWWWWWWWWWW$$$$   ft%           X>$      WWWWWWWWWWWWWWWWWWWWWWWWWWWW",
"WWWWWWWWWWWWWWWWWWWWWWWWWWW><$$X  <0$  $2<%$$$     <X      WWWWWWWWWWWWWWWWWWWWWWWWWWW",
"WWWWWWWWWWWWWWWWWWWWWWWWWW0<%$$  $<$ >w3%X XXXX%$  XX       WWWWWWWWWWWWWWWWWWWWWWWWWW",
"WWWWWWWWWWWWWWWWWWWWWWWWW0t%$$$  $% 33%X   XX  X%>  X        WWWWWWWWWWWWWWWWWWWWWWWWW",
"WWWWWWWWWWWWWWWWWWWWWWWWpM<$$$$  X 32$     XX   X$>           WWWWWWWWWWWWWWWWWWWWWWWW",
"WWWWWWWWWWWWWWWWWWWWWWWWNM$X      32$      .     X$,       X  WWWWWWWWWWWWWWWWWWWWWWWW",
"WWWWWWWWWWWWWWWWWWWWWWWX3  X>3<%X%>$  .-:7777;.   X%%          WWWWWWWWWWWWWWWWWWWWWWW",
"WWWWWWWWWWWWWWWWWWWWWWW$ tN002>% $$  #;8kklllk8;#  X$XX%$%><$ XWWWWWWWWWWWWWWWWWWWWWWW",
"WWWWWWWWWWWWWWWWWWWWWWX rA$$$$$$ X .#78998887777;#. X   XXXX$X  WWWWWWWWWWWWWWWWWWWWWW",
"WWWWWWWWWWWWWWWWWWWWWW <S%$$$$$X  .-:77;%%%>>%#-;;#.      X.X$  WWWWWWWWWWWWWWWWWWWWWW",
"WWWWWWWWWWWWWWWWWWWWWX$B<%$$$$$X #-;-$2etttttr3%X--#        XX$  WWWWWWWWWWWWWWWWWWWWW",
"WWWWWWWWWWWWWWWWWWWWW g3>%%%$$$X ##.rfNBBNMgftw2%$##.          X WWWWWWWWWWWWWWWWWWWWW",
"WWWWWWWWWWWWWWWWWWWW w0<>>%%$$$X.. 3JKACNgsptr3>$$X..          XX WWWWWWWWWWWWWWWWWWWW",
"WWWWWWWWWWWWWWWWWWWW<3222>$$XXX.  p$YPg022<<300>$$  ..          X WWWWWWWWWWWWWWWWWWWW",
"WWWWWWWWWWWWWWWWWWWX223r2X ...   rA JM%      X$%XX      ..       X WWWWWWWWWWWWWWWWWWW",
"WWWWWWWWWWWWWWWWWWW><2er .;898;. AK 2X                #777;#       WWWWWWWWWWWWWWWWWWW",
"WWWWWWWWWWWWWWWWWWX><raX#7kllk9#<SA    :77- k87      $#kkkk7#       WWWWWWWWWWWWWWWWWW",
"WWWWWWWWWWWWWWWWWW$>0pX;899kk9# wBt  ::80l9;z9897    X ;77897-.     WWWWWWWWWWWWWWWWWW",
"WWWWWWWWWWWWWWWWW >3p$-77;-;;# %t3  7<0ttbzlvlklk7   X<   #;7:#      WWWWWWWWWWWWWWWWW",
"WWWWWWWWWWWWWWWWWX2a%#;;#. XXXX<r$ 72attvbbbnxzzzk7 X$2XXXX #;;#     WWWWWWWWWWWWWWWWW",
"WWWWWWWWWWWWWWWWW%0%###. XXXXXX0< 9<BNfbvbnnUvvxbzl8 X>$7;$XX.###    WWWWWWWWWWWWWWWWW",
"WWWWWWWWWWWWWWWWO<$### XXXXXXXX0$ 9NTYmbbmURRmbvbbzk X%-997;$XX.#.    WWWWWWWWWWWWWWWW",
"WWWWWWWWWWWWWWWW>%... XXX$$%&@+2X.9LEEmbbREEEHnnnnnz. $X;;$$-$XX..    WWWWWWWWWWWWWWWW",
"WWWWWWWWWWWWWWW $ .  XXX&4=+XXX%X#kAEInvbREEEUGGmnnb  $    XXX$XX      WWWWWWWWWWWWWWW",
"WWWWWWWWWWWWWWW     XXX5$      $X#9BPalvbUEEEGUGGmmm  X       XXXX     WWWWWWWWWWWWWWW",
"WWWWWWWWWWWWWWW     X$5  $ti4*&%X#;NF97zmmHRUGbHGmGV. XO%$+X   XXX     WWWWWWWWWWWWWWW",
"WWWWWWWWWWWWWWW    XX5  VV611&&%-.XNS$8nbbbUGmm9VmmB-:X;97%$$X   XX    WWWWWWWWWWWWWWW",
"WWWWWWWWWWWWWWW    X>  LVi411&&>: $fZ8nxvbmRRGGm%agCl.X$9k97%$X   X    WWWWWWWWWWWWWWW",
"WWWWWWWWWWWWWWW   XX $IAdu411&&08 7fZbzxbnRGRHGGb-rS9 X$8k998%$X  XX   WWWWWWWWWWWWWWW",
"WWWWWWWWWWWWWWW   XX%SLVdy411&&$8.-fN:lxbGUmHRGnme0U#-$O%%%%>>%XX  X   WWWWWWWWWWWWWWW",
"WWWWWWWWWWWWWWW  X% VVDhdy*+X   8; NM 7zvUmnmRGb:.0P l    XX$$$$X  XX  WWWWWWWWWWWWWWW",
"WWWWWWWWWWWWWWW  X 5hBZ,   $,1,%89#Bf:3rnnnnmmnt7lwPpGXXXX     XXX  $  WWWWWWWWWWWWWWW",
"WWWWWWWWWWWWWWW  X jdB$XNNy51&&%88;ZrfNNNBNNMMft2>XTHlOO$$$+%$  XXX $  WWWWWWWWWWWWWWW",
"WWWWWWWWWWWWWWW $ wdd$$Zd411=&+%88rFZZVMffaaaapq,$$XzlO$7>%%%%$  XXX + WWWWWWWWWWWWWWW",
"WWWWWWWWWWWWWWW XXdiX%Adi411*&&;8ffTSNpewewq0qwe3%$X l;$9877>%$%  X$ X WWWWWWWWWWWWWWW",
"WWWWWWWWWWWWWWW> 1d$>TCdu411*&@#KaMJr$-8lvvxxxzk2,$X X;O$%%%$%$$%  $+ XWWWWWWWWWWWWWWW",
"WWWWWWWWWWWWWWW X41 DYBdu4*$OOXCKw3<  9zbUvbmmGv8%$$ $$    $++$O$% X@O WWWWWWWWWWWWWWW",
"WWWWWWWWWWWWWWW =4 pCSdd5X  XXaZS2 Y8:8zvHGbRmbvxzzX $$%     $$OX$% %= WWWWWWWWWWWWWWW",
"WWWWWWWWWWWWWWW$1 ,NBVi% $56==afr$;T8:8lvbRGUvvcxzzU X$$O$%$   XXX%X =&WWWWWWWWWWWWWWW",
"WWWWWWWWWWWWWW 1$ ddVMX$uy51&3r% ;;E7:7kzvmRGvcxzzzHn $$2%77>$  OXX% $6 WWWWWWWWWWWWWW",
"WWWWWWWWWWWWWW$= yddCXXd5411&w< 8;7Y7:79lvvGnvzzzzzHmlX$<7kk87%  XX$3 1&WWWWWWWWWWWWWW",
"WWWWWWWWWWWWWW& %idi$Xjd441=30X 8;<K7:79zvnRvxllzzzGGl X>077>>>>  XX22 4WWWWWWWWWWWWWW",
"WWWWWWWWWWWWW@ X1iuX$Fdi4%$ w> 98;3S7:7kxvmGvzllzzznmzz >r   $%>%  X$t$$0WWWWWWWWWWWWW",
"WWWWWWWWWWWWWX 14iX$Pddu>$  3X997;wV7:8lvbGvvlllzzzbmzzzXw    $%$%  X,s 0WWWWWWWWWWWWW",
"WWWWWWWWWWWWW &15%$LKdd20$  % 997;es7:9zvmGvxllzzzzbmzzz >     +O$%  $et WWWWWWWWWWWWW",
"WWWWWWWWWWWW X=41 CKKhdftX rX 99:;rr7;kxvmGvzllllzzzGzzz X3    +$$$% X>u> WWWWWWWWWWWW",
"WWWWWWWWWWWW &1e sdDAd>Jg  rX 99;;r37;kxvmHvxlllllzzGzzz  >     $OX%% $&6 WWWWWWWWWWWW",
"WWWWWWWWWWWW+&5 1ddAMd%YC  w  99;;e87;kxvnUvxllllzzzGzzk  $     $OXX,$ %5&WWWWWWWWWWWW",
"WWWWWWWWWWW+&1X$dddSd>$Pg  0  ;9;;w87;9zvbHvvzlllzzzmzb:  X      OXX$2X 41XWWWWWWWWWWW",
"WWWWWWWWWWW+&$ 4iddAd%$Jt  3 ; 9;;087;9lvbUGvxlllllzmbm#8        OOXX>w $6XWWWWWWWWWWW",
"WWWWWWWWWWW+$ =4dddw>$$C0  3 ; :;;087;9lxvbmmvxllllznmm l          XX$2e 53WWWWWWWWWWW",
"WWWWWWWWWWW$ &15dd%$>$$M2  3 ###;;387;9lxvGGRmvzllllbU3#k           XX$<q fWWWWWWWWWWW",
"WWWWWWWWWW+ X116d$XF%$%g< ## .: ;:387:9zvnRbmHvvzlllbN 9#  .      X  XX%s< 3WWWWWWWWWW",
"WWWWWWWWWW  &11y%XKD%$>a>.;X  7 ;73777kvvRmvbRvvvzzzHX;e   ##     OX  X$0gOXWWWWWWWWWW",
"WWWWWWWWWW &&11$XAK>$$>r%#:$ ; # :9879zbGnvvvUGGvvxHw.mX;  #-      O   O$=i WWWWWWWWWW",
"WWWWWWWWW $&*1OXAdD>$$>0X-8# 7#..X988kvmHbvvvGGHHvGa-Mg l  #;.     OX   %%6= WWWWWWWWW",
"WWWWWWWWW++&=OXAddV%$$<<.79# 79 #.%:8kvGmbvvvHGbmUblZH$;z  #7#    XOXXX X>14%WWWWWWWWW",
"WWWWWWWWW+&&O BdddX$$$<%.9k#.79# #% ;kvHmvvvnRbnnbnmJ;#zz7 #8;    XXXXXX O16XWWWWWWWWW",
"WWWWWWWW++&$ d5ddX $$$,$#kk#.78;- $:#9vGmvvvbmvvvbRmxkbzz; #98#     XXXX$ $u+XWWWWWWWW",
"WWWWWWWW+>% p46d> X$$$>$;kk#.78;;-  79xnGvvvbnvbbnbbmmnzz; #99-.     %XX$, %4XWWWWWWWW",
"WWWWWWWW<% 111y $ $$$$>X:kk##87;;:;  :zvRmvvbbvz9kvbGmbzz7 .99;.     X XX$0 >>WWWWWWWW",
"WWWWWWW3% 4=11X % O$$$%.7k9##87;;787;;9vnRvvvbz88lxvGmnzz8 .89#        XXO,a $XWWWWWWW",
"WWWWWWWX >*=1>  > $$$$$ #87.-97;;7887,<ebbnapr9%XlzxGmnzz9 .:7.         %O%fM  WWWWWWW",
"WWWWWWW +&&=>%X > $$X       ;9:;;X>0rrtpfffsatq<$X   mbzz9               %$3d4 WWWWWWW",
"WWWWWW $+&&>>>XX< $X >P .77.;9;;$3wrtaaasaaptr03>%X   zzzk .77#%          %+14  WWWWWW",
"WWWWWW$++&>><2XX> X pB% .:;.:9  2tasgMMggffaptrq2>$X.   zk# #;#X>$         %&6X WWWWWW",
"WWWWWW++&><3w0X$%  s3$X #;# 7 %XpMBBBNNMgffapptrq2>$XX   k#  #  X%%         %5&XWWWWWW",
"WWWWWW+@>20rrw $< q>$$X ;;.. <p NAJSBMffaaapppttr02>$X    #  .    %>         $=XWWWWWW",
"WWWWW++>3wtrw0 %3 <%$$X ## .>rA APETFgfsapppptrrrw3<%$    #       X%          $XXWWWWW",
"WWWWW+>>wppw02 >< >$$$X.#. %3tYXFEEEYMfsappppptrw03<%%            X$           $XWWWWW",
"WWWW+>><pfpw32 3< %$$$ #. $2rfL%SEEEINffaappppptw03<>%X           X$           .$XWWWW",
"WWWW>><wBAge33 02 $$$$ .  ,3pfJ,ATETAMfsaapppptw032<,%X           XX X        XXXXWWWW",
"WWW>>>2tSZNt> >r3 $$$$   %>0psA2ZYEPBMgfaapppptrw02<>>XX   X      XX $X        XXXXWWW",
"WW%%>><tNMf% pee< $$$$   >>qpaC3ZPTKBNgfappppptrw02<%%X X  $$      X oX        XX$X WW",
"W>$>>><pa0 $M33% <$$$X  %%<wtaNwZKTFVNgaappppptrw02<>%X X X$>X     XX           X$$  W",
"W%$%>><f< >t0< 2t$$$$X  >>30effrCJYABNgspppppptr03<>%%$ X  O<$     XX<$        .X$$X W",
">$$%%>22 rp0XXf$$$$$$X  >>22eftpCFLZBNMfpppppptw32<>%%$ XXXX><       X22        X$$X  ",
">$%>>>0 rM$ w2$$$$$$$X 2<>,<wa3pBAKCNMgapppppptw3<>%%$$ $XX$%3$        %0X      XX$$X ",
"%$%>><r fa %%$$$$$$$$X 22<>>0r$wfCSNfsapppppppppr02%$$$ $o$$%e3         $X       X$$X "
};
