/* XPM */
static char *STPOB0[] = {
/* columns rows colors chars-per-pixel */
"86 86 77 1 ",
"  c #070707",
". c #0B000B",
"X c #0B0B0B",
"o c #170F07",
"O c #0B1707",
"+ c #171F07",
"@ c #1F170B",
"# c #170017",
"$ c #131313",
"% c #1B1B1B",
"& c #232B0F",
"* c #332B13",
"= c #2F371F",
"- c #220023",
"; c #2E002F",
": c #3A003B",
"> c #232323",
", c #272727",
"< c #2F2F2F",
"1 c #373F27",
"2 c #373737",
"3 c gray23",
"4 c #3F472B",
"5 c #474F33",
"6 c #53573B",
"7 c #460047",
"8 c #510053",
"9 c #69006B",
"0 c #434343",
"q c gray28",
"w c #4B4B4B",
"e c gray31",
"r c gray34",
"t c #5B5B5B",
"y c #5B6347",
"u c #676B4F",
"i c #6F7357",
"p c gray39",
"a c gray42",
"s c #6F6F6F",
"d c #7B7F63",
"f c #777777",
"g c gray50",
"h c #9F876F",
"j c #A78F77",
"k c #800083",
"l c #98009B",
"z c #B000B3",
"x c #C700CB",
"c c #DF00E3",
"v c #FB1BFF",
"b c #FB37FF",
"n c #FC53FF",
"m c #FC73FF",
"M c #838383",
"N c #8B8B8B",
"B c #939393",
"V c #979797",
"C c #9F9F9F",
"Z c #A7A7A7",
"A c gray67",
"S c gray70",
"D c #B7B7B7",
"F c gray75",
"G c #FD8FFF",
"H c #FDABFF",
"J c gray78",
"K c #CBCBCB",
"L c LightGray",
"P c gray86",
"I c #DFDFDF",
"U c #FEC7FF",
"Y c #E7E7E7",
"T c #EFEFEF",
"R c #FFE7FF",
"E c white",
"W c None",
/* pixels */
"WWWWWWWWWWWWWWWWWWWWWWWWWWWWWWWWWWWWWW%>%$X$OXXXWWWWWWWWWWWWWWWWWWWWWWWWWWWWWWWWWWWWWW",
"WWWWWWWWWWWWWWWWWWWWWWWWWWWWWWWWWWWWw2<%XX XXX    WWWWWWWWWWWWWWWWWWWWWWWWWWWWWWWWWWWW",
"WWWWWWWWWWWWWWWWWWWWWWWWWWWWWWWWWWWrCw$X    X X   XWWWWWWWWWWWWWWWWWWWWWWWWWWWWWWWWWWW",
"WWWWWWWWWWWWWWWWWWWWWWWWWWWWWWWW  $NJfX        X$ XX  WWWWWWWWWWWWWWWWWWWWWWWWWWWWWWWW",
"WWWWWWWWWWWWWWWWWWWWWWWWWWWWWWW  $tFp  X$$XX$%$  $XX   WWWWWWWWWWWWWWWWWWWWWWWWWWWWWWW",
"WWWWWWWWWWWWWWWWWWWWWWWWWWWWWW   >a%%p3$XXXX   X$X X    WWWWWWWWWWWWWWWWWWWWWWWWWWWWWW",
"WWWWWWWWWWWWWWWWWWWWWWWWWWWWWXX$ $ $SrX    OX    %X      WWWWWWWWWWWWWWWWWWWWWWWWWWWWW",
"WWWWWWWWWWWWWWWWWWWWWWWWWWWW$$$$   ft%           X>$      WWWWWWWWWWWWWWWWWWWWWWWWWWWW",
"WWWWWWWWWWWWWWWWWWWWWWWWWWW><$$X  <0$  $2<%$$$     <X      WWWWWWWWWWWWWWWWWWWWWWWWWWW",
"WWWWWWWWWWWWWWWWWWWWWWWWWW0<%$$  $<$ >w3%X XXXX%$  XX       WWWWWWWWWWWWWWWWWWWWWWWWWW",
"WWWWWWWWWWWWWWWWWWWWWWWWW0t%$$$  $% 33%X   XX  X%>  X        WWWWWWWWWWWWWWWWWWWWWWWWW",
"WWWWWWWWWWWWWWWWWWWWWWWWpM<$$$$  X 32$     XX   X$>           WWWWWWWWWWWWWWWWWWWWWWWW",
"WWWWWWWWWWWWWWWWWWWWWWWWNM$X      32$     ..     X$,       X  WWWWWWWWWWWWWWWWWWWWWWWW",
"WWWWWWWWWWWWWWWWWWWWWWWX3  X>3<%X%>$  .;89999:#   X%%          WWWWWWWWWWWWWWWWWWWWWWW",
"WWWWWWWWWWWWWWWWWWWWWWW$ tN002>% $$  -79lzxxxzk7#. X$XX%$%><$ XWWWWWWWWWWWWWWWWWWWWWWW",
"WWWWWWWWWWWWWWWWWWWWWWX rA$$$$$$ X .-89kk99999987-# X   XXXX$X  WWWWWWWWWWWWWWWWWWWWWW",
"WWWWWWWWWWWWWWWWWWWWWW <S%$$$$$X  #;7887%%%>>%#;7:;.      X.X$  WWWWWWWWWWWWWWWWWWWWWW",
"WWWWWWWWWWWWWWWWWWWWWX$B<%$$$$$X #;:;$2etttttr3%X;;#        XX$  WWWWWWWWWWWWWWWWWWWWW",
"WWWWWWWWWWWWWWWWWWWWW g3>%%%$$$X.##.rfNBBNMgftw2%$-#.          X WWWWWWWWWWWWWWWWWWWWW",
"WWWWWWWWWWWWWWWWWWWW w0<>>%%$$$X## 3JKACNgsptr3>$$X##          XX WWWWWWWWWWWWWWWWWWWW",
"WWWWWWWWWWWWWWWWWWWW<3222>$$XXX.. p$YPg022<<300>$$  ..          X WWWWWWWWWWWWWWWWWWWW",
"WWWWWWWWWWWWWWWWWWWX223r2X..#. . rA JM%      X$%XX     ....      X WWWWWWWWWWWWWWWWWWW",
"WWWWWWWWWWWWWWWWWWW><2er .;kl97# AK 2X                #8997#       WWWWWWWWWWWWWWWWWWW",
"WWWWWWWWWWWWWWWWWWX><ra$#8lxxzk#<SA    :77- k87      $-lzzz8#       WWWWWWWWWWWWWWWWWW",
"WWWWWWWWWWWWWWWWWW$>0p$:9klzzk; wBt  ::70k:#z9897    X.;89kk9;.     WWWWWWWWWWWWWWWWWW",
"WWWWWWWWWWWWWWWWW >3p$;897;77# %t3  7<0ewlk7xkklk7   X<  .-788-      WWWWWWWWWWWWWWWWW",
"WWWWWWWWWWWWWWWWWX2a%-:;#. XXXX<r$ 72pt0klzznzzzzk7 X$2XXXX #:;#     WWWWWWWWWWWWWWWWW",
"WWWWWWWWWWWWWWWWW%0%$;#. XXXXXX0< 9<BMp9lvvbUvcxbzl8 X>-87$XX.#-#    WWWWWWWWWWWWWWWWW",
"WWWWWWWWWWWWWWWWO<%$-#.XXXXXXXX0$ 9NTYakxbmHUmbvbbzk X%;kk8:$XX##.    WWWWWWWWWWWWWWWW",
"WWWWWWWWWWWWWWWW>%.#. XXX$%%&@+2X.9LEEMlvmREEHnnnnnz. $X7;--;;XX..    WWWWWWWWWWWWWWWW",
"WWWWWWWWWWWWWWW $ .. XXX&4=+XXX%X#kAEPpzbHEEEUGGmnnb  $    XX$-XX      WWWWWWWWWWWWWWW",
"WWWWWWWWWWWWWWW   . XXX5$      $X#9BPakzbGEEEGUGGmmm  X       XXXX     WWWWWWWWWWWWWWW",
"WWWWWWWWWWWWWWW     X$5  $ti4*&%X#;NF98xmmRUTGbHGmGV. XO%$$X   XXX     WWWWWWWWWWWWWWW",
"WWWWWWWWWWWWWWW    XX5  VV611&&%-.XNS;kmnRmnGRGbAmmB-:X;k8%%$X   XX    WWWWWWWWWWWWWWW",
"WWWWWWWWWWWWWWW    X>  LVi411&&>: $fZ9nbGGbnmUUGbggCl.X$lzk8%$X   X    WWWWWWWWWWWWWWW",
"WWWWWWWWWWWWWWW   XX $IAdu411&&08 7fZbxbRmnnmGUHnkpS9 X$9lkk9%$X  XX   WWWWWWWWWWWWWWW",
"WWWWWWWWWWWWWWW   XX%SLVdy411&&$8.-fN9xvRmmmmGUGGfrU#-$O%>%>7,%XX  X   WWWWWWWWWWWWWWW",
"WWWWWWWWWWWWWWW  X% VVDhdy*+X   8; NM;lvTbbbmGRmbkeP l    XX$%%$X  XX  WWWWWWWWWWWWWWW",
"WWWWWWWWWWWWWWW  X 5hBZ,   $,1,%89#Bf8rnnnptpnnnxxlPpGXXXX     XXX  $  WWWWWWWWWWWWWWW",
"WWWWWWWWWWWWWWW  X jdB$XNNy51&&%88;ZrgBVVBMffMMfe2%THlOO$$$+%$  XXX $  WWWWWWWWWWWWWWW",
"WWWWWWWWWWWWWWW $ wdd$$Zd411=&+%88rFZZCMfsaaaapw2%$XzlO$87>%%%$  XXX + WWWWWWWWWWWWWWW",
"WWWWWWWWWWWWWWW XXdiX%Adi411*&&;8ffTSNp023qeeewq2%$X l;$k988,%%%  X$ X WWWWWWWWWWWWWWW",
"WWWWWWWWWWWWWWW> 1d$>TCdu411*&%-KaMJr$XX;9xvbbl2,>$X X;O$%%%%%$$%  $+ XWWWWWWWWWWWWWWW",
"WWWWWWWWWWWWWWW X41 DYBdu4*$OOXCKw3<  79zvbRHUmv;X$$ $$    $++$O$% X@O WWWWWWWWWWWWWWW",
"WWWWWWWWWWWWWWW =4 pCSdd5X  XXaZS2 Y878lxvnnvRbvxzzX $$%     $$OX$% %= WWWWWWWWWWWWWWW",
"WWWWWWWWWWWWWWW$1 ,NBVi% $56==afr$;T879xvbmvvGGvcxzU X$$O$%$   XXX%X =&WWWWWWWWWWWWWWW",
"WWWWWWWWWWWWWW 1$ ddVMX$uy51&3r% ;;E89zvvmbvvbRbcxzHn $$2%997%  OXX% $6 WWWWWWWWWWWWWW",
"WWWWWWWWWWWWWW$= yddCXXd5411&w< 8;7Y8kvvbGvvvvRnvxzHmlX$<8lz98>  XX$3 1&WWWWWWWWWWWWWW",
"WWWWWWWWWWWWWW& %idi$Xjd441=30X 8;<K9zvbGUbvvvUnvxzGGl X>088>7,>  XX22 4WWWWWWWWWWWWWW",
"WWWWWWWWWWWWW@ X1iuX$Fdi4%$ w> 98;3SkvbUmnnvvbmbcxznmzz >r   $%>%  X$t$$0WWWWWWWWWWWWW",
"WWWWWWWWWWWWWX 14iX$Pddu>$  3X997;wCzvbTbvUbvGnvxzzbmzzzXw    $%$%  X,s 0WWWWWWWWWWWWW",
"WWWWWWWWWWWWW &15%$LKdd20$  % 997;rMxvGUvvmbbmbvxzzbmzzz >     +O$%  $et WWWWWWWWWWWWW",
"WWWWWWWWWWWW X=41 CKKhdftX rX 99:;tavbHUvvGnbnvvzzzzGzzz X3    +$$$% X>u> WWWWWWWWWWWW",
"WWWWWWWWWWWW &1e sdDAd>Jg  rX 99;;tlvvHUvvGnbbvczlzzGzzz  >     $OX%% $&6 WWWWWWWWWWWW",
"WWWWWWWWWWWW+&5 1ddAMd%YC  w  99;;ekxvGUvvUbbbvxzzzzGzzk  $     $OXX,$ %5&WWWWWWWWWWWW",
"WWWWWWWWWWW+&1X$dddSd>$Pg  0  ;9;;w9zvbRGmHvbbvzzzzzmzb:  X      OXX$2X 41XWWWWWWWWWWW",
"WWWWWWWWWWW+&$ 4iddAd%$Jt  3 ; 9;;09kvvmTGbvbbvzlllzmbm#8        OOXX>w $6XWWWWWWWWWWW",
"WWWWWWWWWWW+$ =4dddw>$$C0  3 ; :;;089zvbGHnvbbczlllznmm l          XX$2e 53WWWWWWWWWWW",
"WWWWWWWWWWW$ &15dd%$>$$M2 .3 ###;;388kvvbnmbvvclklllbU3#k           XX$<q fWWWWWWWWWWW",
"WWWWWWWWWW+ X116d$XF%$%g< -X .: ;:3878zvvbmHbvclklllbN 9# .#      X  XX%s< 3WWWWWWWWWW",
"WWWWWWWWWW  &11y%XKD%$>a>#:$  7 ;73777kxvbbmnvvlkllzHX;e   -#     OX  X$0gOXWWWWWWWWWW",
"WWWWWWWWWW &&11$XAK>$$>r%#8- ; # :987:9lvvbnGbvzlllHq.mX;  -;      O   O$=i WWWWWWWWWW",
"WWWWWWWWW $&*1OXAdD>$$>0X;9- 7#..X987:89zvbmGbvzllGtXMg l  -:.     OX   %%6= WWWWWWWWW",
"WWWWWWWWW++&=OXAddV%$$<<.8k# 79 #.%:7:89lvvGmbvzzN# CH$;z  #8#    XOXXX X>14%WWWWWWWWW",
"WWWWWWWWW+&&O BdddX$$$<%.kl-.79# #% #;;9kxvHmmbb0 -mF.#zz7 #9:    XXXXXX O16XWWWWWWWWW",
"WWWWWWWW++&$ d5ddX $$$,$#lz;.78;- $:.  #8xvRnmvk-9Ur ,bzz; -lk#     XXXX$ $u+XWWWWWWWW",
"WWWWWWWW+>% p46d> X$$$>$;zz-.78;;-  ;;:#7xbTvnvxbb- fmnzz; #ll;.     %XX$, %4XWWWWWWWW",
"WWWWWWWW<% 111y $ $$$$>X8zz-#87;;:;  .;8zvnUbGbz7.#lGmbzz7 #kl;.     X XX$0 >>WWWWWWWW",
"WWWWWWW3% 4=11X % O$$$%.8zl##87;;787;#.#8zHGUmx979lzmmbzz8 .kl-        XXO,a $XWWWWWWW",
"WWWWWWWX >*=1>  > $$$$$ ;99#-97;;7887>%,3tnnnbk:Xklzmmnzz9 .88.         %O%fM  WWWWWWW",
"WWWWWWW +&&=>%X > $$X       ;9:;;X>0rrttpsfggae<$X   mbzz9               %$3d4 WWWWWWW",
"WWWWWW $+&&>>>XX< $X >P #99.;9;;$3wrtaaappaaatw3>%X   zzzk .89#%          %+14  WWWWWW",
"WWWWWW$++&>><2XX> X pB% #87.:9  2tasgMMggffaptrq2>$X.   zk# #7#X>$         %&6X WWWWWW",
"WWWWWW++&><3w0X$%  s3$X -7#.7 %XpMBBBNNMgffapptrq2>$XX   k#  -. X%%         %5&XWWWWWW",
"WWWWWW+@>20rrw $< q>$$X ;;.. <p NAJSBMffaaapppttr02>$X    #  #    %>         $=XWWWWWW",
"WWWWW++>3wtrw0 %3 <%$$X.-# .>rA APETFgfsapppptrrrw3<%$    #       X%          $XXWWWWW",
"WWWWW+>>wppw02 >< >$$$X### %3tYXFEEEYMfsappppptrw03<%%            X$           $XWWWWW",
"WWWW+>><pfpw32 3< %$$$ ##.$2rfL%SEEEINffaappppptw03<>%X           X$           .$XWWWW",
"WWWW>><wBAge33 02 $$$$ .. ,3pfJ,ATETAMfsaapppptw032<,%X           XX X        XXXXWWWW",
"WWW>>>2tSZNt> >r3 $$$$.  %>0psA2ZYEPBMgfaapppptrw02<>>XX   X      XX $X        XXXXWWW",
"WW%%>><tNMf% pee< $$$$   >>qpaC3ZPTKBNgfappppptrw02<%%X X  $$      X oX        XX$X WW",
"W>$>>><pa0 $M33% <$$$X  %%<wtaNwZKTFVNgaappppptrw02<>%X X X$>X     XX           X$$  W",
"W%$%>><f< >t0< 2t$$$$X  >>30effrCJYABNgspppppptr03<>%%$ X  O<$     XX<$        .X$$X W",
">$$%%>22 rp0XXf$$$$$$X  >>22eftpCFLZBNMfpppppptw32<>%%$ XXXX><       X22        X$$X  ",
">$%>>>0 rM$ w2$$$$$$$X 2<>,<wa3pBAKCNMgapppppptw3<>%%$$ $XX$%3$        %0X      XX$$X ",
"%$%>><r fa %%$$$$$$$$X 22<>>0r$wfCSNfsapppppppppr02%$$$ $o$$%e3         $X       X$$X "
};
