/* XPM */
static char *STPOA0[] = {
/* columns rows colors chars-per-pixel */
"86 86 78 1 ",
"  c #070707",
". c #0B000B",
"X c #0B0B0B",
"o c #170F07",
"O c #0B1707",
"+ c #171F07",
"@ c #1F170B",
"# c #170017",
"$ c #131313",
"% c #1B1B1B",
"& c #232B0F",
"* c #332B13",
"= c #2F371F",
"- c #220023",
"; c #2E002F",
": c #3A003B",
"> c #232323",
", c #272727",
"< c #2F2F2F",
"1 c #373F27",
"2 c #373737",
"3 c gray23",
"4 c #3F472B",
"5 c #474F33",
"6 c #53573B",
"7 c #460047",
"8 c #510053",
"9 c #69006B",
"0 c #434343",
"q c gray28",
"w c #4B4B4B",
"e c gray31",
"r c gray34",
"t c #5B5B5B",
"y c #5B6347",
"u c #676B4F",
"i c #6F7357",
"p c gray39",
"a c gray42",
"s c #6F6F6F",
"d c #7B7F63",
"f c #777777",
"g c gray50",
"h c #9F876F",
"j c #A78F77",
"k c #800083",
"l c #98009B",
"z c #B000B3",
"x c #C700CB",
"c c #DF00E3",
"v c #FA00FF",
"b c #FB1BFF",
"n c #FB37FF",
"m c #FC53FF",
"M c #FC73FF",
"N c #838383",
"B c #8B8B8B",
"V c #939393",
"C c #979797",
"Z c #9F9F9F",
"A c #A7A7A7",
"S c gray67",
"D c gray70",
"F c #B7B7B7",
"G c gray75",
"H c #FD8FFF",
"J c #FDABFF",
"K c gray78",
"L c #CBCBCB",
"P c LightGray",
"I c gray86",
"U c #DFDFDF",
"Y c #FEC7FF",
"T c #E7E7E7",
"R c #EFEFEF",
"E c #FFE7FF",
"W c white",
"Q c None",
/* pixels */
"QQQQQQQQQQQQQQQQQQQQQQQQQQQQQQQQQQQQQQ%>%$X$OXXXQQQQQQQQQQQQQQQQQQQQQQQQQQQQQQQQQQQQQQ",
"QQQQQQQQQQQQQQQQQQQQQQQQQQQQQQQQQQQQw2<%XX XXX    QQQQQQQQQQQQQQQQQQQQQQQQQQQQQQQQQQQQ",
"QQQQQQQQQQQQQQQQQQQQQQQQQQQQQQQQQQQrZw$X    X X   XQQQQQQQQQQQQQQQQQQQQQQQQQQQQQQQQQQQ",
"QQQQQQQQQQQQQQQQQQQQQQQQQQQQQQQQ  $BKfX        X$ XX  QQQQQQQQQQQQQQQQQQQQQQQQQQQQQQQQ",
"QQQQQQQQQQQQQQQQQQQQQQQQQQQQQQQ  $tGp  X$$XX$%$  $XX   QQQQQQQQQQQQQQQQQQQQQQQQQQQQQQQ",
"QQQQQQQQQQQQQQQQQQQQQQQQQQQQQQ   >a%%p3$XXXX   X$X X    QQQQQQQQQQQQQQQQQQQQQQQQQQQQQQ",
"QQQQQQQQQQQQQQQQQQQQQQQQQQQQQXX$ $ $DrX    OX    %X      QQQQQQQQQQQQQQQQQQQQQQQQQQQQQ",
"QQQQQQQQQQQQQQQQQQQQQQQQQQQQ$$$$   ft%           X>$      QQQQQQQQQQQQQQQQQQQQQQQQQQQQ",
"QQQQQQQQQQQQQQQQQQQQQQQQQQQ><$$X  <0$  $2<%$$$     <X      QQQQQQQQQQQQQQQQQQQQQQQQQQQ",
"QQQQQQQQQQQQQQQQQQQQQQQQQQ0<%$$  $<$ >w3%X XXXX%$  XX       QQQQQQQQQQQQQQQQQQQQQQQQQQ",
"QQQQQQQQQQQQQQQQQQQQQQQQQ0t%$$$  $% 33%X   XX  X%>  X        QQQQQQQQQQQQQQQQQQQQQQQQQ",
"QQQQQQQQQQQQQQQQQQQQQQQQpN<$$$$  X 32$     XX   X$>           QQQQQQQQQQQQQQQQQQQQQQQQ",
"QQQQQQQQQQQQQQQQQQQQQQQQBN$X      32$    ....    X$,       X  QQQQQQQQQQQQQQQQQQQQQQQQ",
"QQQQQQQQQQQQQQQQQQQQQQQX3  X>3<%X%>$  .;9kkkk7#.  X%%          QQQQQQQQQQQQQQQQQQQQQQQ",
"QQQQQQQQQQQQQQQQQQQQQQQ$ tB002>% $$ .;8lxcvvvxl8-. X$XX%$%><$ XQQQQQQQQQQQQQQQQQQQQQQQ",
"QQQQQQQQQQQQQQQQQQQQQQX rS$$$$$$ X #;9lzllkkkkk98;#.X   XXXX$X  QQQQQQQQQQQQQQQQQQQQQQ",
"QQQQQQQQQQQQQQQQQQQQQQ <D%$$$$$X  #:9998%%%>>%#:87;#      X.X$  QQQQQQQQQQQQQQQQQQQQQQ",
"QQQQQQQQQQQQQQQQQQQQQX$V<%$$$$$X #:7:$2etttttr3%X::#        XX$  QQQQQQQQQQQQQQQQQQQQQ",
"QQQQQQQQQQQQQQQQQQQQQ g3>%%%$$$X.--.rfBVVBNgftw2%$;-#          X QQQQQQQQQQQQQQQQQQQQQ",
"QQQQQQQQQQQQQQQQQQQQ w0<>>%%$$$X## 3KLSZBgsptr3>$$X##          XX QQQQQQQQQQQQQQQQQQQQ",
"QQQQQQQQQQQQQQQQQQQQ<3222>$$XXX.. p$TIg022<<300>$$  #.          X QQQQQQQQQQQQQQQQQQQQ",
"QQQQQQQQQQQQQQQQQQQX223r2X..#. . rS KN%      X$%XX     ....      X QQQQQQQQQQQQQQQQQQQ",
"QQQQQQQQQQQQQQQQQQQ><2er #7lzk8# SL 2X                -9kk8#       QQQQQQQQQQQQQQQQQQQ",
"QQQQQQQQQQQQQQQQQQX><ra$-9xvvcl#<DS    :77- k87      $;xccx9-       QQQQQQQQQQQQQQQQQQ",
"QQQQQQQQQQQQQQQQQQ$>0p$7kzxccl; wVt  ::70k:#z9897    X.79kllk;.     QQQQQQQQQQQQQQQQQQ",
"QQQQQQQQQQQQQQQQQ >3p$:9k8;88- %t3  7<0ewlk7xkklk7   X<  .;899;      QQQQQQQQQQQQQQQQQ",
"QQQQQQQQQQQQQQQQQX2a%;77-. XXXX<r$ 72pt0klllmllzzk7 X$2XXXX -77-.    QQQQQQQQQQQQQQQQQ",
"QQQQQQQQQQQQQQQQQ%0>-;-# XXXXXX0< 9<VNp9lbbbJbxznzl8 X>;98-XX.-;#    QQQQQQQQQQQQQQQQQ",
"QQQQQQQQQQQQQQQQO<%$;#.XXXXXXXX0$ 9BRTakxnmMMnbxnnzk X%;ll97-XX#-.    QQQQQQQQQQQQQQQQ",
"QQQQQQQQQQQQQQQQ>%.#. XXX$%%&@+2X.9PWWNlbmEWYmmmmmmz. $$77;;;;$X.#    QQQQQQQQQQQQQQQQ",
"QQQQQQQQQQQQQQQ $... XXX&4=+XXX%X#kSWIpznHWWWMMHMmmn  $    XX--$X      QQQQQQQQQQQQQQQ",
"QQQQQQQQQQQQQQQ   . XXX5$      $X#9VIakznHWWEMYHHMMM  X       XXXX     QQQQQQQQQQQQQQQ",
"QQQQQQQQQQQQQQQ     X$5  $ti4*&%X#;BG98xMMRYJMnFHMHC. XO%%$X   XXX     QQQQQQQQQQQQQQQ",
"QQQQQQQQQQQQQQQ    XX5  CC641&&%-.XBD;kMmEHMMMM<CMMV-:X7l9>%$X   XX    QQQQQQQQQQQQQQQ",
"QQQQQQQQQQQQQQQ    X>  PCi411&&>: $fA9mnHYmmMMHM$agZl.X;zcz9>$X   X    QQQQQQQQQQQQQQQ",
"QQQQQQQQQQQQQQQ   XX $USdu411&&08 7fAnxnYHmMMHHMn-rD9 X$lxzlk7$X  XX   QQQQQQQQQQQQQQQ",
"QQQQQQQQQQQQQQQ   XX%DPCdy411&&$8.-fB8xnEHMMMMMmMe0Y#-$O:7>778%XX  X   QQQQQQQQQQQQQQQ",
"QQQQQQQQQQQQQQQ  X% CCFhdy*+X   8; BN-kbHMnnmmml$ 0I l    XX$%%$X  XX  QQQQQQQQQQQQQQQ",
"QQQQQQQQQQQQQQQ  X 5hVA,   $,1,%89#Vf7wammprew03;lwIpHXXXX     XXX  $  QQQQQQQQQQQQQQQ",
"QQQQQQQQQQQQQQQ  X jdV$XBBy51&&%88;ArfBVBBNfsapr<>XRJlO$$$$+%$  XXX $  QQQQQQQQQQQQQQQ",
"QQQQQQQQQQQQQQQ $ wdd$$Ad411=&+%88rGAACNfspppptq,%$XzlO;98>>%%$  XXX + QQQQQQQQQQQQQQQ",
"QQQQQQQQQQQQQQQ XXdiX%Sdi411*&&;8ffRDBp02<<<2qee3%$X l;$lk99<>%%  X$ X QQQQQQQQQQQQQQQ",
"QQQQQQQQQQQQQQQ> 1d$>RZdu411*&%-LaNKr$XX  .-9znl3,$X X;O;%%%%%$$%  $+ XQQQQQQQQQQQQQQQ",
"QQQQQQQQQQQQQQQ X41 FTVdu4*$OOXZLw3<  79klzxnHEnk:$$ $$    $++$O$% X@O QQQQQQQQQQQQQQQ",
"QQQQQQQQQQQQQQQ =4 pZDdd5X  XXaAD2 T8:79kllxbnRbbxzX $$%     $$OX$% %= QQQQQQQQQQQQQQQ",
"QQQQQQQQQQQQQQQ$1 ,BVCi% $56==afr$;R8:79klxbbnYnbbxY X$$O$%$   XXX%X =&QQQQQQQQQQQQQQQ",
"QQQQQQQQQQQQQQ 1$ ddCNX$uy51&3r% ;;W7:79lxbnnYMnbbxJm $$2:kk8%  OXX% $6 QQQQQQQQQQQQQQ",
"QQQQQQQQQQQQQQ$= yddZXXd5411&w< 8;7T7:7kxbnmMHbnbcxJMlX$<9xxl9>  XX$3 1&QQQQQQQQQQQQQQ",
"QQQQQQQQQQQQQQ& %idi$Xjd441=30X 8;<L7:8lbnMHMbbbcxzHHl X>09978<,  XX22 4QQQQQQQQQQQQQQ",
"QQQQQQQQQQQQQ@ X1iuX$Gdi4%$ w> 98;3D779xnMHMnbbxxzzmMzz >r   %%,>  X$t$$0QQQQQQQQQQQQQ",
"QQQQQQQQQQQQQX 14iX$Iddu>$  3X997;wC78lbMHMMbbxzzzznMzzzXw    $%%%  X,s 0QQQQQQQQQQQQQ",
"QQQQQQQQQQQQQ &15%$PLdd20$  % 997;es89znYmmYnbxzzzznMzzz >     +O$%  $et QQQQQQQQQQQQQ",
"QQQQQQQQQQQQ X=41 ZLLhdftX rX 99:;rr89xnJnnYHbxzlzzzHzzz X3    +$$$% X>u> QQQQQQQQQQQQ",
"QQQQQQQQQQQQ &1e sdFSd>Kg  rX 99;;r389bMJnbmYnbxzzzzHzzz  >     $OX%% $&6 QQQQQQQQQQQQ",
"QQQQQQQQQQQQ+&5 1ddSNd%TZ  w  99;;e889bmHbbbHYbczzzzHzzk  $     $OXX,$ %5&QQQQQQQQQQQQ",
"QQQQQQQQQQQ+&1X$dddDd>$Ig  0  ;9;;w889bnJnbbbYHbxzzzMzn:  X      OXX$2X 41XQQQQQQQQQQQ",
"QQQQQQQQQQQ+&$ 4iddSd%$Kt  3 ; 9;;0889xnHMnbbnHbxzlzMnM#8        OOXX>w $6XQQQQQQQQQQQ",
"QQQQQQQQQQQ+$ =4dddw>$$Z0  3 ; :;;0879xbmMHbbnEbxllzmMM l          XX$2e 53QQQQQQQQQQQ",
"QQQQQQQQQQQ$ &15dd%$>$$N2 .3 ###;;3878zbnmHnbMYbxlllnY3#k           XX$<q fQQQQQQQQQQQ",
"QQQQQQQQQQ+ X116d$XG%$%g< ;$ .: ;:3877kbbnJmbHHbxlllnB 9# .#      X  XX%s< 3QQQQQQQQQQ",
"QQQQQQQQQQ  &11y%XLF%$>a>#7-  7 ;7377:9lbbHMbJMbzllzJX;e   ;#     OX  X$0gOXQQQQQQQQQQ",
"QQQQQQQQQQ &&11$XSL>$$>r%-9% ; # :987:8kxbMHnMnbzllJq.MX;  ;:      O   O$=i QQQQQQQQQQ",
"QQQQQQQQQ $&*1OXSdF>$$>0X7k; 7#..X987:7kzbnMHMbxllHtXNg l  ;7.     OX   %%6= QQQQQQQQQ",
"QQQQQQQQQ++&=OXSddC%$$<<#9z- 79 #.%:7:8kxbnMHnbxxB# ZJ$;z  -9#    XOXXX X>14%QQQQQQQQQ",
"QQQQQQQQQ+&&O VdddX$$$<%#lx;.79# #% #;:lbbnMmnbn3 -MG.#zz7 -l7    XXXXXX O16XQQQQQQQQQ",
"QQQQQQQQ++&$ d5ddX $$$,$-xc;.78;- $:. ;kbnMmbx8# 9Yr ,nzz; ;zl#     XXXX$ $u+XQQQQQQQQ",
"QQQQQQQQ+>% p46d> X$$$>$7cc;.78;;-  ;;9lbMHnb99kzn- fMmzz; -xz;.     %XX$, %4XQQQQQQQQ",
"QQQQQQQQ<% 111y $ $$$$>X9cc;#87;;:;  .8znJnbcxz8# #lHMnzz7 #zz7.     X XX$0 >>QQQQQQQQ",
"QQQQQQQ3% 4=11X % O$$$%.9cx-#87;;787;#:knHnz8: .;9lzMMnzz8 .lz;        XXO,a $XQQQQQQQ",
"QQQQQQQX >*=1>  > $$$$$ ;kk#-97;;7887>,3lnnt0<%XXklzMMmzz9 .99#         %O%fN  QQQQQQQ",
"QQQQQQQ +&&=>%X > $$X       ;9:;;X>0rrtpsssapr3,$X   Mnzz9               %$3d4 QQQQQQQ",
"QQQQQQ $+&&>>>XX< $X >I #kk.;9;;$3wrtaaaappptr03>%X   zzzk #9k-%          %+14  QQQQQQ",
"QQQQQQ$++&>><2XX> X pV% #98.:9  2tasgNNggffaptrq2>$X.   zk# #8$X>$         %&6X QQQQQQ",
"QQQQQQ++&><3w0X$%  s3$X ;8-.7 %XpNVVVBBNgffapptrq2>$XX   k#  ;. X%%         %5&XQQQQQQ",
"QQQQQQ+@>20rrw $< q>$$X.77.. <p BSKDVNffaaapppttr02>$X    #  #    %>         $=XQQQQQQ",
"QQQQQ++>3wtrw0 %3 <%$$X.;- .>rS SIWRGgfsapppptrrrw3<%$    #       X%          $XXQQQQQ",
"QQQQQ+>>wppw02 >< >$$$XX-# %3tTXGWWWTNfsappppptrw03<%%            X$           $XQQQQQ",
"QQQQ+>><pfpw32 3< %$$$ ##.$2rfP%DWWWUBffaappppptw03<>%X           X$           .$XQQQQ",
"QQQQ>><wVSge33 02 $$$$ .. ,3pfK,SRWRSNfsaapppptw032<,%X           XX X        XXXXQQQQ",
"QQQ>>>2tDABt> >r3 $$$$.. %>0psS2ATWIVNgfaapppptrw02<>>XX   X      XX $X        XXXXQQQ",
"QQ%%>><tBNf% pee< $$$$   >>qpaZ3AIRLVBgfappppptrw02<%%X X  $$      X oX        XX$X QQ",
"Q>$>>><pa0 $N33% <$$$X  %%<wtaBwALRGCBgaappppptrw02<>%X X X$>X     XX           X$$  Q",
"Q%$%>><f< >t0< 2t$$$$X  >>30effrZKTSVBgspppppptr03<>%%$ X  O<$     XX<$        .X$$X Q",
">$$%%>22 rp0XXf$$$$$$X  >>22eftpZGPAVBNfpppppptw32<>%%$ XXXX><       X22        X$$X  ",
">$%>>>0 rN$ w2$$$$$$$X 2<>,<wa3pVSLZBNgapppppptw3<>%%$$ $XX$%3$        %0X      XX$$X ",
"%$%>><r fa %%$$$$$$$$X 22<>>0r$wfZDBfsapppppppppr02%$$$ $o$$%e3         $X       X$$X "
};
