/* XPM */
static char *STPOG0[] = {
/* columns rows colors chars-per-pixel */
"86 99 79 1 ",
"  c #070707",
". c #0B000B",
"X c #0B0B0B",
"o c #170F07",
"O c #0B1707",
"+ c #171F07",
"@ c #1F170B",
"# c #170017",
"$ c #131313",
"% c #1B1B1B",
"& c #2B230F",
"* c #232B0F",
"= c #332B13",
"- c #2F371F",
"; c #220023",
": c #2E002F",
"> c #3A003B",
", c #232323",
"< c #272727",
"1 c #2F2F2F",
"2 c #373F27",
"3 c #373737",
"4 c gray23",
"5 c #3F472B",
"6 c #474F33",
"7 c #53573B",
"8 c #460047",
"9 c #510053",
"0 c #69006B",
"q c #434343",
"w c gray28",
"e c #4B4B4B",
"r c gray31",
"t c gray34",
"y c #5B5B5B",
"u c #5B6347",
"i c #676B4F",
"p c #6F7357",
"a c gray39",
"s c gray42",
"d c #7B7F63",
"f c #777777",
"g c gray50",
"h c #9F876F",
"j c #A78F77",
"k c #800083",
"l c #98009B",
"z c #B000B3",
"x c #C700CB",
"c c #DF00E3",
"v c #FB1BFF",
"b c #FB37FF",
"n c #FC53FF",
"m c #FC73FF",
"M c #838383",
"N c #8B8B8B",
"B c #939393",
"V c #979797",
"C c #9F9F9F",
"Z c #A7A7A7",
"A c gray67",
"S c gray70",
"D c #B7B7B7",
"F c gray75",
"G c #FD8FFF",
"H c #FDABFF",
"J c gray78",
"K c #CBCBCB",
"L c LightGray",
"P c gray86",
"I c #DFDFDF",
"U c #FFDBDB",
"Y c #FFFFD7",
"T c #FEC7FF",
"R c #E7E7E7",
"E c #EFEFEF",
"W c #FFE7FF",
"Q c white",
"! c None",
/* pixels */
"!!!!!!!!!!!!!!!!!!!!!!!!!!!!!!!!!!!!!!!!!!!!!!!!!!!!!GGG!!!!!!!!!!!!!!!!!!!!!!!!!!!!!!",
"!!!!!!!!!!!!!!!!!!!!!!!!!!!!!!!!!!!GG!!!!!!!!GG!!!!!T!!!G!!!!!!!!!!!!!!!!!!!!!!!!!!!!!",
"!!!!!!!!!!!!!!!!!!!!!!!!!!!!!!!!!!G!!GG!!!!!GHTWWG!TW!!!G!!!!!!!!!!!!!!!!!!!!!!!!!!!!!",
"!!!!!!!!!!!!!!!!!!!!!!!!!!!!GG!!mG!!!!!GGGGHHTWTTWWT!!!!!G!!!!!!!!!!!!!!!!!!!!!!!!!!!!",
"!!!!!!!!!!!!!!!!!!!!!!!!mGGG!!mm!!!!!!!GWWWWWWHGGTWG!!!!!G!!!!!!!!!!!!!!!!!!!!!!!!!!!!",
"!!!!!!!!!!!!!!!!!!!!!!!G!!!!!m!!!!!!!!!WTHTWTWHGGHWG!!!!!G!!!!!!!!!!!!!!!!!!!!!!!!!!!!",
"!!!!!!!!!!!!!!!!!!!!!!!G!!!!!m!!!!!TTTTWHHWHHTTHGHWHG!!!!G!!!!!!!!!!!!!!!!!!!!!!!!!!!!",
"!!!!!!!!!!!!!!!!!!!!!!!!G!!!!G!!!GTWWQQWHWHHHHWHHHTYHG!!!G!!!!!!!!!!!!!!!!!!!!!!!!!!!!",
"!!!!!!!!!!!!!!!!!!!!!!!!!H!!!GTUYTWTHHTQWWWWTHTTHHTTYTGGGmm!!!!!!!!!!!!!!!!!!!!!!!!!!!",
"!!!!!!!!!!!!!!!!!!!!!!!!!mHmmTTGTWUYYWHTQWQQWWTTTHHHTWT!!!m!!!!!!!!!!!!!!!!!!!!!!!!!!!",
"!!!!!!!!!!!!!!!!!!!!!!!!!!mTT!!!TTHTWYWQQQWWQWWTTTHHTTY!!!H!!!!!!!!!!!!!!!!!!!!!!!!!!!",
"!!!!!!!!!!!!!!!!!!!!!!!!!!mGG!!mGHTTWYYQQQQWQQWWWWTTTTYGm!H!!!!!!!!!!!!!!!!!!!!!!!!!!!",
"!!!!!!!!!!!!!!!!!!!!!!!!mmmGG!mGHTWWWQYQYYQYQQQWWWWWWWQHmmGTHGm!!!!!!!!!!!!!!!!!!!!!!!",
"!!!!!!!!!!!!!!!!!!!!!!!mmG!!G!GHTTWWQQ:8:;#;.###WQWWWWQTHm!GT!!m!!!!!!!!!!!!!!!!!!!!!!",
"!!!!!!!!!!!!!!!!!!!!!!mm!!GG!HHTTWQQl09:##.###....QQWTTTHm!mGH!m!!!!!!!!!!!!!!!!!!!!!!",
"!!!!!!!!!!!!!!!!!!!!!!!m!!!!!GTTTWQzbl;#....#.#...#QWWTTHHn!mH!m!!!!!!!!!!!!!!!!!!!!!!",
"!!!!!!!!!!!!!!!!!!!!!!b!!!!!nmTT..;vGc#........#;.##..TTTGm!!!bn!!!!!!!!!!!!!!!!!!!!!!",
"!!!!!!!!!!!!!!!!!!!!!mm!!!!!mGT..;zGz..#;;##;:;..;##...THGm!!!!b!!!!!!!!!!!!!!!!!!!!!!",
"!!!!!!!!!!!!!!!!!!!!!m!mb!!!mH...8x::z0;####...#;#.#....Gn!!!!!G!!!!!!!!!!!!!!!!!!!!!!",
"!!!!!!!!!!!!!!!!!!!!!!!GG!!!n##;.;.;ml#.....#....:#......n!!!!!mG!!!!!!!!!!!!!!!!!!!!!",
"!!!!!!!!!!!!!!!!!!!!!!!!m!!!;;;;...cz:...........#8;......n!!!!!m!!!!!!!!!!!!!!!!!!!!!",
"!!!!!!!!!!!!!!!!!!!!!!!!b!!89;;#..9k;..;09:;;;.....9#......!!!!!m!!!!!!!!!!!!!!!!!!!!!",
"!!!!!!!!!!!!!!!!!!!!!!!Gb!k9:;;..;9;.>k0:#.####:;..##.......!!!Gb!!!!!!!!!!!!!!!!!!!!!",
"!!!!!!!!!!!!!!!!!!!!!!!m!kl:;;;..;:.00:#...##..#:>..#........!Gmb!!!!!!!!!!!!!!!!!!!!!",
"!!!!!!!!!!!!!!!!!!!!!!bmzv9;;;;..#.00;.....##...#;>...........m!!!!!!!!!!!!!!!!!!!!!!!",
"!!!!!!!!!!!!!!!!!!!!!!G!bb;#......09;.....##.....#;8.......#..mb!!!!!!!!!!!!!!!!!!!!!!",
"!!!!!!!!!!!!!!!!!!!!!!b#0..#>09:#:>;..#8kzzzz0;...#::..........b!!!!!!!!!!!!!!!!!!!!!!",
"!!!!!!!!!!!!!!!!!!!!!!!;.lb009>:.;;..>0zccccccx0;#.####:#:>8#.#!!!!!!!!!!!!!!!!!!!!!!!",
"!!!!!!!!!!!!!!!!!!!!!!#.km######.#.#>kzxxzzzzzzk0>;.#...####$#..!!!!!!!!!!!!!!!!!!!!!!",
"!!!!!!!!!!!!!!!!!!!!!!.8G:$$$$$#..;80kk0::::::;8098#......###$..!!!!!!!!!!!!!!!!!!!!!!",
"!!!!!!!!!!!!!!!!!!!!!#$n8:$$9$$#.;898$9kkkkkkk9:#88;........##$..!!!!!!!!!!!!!!!!!!!!!",
"!!!!!!!!!!!!!!!!!!!!!.b9%:::$$$##;;#kbnnnnbbbk09:$:;#..........#.!!!!!!!!!!!!!!!!!!!!!",
"!!!!!!!!!!!!!!!!!!!!.008%%::$$$#;;.9HHGmnbylkk9%$$#;;..........##.!!!!!!!!!!!!!!!!!!!!",
"!!!!!!!!!!!!!!!!!!!!<9999%$$#####.l$WTb099<<300%$$..##..........#.!!!!!!!!!!!!!!!!!!!!",
"!!!!!!!!!!!!!!!!!!!#199e1###;#.#.eG.Hn%......#$%##.................!!!!!!!!!!!!!!!!!!!",
"!!!!!!!!!!!!!!!!!!!%91qe..8zxl0;.GF.1.................;0ll0#.......!!!!!!!!!!!!!!!!!!!",
"!!!!!!!!!!!!!!!!!!.%<ey$#0zccxz#<AG....900:.z00......$:zxxx0#.......!!!!!!!!!!!!!!!!!!",
"!!!!!!!!!!!!!!!!!!$%4y$8kzzxxz>.qNr..8894z9#xk0k9....X.>0kzzk>......!!!!!!!!!!!!!!!!!!",
"!!!!!!!!!!!!!!!!!.,3y$>0k9>99#.%t3..914rqzl9cllzl9...X1...:900:......!!!!!!!!!!!!!!!!!",
"!!!!!!!!!!!!!!!!!X3a%:8>#..XXXX1r$.93ytwzxxxbzzxxl9.X$3XXXX.#8>#.....!!!!!!!!!!!!!!!!!",
"!!!!!!!!!!!!!!!!!%4%$>#..XXXXXX41.k1NfalxvvbTvxxbxz0.X,:09XXX.#:#....!!!!!!!!!!!!!!!!!",
"!!!!!!!!!!!!!!!!O1%X:#.XXXXXXXX4X.kMERazvbmGmbvxbbxl.X%>ll08XXX##.....!!!!!!!!!!!!!!!!",
"!!!!!!!!!!!!!!!!,%.#..XXX$%%*@+3X.kLQQgxbmEQEmbbbbbz..$X9:::::XX......!!!!!!!!!!!!!!!!",
"!!!!!!!!!!!!!!!.$....XXX*3<+XXX$X#lZQPyxbGQQQTGGmnnb..$....XX$:XX......!!!!!!!!!!!!!!!",
"!!!!!!!!!!!!!!!.....XXX4$......$X#kNLylzbGQQQGTGGmmm..X.......XXXX.....!!!!!!!!!!!!!!!",
"!!!!!!!!!!!!!!!.....X$4..$ya5&*%X#:NF08lmnHEHGbDGmGB..XO%$$X...XXX.....!!!!!!!!!!!!!!!",
"!!!!!!!!!!!!!!!....XX6..BBe22**%;.XNS$8nbbmWmmm9VmmB;>X:k9%%$X   XX    !!!!!!!!!!!!!!!",
"!!!!!!!!!!!!!!!    X,  LVp522**,> $fZ9nxvbmWmGGm%sgCl.X$lzk9%$X   X    !!!!!!!!!!!!!!!",
"!!!!!!!!!!!!!!!   XX $IAdi522**q9 8fZbzxbnGWmGGmb;tS0 X$0lkk0%$X  XX   !!!!!!!!!!!!!!!",
"!!!!!!!!!!!!!!!   XX%SLVdu522**$9.;fN>lxbmGWGmmnmrqT#;$O%,%,8,%XX  X   !!!!!!!!!!!!!!!",
"!!!!!!!!!!!!!!!  X% VVDhdu=+X   9: NM 8zvbmWmmnl$ qP l    XX$%%$X  XX  !!!!!!!!!!!!!!!",
"!!!!!!!!!!!!!!!  X 6hBZ,   $,2,%90#Bf>3esnmmnae4:lePaGXXXX     XXX  $  !!!!!!!!!!!!!!!",
"!!!!!!!!!!!!!!!  X jdB$XNNu62**%99:ZtfNMNNBNMfat1,XEHlOO$$$+%$  XXX $  !!!!!!!!!!!!!!!",
"!!!!!!!!!!!!!!! $ edd$$Zd522-*+%99tFZZCNgfggfsae1%$XzlO$98,%%%$  XXX + !!!!!!!!!!!!!!!",
"!!!!!!!!!!!!!!! XXdpX%Adp522=**:9ffESCMnnbbbbbbst3%X l:$k099,%%%  X$ X !!!!!!!!!!!!!!!",
"!!!!!!!!!!!!!!!, 2d$,ECdi522=*%;KsNKmbbbbbbbbbbbbz0%.X:O$%%%%%$$%  $+ X!!!!!!!!!!!!!!!",
"!!!!!!!!!!!!!!! X52 SRBdi5=$OOXCKyybbvTQQQQQQQQQbbb0:$$    $++$O$% X@O !!!!!!!!!!!!!!!",
"!!!!!!!!!!!!!!! -5 aCSdd6X  XXsZSexWTEQQQQQQQQQQETnx9%$%     $$OX$% %- !!!!!!!!!!!!!!!",
"!!!!!!!!!!!!!!!$2 ,NBBp% $67--sfylvQEQQQQQQQQQQQQWmTk%$$O$%$   XXX%X -*!!!!!!!!!!!!!!!",
"!!!!!!!!!!!!!! 2$ ddBMX$iu62*4t%:zbQEQQQQQQQQQQQQEGTn>$$3%008%  OXX% $7 !!!!!!!!!!!!!!",
"!!!!!!!!!!!!!!$- uddCXXd6522*e1 kzbWWQQQQQQQQQQQQEHHmzX$19lz09,  XX$4 2*!!!!!!!!!!!!!!",
"!!!!!!!!!!!!!!* %pdp$Xjd552-4qX 0lbTTQQQQQQQQQEQQQTHGz X,q99,8,,  XX33 5!!!!!!!!!!!!!!",
"!!!!!!!!!!!!!@ X2piX$Fdp5%$ e, 00kbTTQQQQQQQQQQQQQHmGzz ,t   $%,%  X$y$$q!!!!!!!!!!!!!",
"!!!!!!!!!!!!!X 25pX$Pddi,$  4X0090nHTQQQQQQQQQQQETmnGxzzXe    $%$%  X,s q!!!!!!!!!!!!!",
"!!!!!!!!!!!!! *26%$LKdd3q$  % 0080nGHQQQQQQQQQQQWGbbGzzz ,     +O$%  $ey !!!!!!!!!!!!!",
"!!!!!!!!!!!! X-52 CKKhdfyX tX 0080nmGWQQQQQQQQQQWmbbGzzz X4    +$$$% X,i, !!!!!!!!!!!!",
"!!!!!!!!!!!! *2e sdSAd,Jg  tX 00:9nnmWQQQQQQQQQETnvcGzzz  ,     $OX%% $*7 !!!!!!!!!!!!",
"!!!!!!!!!!!!+*6 2ddAMd%RC  e  00:9nbbGEQQQQQQQQWGbvxGzzk  $     $OXX,$ %6*!!!!!!!!!!!!",
"!!!!!!!!!!!+*2X$dddSd,$Pg  q  :0:8ybvbGEQQQQQQWHbvxzmzb>  X      OXX$3X 52X!!!!!!!!!!!",
"!!!!!!!!!!!+*$ 5pddAd%$Jy  4 : 0:>elxvbGEQEQETmbvczzmbm#9        OOXX,e $7X!!!!!!!!!!!",
"!!!!!!!!!!!+$ -5ddde,$$Cq  4 : >::q0kzvbHWWQTmbvvzlznmm l          XX$3e 64!!!!!!!!!!!",
"!!!!!!!!!!!$ *26dd%$,$$M3 .4 ###::499kvbmTTEHnvvzlllbT4#k           XX$1q f!!!!!!!!!!!",
"!!!!!!!!!!+ X227d$XF%$%g1 ;X .> :>4980xbnHTWGbvxllllbN 0# .#      X  XX%s1 4!!!!!!!!!!",
"!!!!!!!!!!  *22u%XKS%$,s,#>$  8 :84889zvbGTWmbvzlllzHX:e   ;#     OX  X$qgOX!!!!!!!!!!",
"!!!!!!!!!! **22$XAK,$$,t%#9; : # >0988lvbmTWnbvzlllHq.mX:  ;:      O   O$-p !!!!!!!!!!",
"!!!!!!!!! $*=2OXAdS,$$,qX:0; 8#..X0988kxbmHTnbxlllGyXMg l  ;>.     OX   %%7- !!!!!!!!!",
"!!!!!!!!!++*-OXAddB%$$11.9k# 80 #.%>8>0zbnHTbvzlzN# CH$:z  #9#    XOXXX X,25%!!!!!!!!!",
"!!!!!!!!!+**O BdddX$$$1%.kl;.80# #% #:>lvnGTbvxx4 ;mF.#zz8 #0>    XXXXXX O27X!!!!!!!!!",
"!!!!!!!!++*$ d6ddX $$$,$#lz:.89:; $>. .9zbGTbz>. 0Tt ,bzz: ;lk#     XXXX$ $i+X!!!!!!!!",
"!!!!!!!!+,% a57d, X$$$,$:zz;.89::;  ::>:kbmHbl0kzb; fmnzz: #ll:.     %XX$, %5X!!!!!!!!",
"!!!!!!!!1% 222u $ $$$$,X9zz;#98::>:  .:9zvmHvcz9# #lGmbzz8 #kl:.     X XX$q ,,!!!!!!!!",
"!!!!!!!4% 5-22X % O$$$%.9zl##98::898:#.#8zmHvk#.:0lzmmbzz9 .kl;        XXO,s $X!!!!!!!",
"!!!!!!!X ,=-2,  , $$$$$ :00#;08::8998,%,1ebnaq,XXklzmmnzz0 .99.         %O%fM  !!!!!!!",
"!!!!!!! +**-,%X , $$X       :0>::X,qttyyyssfsyq,$X   mbzz0               %$4d5 !!!!!!!",
"!!!!!! $+**,,,XX1 $X ,P #00.:0::$4etysssaaasatq4,%X   zzzk .90#%          %+25  !!!!!!",
"!!!!!!$++*,,13XX, X aB% #98.>0  3yssgMMggffsaytq3,$X.   zk# #8#X,$         %*7X !!!!!!",
"!!!!!!++*,14eqX$%  s4$X ;8#.8 %XaMBBBNNMgffsaaytq3,$XX   k#  ;. X%%         %6*X!!!!!!",
"!!!!!!+@,3qtte $1 q,$$X ::.. 1a NAJSBMffsssaaayytq3,$X    #  #    %,         $-X!!!!!!",
"!!!!!++,4eyteq %4 1%$$X.;# .,tA APQEFgfssaaaayttte41%$    #       X%          $XX!!!!!",
"!!!!!+,,eaaeq3 ,1 ,$$$X### %4yRXFQQQRMfssaaaaayteq41%%            X$           $X!!!!!",
"!!!!+,,1afae43 41 %$$$ ##.$3tfL%SQQQPNffssaaaaayeq41,%X           X$           .$X!!!!",
"!!!!,,1eBAge44 q3 $$$$ .. ,4afJ,AEQEAMfsssaaaayeq431,%X           XX X        XXXX!!!!",
"!!!,,,3ySZNy, ,t4 $$$$.  %,qasA3ZRQPBMgfssaaaayteq31,,XX   X      XX $X        XXXX!!!",
"!!%%,,1yNMf% aee1 $$$$   ,,qasC4ZPEKBNgfsaaaaayteq31%%X X  $$      X oX        XX$X !!",
"!,$,,,1asq $M44% 1$$$X  %%1eysNeZKEFBNgssaaaaayteq31,%X X X$,X     XX           X$$  !",
"!%$%,,1f1 ,yq1 3y$$$$X  ,,4qefftCJRABNgsaaaaaaytq41,%%$ X  O1$     XX1$        .X$$X !",
",$$%%,33 taqXXf$$$$$$X  ,,33efyaCFLZBNMfaaaaaaye431,%%$ XXXX,1       X33        X$$X  ",
",$%,,,q tM$ e3$$$$$$$X 31,,1es4aBAKCNMgsaaaaaaye41,%%$$ $XX$%4$        %qX      XX$$X ",
"%$%,,1t fs %%$$$$$$$$X 331,,qt$efCSNfssaaaaaaaaatq3%$$$ $o$$%e4         $X       X$$X "
};
