/* XPM */
static char *STPOE0[] = {
/* columns rows colors chars-per-pixel */
"86 86 57 1 ",
"  c #070707",
". c #0B000B",
"X c #0B0B0B",
"o c #170F07",
"O c #0B1707",
"+ c #171F07",
"@ c #1F170B",
"# c #131313",
"$ c #1B1B1B",
"% c #232B0F",
"& c #332B13",
"* c #2F371F",
"= c #232323",
"- c #272727",
"; c #2F2F2F",
": c #373F27",
"> c #373737",
", c gray23",
"< c #3F472B",
"1 c #474F33",
"2 c #53573B",
"3 c #434343",
"4 c gray28",
"5 c #4B4B4B",
"6 c gray31",
"7 c gray34",
"8 c #5B5B5B",
"9 c #5B6347",
"0 c #676B4F",
"q c #6F7357",
"w c gray39",
"e c gray42",
"r c #6F6F6F",
"t c #7B7F63",
"y c #777777",
"u c gray50",
"i c #9F876F",
"p c #A78F77",
"a c #838383",
"s c #8B8B8B",
"d c #939393",
"f c #979797",
"g c #9F9F9F",
"h c #A7A7A7",
"j c gray67",
"k c gray70",
"l c #B7B7B7",
"z c gray75",
"x c gray78",
"c c #CBCBCB",
"v c LightGray",
"b c gray86",
"n c #DFDFDF",
"m c #E7E7E7",
"M c #EFEFEF",
"N c white",
"B c None",
/* pixels */
"BBBBBBBBBBBBBBBBBBBBBBBBBBBBBBBBBBBBBB$=$#X#OXXXBBBBBBBBBBBBBBBBBBBBBBBBBBBBBBBBBBBBBB",
"BBBBBBBBBBBBBBBBBBBBBBBBBBBBBBBBBBBB5>;$XX XXX    BBBBBBBBBBBBBBBBBBBBBBBBBBBBBBBBBBBB",
"BBBBBBBBBBBBBBBBBBBBBBBBBBBBBBBBBBB7g5#X    X X   XBBBBBBBBBBBBBBBBBBBBBBBBBBBBBBBBBBB",
"BBBBBBBBBBBBBBBBBBBBBBBBBBBBBBBB  #sxyX        X# XX  BBBBBBBBBBBBBBBBBBBBBBBBBBBBBBBB",
"BBBBBBBBBBBBBBBBBBBBBBBBBBBBBBB  #8zw  X##XX#$#  #XX   BBBBBBBBBBBBBBBBBBBBBBBBBBBBBBB",
"BBBBBBBBBBBBBBBBBBBBBBBBBBBBBB   =e$$w,#XXXX   X#X X    BBBBBBBBBBBBBBBBBBBBBBBBBBBBBB",
"BBBBBBBBBBBBBBBBBBBBBBBBBBBBBXX# # #k7X    OX    $X      BBBBBBBBBBBBBBBBBBBBBBBBBBBBB",
"BBBBBBBBBBBBBBBBBBBBBBBBBBBB####   y8$           X=#      BBBBBBBBBBBBBBBBBBBBBBBBBBBB",
"BBBBBBBBBBBBBBBBBBBBBBBBBBB=;##X  ;3#  #>;$###     ;X      BBBBBBBBBBBBBBBBBBBBBBBBBBB",
"BBBBBBBBBBBBBBBBBBBBBBBBBB3;$##  #;# =5,$X XXXX$#  XX       BBBBBBBBBBBBBBBBBBBBBBBBBB",
"BBBBBBBBBBBBBBBBBBBBBBBBB38$###  #$ ,,$X   XX  X$=  X        BBBBBBBBBBBBBBBBBBBBBBBBB",
"BBBBBBBBBBBBBBBBBBBBBBBBwa;####  X ,>#     XX   X#=           BBBBBBBBBBBBBBBBBBBBBBBB",
"BBBBBBBBBBBBBBBBBBBBBBBBsa#X      ,>#            X#-       X  BBBBBBBBBBBBBBBBBBBBBBBB",
"BBBBBBBBBBBBBBBBBBBBBBBX,  X=,;$X$=#              X$$          BBBBBBBBBBBBBBBBBBBBBBB",
"BBBBBBBBBBBBBBBBBBBBBBB# 8s33>=$ ##                X#XX$#$=;# XBBBBBBBBBBBBBBBBBBBBBBB",
"BBBBBBBBBBBBBBBBBBBBBBX 7j###### X                  X   XXXX#X  BBBBBBBBBBBBBBBBBBBBBB",
"BBBBBBBBBBBBBBBBBBBBBB ;k$#####X        $$$==$            X.X#  BBBBBBBBBBBBBBBBBBBBBB",
"BBBBBBBBBBBBBBBBBBBBBX#d;$#####X     #>6888887,$X           XX#  BBBBBBBBBBBBBBBBBBBBB",
"BBBBBBBBBBBBBBBBBBBBB u,=$$$###X    7ysddsauy85>$#             X BBBBBBBBBBBBBBBBBBBBB",
"BBBBBBBBBBBBBBBBBBBB 53;==$$###X   ,xcjgsurw87,=##X            XX BBBBBBBBBBBBBBBBBBBB",
"BBBBBBBBBBBBBBBBBBBB;,>>>=##XXX   w#mbu3>>;;,33=##              X BBBBBBBBBBBBBBBBBBBB",
"BBBBBBBBBBBBBBBBBBBX>>,7>X       7j xa$      X#$XX               X BBBBBBBBBBBBBBBBBBB",
"BBBBBBBBBBBBBBBBBBB=;>67         jc >X                             BBBBBBBBBBBBBBBBBBB",
"BBBBBBBBBBBBBBBBBBX=;7wX        ;kj    ;;,$ w,>      #              BBBBBBBBBBBBBBBBBB",
"BBBBBBBBBBBBBBBBBB#=3wX         5d8  ;;,8e>Xu5,3>    X              BBBBBBBBBBBBBBBBBB",
"BBBBBBBBBBBBBBBBB =,w#         $8,  >,7wwe5#s78yw>   X;              BBBBBBBBBBBBBBBBB",
"BBBBBBBBBBBBBBBBBX>e#      XXXX;7# >3yw778,#h8wua8; X#>XXXX          BBBBBBBBBBBBBBBBB",
"BBBBBBBBBBBBBBBBB$3$     XXXXXX3; 53gdr357;Xvayadse, X=XXXXXX        BBBBBBBBBBBBBBBBB",
"BBBBBBBBBBBBBBBBO;#    XXXXXXXX3# 4gMmr;>=  asasggdw X$XXXXXXXX       BBBBBBBBBBBBBBBB",
"BBBBBBBBBBBBBBBB=$    XXXX#$%@+>XX7bNNs;=X  ;adhjjhsX #XOXXXXXXX      BBBBBBBBBBBBBBBB",
"BBBBBBBBBBBBBBB #    XXX%:*+XXX$XX8zNme>#X   wkxzjjh  #    XXXXXX      BBBBBBBBBBBBBBB",
"BBBBBBBBBBBBBBB     XXX1#      #X#5hna4#;u,,3#zcxkkj  X       XXXX     BBBBBBBBBBBBBBB",
"BBBBBBBBBBBBBBB     X#1  #8q<&%$X#;hx6#;jsashs#jckxhX XO+++X    XX     BBBBBBBBBBBBBBB",
"BBBBBBBBBBBBBBB    XX1  ff1::%%$$XXgz#;jdssdhkg#dzzd$;XO#+++#X   XX    BBBBBBBBBBBBBBB",
"BBBBBBBBBBBBBBB    X=  vf0<::%%=; #uh5hasssdhlxh$yshy XO#++++OX   X    BBBBBBBBBBBBBBB",
"BBBBBBBBBBBBBBB   XX #njt0<::%%3, ;yjgyadfghkzxzd$8z7 XO#++++OXX  XX   BBBBBBBBBBBBBBB",
"BBBBBBBBBBBBBBB   XX$kvft9<::%%+, #us;wysghjkzzhk53b##OO#++++OOXX  X   BBBBBBBBBBBBBBB",
"BBBBBBBBBBBBBBB  X$ fflit9&+X   ,= ss -7wasgjjju# 5b u    XX##OXX  XX  BBBBBBBBBBBBBBB",
"BBBBBBBBBBBBBBB  X 1idh-   #-:-$,3Xdu;>33335553,=rwbycXXXX     XXX  #  BBBBBBBBBBBBBBB",
"BBBBBBBBBBBBBBB  X ptd#Xss91:%%+,3=h7yaaauuyrew7;=#MbeOOO++++#  XXX #  BBBBBBBBBBBBBBB",
"BBBBBBBBBBBBBBB # 5tt##ht<::*%++,,7zhhduyeww8883=##XueOOO++++$#  XXX + BBBBBBBBBBBBBBB",
"BBBBBBBBBBBBBBB XXtqX$jtq<::&%+#,yyMksw3>;;;;;>,;$#X e$OO+++++#$  X# X BBBBBBBBBBBBBBB",
"BBBBBBBBBBBBBBB= :t#=Mgt0<::&%@#ceax7#XX    XX#$==#X X=OO+++++##$  #+ XBBBBBBBBBBBBBBB",
"BBBBBBBBBBBBBBB X<: lmdt0<&#OOXgc5,;  >58wuafhksXX## ##    #++#O#$ X@O BBBBBBBBBBBBBBB",
"BBBBBBBBBBBBBBB *< wgktt1X  XXehk> M5;>5888weeryaaaX ##$     ##OX#$ $* BBBBBBBBBBBBBBB",
"BBBBBBBBBBBBBBB#: -sdfq$ #12**ey7#=M,;>57888weeruaab X##O#+#   XXX$X *%BBBBBBBBBBBBBBB",
"BBBBBBBBBBBBBB :# ttfaX#091:%,7$ =;N>;>3578788weuaabh ##>#+++#  OXX$ #2 BBBBBBBBBBBBBB",
"BBBBBBBBBBBBBB#* 9ttgXXt1<::%5; 3=>m>;>37778778euaavzyX#;#++++#  XX#, :%BBBBBBBBBBBBBB",
"BBBBBBBBBBBBBB% $qtq#Xpt<<:*,3X 3=,c>;>36887778ruaacxy X=3++++$#  XX>> <BBBBBBBBBBBBBB",
"BBBBBBBBBBBBB@ X:q0X#ztq<$# 5= 7,=5z>;>,6ww778wruuahzuu =7   ++##  X#8##3BBBBBBBBBBBBB",
"BBBBBBBBBBBBBX :<qX#btt0=#  ,X57>=7h>;>,58w778wyuuugzaasX5    ++#$  X-r 3BBBBBBBBBBBBB",
"BBBBBBBBBBBBB %:1$#vctt>3#  $ 57>=8a>;,368w778eyuyudzaas =     +O#$  #68 BBBBBBBBBBBBB",
"BBBBBBBBBBBB X*<: gccity8X 7X 57;=ww>-378ww778ryyyusxaas X,    +###$ X=0= BBBBBBBBBBBB",
"BBBBBBBBBBBB %:6 rtljt=xu  7X 57==w7>=37www88wreryuaxaaa  =     #OX$$ #%2 BBBBBBBBBBBB",
"BBBBBBBBBBBB+%1 :ttjat$mg  5  77==85>=358ww8wweeruuuzss8  #     #OXX-# $1%BBBBBBBBBBBB",
"BBBBBBBBBBB+%:X#tttkt=#bu  3  =5==83>=358888wwweyuuuldg;  X      OXX#>X <:XBBBBBBBBBBB",
"BBBBBBBBBBB+%# <qttjt$#x8  , = 3==73>=35788888weyyyukgkX3        OOXX=5 #2XBBBBBBBBBBB",
"BBBBBBBBBBB+# *<ttt5=##g3  , $ ;==7,>=47788888weyeyuhzk y          XX#>6 1,BBBBBBBBBBB",
"BBBBBBBBBBB# %:1tt$#=##a>  , #X#==5,>=37788888wwwerygm5#w           XX#;4 yBBBBBBBBBBB",
"BBBBBBBBBB+ X::2t#Xz$#$u;     ; =;5,>=,578888888weeyhh 8#         X  XX$r; ,BBBBBBBBBB",
"BBBBBBBBBB  %::9$Xcl$#=e=     > $>7,>;>47888788wweeavX;y          OX  X#3uOXBBBBBBBBBB",
"BBBBBBBBBB %%::#Xjc=##=7$    $ X ;7,>;,58ww8778wwwyb5Xj#=          O   O#*q BBBBBBBBBB",
"BBBBBBBBB #%&:OXjtl=##=3X    >X XX6,>;,378w87788wyx8Xds u          OX   $$2* BBBBBBBBB",
"BBBBBBBBB++%*OXjttf$##;;     >3 #X$;>;,3578888wrsj# gv#=a         XOXXX X=:<$BBBBBBBBB",
"BBBBBBBBB+%%O dtttX###;$     >5# #= X$$557wruasd6 $jz #aa>        XXXXXX O:2XBBBBBBBBB",
"BBBBBBBB++%# t1ttX ###-#    X>3=$ #;   X$;;$##X  8m8 >gsa=          XXXX# #0+XBBBBBBBB",
"BBBBBBBB+=$ w<2t= X###=#    X>,==#  ==;X      ,8dd$ azhsa$           $XX#- $<XBBBBBBBB",
"BBBBBBBB;$ :::9 # ####=X    X>;==;=   =>8wweyuy3# #yxlgsa;           X XX#3 ==BBBBBBBB",
"BBBBBBB,$ <*::X $ O###$     #3;==;,>=XX      $ .$7yazkhsa,             XXO-e #XBBBBBBB",
"BBBBBBBX =&*:=  = #####     $5;==;>>;=$==;>,>;$XX8razkhsa5              $O$ya  BBBBBBB",
"BBBBBBB +%%*=$X = ##X       =7;==X=3778888ww87,-#X   lgsa7               $#,t< BBBBBBB",
"BBBBBB #+%%===XX; #X =b     =7==#,578eeewwww873,=$X   ssa8     $          $+:<  BBBBBB",
"BBBBBB#++%==;>XX= X wd$     ;5  >8eruaauuyyew874>=#X.   aw#     =#         $%2X BBBBBB",
"BBBBBB++%=;,53X#$  r,#X     > $Xwadddssauyyeww874>=#XX   w#     X$$         $1%XBBBBBB",
"BBBBBB+@=>3775 #; 4=##X      ;w sjxkdayyeeewww8873>=#X    #       $=         #*XBBBBBB",
"BBBBB++=,58753 $, ;$##X     =7j jbNMzuyrewwww87775,;$#    #       X$          #XXBBBBB",
"BBBBB+==5ww53> =; =###     $,8mXzNNNmayrewwwww8753,;$$            X#           #XBBBBB",
"BBBB+==;wyw5,> ,; $###    #>7yv$kNNNnsyyeewwwww853,;=$X           X#           .#XBBBB",
"BBBB==;5dju6,, 3> ####    -,wyx-jMNMjayreewwww853,>;-$X           XX X        XXXXBBBB",
"BBB===>8khs8= =7, ####   $=3wrj>hmNbdauyeewwww8753>;==XX   X      XX #X        XXXXBBB",
"BB$$==;8say$ w66; ###X   ==4weg,hbMcdsuyewwwww8753>;$$X X  ##      X oX        XX#X BB",
"B=#===;we3 #a,,$ ;###X  $$;58es5hcMzfsueewwwww8753>;=$X X X#=X     XX           X##  B",
"B$#$==;y; =83; >8####X  ==,36yy7gxmjdsurwwwwww873,;=$$# X  O;#     XX;#        .X##X B",
"=##$$=>> 7w3XXy######X  ==>>6y8wgzvhdsaywwwwww85,>;=$$# XXXX=;       X>>        X##X  ",
"=#$===3 7a# 5>#######X >;=-;5e,wdjcgsauewwwwww85,;=$$## #XX#$,#        $3X      XX##X ",
"$#$==;7 ye $$########X >>;==37#5ygksyrewwwwwwwww73>$### #o##$6,         #X       X##X "
};
