/* XPM */
static char *Fire[] = {
/* columns rows colors chars-per-pixel */
"105 114 139 2 ",
"   c black",
".  c #070707",
"X  c #0B0B0B",
"o  c #170F07",
"O  c #171F07",
"+  c #1F170B",
"@  c #131313",
"#  c #1B1B1B",
"$  c #2F1B0B",
"%  c #13230B",
"&  c #2B230F",
"*  c #232B0F",
"=  c #372313",
"-  c #332B13",
";  c #3F2F17",
":  c #3F2B1B",
">  c #2F371F",
",  c #232323",
"<  c #272727",
"1  c #2F2F2F",
"2  c #373F27",
"3  c #373737",
"4  c gray23",
"5  c #601404",
"6  c #701808",
"7  c #432F1B",
"8  c #43331B",
"9  c #4B371B",
"0  c #533F1F",
"q  c #473323",
"w  c #4F3B23",
"e  c #4F3B27",
"r  c #533F2F",
"t  c #3F472B",
"y  c #5F4323",
"u  c #5B472B",
"i  c #474F33",
"p  c #53573B",
"a  c #6B4727",
"s  c #774F2B",
"d  c #7F532F",
"f  c #775F3F",
"g  c #434343",
"h  c gray28",
"j  c #4B4B4B",
"k  c gray31",
"l  c gray34",
"z  c #5B5B5B",
"x  c #5B6347",
"c  c #676B4F",
"v  c #6F7357",
"b  c gray39",
"n  c gray42",
"m  c #6F6F6F",
"M  c #7B7F63",
"N  c #777777",
"B  c gray50",
"V  c #801C08",
"C  c #8C200C",
"Z  c #9C240C",
"A  c #AC280C",
"S  c #B82C10",
"D  c #C83010",
"F  c #D83414",
"G  c #875733",
"H  c #8F5F37",
"J  c #9B633B",
"K  c #A36B3F",
"L  c #D84018",
"P  c #D84C1C",
"I  c #DC5C28",
"U  c #E06830",
"Y  c #E47838",
"T  c #836B4B",
"R  c #8F7753",
"E  c #AB6F43",
"W  c #B37347",
"Q  c #BF7B4B",
"!  c #CB7F4F",
"~  c #C39B2F",
"^  c #9F8363",
"/  c #9F876F",
"(  c #A78F77",
")  c #AF977F",
"_  c #CF8353",
"`  c #D78B5B",
"'  c #E88440",
"]  c #EC9048",
"[  c #D7BB43",
"{  c #F0A050",
"}  c #F0AC5C",
"|  c #DF9363",
" . c #E79B6B",
".. c #F0B864",
"X. c #EFA373",
"o. c #F7AB7B",
"O. c #EBDB57",
"+. c #F4C474",
"@. c #F4D07C",
"#. c #FFFF6B",
"$. c #FFFF73",
"%. c #838383",
"&. c #8B8B8B",
"*. c #939393",
"=. c #979797",
"-. c #9F9F9F",
";. c #B79F87",
":. c #BFA78F",
">. c #A7A7A7",
",. c gray67",
"<. c gray70",
"1. c #B7B7B7",
"2. c gray75",
"3. c #FFB383",
"4. c #FFBB93",
"5. c #FFBF9B",
"6. c #F8D88C",
"7. c #FFC79B",
"8. c #FFFF8F",
"9. c #F8E094",
"0. c #FFCFB3",
"q. c #FFD7BB",
"w. c #F8E8A4",
"e. c #FCF0AC",
"r. c #FFFFB3",
"t. c gray78",
"y. c #CBCBCB",
"u. c LightGray",
"i. c gray86",
"p. c #DFDFDF",
"a. c #FFE3D3",
"s. c #FFEBDB",
"d. c #FFEBDF",
"f. c #FFFFD7",
"g. c #E7E7E7",
"h. c #EFEFEF",
"j. c gray99",
"k. c white",
"l. c None",
/* pixels */
"l.l.l.l.l.l.l.l.5 5 l.l.l.l.l.l.l.l.l.l.l.l.l.l.l.l.l.l.l.l.l.l.l.l.l.l.l.l.l.l.l.l.l.l.l.l.l.l.l.l.l.l.l.l.l.l.l.l.l.l.l.l.l.l.l.l.l.l.l.l.l.l.l.l.l.l.l.l.l.l.l.l.l.l.l.l.l.l.l.l.l.l.l.l.l.l.l.l.l.l.l.l.l.l.l.",
"l.l.l.l.l.l.l.5 V A C 6 6 l.l.l.l.l.l.l.l.l.l.l.l.l.l.l.l.l.l.l.l.l.l.l.l.l.l.l.l.l.l.l.l.l.l.l.l.l.l.l.l.l.l.l.l.l.l.l.l.l.l.l.l.l.l.l.l.l.l.l.l.l.l.l.l.l.l.l.l.l.l.l.l.l.l.l.l.l.l.l.l.l.l.l.l.l.l.l.l.l.l.l.l.",
"l.l.l.l.l.l.l.V A F L S Z V C 6 6 l.l.l.l.l.l.l.l.l.l.l.l.l.l.l.l.l.l.l.l.l.l.l.l.l.l.l.l.l.l.l.l.l.l.l.l.l.l.l.l.l.l.l.l.l.l.l.l.l.l.l.l.l.l.l.l.l.l.l.l.l.l.l.l.l.l.l.l.l.l.l.l.l.l.l.l.l.l.l.l.l.l.l.l.l.l.l.l.",
"l.l.l.l.l.l.5 C Z A I U P L D S V 6 l.l.l.l.l.l.l.l.l.l.l.l.l.l.l.l.l.l.l.l.l.l.l.l.l.l.l.l.l.l.l.l.l.l.l.l.l.l.l.l.l.l.l.l.l.l.l.l.l.l.l.l.l.l.l.l.l.l.l.l.l.l.l.l.l.l.l.l.l.l.l.l.l.l.l.l.l.l.l.l.l.l.l.l.l.l.l.",
"l.l.l.l.l.6 V F P I Y P I I U U L V 6 5 5 6 l.l.l.l.l.l.l.l.l.l.l.l.l.l.l.l.l.l.l.l.l.l.l.l.l.l.l.l.l.l.l.l.l.l.l.l.l.l.l.l.l.l.l.l.l.l.l.l.l.l.l.l.l.l.l.l.l.l.l.l.l.l.l.l.l.l.l.l.l.l.l.l.l.l.l.l.l.l.l.l.l.l.l.",
"l.l.l.l.l.6 A P I Y ' ' Y ' ] ' I D S S D F 6 l.l.l.l.l.l.l.l.l.l.l.l.l.l.l.l.l.l.l.l.l.l.l.l.l.l.l.l.l.l.l.l.l.l.l.l.l.l.l.l.l.l.l.l.l.l.l.l.l.l.l.l.l.l.l.l.l.l.l.l.l.l.l.l.l.l.l.l.l.l.l.l.l.l.l.l.l.l.l.l.l.l.",
"l.l.l.6 6 V L I U ] ' ] ' ] ] ' Y ' Y U U P C 6 l.l.l.l.l.l.l.l.l.l.l.l.l.l.l.l.l.l.l.l.l.l.l.l.l.l.l.l.l.l.l.l.l.l.l.l.l.l.l.l.l.l.l.l.l.l.l.l.l.l.l.l.l.l.l.l.l.l.l.l.l.l.l.l.l.l.l.l.l.l.l.l.l.l.l.l.l.l.l.l.l.",
"l.l.V C A D I U Y U Y Y ' { ] { ] ] Y I P F D A C C V l.l.l.l.l.l.l.l.l.l.l.l.l.l.l.l.l.l.l.l.l.l.l.l.l.l.l.l.l.l.l.l.l.l.l.l.l.l.l.l.l.l.l.l.l.l.l.l.l.l.l.l.l.l.l.l.l.l.l.l.l.l.l.l.l.l.l.l.l.l.l.l.l.l.l.l.l.l.",
"l.l.6 A P I U Y Y { ] { { ] ....} } } ] Y I I I L L A C l.l.l.l.l.l.l.l.l.l.l.l.l.l.l.l.l.l.l.l.l.l.l.l.l.l.l.l.l.l.l.l.l.l.l.l.l.l.l.l.l.l.l.l.l.l.l.l.l.l.l.l.l.l.l.l.l.l.l.l.l.l.l.l.l.l.l.l.l.l.l.l.l.l.l.l.l.",
"l.l.5 D I U Y ' { ] { @.@...} +.6.@.} } ' ' Y Y U U S Z l.l.l.l.l.l.l.l.l.l.l.l.l.l.l.l.l.l.l.l.l.l.l.l.l.l.l.l.l.l.l.l.l.l.l.l.l.l.l.l.l.l.l.l.l.l.l.l.l.l.l.l.l.l.l.l.l.l.l.l.l.l.l.l.l.l.l.l.l.l.l.l.l.l.l.l.l.",
"l.l.6 S P I U ] +.{ +.9.6.+.6.w.6.9.+.] Y ' ] ' ' Y L A V l.l.l.l.l.l.l.l.l.l.l.l.l.l.l.l.l.l.l.l.l.l.l.l.l.l.l.l.l.l.l.l.l.l.l.l.l.l.l.l.l.l.l.l.l.l.l.l.l.l.l.l.l.l.l.l.l.l.l.l.l.l.l.l.l.l.l.l.l.l.l.l.l.l.l.l.",
"l.6 Z P Y ' { } { { } ..+.@.6...+.} ..g.:.^ ^ ' { ] Y U L Z 6 l.l.l.l.l.l.l.l.l.l.l.l.l.l.l.l.l.l.l.l.l.l.l.l.l.l.l.l.l.l.l.l.l.l.l.l.l.l.l.l.l.l.l.l.l.l.l.l.l.l.l.l.l.l.l.l.l.l.l.l.l.l.l.l.l.l.l.l.l.l.l.l.l.l.",
"6 C S Y { } { ] ] } +.9.+.@.6.k.h.f.O.8.=.n n M 2.q.r.a.U A 6 l.l.l.l.l.l.l.l.l.l.l.l.l.l.l.l.l.l.l.l.l.l.l.l.l.l.l.l.l.l.l.l.l.l.l.l.l.l.l.l.l.l.l.l.l.l.l.l.l.l.l.l.l.l.l.l.l.l.l.l.l.l.l.l.l.l.l.l.l.l.l.l.l.l.",
"6 C D { } ..} ..@.6.e.@...6.k.k.k.h.f.u.O.:.-.%./ :.2.7.q.s.C l.l.l.l.l.l.l.l.l.l.l.l.l.l.l.l.l.l.l.l.l.l.l.l.l.l.l.l.l.l.l.l.l.l.l.l.l.l.l.l.l.l.l.l.l.l.l.l.l.l.l.l.l.l.l.l.l.l.l.l.l.l.l.l.l.l.l.l.l.l.l.l.l.l.",
"l.6 A { } +.9.9.e.e.@.+.e.k.f.h.k.k.h.f.u.0.1.) >.;.:.8.1.7.q.g.l.l.l.l.l.l.l.l.l.l.l.l.l.l.l.l.l.l.l.l.l.l.l.l.l.l.l.l.l.l.l.l.l.l.l.l.l.l.l.l.l.l.l.l.l.l.l.l.l.l.l.l.l.l.l.l.l.l.l.l.l.l.l.l.l.l.l.l.l.l.l.l.l.",
"6 5 D ' { 6.+...} @.@.e.j.e.$.r.d.k.k.h.s.u.2.:.7.:.:.;.:.<.:.:.2.l.l.l.l.l.l.l.l.l.l.l.l.l.l.l.l.l.l.l.l.l.l.l.l.l.l.l.l.l.l.l.l.l.l.l.l.l.l.l.l.l.l.l.l.l.l.l.l.l.l.l.l.l.l.l.l.l.l.l.l.l.l.l.l.l.l.l.l.l.l.l.l.",
"6 C F ] ] ..+.+.+.@.@.e.j.e.#.$.7.r.h.k.f.i.q.<.>.:.-.=.*.) ;.:.:.;.-.l.l.l.l.l.l.l.l.l.l.l.l.l.l.l.l.l.l.l.l.l.l.l.l.l.l.l.l.l.l.l.l.l.l.l.l.l.l.l.l.l.l.l.l.l.l.l.l.l.l.l.l.l.l.l.l.l.l.l.l.l.l.l.l.l.l.l.l.l.l.",
"l.V L ' ] ] +...6.e.9.9.e.e.$.O.O.:.q.h.k.k.p.u.:.M M M M M M M M M M c ,.l.l.l.l.l.l.l.l.l.l.l.l.l.l.l.l.l.l.l.l.l.l.l.l.l.l.l.l.l.l.l.l.l.l.l.l.l.l.l.l.l.l.l.l.l.l.l.l.l.l.l.l.l.l.l.l.l.l.l.l.l.l.l.l.l.l.l.l.",
"l.C L ' U { } ..@.e.9.e.e.j.#.O.O.[ [ t.f.h.k.g.y.i   X   X .         , k k b l.l.l.l.l.l.l.l.l.l.l.l.l.l.l.l.l.l.l.l.l.l.l.l.l.l.l.l.l.l.l.l.l.l.l.l.l.l.l.l.l.l.l.l.l.l.l.l.l.l.l.l.l.l.l.l.l.l.l.l.l.l.l.l.l.l.",
"l.C D U U ] ] } +.e.e.e.9.j.O.O.:.[ ^ ~ :.r.h.k.h.t.h.i.<.( ;.:.;.:.;.i # 4 3 4 =.l.l.l.l.l.l.l.l.l.l.l.l.l.l.l.l.l.l.l.l.l.l.l.l.l.l.l.l.l.l.l.l.l.l.l.l.l.l.l.l.l.l.l.l.l.l.l.l.l.l.l.l.l.l.l.l.l.l.l.l.l.l.l.l.",
"l.6 A P Y ] } @.@.@.9.e.9.9.O.O.[ ;.[ ^ R / :.p.k.g.2.u.h.g.u.i.y.t.y.1.2 1 k j z N l.l.l.l.l.l.l.l.l.l.l.l.l.l.l.l.l.l.l.l.l.l.l.l.l.l.l.l.l.l.l.l.l.l.l.l.l.l.l.l.l.l.l.l.l.l.l.l.l.l.l.l.l.l.l.l.l.l.l.l.l.l.l.",
"l.l.Z P ' U ] 6.+.9.9.} 9.e.O.O.;.[ ^ / R T c *.u.h.g.,.M B v x x p p k k k j g g h k n l.l.l.l.l.l.l.l.l.l.l.l.l.l.l.l.l.l.l.l.l.l.l.l.l.l.l.l.l.l.l.l.l.l.l.l.l.l.l.l.l.l.l.l.l.l.l.l.l.l.l.l.l.l.l.l.l.l.l.l.l.",
"l.l.C D ' ' Y } +.@.....+.e.[ :.O.) [ ^ ^ R c c M ,.h.h.1.B N m z k l k j j g g 4 1 1 4 k m l.l.l.l.l.l.l.l.l.l.l.l.l.l.l.l.l.l.l.l.l.l.l.l.l.l.l.l.l.l.l.l.l.l.l.l.l.l.l.l.l.l.l.l.l.l.l.l.l.l.l.l.l.l.l.l.l.l.l.",
"l.l.l.Z U { ] Y ] ..6.6.} }   [ ;.[ ( ^ ^ R R c x x =.g.k.y.B m N b j j j h k h h g h 1 4 < j l l.l.l.l.l.l.l.l.l.l.l.l.l.l.l.l.l.l.l.l.l.l.l.l.l.l.l.l.l.l.l.l.l.l.l.l.l.l.l.l.l.l.l.l.l.l.l.l.l.l.l.l.l.l.l.l.l.",
"l.l.l.l.A ' ] ] ' } ..9.9.} * % ^ ) [ ^ R M R c x p p &.u.k.p.&.v N n j 4 h k g 1 1 1 1 < , , , 1 l.l.l.l.l.l.l.l.l.l.l.l.l.l.l.l.l.l.l.l.l.l.l.l.l.l.l.l.l.l.l.l.l.l.l.l.l.l.l.l.l.l.l.l.l.l.l.l.l.l.l.l.l.l.l.l.",
"l.l.l.l.l.C P U Y { ....+.] ;.; . v ^ R ^ R v f c p i i %.y.g.,.N b m N j g 4 1 1 < , < , < # # # , 3 l.l.l.l.l.l.l.l.l.l.l.l.l.l.l.l.l.l.l.l.l.l.l.l.l.l.l.l.l.l.l.l.l.l.l.l.l.l.l.l.l.l.l.l.l.l.l.l.l.l.l.l.l.l.",
"l.l.l.l.l.l.6 A L U ' ' { ..O.^ >   x R R R v c c p r 1 i B b b =.&.z b 4 < < # # # # # @ @ @ X @ @ # < 1 l.l.l.l.l.l.l.l.l.l.l.l.l.l.l.l.l.l.l.l.l.l.l.l.l.l.l.l.l.l.l.l.l.l.l.l.l.l.l.l.l.l.l.l.l.l.l.l.l.l.l.l.",
"l.l.l.l.l.l.l.l.V S L U ' ] > ( ) t   x v v f f x i i 1 < t 4 k N *.&.n 3 4 4 4 < < # @ @ @ @ @ X X @ @ # < 1 l.l.l.l.l.l.l.l.l.l.l.l.l.l.l.l.l.l.l.l.l.l.l.l.l.l.l.l.l.l.l.l.l.l.l.l.l.l.l.l.l.l.l.l.l.l.l.l.l.l.",
"l.l.l.l.l.l.l.l.l.l.C A F F   O M ( 2   i v x x x t 4 t < 1 , 1 k n N -.,.n ,.y.y.t.2.1.<.<.,.*.=.&.B N %.z z B l.l.l.l.l.l.l.l.l.l.l.l.l.l.l.l.l.l.l.l.l.l.l.l.l.l.l.l.l.l.l.l.l.l.l.l.l.l.l.l.l.l.l.l.l.l.l.l.l.",
"l.l.l.l.l.l.l.l.l.l.l.l.l.l.+     2.1.2   2 c c i 2 2 4 4 < , X < k z &.2.p.k.k.k.k.k.k.k.k.k.h.p.h.u.1.<.-.,.&.l.l.l.l.l.l.l.l.l.l.l.l.l.l.l.l.l.l.l.l.l.l.l.l.l.l.l.l.l.l.l.l.l.l.l.l.l.l.l.l.l.l.l.l.l.l.l.l.l.",
"l.l.l.l.l.l.l.l.l.l.l.l.l.l.X     M <.-.t   2 j p 1 1 , < < , @ @ < z -.-.%.m j , , # @ # # , < < 1 3 3 3 j m =.l.l.l.l.l.l.l.l.l.l.l.l.l.l.l.l.l.l.l.l.l.l.l.l.l.l.l.l.l.l.l.l.l.l.l.l.l.l.l.l.l.l.l.l.l.l.l.l.l.",
"l.l.l.l.l.l.l.l.l.l.l.l.l.l.@ X   X p -.&.t   < g 3 1 , , , # @ X X < n b k ,                             X 1 1 < l.l.l.l.l.l.l.l.l.l.l.l.l.l.l.l.l.l.l.l.l.l.l.l.l.l.l.l.l.l.l.l.l.l.l.l.l.l.l.l.l.l.l.l.l.l.l.l.",
"l.l.l.l.l.l.l.l.l.l.l.l.l.l.l.X   X   x <.1.i   , 2 1 < # # , @ @ X . # < h # . # @ # # # # # @ # @ @ @ X X < , # l.l.l.l.l.l.l.l.l.l.l.l.l.l.l.l.l.l.l.l.l.l.l.l.l.l.l.l.l.l.l.l.l.l.l.l.l.l.l.l.l.l.l.l.l.l.l.l.",
"l.l.l.l.l.l.l.l.l.l.l.l.l.l.l.    X   @ M t.,.g   # 1 , # , @ @ @ X X X < 4 @ X @ . . . X X . X X X @ # @ X < < # l.l.l.l.l.l.l.l.l.l.l.l.l.l.l.l.l.l.l.l.l.l.l.l.l.l.l.l.l.l.l.l.l.l.l.l.l.l.l.l.l.l.l.l.l.l.l.l.",
"l.l.l.l.l.l.l.l.l.l.l.l.l.l.l.l.X X       h *.&.g   # # # # @ @ @ @ @ X @ 1 @ X @ h k g 4 3 1 3 4 3 g @ @ X < < # l.l.l.l.l.l.l.l.l.l.l.l.l.l.l.l.l.l.l.l.l.l.l.l.l.l.l.l.l.l.l.l.l.l.l.l.l.l.l.l.l.l.l.l.l.l.l.l.",
"l.l.l.l.l.l.l.l.l.l.l.l.l.l.l.l.X X   X X , > &.&.g   X , # # @ X @ X X X 1 @ X # , # @ @ @ # # # # @ @ @ X < < # l.l.l.l.l.l.l.l.l.l.l.l.l.l.l.l.l.l.l.l.l.l.l.l.l.l.l.l.l.l.l.l.l.l.l.l.l.l.l.l.l.l.l.l.l.l.l.l.",
"l.l.l.l.l.l.l.l.l.l.l.l.l.l.l.l.l.X X X X 1   2 &.B 3 . @ # @ @ @ @ @ X X 1 @ X @ X . . . . . . X X . @ @ X < , # l.l.l.l.l.l.l.l.l.l.l.l.l.l.l.l.l.l.l.l.l.l.l.l.l.l.l.l.l.l.l.l.l.l.l.l.l.l.l.l.l.l.l.l.l.l.l.l.",
"l.l.l.l.l.l.l.l.l.l.l.l.l.l.l.l.l.X X . o <     3 z g 1   @ # @ @ X X X @ 1 @ X @ h g 4 1 1 1 1 1 1 1 # @ X < , @ l.l.l.l.l.l.l.l.l.l.l.l.l.l.l.l.l.l.l.l.l.l.l.l.l.l.l.l.l.l.l.l.l.l.l.l.l.l.l.l.l.l.l.l.l.l.l.l.",
"l.l.l.l.l.l.l.l.l.l.l.l.l.l.l.l.l.l.X X . 1 .     1 < , < X X @ @ @ X X X < @ X @ # # # # @ # # @ @ # # @ X , , # l.l.l.l.l.l.l.l.l.l.l.l.l.l.l.l.l.l.l.l.l.l.l.l.l.l.l.l.l.l.l.l.l.l.l.l.l.l.l.l.l.l.l.l.l.l.l.l.",
"l.l.l.l.l.l.l.l.l.l.l.l.l.l.l.l.l.l.l.X X 3   .   # # # l 1   @ # @ X X X < @ X @ . . . . . . X X X . # @ X # # @ l.l.l.l.l.l.l.l.l.l.l.l.l.l.l.l.l.l.l.l.l.l.l.l.l.l.l.l.l.l.l.l.l.l.l.l.l.l.l.l.l.l.l.l.l.l.l.l.",
"l.l.l.l.l.l.l.l.l.l.l.l.l.l.l.l.l.l.l.l.# 1     X @ @ # %.z 1   @ # @ X @ < @ X @ 3 3 4 3 4 4 3 3 3 4 # @ X , # @ l.l.l.l.l.l.l.l.l.l.l.l.l.l.l.l.l.l.l.l.l.l.l.l.l.l.l.l.l.l.l.l.l.l.l.l.l.l.l.l.l.l.l.l.l.l.l.l.",
"l.l.l.l.l.l.l.l.l.l.l.l.l.l.l.l.l.l.l.l.l.X     . . . . 3 =.z 1 . X @ X X < @ X # # # # # # @ # # # # # @ X # # # l.l.l.l.l.l.l.l.l.l.l.l.l.l.l.l.l.l.l.l.l.l.l.l.l.l.l.l.l.l.l.l.l.l.l.l.l.l.l.l.l.l.l.l.l.l.l.l.",
"l.l.l.l.l.l.l.l.l.l.l.l.l.l.l.l.l.l.l.l.l.l.. . X   .   . 4 &.z ,   . X @ < @ X @ . . . X . . . X . . # @ X # # @ l.l.l.l.l.l.l.l.l.l.l.l.l.l.l.l.l.l.l.l.l.l.l.l.l.l.l.l.l.l.l.l.l.l.l.l.l.l.l.l.l.l.l.l.l.l.l.l.",
"l.l.l.l.l.l.l.l.l.l.l.l.l.l.l.l.l.l.l.l.l.l.l.. 1 X       . 4 ,.z < X . @ < # X @ X # , 4 < 1 1 3 # . # @ @ @ @ # l.l.l.l.l.l.l.l.l.l.l.l.l.l.l.l.l.l.l.l.l.l.l.l.l.l.l.l.l.l.l.l.l.l.l.l.l.l.l.l.l.l.l.l.l.l.l.l.",
"l.l.l.l.l.l.l.l.l.l.l.l.l.l.l.l.l.l.l.l.l.l.l.l.# 4 .     . . k t.k < , # # @ @ @ .     . . X X .   . @ X @ @ @ @ l.l.l.l.l.l.l.l.l.l.l.l.l.l.l.l.l.l.l.l.l.l.l.l.l.l.l.l.l.l.l.l.l.l.l.l.l.l.l.l.l.l.l.l.l.l.l.l.",
"l.l.l.l.l.l.l.l.l.l.l.l.l.l.l.l.l.l.l.l.l.l.l.l.  @ 1 @ . . . X b *.g 3 3 3 3 1 3 3 1 3 < , , , , # , # @ @ @ @ @ l.l.l.l.l.l.l.l.l.l.l.l.l.l.l.l.l.l.l.l.l.l.l.l.l.l.l.l.l.l.l.l.l.l.l.l.l.l.l.l.l.l.l.l.l.l.l.l.",
"l.l.l.l.l.l.l.l.l.l.l.l.l.l.l.l.l.l.l.l.l.l.l.l.l.  @ @ . . . . b j 3 h g g 4 g 4 1 h h 3 3 1 1 1 1 , , # @ @ @ @ l.l.l.l.l.l.l.l.l.l.l.l.l.l.l.l.l.l.l.l.l.l.l.l.l.l.l.l.l.l.l.l.l.l.l.l.l.l.l.l.l.l.l.l.l.l.l.l.",
"l.l.l.l.l.l.l.l.l.l.l.l.l.l.l.l.l.l.l.l.l.l.l.l.l.l.      . X @ g X X , 3 g g 4 4 3 3 1 1 4 1 , , < # # @ @ @ . . l.l.l.l.l.l.l.l.l.l.l.l.l.l.l.l.l.l.l.l.l.l.l.l.l.l.l.l.l.l.l.l.l.l.l.l.l.l.l.l.l.l.l.l.l.l.l.l.",
"l.l.l.l.l.l.l.l.l.l.l.l.l.l.l.l.l.l.l.l.l.l.l.l.l.l.l.  . X . < @ . X X X # 1 g 4 3 1 < < < < , , # # # # @ . . $ 7 0 l.l.l.l.l.l.l.l.l.l.l.l.l.l.l.l.l.l.l.l.l.l.l.l.l.l.l.l.l.l.l.l.l.l.l.l.l.l.l.l.l.l.l.l.l.l.",
"l.l.l.l.l.l.l.l.l.l.l.l.l.l.l.l.l.l.l.l.l.l.l.l.l.l.l.l.. . X @   . . . X . . @ , < 1 3 1 1 1 < , # # @ @ .     + & : y 0 l.l.l.l.l.l.l.l.l.l.l.l.l.l.l.l.l.l.l.l.l.l.l.l.l.l.l.l.l.l.l.l.l.l.l.l.l.l.l.l.l.l.l.l.",
"l.l.l.l.l.l.l.l.l.l.l.l.l.l.l.l.l.l.l.l.l.l.l.l.l.l.l.H H J E X           .         . X @ @ # @ X .       . . . & 7 y d H G y l.l.l.l.l.l.l.l.l.l.l.l.l.l.l.l.l.l.l.l.l.l.l.l.l.l.l.l.l.l.l.l.l.l.l.l.l.l.l.l.l.l.",
"l.l.l.l.l.l.l.l.l.l.l.l.l.l.l.l.l.l.l.l.l.l.l.l.l.l.K K Q Q ! E y +                                           o $ : 0 s H G y ; l.l.l.l.l.l.l.l.l.l.l.l.l.l.l.l.l.l.l.l.l.l.l.l.l.l.l.l.l.l.l.l.l.l.l.l.l.l.l.l.l.",
"l.l.l.l.l.l.l.l.l.l.l.l.l.l.l.l.l.l.l.l.l.l.l.l.W W Q _ _ ` ` | _ H d : o                                   . o $ = w a G J H G s l.l.l.l.l.l.l.l.l.l.l.l.l.l.l.l.l.l.l.l.l.l.l.l.l.l.l.l.l.l.l.l.l.l.l.l.l.l.l.l.",
"l.l.l.l.l.l.l.l.l.l.l.l.l.l.l.l.l.l.l.l.l.l.l.W Q W E ` ` | | o.5.o.Q H y 7 $ + X .                       . X o + = w s H J K H G a l.l.l.l.l.l.l.l.l.l.l.l.l.l.l.l.l.l.l.l.l.l.l.l.l.l.l.l.l.l.l.l.l.l.l.l.l.l.l.",
"l.l.l.l.l.l.l.l.l.l.l.l.l.l.l.l.l.l.l.l.l.l.W Q Q W W _ _ `  .3.4.X._ W J d w 7 $ + o o X . .         . . . o o & : 0 s H K J G H H l.l.l.l.l.l.l.l.l.l.l.l.l.l.l.l.l.l.l.l.l.l.l.l.l.l.l.l.l.l.l.l.l.l.l.l.l.l.l.",
"l.l.l.l.l.l.l.l.l.l.l.l.l.l.l.l.l.l.l.l.l.W Q Q W J E W _ _ X.4.3.X.` ! E K H y 0 : & + + o o o X X o o o o o + = 9 y G J K E J H H & l.l.l.l.l.l.l.l.l.l.l.l.l.l.l.l.l.l.l.l.l.l.l.l.l.l.l.l.l.l.l.l.l.l.l.l.l.l.",
"l.l.l.l.l.l.l.l.l.l.l.l.l.l.l.l.l.l.l.l.W Q ! W K H K Q _ _  .o.3.3.X.| Q Q W J a y 7 : = & + + + + & + + + $ = 7 0 s H K J K W H H ; l.l.l.l.l.l.l.l.l.l.l.l.l.l.l.l.l.l.l.l.l.l.l.l.l.l.l.l.l.l.l.l.l.l.l.l.l.l.",
"l.l.l.l.l.l.l.l.l.l.l.l.l.l.l.l.l.l.l.J W Q W W K G J W Q _ ` o.3.3.3.4.| Q Q Q K a a y a 0 0 w e q 7 : : = : 7 0 s H J J K E W J s ; l.l.l.l.l.l.l.l.l.l.l.l.l.l.l.l.l.l.l.l.l.l.l.l.l.l.l.l.l.l.l.l.l.l.l.l.l.l.",
"l.l.l.l.l.l.l.l.l.l.l.l.l.l.l.l.l.l.K Q H J K J J d J E W Q Q | o.3.3.3.4.` ! _ W E J d G d s d d s a w 9 9 0 s d H K J K K K W J s ; l.l.l.l.l.l.l.l.l.l.l.l.l.l.l.l.l.l.l.l.l.l.l.l.l.l.l.l.l.l.l.l.l.l.l.l.l.l.",
"l.l.l.l.l.l.l.l.l.l.l.l.l.l.l.l.l.l.K Q J d J G H d H E W W ` ` X.o.o.o.o.X._ ! Q K H H G H G G H s s y a d d H J E K J K J K K G s ; l.l.l.l.l.l.l.l.l.l.l.l.l.l.l.l.l.l.l.l.l.l.l.l.l.l.l.l.l.l.l.l.l.l.l.l.l.l.",
"l.l.l.l.l.l.l.l.l.l.l.l.l.l.l.l.l.l.W W J d H s d s G K W W Q _  .o.o.3.3.X.| ` E K H J H H H a s s a s J E W E E E J J J J K J G s ; & l.l.l.l.l.l.l.l.l.l.l.l.l.l.l.l.l.l.l.l.l.l.l.l.l.l.l.l.l.l.l.l.l.l.l.l.l.",
"l.l.l.l.l.l.l.l.l.l.l.l.l.l.l.l.l.l.J K W s d s s 0 G J W W W ` o.5.5.5.4.o. .` W K W W E J J H H s G J Q W K E E J J H H J J G s a ; & l.l.l.l.l.l.l.l.l.l.l.l.l.l.l.l.l.l.l.l.l.l.l.l.l.l.l.l.l.l.l.l.l.l.l.l.l.",
"l.l.l.l.l.l.l.l.l.l.l.l.l.l.l.l.l.l.H J J d y s s 0 s J W W W ` o.5.5.3.3.o. .| _ Q K K K K K K J J G K Q W W K K J H H H H G s s y & ; l.l.l.l.l.l.l.l.l.l.l.l.l.l.l.l.l.l.l.l.l.l.l.l.l.l.l.l.l.l.l.l.l.l.l.l.l.",
"l.l.l.l.l.l.l.l.l.l.l.l.l.l.l.l.l.l.G J H d 0 0 0 y y J W W W `  .o.5.3.3.o.X. .` ! W E E E E K K E J J K K K H H H H G d d s a y 9 & & & l.l.l.l.l.l.l.l.l.l.l.l.l.l.l.l.l.l.l.l.l.l.l.l.l.l.l.l.l.l.l.l.l.l.l.l.",
"l.l.l.l.l.l.l.l.l.l.l.l.l.l.l.l.l.l.l.H J H s 0 0 0 0 d J E E ! `  .5.5.3.o.X. . .` W E E E W W W E E E K K K H H H H G d d s a y 9 ; & & & l.l.l.l.l.l.l.l.l.l.l.l.l.l.l.l.l.l.l.l.l.l.l.l.l.l.l.l.l.l.l.l.l.l.l.",
"l.l.l.l.l.l.l.l.l.l.l.l.l.l.l.l.l.l.l.d H H s 0 ; & ; d J E E W ! ` o.5.3.o.X. . .| Q E E J W W K E E J G J J H H H G G d s a y y 9 ; & & & l.l.l.l.l.l.l.l.l.l.l.l.l.l.l.l.l.l.l.l.l.l.l.l.l.l.l.l.l.l.l.l.l.l.l.",
"l.l.l.l.l.l.l.l.l.l.l.l.l.l.l.l.l.l.l.l.d H s y 0 & ; u d H K K E `  .3.X. .| | | | ` ! _ _ Q E E W W J G G G G G d d s a y y a 9 - ; & & & & l.l.l.l.l.l.l.l.l.l.l.l.l.l.l.l.l.l.l.l.l.l.l.l.l.l.l.l.l.l.l.l.l.l.",
"l.l.l.l.l.l.l.l.l.l.l.l.l.l.l.l.l.l.l.l.s H s s 0 ; & u d H K K K ! ` X. .` ` ` _ _ ` ` ` ! E J K K E K H H G G G s s a y y a d y - ; ; & & & l.l.l.l.l.l.l.l.l.l.l.l.l.l.l.l.l.l.l.l.l.l.l.l.l.l.l.l.l.l.l.l.l.l.",
"l.l.l.l.l.l.l.l.l.l.l.l.l.l.l.l.l.l.l.l.s d s y 0 ; & 0 u d H J K W ! X. .` _ ! _ ! _ _ Q ! ! ` |  ._ _ K W H H H a a s s d d H y ; ; ; & & & l.l.l.l.l.l.l.l.l.l.l.l.l.l.l.l.l.l.l.l.l.l.l.l.l.l.l.l.l.l.l.l.l.l.",
"l.l.l.l.l.l.l.l.l.l.l.l.l.l.l.l.l.l.l.l.y s s 0 0 0 ; & 0 d H J J K W | | _ Q _ _ Q Q ! Q W W W _ _ Q Q W H K W W K G d d G J E s ; ; & & & & l.l.l.l.l.l.l.l.l.l.l.l.l.l.l.l.l.l.l.l.l.l.l.l.l.l.l.l.l.l.l.l.l.l.",
"l.l.l.l.l.l.l.l.l.l.l.l.l.l.l.l.l.l.l.l.0 s y 0 0 ; & . 0 s G J J K W ` ` _ Q Q E _ ! ` | | _ Q W Q Q Q Q W W H H H W K J J E E G ; 0 ; & & & l.l.l.l.l.l.l.l.l.l.l.l.l.l.l.l.l.l.l.l.l.l.l.l.l.l.l.l.l.l.l.l.l.l.",
"l.l.l.l.l.l.l.l.l.l.l.l.l.l.l.l.l.l.l.l.l.s y y 0 & & G y 0 G H J J E ` ` _ Q Q Q _ ` | |  . .| _ W W E E E W W W W G H E E E Q J y 0 ; & & & l.l.l.l.l.l.l.l.l.l.l.l.l.l.l.l.l.l.l.l.l.l.l.l.l.l.l.l.l.l.l.l.l.l.",
"l.l.l.l.l.l.l.l.l.l.l.l.l.l.l.l.l.l.l.l.l.y 0 0 ; 0 K W y y y d d H K ! _ Q E Q _ |  .X. .| | | _ W W E  .| ` ` ` W J G H K W Q E 0 ; ; & & & l.l.l.l.l.l.l.l.l.l.l.l.l.l.l.l.l.l.l.l.l.l.l.l.l.l.l.l.l.l.l.l.l.l.",
"l.l.l.l.l.l.l.l.l.l.l.l.l.l.l.l.l.l.l.l.l.0 y 0 0 K Q _ J y s d d G J W W Q W W _  .X.o.X. .| | ` ` J d J E _  . .| _ W G H J K W a ; ; & & & l.l.l.l.l.l.l.l.l.l.l.l.l.l.l.l.l.l.l.l.l.l.l.l.l.l.l.l.l.l.l.l.l.l.",
"l.l.l.l.l.l.l.l.l.l.l.l.l.l.l.l.l.l.l.l.l.l.0 s H Q Q ` ` y y a a G G H J J E E _  .| ` _ Q W J G d a a s G G H H _  . ._ J s J K a & ; & & & l.l.l.l.l.l.l.l.l.l.l.l.l.l.l.l.l.l.l.l.l.l.l.l.l.l.l.l.l.l.l.l.l.l.",
"l.l.l.l.l.l.l.l.l.l.l.l.l.l.l.l.l.l.l.l.l.l.l.d J W Q _ ` H y 0 0 y s G H H H J _ _ Q W J J E E G J J J E E J G G G H E _ ! G s a a & & & & & l.l.l.l.l.l.l.l.l.l.l.l.l.l.l.l.l.l.l.l.l.l.l.l.l.l.l.l.l.l.l.l.l.l.",
"l.l.l.l.l.l.l.l.l.l.l.l.l.l.l.l.l.l.l.l.l.l.l.s J J Q ! ! d 0 0 9 0 a a d d s G E J J J Q Q _ _ E E E J K K E K H K W H H d s s s ; ; & & & l.l.l.l.l.l.l.l.l.l.l.l.l.l.l.l.l.l.l.l.l.l.l.l.l.l.l.l.l.l.l.l.l.l.l.",
"l.l.l.l.l.l.l.l.l.l.l.l.l.l.l.l.l.l.l.l.l.l.l.s H H K K K d 0 & ; 8 0 a s a 0 y H J E E _ _ E E J J W ` |  ._ _ W W H K W K G s y 0 ; ; & & l.l.l.l.l.l.l.l.l.l.l.l.l.l.l.l.l.l.l.l.l.l.l.l.l.l.l.l.l.l.l.l.l.l.l.",
"l.l.l.l.l.l.l.l.l.l.l.l.l.l.l.l.l.l.l.l.l.l.l.l.s G J H H s 0 & & 8 0 a G y 9 y s G W _ E H H Q W _ |  ._ _ Q Q Q Q W W H H s y y y 0 ; ; & l.l.l.l.l.l.l.l.l.l.l.l.l.l.l.l.l.l.l.l.l.l.l.l.l.l.l.l.l.l.l.l.l.l.l.",
"l.l.l.l.l.l.l.l.l.l.l.l.l.l.l.l.l.l.l.l.l.l.l.l.y G d G s 0 & & & ; 9 y G a ; ; a H K W G G W _ ` _ _ K J J J E E E E W W W G H s y y 0 ; & & l.l.l.l.l.l.l.l.l.l.l.l.l.l.l.l.l.l.l.l.l.l.l.l.l.l.l.l.l.l.l.l.l.l.",
"l.l.l.l.l.l.l.l.l.l.l.l.l.l.l.l.l.l.l.l.l.l.l.l.l.y s s 0 & & & & & 8 y G a 9 9 G K H d G _ _ Q W J J W _ ` |  .X. .| ` ` W J G H K y 0 ; ; ; l.l.l.l.l.l.l.l.l.l.l.l.l.l.l.l.l.l.l.l.l.l.l.l.l.l.l.l.l.l.l.l.l.l.",
"l.l.l.l.l.l.l.l.l.l.l.l.l.l.l.l.l.l.l.l.l.l.l.l.l.l.y ; ; & & & & & 0 y s a 9 y H G s G W _ W J W _ | X.| _ E J d J E _  .| _ W G H J K 0 0 ; ; l.l.l.l.l.l.l.l.l.l.l.l.l.l.l.l.l.l.l.l.l.l.l.l.l.l.l.l.l.l.l.l.l.",
"l.l.l.l.l.l.l.l.l.l.l.l.l.l.l.l.l.l.l.l.l.l.l.l.l.l.y H Q Q H 0 & & & 0 u u 0 d a 9 9 K K H W _ _ Q E E K G d a a s G G H _  . ._ J s J K 0 ; ; l.l.l.l.l.l.l.l.l.l.l.l.l.l.l.l.l.l.l.l.l.l.l.l.l.l.l.l.l.l.l.l.l.",
"l.l.l.l.l.l.l.l.l.l.l.l.l.l.l.l.l.l.l.l.l.l.l.l.l.l.Q Q ! K d 0 & & ; 0 9 ; a 0 - 9 H J E E J G s G G G G G J J J E E J G G H E _ ! G s a a 0 y ; l.l.l.l.l.l.l.l.l.l.l.l.l.l.l.l.l.l.l.l.l.l.l.l.l.l.l.l.l.l.l.l.",
"l.l.l.l.l.l.l.l.l.l.l.l.l.l.l.l.l.l.l.l.l.l.l.l.l.Q ! ! ! J s 0 & & & & ; 9 ; + 9 d d J J G s s s H J E W Q _ _ _  .3.3. ._ E G H K E G s K K s 0 ; l.l.l.l.l.l.l.l.l.l.l.l.l.l.l.l.l.l.l.l.l.l.l.l.l.l.l.l.l.l.l.",
"l.l.l.l.l.l.l.l.l.l.l.l.l.l.l.l.l.l.l.l.l.l.l.l.l.Q Q ! Q H y ; & . ; & 9 ; + ; d H G a y a s J E E E J G G G G K K _  .3.3.| | _ Q Q Q E E H d y 0 0 0 y l.l.l.l.l.l.l.l.l.l.l.l.l.l.l.l.l.l.l.l.l.l.l.l.l.l.l.l.",
"l.l.l.l.l.l.l.l.l.l.l.l.l.l.l.l.l.l.l.l.l.l.l.l.l.Q Q Q J G y ; & X . + - . ; a d y 8 y s J E E E J G a y a W | |  .3.3.| _ E H J J J J H H a d K K d d d y l.l.l.l.l.l.l.l.l.l.l.l.l.l.l.l.l.l.l.l.l.l.l.l.l.l.l.",
"l.l.l.l.l.l.l.l.l.l.l.l.l.l.l.l.l.l.l.l.l.l.l.l.l.J J J G y ; ; +       . & 0 a y & y a J E J G G 0 a G !  .| _ K K H a a y y y y y G J W W W ` _ E H s s s 9 l.l.l.l.l.l.l.l.l.l.l.l.l.l.l.l.l.l.l.l.l.l.l.l.l.l.",
"l.l.l.l.l.l.l.l.l.l.l.l.l.l.l.l.l.l.l.l.l.l.l.l.l.H H H s y ; & o       o & 0 0 ; 9 a J E J d a 0 G ! _ E K K d a a d G J Q _  .o.o.| ` _ ! Q Q W K J G G G 9 y l.l.l.l.l.l.l.l.l.l.l.l.l.l.l.l.l.l.l.l.l.l.l.l.l.",
"l.l.l.l.l.l.l.l.l.l.l.l.l.l.l.l.l.l.l.l.l.l.l.l.l.d d s y y & +           - ; ; - y H W J d a G K ! E H s a 9 H s a G J W _  .o.o.| _ W E K H G G G G G G s s y ; l.l.l.l.l.l.l.l.l.l.l.l.l.l.l.l.l.l.l.l.l.l.l.l.",
"l.l.l.l.l.l.l.l.l.l.l.l.l.l.l.l.l.l.l.l.l.l.l.l.l.s s y y & & .           X & ; 9 a E Q K a K ! ` H a 9 9 J d H J W ` | X.o. ._ E J G G G G y 0 0 0 0 y y s a 0 - & l.l.l.l.l.l.l.l.l.l.l.l.l.l.l.l.l.l.l.l.l.l.l.",
"l.l.l.l.l.l.l.l.l.l.l.l.l.l.l.l.l.l.l.l.l.l.l.l.l.l.y 0 & & o               + & 0 s ! ` K E ` ! H a 9 J J K K W _ o.o. ._ W G a y y y y G G G G G J J s s 9 + + + + l.l.l.l.l.l.l.l.l.l.l.l.l.l.l.l.l.l.l.l.l.l.l.",
"l.l.l.l.l.l.l.l.l.l.l.l.l.l.l.l.l.l.l.l.l.l.l.l.l.l.l.; & &                 + & 0 s E ` ` ` J a 9 a W W E E ! _ _ E H y ; y K W W E W H J J W J J J K K H K a a + + + l.l.l.l.l.l.l.l.l.l.l.l.l.l.l.l.l.l.l.l.l.l.",
"l.l.l.l.l.l.l.l.l.l.l.l.l.l.l.l.l.l.l.l.l.l.l.l.l.l.l.l.& &                 o & 0 s K Q W J 0 9 d W Q _ ` _ _ E s ; ; y J K E Q ` | ` W W W W G H d G a G d H G a + $ l.l.l.l.l.l.l.l.l.l.l.l.l.l.l.l.l.l.l.l.l.l.",
"l.l.l.l.l.l.l.l.l.l.l.l.l.l.l.l.l.l.l.l.l.l.l.l.l.l.l.l.s y +                 & 0 s G K H 0 9 d W ` ! ` _ E G y ; y a K K E ! Q | X.| | W W W d H K H K G d K G d 0 - l.l.l.l.l.l.l.l.l.l.l.l.l.l.l.l.l.l.l.l.l.l.",
"l.l.l.l.l.l.l.l.l.l.l.l.l.l.l.l.l.l.l.l.l.l.l.l.l.l.l.l.y s &       X X       + 0 s G J s 8 d W | Q Q K G y - ; 0 a s J W E E !  .` | _ _ Q E J H d d a G K d H G 0 0 ; l.l.l.l.l.l.l.l.l.l.l.l.l.l.l.l.l.l.l.l.l.",
"l.l.l.l.l.l.l.l.l.l.l.l.l.l.l.l.l.l.l.l.l.l.l.l.l.l.l.l.0 y &     X @ X       . 0 s G y 8 d W | W H H G y - ; 0 a s H W _ J E _  .`  ._ E E K W G G a d d d d d 0 3 + , - l.l.l.l.l.l.l.l.l.l.l.l.l.l.l.l.l.l.l.l.",
"l.l.l.l.l.l.l.l.l.l.l.l.l.l.l.l.l.l.l.l.l.l.l.l.l.l.l.l.& 0 &   . @ @ @ X     . 0 y y 8 y K | W H d d y - # 0 a s H K _ Q E K _ |  .| W Q G H K H d d d d s s d d 0 - + 3 & l.l.l.l.l.l.l.l.l.l.l.l.l.l.l.l.l.l.l.",
"l.l.l.l.l.l.l.l.l.l.l.l.l.l.l.l.l.l.l.l.l.l.l.l.l.l.l.l.l.& &   X @ @ @ X       - ; ; y K W W H y y 9 - # 9 y a s H K K Q H E Q | | ` Q J H y a G 0 0 d d a a a a a ; 0 + 0 - l.l.l.l.l.l.l.l.l.l.l.l.l.l.l.l.l.l.",
"l.l.l.l.l.l.l.l.l.l.l.l.l.l.l.l.l.l.l.l.l.l.l.l.l.l.l.l.l.& & . X @ @ @ @         ; 8 K K J J y y - - # # 0 a a a H H K K H J E  .` ! K E s s a a d 9 H H 0 d d d 0 0 0 8 $ - - l.l.l.l.l.l.l.l.l.l.l.l.l.l.l.l.l.",
"l.l.l.l.l.l.l.l.l.l.l.l.l.l.l.l.l.l.l.l.l.l.l.l.l.l.l.l.l.l.l.. @ @ @ @ @ .       & y J H s s 9 ; . . # - 9 s a a H H H Q E E Q ` ` W ! K d d J H s 9 a H d d s a 0 0 0 0 8 & 0 - l.l.l.l.l.l.l.l.l.l.l.l.l.l.l.l.",
"l.l.l.l.l.l.l.l.l.l.l.l.l.l.l.l.l.l.l.l.l.l.l.l.l.l.l.l.l.l.l.X @ @ @ @ @ .       + s H d a a 9 - . . # - 9 a d a s H J W K K _ H _ Q E K K W W d a a d d d 9 d K d H d a 3 3 , , + ; l.l.l.l.l.l.l.l.l.l.l.l.l.l.",
"l.l.l.l.l.l.l.l.l.l.l.l.l.l.l.l.l.l.l.l.l.l.l.l.l.l.l.l.l.l.l.l.@ @ @ @ @ .       . y y y y y 9 + . - + - y G H d d H W E W Q H J ! _ E W E E J H H d d d d a a s H d a 0 0 ; ; , , + ; l.l.l.l.l.l.l.l.l.l.l.l.l.",
"l.l.l.l.l.l.l.l.l.l.l.l.l.l.l.l.l.l.l.l.l.l.l.l.l.l.l.l.l.l.l.l.@ @ @ @ @ .         - & 9 9 9 - + . - + $ 0 J Q G G H K ! Q Q J E W W ! ! E E J H d H H d a a s d H d a d s a 0 ; - - + + H l.l.l.l.l.l.l.l.l.l.l.",
"l.l.l.l.l.l.l.l.l.l.l.l.l.l.l.l.l.l.l.l.l.l.l.l.l.l.l.l.l.l.l.l.X @ l # @ @ .       . X - 8 9 & + - - ; 7 0 G ! H H G K Q W Q K W K E ! W ! ! E s a W H d d 9 d H a a H H a 0 0 3 - , - - + y l.l.l.l.l.l.l.l.l.l.",
"l.l.l.l.l.l.l.l.l.l.l.l.l.l.l.l.l.l.l.l.l.l.l.l.l.l.l.l.l.l.l.l.X @ < 3 @ @ .       . . & - 0 = + + - y s W G H Q W K K K Q Q _ _ d K E E ! ! E E H H d H H d a a s d H d a d s a 0 ; - - + + H l.l.l.l.l.l.l.l.l.",
"l.l.l.l.l.l.l.l.l.l.l.l.l.l.l.l.l.l.l.l.l.l.l.l.l.l.l.l.l.l.l.l.X @ < m X @ .         . + & 0 0 9 ; ; d d ! H W E ! ! d E _ _ | _ J E H E ! W ! ! E s a W H d d 9 d H a a H H a 0 0 3 - , - - + 0 l.l.l.l.l.l.l.l.",
"l.l.l.l.l.l.l.l.l.l.l.l.l.l.l.l.l.l.l.l.l.l.l.l.l.l.l.l.l.l.l.l.@ @ X . @ @ X           o o & 0 0 9 ; ; d W H E K E _ d H _ _ _ _ E K W E ! ! ! Q W a J K H J s 9 H H s a H a d d 0 0 3 ; & ; + + H l.l.l.l.l.l.l.",
"l.l.l.l.l.l.l.l.l.l.l.l.l.l.l.l.l.l.l.l.l.l.l.l.l.l.l.l.l.l.l.l.@ @ @ @ @ @ X           . & & 0 0 0 9 ; d G W ! d H _ d d ! ! _ | s d ! G ! _ E Q E J K E K a y H H d H s a 0 G G a d d 0 ; - - + - 0 l.l.l.l.l.l.",
"l.l.l.l.l.l.l.l.l.l.l.l.l.l.l.l.l.l.l.l.l.l.l.l.l.l.l.l.l.l.l.l.@ @ @ @ @ @ X           . & & & ; ; ; ; ; 0 H W H H E H H _ _ X._ a E E K ! ! E ! E K K K d G d d K K d d H d d H d d d 0 0 0 3 - , , + 0 l.l.l.l.",
"l.l.l.l.l.l.l.l.l.l.l.l.l.l.l.l.l.l.l.l.l.l.l.l.l.l.l.l.l.l.l.l.X . X @ @ @ X             . o & & - , ; 0 a d H H H H K E ! | ` ! a E ! ! W ! ! H ! ! H s ! K d K ! H W H H H a d d s d G a 0 3 3 1 - , 0 o l.l.l.",
"l.l.l.l.l.l.l.l.l.l.l.l.l.l.l.l.l.l.l.l.l.l.l.l.l.l.l.l.l.l.l.l.l.X . X @ @ X .             X & & - - - ; 0 a H H s 0 ! ! ! _ | H G ! ! E H ! d d ! K d s H H d K _ Q K H E a a a d d H d d a 0 0 - , - g ; & l.l.",
"l.l.l.l.l.l.l.l.l.l.l.l.l.l.l.l.l.l.l.l.l.l.l.l.l.l.l.l.l.l.l.l.l.X X . . X @ .                 & & - - ; 0 a s K H y ! W W E _ H ! H E E W H H ! ! W G a G K E _ ! H G G J H a a H W d d d a a 0 0 0 ; - 0 ; 0 l.",
"l.l.l.l.l.l.l.l.l.l.l.l.l.l.l.l.l.l.l.l.l.l.l.l l.l.l.l.l.l.l.l.l.l.X X X . X X                   & - ; - - 0 0 d H H E ! ! W W W K K K W K K E K K ! K a G Q ` Q W K G H E E a y s H d d d H d 0 a 0 0 ; ; - 1 l "
};
