/* XPM */
static char *button[] = {
/* columns rows colors chars-per-pixel */
"370 147 233 2 ",
"   c #030302",
".  c #090403",
"X  c #080807",
"o  c #0B0B0A",
"O  c #180505",
"+  c #1A1917",
"@  c #1B1A18",
"#  c #151513",
"$  c #10100E",
"%  c #340B08",
"&  c #2A1310",
"*  c #24221F",
"=  c #242421",
"-  c #282723",
";  c #2A2925",
":  c #2B2B28",
">  c #272825",
",  c #35302C",
"<  c #510B08",
"1  c #7D100A",
"2  c #72110B",
"3  c #612B25",
"4  c #52423B",
"5  c #5A574D",
"6  c #5B584E",
"7  c #55544B",
"8  c #5B5950",
"9  c #4C4A43",
"0  c #73584F",
"q  c #6D6C5E",
"w  c #68645B",
"e  c #716E5F",
"r  c #7A6357",
"t  c #71705F",
"y  c #6E6D62",
"u  c #716F60",
"i  c #706F69",
"p  c #6F7062",
"a  c #737161",
"s  c #717169",
"d  c #7A786A",
"f  c #7C7B70",
"g  c #890C06",
"h  c #9C0A03",
"j  c #971811",
"k  c #AD0700",
"l  c #A40802",
"z  c #AB0801",
"x  c #AC0F08",
"c  c #B10700",
"v  c #BC0700",
"b  c #B50902",
"n  c #BC0900",
"m  c #B40F08",
"M  c #B8120B",
"N  c #BA1B13",
"B  c #AB1810",
"V  c #B8241B",
"C  c #AD251D",
"Z  c #89372E",
"A  c #B82B23",
"S  c #B7352C",
"D  c #AE372E",
"F  c #C40700",
"G  c #C30901",
"H  c #C90902",
"J  c #C70E07",
"K  c #C4140C",
"L  c #C8130C",
"P  c #C51B13",
"I  c #C81B14",
"U  c #C6231B",
"Y  c #C82B23",
"T  c #C7342C",
"R  c #C83B33",
"E  c #D03630",
"W  c #AA463B",
"Q  c #B9443B",
"!  c #87443A",
"~  c #C5443B",
"^  c #CB433B",
"/  c #D1423C",
"(  c #BA4C42",
")  c #A8584A",
"_  c #BA544A",
"`  c #B5584D",
"'  c #A66959",
"]  c #BA645A",
"[  c #9D7866",
"{  c #817D71",
"}  c #A57867",
"|  c #BB766C",
" . c #BA776C",
".. c #8D6053",
"X. c #C94B43",
"o. c #C8544C",
"O. c #C65C53",
"+. c #D2544E",
"@. c #C6645B",
"#. c #D3635C",
"$. c #C76C63",
"%. c #D56B64",
"&. c #C6746B",
"*. c #D6736C",
"=. c #C77C73",
"-. c #D77C75",
";. c #88877B",
":. c #9B8A77",
">. c #99947C",
",. c #9E826E",
"<. c #BB867A",
"1. c #A48775",
"2. c #C8857B",
"3. c #D8827C",
"4. c #8F8E81",
"5. c #908F82",
"6. c #939182",
"7. c #9A9783",
"8. c #9C9C86",
"9. c #9D9D89",
"0. c #979689",
"q. c #9E9E91",
"w. c #A19B86",
"e. c #A19D89",
"r. c #A89987",
"t. c #B99589",
"y. c #BB9D91",
"u. c #B69083",
"i. c #9FA08A",
"p. c #9FA087",
"a. c #9FA090",
"s. c #A2A28E",
"d. c #A1A187",
"f. c #A4A492",
"g. c #A9AA96",
"h. c #ACAD9A",
"j. c #A7A796",
"k. c #BBA79A",
"l. c #AFB09E",
"z. c #B1B19E",
"x. c #BAB09F",
"c. c #AEAEA1",
"v. c #B5AFA2",
"b. c #B3B3A5",
"n. c #B7B8A6",
"m. c #B6B5A9",
"M. c #BDBCAE",
"N. c #BBB6A7",
"B. c #BFBDB1",
"V. c #BEBFB8",
"C. c #AFB0A2",
"Z. c #C98D83",
"A. c #D88C86",
"S. c #CA958B",
"D. c #D9938C",
"F. c #C99D92",
"G. c #DA9A94",
"H. c #E29A95",
"J. c #CAA69B",
"K. c #D6A59C",
"L. c #CCADA2",
"P. c #C3ADA1",
"I. c #D7ACA4",
"U. c #CDB9AE",
"Y. c #C7B5A9",
"T. c #D3B5AB",
"R. c #C0BEB1",
"E. c #CEBDB1",
"W. c #D2BDB2",
"Q. c #D9BCB3",
"!. c #E3AAA5",
"~. c #E4B2AC",
"^. c #E6B9B4",
"/. c #E1A19C",
"(. c #BFC0B2",
"). c #BFC0AE",
"_. c #C3C2B5",
"`. c #C5C5B9",
"'. c #CBCABE",
"]. c #CAC5B9",
"[. c #D1C1B6",
"{. c #D2C6BA",
"}. c #D2CABE",
"|. c #DAC3BA",
" X c #C0C1AE",
".X c #E7C3BD",
"XX c #CCCCC2",
"oX c #CDCDC6",
"OX c #D3CEC2",
"+X c #D9CDC3",
"@X c #CFD0C3",
"#X c #CFD0C8",
"$X c #D3D4C6",
"%X c #D5D5C9",
"&X c #D9D5CC",
"*X c #D7D8CC",
"=X c #D9D9CE",
"-X c #DCD1C7",
";X c #DCDCD3",
":X c #DBDCD5",
">X c #EAC9C5",
",X c #E9D3CD",
"<X c #E2DDD5",
"1X c #EBDBD6",
"2X c #F0DCD9",
"3X c #DFE0D6",
"4X c #DFE0D9",
"5X c #E0E1D7",
"6X c #E4E5DB",
"7X c #EAE4DE",
"8X c #E6E8DE",
"9X c #E8E9DF",
"0X c #F1E2DE",
"qX c #E6E7E0",
"wX c #EBEBE4",
"eX c #EEEFE9",
"rX c #E8E8E1",
"tX c #F2EAE6",
"yX c #F2EEEA",
"uX c #F2E5E3",
"iX c #EFF0EA",
"pX c #EEF0E7",
"aX c #F2F3EC",
"sX c #F5F7EE",
"dX c #F6F6F3",
"fX c #F8F7F6",
"gX c #F7F8F5",
"hX c #F8F8F6",
"jX c #F7F7F8",
"kX c #F8F7F8",
"lX c #F7F8F8",
"zX c #F8F8F8",
"xX c None",
/* pixels */
"xXxXxXxXxXxXxXxXxXxXxXxXxXxXxXxXxXxXxXxXxXxXxXxXxXxXxXxXxXxXxXxXxXxXxXxXxXxXxXxXxXxXxXxXxXxXxXxXxXxXxXxXxXxXxXxXxXxXxXxXxXxXxXxXxXxXxXxXxXxXxXxXxXxXxXxXxXxXxXxXxXxXxXxXxXxXxXxXxXxXxXxXxXxXxXxXxXxXxXxXxXxXxXxXxXxXxXxXxXxXxXxXxXxXxXxXxXxXxXxXxXxXxXxXxXxXxXxXxXxXxXxXxXxXxXxXxXxXxXxXxXxXxXxXxXxXxXxXxXxXxXxXxXxXxXxXxXxXxXxXxXxXxXxXxXxXxXxXxXxXxXxXxXxXxXxXxXxXxXxXxXxXxXxXxXxXxXxXxXxXxXxXxXxXxXxXxXxXxXxXxXxXxXxXxXxXxXxXxXxXxXxXxXxXxXxXxXxXxXxXxXxXxXxXxXxXxXxXxXxXxXxXxXxXxXxXxXxXxXxXxXxXxXxXxXxXxXxXxXxXxXxXxXxXxXxXxXxXxXxXxXxXxXxXxXxXxXxXxXxXxXxXxXxXxXxXxXxXxXxXxXxXxXxXxXxXxXxXxXxXxXxXxXxXxXxXxXxXxXxXxXxXxXxXxXxXxXxXxXxXxXxXxXxXxXxXxXxXxXxXxXxXxXxXxXxXxXxXxXxXxXxXxXxXxXxXxXxXxXxXxXxXxXxXxXxXxXxXxXxXxXxXxXxXxXxXxXxXxXxXxXxXxXxXxXxXxXxXxXxX",
"xXxXxXxXxXxXxXxXxXxX                              X                                   X X                                         X X     X X               X             X                           X                     X                   X             X                         X                                                                                                                         X                     X X                               X                                                                                                                                                                                                                                                                     xXxXxXxXxXxXxXxXxXxX",
"xXxXxXxXxXxXxXxXxXxX                                                                                                                                                                                                                                                                                                                                                                                                                                                                                                                                                                                    .                                                                                                                                         xXxXxXxXxXxXxXxXxX",
"xXxXxXxXxXxXxXxXxXxX                                                                                                                                                                                                                                                                                                                                          X                                                                                                                                                                                                                                         O O O                               . . O O .   .   . .   X                     . .   O . O .         .             X     X   X           xXxXxXxXxXxXxXxXxX",
"xXxXxXxXxXxXxXxXxXxX: = * = = = > = = = * * = > * * = = = = = = = = = = = = = * = = = = = = = = = = = = = = = = = = = = * = = = = = = = = = = = * * = = = = = = = = = = * = = = = = = = = = = = * * = = = = = = = = = = * * = = = = = = = = = = * * = = = = = = = = = = = = = = = = = = = = = = * * = = = = = = = = = = * = * = = = = = = = = > * * = = = = = = = = = = = = = = = = = = = = = = * = = = = = = = * = = = * = = = = = = = = = = = = = = = = = = = = = = = * = * = = = = = > = * = * * = = = = = = * @ @ * * = = = = = = = = = = = * * = = = = = > = = = = = = = = > = = = * = = = * * = - 3 3 2 < % * = = * = = = = = = * & % < < < < < % % % % % % & % % % % % % % % % % % < < < < < < & @ * = = , & @ @ % & % % % % % O O O = = = xXxXxXxXxXxXxXxXxX",
"xXxXxXxXxXxXxXxXxX9 w s i y i i s s s i i i i i i i i s s s i s i s i s i s i i i i i i y i i i y y s i s s i s s s i i y i i i s i y y f s s i i i i s i i s s i i i s i i i y s s i i i i i i i i s s i i s s i i s s i i i y y i s s i i i i i i i s s i i i y i i s s y s s i i i i i y y i i i s i p y s s s i i i i i i i i i s i i i i i i i i i s i s s i y i i y i i y y i i s s y i y i i s s i i s s i i i i y i i i i i i i i s s i y y i i i i i i i i i i i i i i i i i i i y i i i i s s i i i i 0 0 w i y i i i s i s i i s i i i y s s i i i i y i i i y i y y s i i i i i i i i i i s ..) W D Z 3 w i i s s s i i i q ! j l l z k z g g h g g g 1 2 1 1 1 1 1 1 g 1 g g h l l c c l Z 0 u y 8 0 3 3 3 2 2 1 g g g 1 2 1 3 0 y 7 xXxXxXxXxXxXxXxXxX",
"xXxXxXxXxXxXX X # 9 0.b.b.c.C.b.c.b.b.c.v.v.v.b.C.C.b.b.b.b.c.v.c.c.b.b.C.b.C.b.b.v.b.c.b.b.v.b.b.b.b.b.b.c.c.b.C.b.b.c.m.m.c.c.b.b.m.v.c.c.c.c.C.b.b.C.b.c.b.b.v.c.b.b.b.C.C.b.c.b.b.b.C.b.b.v.C.b.b.b.C.b.b.b.b.c.b.b.b.c.b.C.b.b.v.v.v.b.c.c.C.b.C.C.C.b.b.b.c.C.b.b.c.b.b.v.c.c.b.m.b.b.n.b.b.b.c.b.m.b.C.b.b.m.b.c.b.b.C.b.c.v.m.c.v.m.v.b.C.v.C.b.c.b.b.c.C.C.b.v.b.b.b.b.b.v.m.b.b.b.v.v.b.C.b.C.b.b.c.b.c.C.m.v.b.b.b.b.b.c.b.b.c.b.v.v.b.b.b.b.m.v.b.c.b.C.C.b.b.v.b.c.b.v.c.v.c.b.v.m.C.b.b.b.C.b.c.c.y. .t.c.b.b.b.b.b.b.v.b.b.m.c.b.b.b.b.b.C.b.c.b.c.v.b.b.b.b.b.b.c.b.c.v.c.m.c.v.b.b.b.b.b.k.u. .] ' u.c.b.C.b.C.b.b.v.r.~ K H F F v F n v F F v n M n m m x m m b b b v F F v F F F G A  .y.u.) V M V C B z l z c k z z B C ) [ ..1 g 1 g xXxXxXxXxX",
"xXxXxXxXxXxX    X 9 q.B.B.V.B.V.B.B.B.B.B.V.R.R.B.B.B.B.B.B.V.V.V.B.B.B.B.B.B.B.R.R.B.B.B.V.B.R.B.B.B.B.V.B.B.B.B._.B.B.B.R.B.B.B.B.B.B.B.R.V.B.B.B.B.B.B.B.B.B.B.B.B.B.B.B.B.B.B.B.B.V.B.B.R.B.B.B.B.B.B.B.B.B.B.B.R.R.M.B.B.V.V.B.B.M.R.V.M.R.V.B.B.B.B.B.(.B.B.B.B.B.B.V.V.B.M.B.V.B.B.R.M.M.B.B.B.(.R.B.B.R.B.V.B.B.B.R.B.B.B.M.V.B.M.V.R.R.B.B.B.B.B.B.V.V.B.B.B.B.V.B.B.B.R.B.V.B.B.B.M.R.B.B.B.V.V.B.B.B.B.B.R.B.B.B.B.B.B.B.B.B.B.B.B.R.B.B.B.B.V.B.B.B.B.B.B.B.B.B.B.B.R.M.V.B.M.V.M.V.B.B.B.B.B.B.B.B.N.v.N.V.B.B.B.B.B.B.B.B.B.B.V.B.B.B.B.B.B.B.B.B.B.B.B.B.B.B.B.V.M.V.V.B.B.B.B.B.B.B.B.B.B.B.B.Y.k.y.P.M.V.B.B.B.R.R.m.<.T J G G F F F F F F F F n n n n n n b n n n v v v v H n F v n N Q ` ` A m v m c x c c c c c k c b x A D Z j z z x l xXxXxXxX",
"xXxXxXxXxXxXo X # 9 q.V.V.M.V.V.M.B.B.B.R.B.R.R.B.B.B.B.B.B.B.B.B.B.B.B.R.B.R.R.R.R.B.B.R.M.B.B.R.B.R.B.B.R.B.B.B.B.M.B.B.M.R.R.R.R.B.R.B.R.B.B.R.R.B.R.R.R.B.B.B.B.B.B.R.B.R.R.R.R.B.B.B.R.B.B.B.B.R.M.B.R.R.R.R.B.R.R.R.B.R.R.V.M.R.R.R.R.M.R.M.R.R._.M.R.R._.B.B.B.B.B.B.B.B.M.R.B.B.R.R.R.R.R.B.B.B.M.M.R.R.B.B.B.M.B.B.R.B.R.B.R.R.R.R.M.R.R.B.B.B.R.R.R.B.B.B.B.B.R.M.B.R.B.R.R.R.R.R.R.R.B.B.B.R.B.R.B.R.B.B.B.B.B.B.B.B.R.R.B.R.R.B.B.R.R.R.R.B.M.R.R.R.B.B.B.B.R.R.R.R.R.R.R.R.R.B.V.R.B.R.B.B.B.B.B.B.M.Y.Y.B.B.B.B.B.R.R.P.k.N.R.R.Y.Y.R.R.R.B.B.B.R.B.B.B.B.B.B.R.B.B.R.B.B.R.R.V.B.R.B.B.k.y.J.M.M.Y.B.M.B.B.R.v.J.J.J.y.] V J G G H G G G G G G G F n n n n n n b n n n n n v n n n v v n n N B n b b b c c k k k k k c k k c c m m m b c z l xXxXxXxX",
"xXxXxXxXxX, , 4 9 f b.oXV.oXV.M.M.M.B.B.B.B.M.M.B.B.B.M.B.B.B.M.B.B.B.M.B.B.M.R.B.M.B.M.R.B.M.B.B.B.B.B.M.B.B.R.B.B.B.B.M.B.B.B.B.M.B.M.M.B.B.B.B.M.M.B.B.B.M.B.B.B.M.B.B.M.M.R.B.B.B.R.B.B.B.B.B.B.M.B.M.M.R.M.B.B.M.B.B.M.M.B.M.B.M.R.M.R.R.B.M.M.M.M.M.R.M.M.B.B.B.B.B.B.B.M.M.B.B.B.B.B.M.B.B.M.B.B.M.R.M.B.M.B.B.M.M.B.B.M.M.B.M.M.M.R.M.R.M.B.B.B.B.B.B.B.B.B.B.B.R.M.R.B.M.M.M.B.M.B.R.M.M.B.B.B.B.B.B.M.B.B.B.B.B.B.B.M.B.M.B.M.B.B.M.B.B.B.M.B.B.R.M.M.B.B.B.B.M.R.R.B.B.B.R.M.B.M.M.R.M.B.M.B.M.M.M.B.M.V.M.B.B.B.B.B.R.M.v.F.k.M.R.N.y.k.N.R.R.B.B.B.B.B.B.B.B.B.R.B.B.B.B.B.R.R.R.B.B.B.N.F. .u.v.M.V.B.M.B.B.v.<.] ` o.o.T K F G G H G G G G G G G n n n b n n b n n n n n n v F n n v v v v v b b b c c c k k k k k k k k k k k k c c c k l g xXxXxXxX",
"xXxXxXX = 7 f ;.f c.oX:X:X#XV.M.M.V.B.B.M.M.B.R.B.M.M.B.B.B.B.M.B.M.M.B.M.B.M.R.M.R.R.M.B.M.R.R.M.R.B.B.M.R.R.B.B.B.M.M.B.B.B.M.B.B.R.M.R.M.B.B.M.M.R.M.M.M.M.B.B.M.M.B.R.M.B.M.M.M.B.R.B.M.B.B.B.M.M.R.B.B.M.R.B.B.B.B.M.R.R.B.R.M.B.M.M.B.M.R.R.B.M.R.R.R.B.M.R.M.B.B.B.B.B.B.B.M.B.M.B.B.M.B.M.B.M.R.R.B.B.M.M.B.B.B.M.R.B.R.B.R.B.M.B.R.M.M.M.B.R.M.M.M.B.M.B.B.B.B.B.M.R.B.M.B.M.M.B.M.B.M.M.B.B.M.M.B.B.B.B.B.B.B.R.B.B.M.M.R.B.B.R.B.B.M.B.R.M.M.B.R.M.M.B.B.B.B.M.R.R.M.M.M.B.M.M.R.R.M.R.R.M.M.R.B.M.B.B.M.M.B.B.B.M.B.R.M.N.P.N.R.R.N.F.k.N.R.B.M.B.B.M.R.B.B.M.B.R.R.R.R.R.R.R.R.R.R.B.B.M.v.y.S.x.M.M.k.t.k.R.k.$.U M P K K G F G G F G G G G F n n n n n n n b n n n n n n n n F n b b v v n n v b b b c c k k k k k k k l l k k k k c c k h 2 % xXxXxX",
"xXX X   @ 8 6.9.q.M.:X4X4X*XoXV.M.B.B.B.M.M.V.R.R.B.B.B.B.B.B.M.R.B.B.R.R.R.R.R.B.R.R.B.R.M.R.R.R.R.R.R.R.R.V.B.B.B.B.B.R.R.R.R.R.R.R.B.R.R.R.R.R.R.R.R.R.R.R.R._.B.B.B.R.B.R.B.R.B.R.R.B.B.B.R.R.M.B.R.R.R.B.R.B.B.B.R.B.R.R.R.R.B.R.B.R.R.R.R.R.R.R.M.R.R.R.R.R.B.B.M.R.R.R.R.B.B.B.B.R.R.R.R.B.R.R.R.R.R.R.R.B.R.B.R.R.R.R.R.R.R.R.B.R.R.R.R.B.R.R.B.B.R.B.R.R.R.B.B.R.M.R.R.R.R.R.R.R.R.R.B.B.R.R.B.R.R.R.B.B.B.B.B.M.B.B.R.B.R.B.R.R.R.R.R.R.R.B.R.M.R.R.M.B.B.B.B.R.R.R.R.B.R.R.R.R.R.R.M.R.R.B.R.R.R.R.R.B.B.R.R.B.B.B.B.B.B.B.B.R.R.R.Y.Y.M.R.R.B.R.B.R.Y.y.t.y.k.J.N.N.N.M.M.N.v.Y.R.R.B.R.B.V.M.N.M.R.N.y.<.F.N.J.] P F H F H H n F G F n G G G n n n n n n n n n n n n n n n n n n n n v b n v n n v b c k k k k k k l l l l l l l k k k k k h 2 O     xX",
"xX      @ 8 6.0.q.m.#XqX4X:XoXM.V.V.M.B.B.B.B.B.R.R.R.R._.B.B._.R._.R.R.R.R.R.R.R.R.R.R.R.R.R.R.R.R.R.R.B.B.B.B.R.R.R.R.R.R.R.R.R.R.R.R.R.R.R.R.R.R.R.R.R.R.R.R.M.R.R.R.R.R.R.R.R.R.R.R.R.R.R.R.R.R.R.R.R.R.R.R.R.R.R.R.R.R.R.R.R.R.R.R.R.R.R.R.R.R.R.R.R.R.R.R.R.R.R.R.R.R.R.R.R.R.R.R.R.R.R.R.R.R.R.R.R.R.R.R.R.R.R.R.R.R.R.R.R.R.R.R.R.R.R.R.R.R.R.R.B.B.R.R.R.R.B.B.B.R.R.R.R.R.R.R.R.R.R.R.R.B.B.R.B.R.R.R.R.R.R.R.B.R.R.R.R.R.R.R.R.R.R.R.R.R.R.R.B.R.R.R.R.R.R.R.R.R.R.R.R.R.R.R.R.R.R.R.R.R.R.R.R.R.R.R.R.R.R.R.B.R.R.R.R.R.B.R.B._.B.B.B.V.B.B.B.R.R.R.N.t.| =. .2. .<. .u.Z. .| =.k.R.R.R.R.R.R.R.R.M.M.P.k.k.M.k.O.P F F n n F F n F n n G n n G n n n n n n n n n n n n n n n n n n n b v v b v v v c c k k k l k l l l l l l l l l z z z k z 2 O .   xX",
"xX    X @ 8 6.q.q.c.oX#X=XoXoXoXR.XXR.R.B.B.B.B.B.R.R.R.B.B.B.M.M.R.R.R.R.R.B.R.R.R.R.R.R.R.R.R.R.R.R.R.R.R.B.R.R.R.B.R.R.R.R.R.B.B.M.B.R._.R.B.B.R.R.R.B.R.R.R.R.R.B.B.R.R.R.R.R.R.R.R.R.R.B.B.R.R.R.R.R.R.R.R.R.R.R.R.R.R.R.R.R.R.R.R.R.R.M.R.R.R.R.R.B.B.R.R.R.R.R.R.R.R.R.R.R.M.R.R.R.R.B.B.R.R.R.R.R.R.R.R.R.R.R.R.R.R.R.R.R.R.R.R.R.R.R.R.R.R.R.R._.B.B.R.B.R.B.B.B.V.R.R.R.R.R.M.R.R.R.R.R.R.R.R.B.B.R.R.R.R.R.B.R.B.R.R.R.R.R.R.R.R.R.R.R.R.R.R.B.M.B._._.R.R.R.M.R.R.R.R.R.R.R.R.R.R.R.R.R.R.R.R.R.R.R.R.R.R.R.B.R.B.B.R.R.R.R.B.B.B.B.B.B.B.B.B.R.R.R.M.k.t.2.2. .| | $.$.$.O.~ ( u.Y.B.R.R.B.M.M.M.R.B.B.M.B.N.u.Q J F H n n n n n n n n n n n G n n n n n n n n n n n n n n n n n n b b n b b v v c c k k k k l l h h l l h l l l k z k k k l 2 O     xX",
"xX      @ 8 6.i.0.f.c.b.b.m.V.*X&XoXoXR.B.M.B.B.B.B.B.B.B.B.M.B.B.B.B.M.R.M.M.B.R.R.R.R.R.B.M.B.B.B.M.B.R.R.B.M.B.R.M.R.R.B.R.R.M.B.M.B.M.M.B.R.B.B.R.B.B.M.M.M.R.B.B.M.M.B.R.R.R.M.R.B.B.B.B.M.B.R.R.M.M.B.B.R.R.B.B.R.R.B.M.R.B.M.B.R.B.M.B.B.B.R.R.R.M.B.B.B.B.B.B.B.M.R.R.R.B.B.B.B.B.B._.B.R.R.M.B.B.R.R.B.M.B.R.M.R.R.R.R.R.R.R.R.R.R.B.M.B.R.B.M.B.B.B.B.R.V.B.B.M.R.B.R.M.R.M.R.M.V.M.B.M.B.R.B.B.B.M.B.B.B.B.B.M.B.B.R.B.B.B.M.R.B.B.B.R.R.R.R.R.Y.m.M.M.R.R.R.R.B.B.M.B.R.M.B.R.R.M.R.B.B.R.M.B.B.B.B.B.B.M.M.B.R.B.M.M.B.B.B.B.B.B.B.R.R.B.M.B.R.B.R.R.M.M.N.v.k.y.t.u.Z.u. .| =.F.R.M.R.R.B.N.k.k.R.B.B.V.N.y.O.I G n n n n n n n n n G n n G G n n n n n n n n n n n n n n n n n n n n n b v b c c k k z l l l h h h h l h h l l l z z k k z 2 %     xX",
"xX      @ 8 6.9.9.9.q.q.q.c.oX:X:X:XoXR.B.B.B.B.B.R.B.B.M.B.B.(.M.M.R.R.M._.R.B.B.B.B.M.R.M.B.R.R.B.B.B.R.R.R.B.B.B.B.V.R.B.B.B.M.B.B.B.R.B.M.M.B.B.B.B.R.R.R.M.M.M.B.B.M.R.R.R.B.M.R.B.M.M.M.B.R.B.B.R.B.B.R.R.R.B.B.R.R.B.R.R.B.B.R.B.B.B.M.M.B.B.R.M._.M.M.B.R.R.B.B.R.R.B.B.R.M.M.B.B.M.M.M.M.R.M.B.R.B.M.R.R.R.R.R.M.M.R.R.B.B.R.R.R.M.M.M.B.B.B.R.B.B.B.B.R.R.R.B.R.R.M.M.B.M.R.R.R.M.M.R.R.B.R.R.B.M.B.B.B.M.B.B.M.M.B.B.B.B.B.B.R.R.B.B.B.v.F.F.F.u. . .k.m.R.R.R.B.V.R.R.V.B.M.M.R.M.M.R.R.R.R.R.B.B.B.R.B.B.B.M.M.B.R.B.B.B.B.B.M.B.Y.M.M.M.B.B.B.B.R.R._.R.B.B.B.M.M.N.Y.Y.v.v.P.N.v.k.N.Y.M.k.Z.F.Y.M.(.B.F.O.I J G F n n n v n n n n n n F n n n n n n n n n F G n H F n n n n n n n n v v b c c k k z l l l l l h l l l h l l l l l k k k l 1 O     xX",
"xX      # 8 6.9.8.8.8.9.9.h.XX:X:X:X#XR.R.V.V.B.(.M.(.(.(.V.B.B.M.B.B.M.B.B.B.B.B.B.B.B.B.V.M.(.B.R.R.R.B.B.B.B.B.B.B.B.B.B.R.B.V.B.B.B.B.B.R.B.B.M.B.B.M.R.R.R.B.B.B.B.M.B.B.(.M.B.R.B.B.B.B.M.B.B.B.B.B.B.B.B.B.B.B.B.B.B.B.V.M.B.B.B.B.B.B.B.(.V.B.B.B.B.B.B.B.B.M.B.V.B.B.R.B.B.B.B.M.B.B.B.M.R.M.R.B.R.B.B.B.B.B.B.B.R.R.B.B.B.B.B.B.B.B.B.B.B.B.B.B.B.V.B.B.B.B.B.M.M.M.R.B.B.B.B.B.B.B.(.R.B.B.B.M.B.B.M.M.B.M.M.B.B.B.B.B.B.B.R.B.B.B.B.B.y.] O._ D C D ] t.y.J.Y.N.N.M.M.V.B.R.B.B.B.R.B.R.B.M.B.B.B.B.B.B.B.B.B.B.B.B.R.R.R.M.M.M.N.y.t.k.J.k.v.N.P.m.Y.M.M.Y.Y.R.M.R.M.M.V.B.R.R.m.t.| &.<.u.Z. .Z.Z.y.k.Z.O.U J H G n n n n n n n n n n n G n n n n n n G n n n n G n G n n n n n n n v b b b b c k z l l l l l l l l l l l l h l z l k k B j < O     xX",
"xX      @ 8 6.9.8.8.8.8.9.c.XX:X4X:XoXV.R.R.`.R.(.(.V.`.(.(.(.(._.`.`._.(.B.`.`.`.B.`.`.(.(.(.(.R.`.R.R._._._._.`._._.(.`.`.R.`.(.(.`.`.`.(._._._._.`.`.`._._.R._.`._._._._.`.(.B.`.`._._.`.`._.R.R.`.`.R.`.`.R.(.`.`.B._.`.V.`._.B._._.`.R.`.`.(.(.`.`.(.`._.B.`._.`.`.`.R.`._.`._.`.`.B.(.`._.`._.R._._._._.(.`.`.`.`.B.R.B.`.`.(.(.`._.(.`.`.B.(.`.`.`.(._.B._.R.`._.`._.`.`._.(.`.(.(.(.(.`.`._._._._.`._.`.`.`.`._.`._.B._.`.`.R._.`._.B.`._.J.&.( ~ S B m N S ` | &.|  .t.y.k.J.R.R.].`.R.`.`.R.R._.`._.R.R._.B.`.`._.`.R._.R.k.F.Y.R.P.=.@.] | | &.&.&.<.u.t.u.t.J.Y.R.R.v.J.M.`._._.R.F. .@.( R ~ Q ~ ~ X.X.~ U J H G n n n n n n n n n n n n n n n n G n n G n n n G n G G G n F n n n n v b b b b c k z l l l l l l h l l l l l l l l k k B W 0 *       xX",
"xX      @ 6 6.9.9.8.i.9.9.f.b.B.`.V.oXXXoXoX&X:X=X=X=X:X:X:X=X=X:X=X:X:X:X&X=X=X=X:X:X=X:X=X:X:X:X:X:X:X:X:X=X;X:X:X&X&X;X;X;X:X=X=X:X:X:X:X:X=X=X:X=X:X:X:X:X=X:X:X:X=X:X:X;X;X=X:X:X=X:X:X:X=X&X:X=X:X=X:X:X=X=X:X:X=X=X:X:X=X:X;X:X=X:X=X:X:X=X=X3X:X=X:X=X:X=X:X:X:X&X=X=X=X=X=X:X:X=X*X:X=X;X;X;X:X=X;X:X=X=X:X=X=X=X:X=X:X;X;X=X=X:X:X=X:X:X=X:X:X=X=X=X;X:X&X:X:X:X&X:X:X:X:X:X:X=X:X3X;X=X:X:X&X:X:X:X:X=X=X;X=X:X:X&X:X:X:X%X&X:X=X:X=X&X&X|.I.G.A.@.S A R X.X.X.S R X.O.` $.J.%X;X:X=X:X:X:X=X:X:X=X=X:X&X=X=X=X:X:X&X=X[.2.$.J.-X+XI.D.A.A.A.-.*.*.$.$.$.O.o.| J.&X+XJ.G.}.=X;X:X-X|.T.G.*.+.R E Y L L L J H H H F F n n n n n n n n b b n n n F G G n n G G n G G G G G n G n n n n v b b b b c c c k l l l l l l l l h h h h l l l c x S [ q -       xX",
"xXX     @ 6 6.9.9.8.8.9.0.9.s.f.j.c.V.:XqX4X6XrXeXeXeXeXiXiXiXdXaXiXaXiXiXiXaXaXiXiXiXiXiXiXiXiXyXyXeXyXiXiXiXiXeXiXyXiXyXwXaXaXdXiXiXiXiXiXwXaXdXaXeXeXaXwXaXiXiXpXiXiXiXiXiXiXiXyXeXeXaXeXaXeXaXyXwXeXeXeXyXaXiXiXiXiXiXdXeXiXwXaXaXyXyXeXaXeXiXiXpXeXiXiXiXiXeXeXeXdXiXeXaXpXeXeXiXeXeXaXiXiXyXaXpXaXiXaXiXiXiXeXeXiXeXdXwXeXiXiXpXaXiXiXaXiXaXeXiXeXdXiXwXiXdXiXaXaXwXaXaXwXaXwXdXiXwXiXiXiXyXeXiXaXtXiXeXyXiXiXiXaXaXeXiXiXeXeXeXaXaXiXeXyXaXaXpXpXyX2X^.G.A.G.H.D.D.-.%.%.#.o.*.~.0XtXaXaXeXyXaXeXiXiXaXaXeXeXeXdXaXaXyXaXaX1XD.*.~.rXyXuXrX2X2X1X,X>X^.~.!.!.D.A.G.>XuX8X>X.X7XeXaXtX,X~./.I./.-.%.#.E J H H H H H H F n n n n n n n n n n b n n n n n n n G n G n n G G G n G G F n n n v b b b c c c k k z l l h l l l l l l h l l z k x C ' :.u ;       xX",
"xX      + 8 6.d.8.8.8.8.8.8.8.0.q.q.V.4XqXqXqXyXlXlXlXlXsXlXsXlXdXdXdXdXdXdXdXdXgXdXdXdXlXsXsXdXdXdXdXdXdXdXgXdXdXdXdXdXsXdXdXdXdXdXdXdXdXdXdXdXdXdXdXdXdXdXdXgXgXdXdXdXdXdXdXdXgXdXdXdXdXdXgXdXgXdXgXzXdXdXdXdXdXdXdXdXdXdXdXjXdXdXdXdXdXdXdXdXdXdXdXdXdXdXdXdXdXdXdXdXdXdXdXdXdXdXdXdXlXlXdXdXgXsXdXdXdXhXdXdXdXdXdXdXdXdXdXdXgXdXdXdXgXdXdXdXdXdXdXdXgXgXdXdXdXdXdXdXsXdXdXdXdXdXdXgXdXdXdXgXgXdXdXdXdXdXdXdXgXhXdXdXdXdXgXgXdXdXdXdXdXdXdXdXdXdXdXdXdXdXsXyXuXuXuXuXrX1X,X.X~.!.^.0XsXdXdXdXdXdXdXdXdXdXgXdXdXdXgXhXdXdXdXgXdXaX,X^.,XsXgXgXdXdXdXgXsXaXdXyXtXrXuX2X7XyXdXdXiXiXdXgXgXdX2X~.D.H.A.3.%.+.R I H H H H H F F F F v n n n b n n n n n n n n n G G n n n n n n n n G G G J n n n n c b b b b k k k k k l l l l l l l l l l z b m D ) :.7.u ; .     xX",
"xX      + 8 6.9.8.8.8.8.9.8.8.8.9.j.R.:XqXqXqXdXaXaXsXsXsXsXlXsXdXsXdXdXsXsXdXsXdXdXdXdXdXsXdXdXdXdXdXdXsXdXdXdXdXdXsXdXsXdXdXdXsXsXdXsXsXiXdXdXdXaXsXdXdXdXdXsXdXsXsXsXdXdXsXaXdXdXdXsXsXdXdXdXdXsXdXdXdXdXdXdXdXdXsXsXdXdXdXdXdXdXsXsXsXdXdXdXdXsXdXdXdXdXdXdXdXaXsXdXdXdXsXdXdXsXsXdXdXdXdXdXdXsXsXsXdXdXdXgXdXdXdXdXdXdXdXdXaXdXdXdXdXsXdXdXdXdXdXdXdXdXdXdXdXsXsXsXsXdXsXsXsXdXdXdXdXdXdXaXdXsXsXdXdXdXdXsXdXdXdXsXdXdXdXdXdXdXdXdXdXdXdXdXdXdXdXdXdXdXdXdXjXdXdXdXdXdXdXdXaXdXyXdXdXgXdXdXaXsXsXsXsXdXdXsXdXdXdXdXsXaXdXdXdXdXaXaXsXtX2XuXaXdXdXsXsXsXsXdXdXdXdXdXdXdXdXaXdXdXgXdXdXdXeX1X.X~.G.3.%.#.%.+.P H H H H H F v n n n b b b n n n b n n n n n n n n G n n G G G G G G n n n n n b b b b b c c c k k k l l l l l l l l l l z N W } :.9.7.u , .     xX",
"xXX     @ 8 6.e.9.8.8.8.8.8.9.8.0.f.V.:XqXqXwXwXwXwXwXqXwXwXqXwXwXwXwXwXpXwXwXpXwXwXwXwXwXwXwXwXwXwXwXwXwXwXwXwXpXwXiXwXwXwXwXwXwXwXwXwXwXiXiXwXwXwXeXpXwXwXwXpXwXwXwXwXwXwXwXwXwXpXwXwXwXwXwXwXwXwXwXwXwXwXwXwXwXwXwXpXwXwXwXwXpXwXwXiXwXwXwXwXwXwXwXwXwXwXwXwXwXwXwXeXwXtXwXwXiXwXwXwXwXwXwXrXwXwXeXwXwXwXwXwXwXwXwXwXiXwXwXwXqXwXwXwXpXwXpXwXwXwXwXeXwXwXwXwXwXwXwXwXwXwXiXpXwXwXwXwXwXwXwXwXwXwXwXwXpXwXwXwXwXwXpXwXwXwXwXeXpXpXwXwXiXwXrXiXaXwXwXwXwXwXwXwXeXwXwXeXwXwXwXwXeXeXeXwXwXwXwXeXwXeXwXwXwXyXpXwXwXwXwXwXwXwXwXwXwXiXwXwXtX,XT.|.7XeXwXpXtXpXwXwXeXwXwXwXwXwXwXiXiXwXrXwXwXwXwXwXtXrX1X>X>X^.>XA.^ J H H H H F H n n n v n n n n n n n n n n n n n G G n n n G n G n n G n n n n b b b b c c k k c k k k k l l l l l l l z B W } r.8.0.8.y ; .     xX",
"xXX .   @ 8 6.w.8.8.8.w.w.8.9.8.0.f.R.qXjXyXwX4X:X:X4X:X3X4X3X3X3X;X;X;X;X;X;X;X3X3X:X:X3X*X3X3X:X:X:X:X:X:X:X;X;X;X;X:X:X;X:X:X:X:X;X;X;X;X:X:X:X;X:X:X;X;X3X=X3X3X:X;X3X;X:X:X:X:X:X;X;X3X:X:X:X3X:X:X:X;X:X:X;X:X;X:X:X:X:X:X;X;X:X:X:X;X;X:X:X:X:X:X3X3X:X:X:X;X:X:X;X;X:X3X:X;X;X:X:X:X:X:X:X;X:X;X;X;X:X:X:X:X:X;X;X:X3X:X;X;X3X3X;X3X3X=X:X:X:X:X;X=X:X:X3X:X:X:X;X3X:X:X:X:X;X:X:X4X:X:X3X;X;X:X3X:X3X:X:X:X;X;X:X:X:X:X;X;X;X:X:X:X:X:X;X;X:X:X:X:X:X:X:X:X:X:X:X:X:X:X:X:X:X:X:X:X:X:X:X:X;X;X:X:X;X;X:X:X;X:X:X;X;X<X:X3X:X;X:XOXT.W.&X:X:X;X;X:X3X;X:X;X;X:X;X:X:X;X:X:X:X:X:X:X:X:X:X5X:X:X;X&X>XD.E H H H H F F H F v v v n n n n n n n n n n n n G n G n n n n n G n n n n n n b b b b c c b c k c k k k k k l l z l z z x C ' 7.7.8.e.8.y ;       xX",
"xX      @ 8 6.w.8.9.9.e.8.8.8.8.e.a.].rXdXdXwX=X#X%X*X%X$X*X*X$X*X$X$X*X$X*X$X$X*X$X*X*X*X*X*X*X%X%X*X*X%X*X=X$X$X*X*X$X*X*X$X=X%X%X$X%X%X$X%X%X%X%X$X*X*X*X*X*X*X$X%X$X%X%X&X$X%X%X%X&X%X%X%X%X*X$X$X=X%X&X*X*X$X*X*X%X=X%X%X%X$X$X=X$X*X$X*X%X#X%X$X%X%X=X%X%X%X%X%X$X%X%X%X$X%XoX%X%X%X%X%X%X%X%X*X%X%X%X%X%X$X*X*X%X%X*X%X%X$X*X;X*X*X*X*X%X$X&X&X%X%X%X$X%X$X*X*X*X*X*X$X*X%X%X%X&X%X%X*X$X$X*X*X$X&X%X%X#X$X$X%X%X%X%X%X$X$X*X$X*X$X%X$X%X$X%X$X=X&X%X*X%X$X&X*X$X*X$X#X*X$X&X%X*X%X*X=X$X%X*X%X%X%X%X%XOX%X*X%X%X$X&X$X%X%X%X%X%X$X$XOXOX%X*X%X%X%X%X%X%X%X%X%X%X%X%X%X*X&X%X%X&X%X%X*X%X&X%X%X*X&X[.2.+.I H H H H H H H n v n n n n n n n n n n n G n n n n n G n n n n n n n n n n b n b b b b b c c z c b z z c k k z k z k k c A ' 8.9.8.0.8.u :       xX",
"xXX     @ 8 6.9.8.9.e.8.8.8.8.i.9.f.`.wXdXdXwX:X%X%X%X#X$X$X$X*X*X$X$X$X*X$X$X$X$X$X$X*X$X$X$X#X%X%X#X%X$X$X$X$X#X$X$X*X$X%X$X$X%X%X%X%X%X&X%X%X%X$X$X#X@X$X#X*X$X$X$X$X%X$X$X%X%X%X#X#X%X%X$X$X$X%X$X$X%X$X$X$X$X$X$X$X$X$X%X%X$X*X$X$X$X$X$X%X#X#X$X%X%X%X%X$X%X%X%X%X%X%X$X%X%X%X%X%X%X%X%X%X%X$X$X$X%X%X%X#X%X$X%X$X%X%X$X$X$X*X$X#X@X%X$X%X$X%XoX#X%X%X%X%X$X*X$X$X$X$X#X$X%X%X$X$X$X%X*X$X%X$X$X$X$X$X{.L.F.U.$X%X$X%X$X%X$X*X$X$X$X$X$X%X%X$X$X%X$X%X%X$X$X$X*X$X$X$X$X%X$X%X%X$X$X%X%X%X$X%X%X%X$X%X%X%X%X$X%X%X%X%X$X%X$X$X$X$X@X$X$X$X%X%X%X$X%X$X$X%X%X%X$X$X$X$X%X$XOX%X$X%X%X%X%X%X%X$X$X*X}.S.^ L H L U L H H H H F n n n n n n b n b n n n n n n n n J n n G G n n n n n n m b c c b c c b c c c c c c c c c k k k k k k c m W :.8.9.9.0.y ;       xX",
"xX      + 6 6.e.9.9.9.8.8.8.8.8.8.f._.wXdXdXrX:X%X#X%X*X3X*X*X3X;X=X;X*X%X#X$X$X$X$X$X$X$X$X$X$X$X$X#X%X$X$X#X$X*X$X%X$X%X%X#X%X%X$X%X%X$X%X$X$X%X%X*X$X#X%X$X$X*X$X*X$X%X$X%X%X%X%X%X%X%X$X$X$X%X%X&X$X%XoX$X%X$X$X$X$X%X$X%X#X$X*X=X$X$X$X%X%X%X%X%X%X%X$X$X#X%X%X%X%X%X$X$X$X%X%X#X#X%X%X%X%X$X%X$X$X%X#X$X%X%X%X%X%X$X$X$X$X$X$X$X$X%X@X}.%X&X%X%X#X%X%X$X$X$X$X*X$X%X#X#X#XOX%X%X%X$X$X%X$X$X$X$X$X$X$XY.&.] F.}.$X%XOX$X%X$X*X$X*X#X$X$X$X*X%X$X#X#X$X$X%X$X*X$X$X$X%X#X#X%X%X%X$X$X#X#X$X%X%X$X$X$X$X#X$X$X%X$X%X%X%X$X%X%X%X$X%X$X$X$X%X%X$X$X$X$X$X$X$X$X*X%X%X$X$X%X$X#X%X%X%X$X$X$X%X%X%X}.}.W.=.Y H L T @.+.U H H H F F F n n n n n n n n n G n n n n n G n n n G n n n n n b n b c b b b b b c b b b v b v b c c c c k z c c m D ,.e.9.8.7.y -       xX",
"xX      + 6 6.w.8.8.9.9.8.8.8.8.8.s.`.rXdXdXrX:X%X#X%X4XqXqX4XqX8XrX8X3X#X`.`.'.'.$X%X%X$X$X*X$X$X%X$X$X*X$X%XOX$X$X*X$X%X$X#X%X%X%X$X$X$X%X%X$X#X%X$X*X%X$X*X*X$X$X$X$X$X$X%X%X%X%X$X%X$X%X$X$X%X%X%X%X%X$X$X#X*X$X$X%X%X$X%X%X%X$X&X$X$X%X%X$X%X%X%X%X%X&X$X%X%X%X%X$X$X$X$X$X%X%X%X%X%X%X%X%X%X%X&X$X$X$X$X%X$X%X%X%X$X$X%X%X$X*X$X$X%X$X%X%X$X%X%X$X%X$X$X$X$X$X$X*X$X*X$X*X%X%X%X%X%X%X%X$X$X$X$X*X$X$XY.=.$.J.OX%X$X$X%X%X%X$X$X$X%X$X%X%X%X%X%X#X%X%X%X$X$X$X$X$X%X%X%X%X%X$X%X%X*X%X#X$X%X%X$X$X%X$X%X%X$X$X$X%X%X%X$X$X%X%X%X$X$X*X%X%X%X%X$X$X$X$X%X$X$X[.U.}.$X%X%X%X%X%X%X%X%X%X%X$X%X}.J.Z.&.^ I J U %.G.-.Y H H H F H F n n n n n n G n n n n n n n n n n n n n n n n n n n m b b b b b b b b b n v v v v v c c b v n b b b n D ' >.8.9.7.y -       xX",
"xX      + 5 6.w.8.8.9.9.8.8.8.p.8.f.`.wXdXsXqX:X%X%X*XqXaXaXsXsXsXsXsX8X@X(.(.(.'.@X$X$X%X@X%X%X%X%X%X%X%X%X%X%X%X%X%X%X%X%X%X%X%X$X$X%X%X%X%X%X$X%X%X$X&X$X*X=X*X%X&X$X%X%X%X%X%X%X$X%X%X%X%X%X%X%X%X&X%X%X%X%X%X%X%X%X%X$X$X%X%X%X$X%X%X%X%X%X%X%X%X$X&X&X%X%X%X%X%X%X$X$X&X%X%X%X%X%X$X%X%X$X%X%X%X%X%X%X%X%X$X%X%X%X*X%X%X%X%X%X%X%X$X$X$X&X*X%X%X$X$X%X%X%X%X%X%X%X%X%X%X%X%X%X%X%X%X%X%X%X*X$X%X%X$X$X}.U.U.}.$X$X$X%X%X$X%X%X%X%X%X%X%X%X%X%X%X%X%X%X%X%X$X%X%X%X%X%X%X#X%X%X%X%X%X%X%X%X%X%X%X%X%X%X%X%X%X%X%X%X%X%X$X$X%X%X%X%X$X%X%X%X%X%X%X%X$X%X%X$X}.K.Z.I.OX%X%X%X%X%X$X$X%X%X%X%X%X[.F.$.X.T U T @.G.J.2.T H H H G H G G n n G n n n n n n n n n n n n n n n n n n n n c b n b n b n b b b n n n n n n n v v b b n n n b v m C ) } 1.w.7.r ; .     xX",
"xXX     @ 5 6.9.8.8.9.9.i.8.8.8.0.i.`.wXdXsXrX=X#X%X=XqXaXdXsXdXdXdXdX8X'.(.(._.'.$X$X%X%X$X%X%X%X%X%X%X%X%X%X%X%X%X%X%X%X%X%X%X%X%X%X%X%X%X%X%X$X%X%X%X$X$X$X#X$X%X$X%X%X%X%X%X%X%X&X%X%X%X%X%X%X%X%X$X$X%X%X&X%X$X%X%X%X%X%X%X%X%X$X*X%X%X%X%X%X%X$X#X$X%X%X%X%X%X%X%X%X$X$X%X$X%X%X%X%X%X&X%X%X%X%X%X$X%X%X%X%X%X%X%X$X%X%X%X%X%X%X%X*X&X&X$X%X$X&X%X%X%X%X%X%X%X%X*X*X%X%X%X%X%X%X$X%X%X%X%X*X$X%X$X%X%X$X$X%X$X$X$X%X%X%X%X%X%X=X$X%X%X%X%X%X%X%X%X%X%X%X%X$X%X%X%X%X%X%X$X%X%X%X%X%X%X%X%X$X%X&X%X$X%X%X%X%X$X%X%X%X%X%X%X%X%X%X%X%X%X%X%X%X%X%X%X%X%X%X%X}.L.S.T.$X$X%X%X%X$X%X%X%X%X$X%X%X$XT.J.2.*.$.2.K.[.U.2.T H H H H G G G G G n n n n n n n n n n n n n n n n n n n n n n b b n n n n v v n n n n n n n n n n v v n n v F M A Q ) ' ' ' [ 0 - O     xX",
"xX      @ 6 6.d.9.8.0.8.8.8.8.8.8.a.`.wXdXsXrX:X#X*X=X8XaXdXsXdXdXsXsX9X'.).).(.'.$X%X%X$X$X%X%X%X%X%X$X%X%X%X%X%X%X%X%X%X%X%X%X%X%X%X%X%X%X%X%X%X&X%X%X%X%X%X%X%X%X%X%X$X&X$X%X%X%X$X$X%X%X%X%X%X%X$X%X%X%X%X%X%X$X&X%X%X%X%X%X%X$X%X%X%X%X$X%X%X%X%X%X$X&X%X%X%X%X%X%X%X%X%X%X%X%X%X%X%X%X%X%X%X&X%X%X%X%X%X%X%X%X%X%X%X%X%X%X%X%X%X%X$X%X$X%X$X$X&X&X%X$X$X%X%X%X%X%X%X%X$X$X%X%X%X%X%X#X%X%X$X%X%X$X%X%X%X*X%X%X%X%X%X%X%X%X%X%X=X%X%X%X%X%X%X%X%X%X%X%X%X%X&X%X%X%X%X%X$X&X%X%X%X%X%X%X%X%X%X%X%X%X%X%X%X%X&X%X%X%X$X%X%X%X%X%X%X%X%X%X%X%X%X%X%X%X%X%X%X%X$X}.[.}.%X%X$X%X%X%X%X%X%X%X%X%X%X%X%X$X}.[.[.}.}.}.[.*.U H H H H G H F G G n n n n n n n n n n n n n n n n n n n n n n n n n n n n n n n n n G G G n n F n n H F F K P S ' ,.:.[ ) D D Z < % .   xX",
"xXX     @ 8 6.d.9.8.8.w.w.8.8.8.8.f.`.rXgXdXrX:X#X#X=X8XdXdXsXdXdXsXsX6X`.z.h.z.).$X$X$X$X$X%X%X%X%X%X%X%X$X%X%X%X%X%X%X&X&X%X$X%X%X%X%X%X%X%X%X%X%X%X%X%X%X$X=X*X%X$X$X=X&X$X%X%X%X%X%X%X%X%X%X%X%X%X%X&X=X%X%X%X%X%X%X%X%X&X$X%X%X$X$X%X=X%X&X%X%X%X&X%X$X$X%X%X%X%X%X%X%X&X%X$X&X%X%X%X%X%X$X$X%X%X%X%X%X%X%X%X%X%X$X%X%X$X%X%X$X&X&X%X$X&X%X%X%X$X%X%X%X%X%X%X%X%X%X%X%X%X%X%X%X%X%X%X%X%X%X%X%X%X%X%X%X%X%X%X%X%X%X%X%X%X%X&X%X%X$X%X%X%X%X$X%X%X%X%X%X%X%X%X%X&X=X$X$X$X&X#X%X%X%X&X&X%X%X%X%X%X%X%X%X%X%X%X$X$X%X%X%X&X%X%X%X%X%X%X%X%X%X%X%X%X%X%X%X%X%X%X%X%X%X%X&X$X%X%X%X%X%X%X%X%X%X%X%X%X%X*X*X%X%X*X$XJ.+.I H H H H H H F G G G G G n n n n n n n n n b n n n n n n n b n n n n n n n n n n n n G G n n F n F F F J K S ` } 1.:.:.>.{ W D Z 3 % O   xX",
"xXX     @ 8 6.8.9.8.8.e.8.8.8.8.i.f.(.wXlXsXwX=X@X$X*XqXsXdXdXdXdXdXsX:XM.p.>.s.).'.$X$X$X$X$X$X$X*X$X$X%X%X%X$X&X%X%X%X$X%X%X%X%X%X%X%X%X%X%X%X%X%X%X$X%X$X%X%X%X*X%X%X%X%X%X%X&X$X%X%X%X&X%X%X%X%X%X&X$X%X%X%X%X%X%X$X%X%X%X%X&X$X%X$X%X&X%X%X%X%X%X%X%X%X%X%X%X%X%X*X$X*X%X%X=X%X%X$X%X&X$X$X%X%X*X%X$X$X%X%X%X%X%X%X%X%X%X%X%XOX%X%X%X&X%X$X$X%X%X%X%X%X%X%X%X%X%X%X%X%X&X=X%X#X$X%X%X%X%X%X%X%X%X%X%X%X%X%X%X%X%X%X%X%X%X%X%X%X&X&X$X%X%X%X%X*X%X%X%X%X%X%X%X%X%X%X%X$X$X%X%X&X%X%X%X%X%X%X%X%X%X%X%X%X%X%X}.W.}.$X$X%X&X%X%X%X%X%X%X%X%X%X%X%X}.%X%X%X%X%X&X%X%X%X%X%X%X%X%X%X%X%X%X%X%X%X%X%X%X%X%X%X$X%X%X}.2.T H H H H H H H G G G G G G n n n n n n n n c n n b b b b n n n n n n n n n G G G n n n n G n G G n G H F K S } 1.,.' ) ) ,.>.,.[ r , O O   xX",
"xXX     + 5 6.9.8.8.9.w.w.8.8.8.0.f.`.wXdXaXwX:X$X$X3XqXsXsXdXgXsXdXsX3Xz.>.>.p.z.'.$X}.$X*X*X*X*X$X$X$X%X%X&X%X%X%X%X%X$X$X%X%X%X$X%X&X%X%X%X%X%X%X%X%X%X$X%X%X%X%X%X%X&X%X%X%X%X%X%X%X%X%X%X%X%X%X%X%X%X%X%X%X%X%X%X%X%X%X%X%X$X&X$X$X%X%X%X%X%X%X%X%X%X%X%X%X%X%X%X%X&X%X$X%X%X%X%X%X%X$X$X$X%X&X$X$X-X&X%X%X%X%X%X%X%X%X&X%X%X&X%X%X%X&X%X%X%X%X%X%X%X%X%X%X%X%X%X%X%X%X%X%X%X%X&X$X%X%X%X%X%X%X%X%X%X%X%X%X%X%X%X&X%X%X%X$X%X%X$X$X=X%X%X$X%X*X}.*X%X%X%X%X%X%X%X%X&X%X%X%X%X%X%X$X%X%X%X%X&X%X$X%X&X%X%XOX{.U.{.OX$X%X&X$X%X%X%X%X%X%X%X%X%X%X%X&X%X%X%X%X%X%X%X$X%X%X%X%X%X%X%X*X%X%X*X%X%X%X%X%X%X%X$X%X%XT.@.P H H H H H H H G G G G G G G n n b m b n b n n b b n n c b n b n n n n n n n G n n n n G n G G G F H G K V W } >.' A m V W } 7.7.q - .     xX",
"xXX     + 8 7.8.8.8.8.e.e.8.8.8.p.i.(.eXlXiXwX=X$X$X*XwXsXdXdXdXsXdXsX;X).>.>.p.).'.$X$X$X*X$X$X%X%X*X*X%X%X%X$X%X&X%X%X%X%X%X%X%X%X%X%X%X%X%X%X%X&X%X%X%X%X%X%X$X$X%XOX%X%X%X$X%X$X%X%X%X$X$X%X$X%X%X$X%X%X&X%X%X$X%X%X%X%X%X%X%X%X%X%X%X%X%X&X%X%X%X$X%X%X%X%X%X%X%X&X&X$X$X#X$X%X%X%X%X$X&X%X%X%X%X%X%X%X%X%X%X%X%X%X%X%X%X%X%X&X%X$X%X%X%X%X%X%X$X&X%X%X%X%X$X%X%X%X%X%X$X%X$X&X$X$X%X&X=X$X%X%X%X$X$X%X%X%X%X%X%X$X%X%X%X%X%X%X$X$X$X$X&X%X%X%X$X&X%X*X%X%X%X%X%X%X%X%X%X&X$X%X%X%X$X%X%X$X%X%X%X%X%X%X%X$XOX{.}.OX%X%X$X%X&X%X$X%X$X%X%X%X%X%X%X%X%X%X%X%X%X%X%X%X%X%X%X%X%X+X%X%X%X$X%X%X&X&X%X%X%X%X%X$X[.2.R J H H H H H H F F G G G G G n G n n b n b b n m b b n n b m n b n n b n n n n n G G G G n n n n n G G P A D C ) } Q m n n M ) 1.7.u ;       xX",
"xXX     + 8 6.e.8.8.9.e.d.8.8.p.8.q.(.wXdXdXwX;X$X#X$X3X8XwXwX8X8X4X4X$Xn.g.i.g.).}.$X$X$X$X*X$X%X%X*X*X%X%X$X%X%X&X%X%X%X%X%X%X%X%X%X%X%X%X%X%X%X%X$X%X%X%X%X%X$X%X%X%X$X$X%X%X$X%X%X%X%X%X%X%X$X%X%X$X%X%X&X%X%X%X%X%X%X%X%X%X%X%X%X%X%X%X%X&X%X%X%X%X%X%X%X%X%X%X%X%X$X%X%X%X%X%X%X%X%X%X*X%X&X%X=X%X$X%X%X%X%X%X%X%X%X%X%X%X%X%X%X%X%X%X%X%X%X%X$X&X%X%X%X%X%X%X%X%X%X%X$X%X%X&X%X%X%X%X%X%X%X%X%X%X%X&X%X%X%X%X%X%X%X$X%X%X$X%X&X$X%X$X$X%X%X%X$X%X%X%X%X%X%X%X%X%X%X$X%X%X%X%X%X%X%X%X%X%X%X%X%X%X%X%X%X%X%X%X%X%X&X%X$X%X&X%X&X%X%X%X%X%X%X%X&X%X%X%X%X%X%X%X%X%X%X%X%X%X%X%X%X$X%X%X%X%X%X%X%X%X%X%X}.L.2.^ K H F F H H H H H G F H G G G n F n n b b b b b n b b n n b b b b n n b n n n n n n n n G n n n F n G G K D ) W ) W C n b n G V ' ,.r &       xX",
"xXX     @ 8 5.0.8.9.9.9.9.8.>.i.p.i.(.pXgXsXwX*X$X$X$X@X#X#X#X`.).).n.).).).).).'.$X$X$X$X%X%X%X%X%X%X%X%X%X%X%X%X%X%X%X%X%X%X$X&X%X$X%X%X%X%X%X%X%X%X%X%X%X%X&X&X&X%X&X&X$X%X%X%X&X%X$X%X&X%X&X%X$X&X%X%X%X$X%X%X%X%X%X%X%X%X%X%X%X%X%X%X$X%XOX%X%X%X%X%X%X%X%X%X%X%X%X%X%X%X%X%X%X*X$X*X=X$X$X$X%X&X%X%X%X$X%X%X%X%X%X%X%X&X$X%X%X$X%X&X%X%X%X$X%X$X%X%X%X%X$X%X%X*X%X%X%X%X%X%X%X%X$X%X%X%X$X%X%X&X%X&X%X&X%X%X%X%X%X%X%X*X%X%X%X&X%X%X=X$X$X$X-X%X%X%X%X%X%X%X%X$X%X$X%X&X%X%X%X%X%X%X%X%X=X%X%X%X%X%X%X%X$X$X%X%X%X%X$X%X%X%X%X%X%X%X%X%X%X%X%X%X%X%X%X%X&X%X%X%X%X%X%X%X%X%X%X%X%X%X%X%X%X%X%X%X%X}.T.Z.o.Y P G H F G H H H H F F H H H F G G G n n n b b n n b m n n n b n b n n n n n n n n n n n n n n G G G n H F n A ' [ ' W N n n n b N ) ) Z % .     xX",
"xX      @ 8 6.9.8.8.9.a.9.8.8.8.0.a.(.wXgXsXwX;X$X$X#X(.).).).b.p.>.p.g.).@X$X'.$X$X$X$X$X%X%X%X%X%X%X%X%X%X%X%X%X%X%X%X%X%X%X$X%X$X%X%X%X%X%X%X%X&X%X%X%X%X%X%X%X%X%X%X%X%X%X%X%X%X%X$X%X%X%X&X%X&X%X%X%X%X&X%X$X%X&X$X%X$X%X$X%X%X%X%X%X%X%X%X%X%X%X%X%X%X%X%X%X%X%X%X%X%X%X%X%X%X$X&X%X*X$X*X$X$X$X$X&X%XOX%X%X%X$X%X%X%X%X%X%X%X%X%X%X%X%X%X%X%X%X%X%X%X%X%X%X%X$X%X=X%X%X%X%X&X%X$X%X%X%X%X%X%X&X$X$X%X$X%X&X%X%X$X%X%X%X%X%X%X%X%X%X=X$X=X$X$X*X%X%X%X%X%X$X=X%X%X%X%X%X%X%X%X%X%X%X%X%X%X&X%X%X%X%X%X%X%X%X%X%X&X%X%X%X%X%X%X%X%X%X%X%X*X$X%X%X%X&X%X%X%X%X%X%X%X%X%X&X%X%X%X%X%X*X%X%X*X%X+XW.L.F.$.R K n n F F F F F F F H G G G H H n G G G n n n n b b n n b n b b b n b n b n b n n n n n n n n n n n n G G G F n N ) ,.>.' S n n G n V ) ' ! 3 .     xX",
"xXX     @ 8 6.e.8.8.0.e.9.8.p.8.8.f.`.wXdXdXqX3X$X$X$X(.).).).h.p.>.>.g.).%X$X$X$X$X$X$X$X&X%X}.%X%X%X%X%X%X%X$X*X*X%X%X%X*X%X$X%X%X%X%X%X$X%X%X%X%X%X%X%X%X%X%X%X%X%X%X%X%X%X%X%X%X%X%X%X%X%X%X%X$X%X%X%X%X%X%X%X%X*X%X$X%X%X%X%X%X%X&X%X%X$X%X%X%X%X%X%X%X%X$X%X%X%X%X%X%X%X%X&X%X%X%X%X$X$X*X%X%X%X%X%X%X%X%X%X%X%X%X%X%X$X$X%X%X&X%X%X%X%X%X%X%X%X%X%X%X%X%X%X%X%X%X%X%X%X%X$X%X%X%X%X$X%X&X&X%X$X%X%X%X%X$X&X%X%X%X%X%X%X%X%X%X%X%X%X$X%X$X%X*X%X=X%X%X%X$X%X$X%X%X%X$X$X%X%X$X%X%X%X%X%X$X$X%X%X%X%X%X&X%X%X%XOX%X%X%X%X%X%X%X%X%X$X%X%X*X%X%X%X%X%X%X%X%X%X%X%X%X%X%X$X%X%X%X$X%X%X%X%X}.Q.D.*.o.R P K H v n F F J K P P K H G G G G H G G G G n n n n n n n n n n n b c m n b b b b b n n n n n n n F F G G G n G G H J D ' >.,.) V n n M S ' :.r - .     xX",
"xXX     @ 8 >.w.8.8.w.r.8.8.8.8.p.i.`.pXdXaXwX=X$X*X$XXX).).).l.>.>.>.s.).$X*X$X$X$X$X$X%X%X%X%X%X%X%X*X*X%X%X}.%X%X%X$X$X&X%X}.%X%X%X%X%X%X%X%X%X%X%X&X&X%X%X%XOX%X&X%X%X&X%X%X%X%X%X%X&X%X%X%X%X%X%X%X%X%X%X%X%X%X%X%X%X%X%X%X%X$X$X$X$X%X%X&X%X%X$X%X%X%X%X*X%X&X%X%X%X%X%X%X%X%X%X$X%X%X%X$X%X%X%X&X$X$X%X%X$X%X%X%X%X%X%X%X$X&X&X%X%X%X%X%X%X%X%X$X%X%X%X%X%X%X%X%X%XOX*X%X%X%X%X%X%X%X%X%X%X%X$X$X%X%X%X%X$X%X%X&X%X%X%X%X%X%X%X%X$X$X*X*X$X$X%X=X%X%X%X%X%X$X%X%X%X%X%X%X&X%X%X%X%X%X$X%X%X%X%X%X%X%X%X%X%X%X%X%X&X%X%X%X%X%X&X%X%X%X$X%X&X%X%X%X%X%X%X$X%X%X%X%X&X%X$X%X%X$X%X$X%X$X}.T.&.X.I I K J J K I V U T X.O.$.O.R I H H G G F G G G G n n n n n n n n n n n b n v b b b n n b b b n n n n n n F G G G G G G n n M S ' >.} ) S S D ' :.7.y >       xX",
"xXX     + 6 6.e.9.8.9.8.8.8.8.8.8.a.`.wXdXsXwX=X$X$X$X@X'.`.(.).l.z.z.).].$X$X$X$X$X*X$X%X%X%X*X%X%X%X$X$X%X%X%X*X*XOX$X%X=X%X%X%X%X%X%X$X$X%X%X%X%X%X%X$X&X$X&X%X%X%X%X%X%X%X%X%X%X%X$X%X%X%X%X%X&X%X%X%X$X%X%X%X$X$X$X$X$X%X$X%X%X$X$X&X&X%X%X%X$X$X&X&X&X$X$X$X%X&X$X$X%X&X%X%X%X%X%X$X%X&X%X%X%X%X%X%X$X%X&X%X%X%X%X&X%X%X$X%X$X$X$X%X%X%X%X%X%XOX%X%X%X$X$X$X%X%X$X*X%X%X%X&X%X%X$X%X%X%X%X%X%X&X%X%X%XOX&X%X%X%X$X%X%X$X$X%X%X%X%X%X$X&X%X$X$X}.}.}.}.$X%X%X%X%X%X%X%X%X%X%X%X%X%X%X%X%X%X%X%X%X%X%X%X%X%X%X%X%X%X%X%X%X%X@X%X%X%X%X%X$X$X$X%X%X%X%X%X%X%X$X%X%X%X%X%X%X%X%X%X%X%X$X[.D.+.Y L L Y R ~ ^ O.&.=.=.A.J.U.W.T.3.^ L H H F H F G G G n n n n n n G G n n n n n b n n m n n c b b c b v v n n n G G G G G G G G F K S } >.1.' } ,.>.8.8.y >       xX",
"xXX     + 8 6.d.8.8.i.9.8.8.8.8.9.i.`.wXgXdXwX;X$X*X$X$X@X@X@X'.'.'.'.'.$X%X$X$X$X$X%X$X%X%X%X%X%X=X&XOX$X%X%X=X*X*X%X%X%X%X=X%X%X%X%X%X%X%X%X&X%X%X%X%X%X$X%X%X%X%X%X%X%X%X%X%X%X%X%X$X$X$X%X%X$X%X%X%X%X%X%X%X$X$X%X%X$X$X$X$X$X%X$X%X%X%X%X%X%X%X$X%X&X$X*X$X%X$X&X&X$X%X%X$X%X%X%X%X%X%X%X%X%X%X%X%X%X%X%X%X%X%X%X%X%X%X%X%X%X%X%X%X%X$X%X$X%X$X$X%X%X$X$X$X$XOX$X%X%X$X%X%X%X%X&X$X$X%X%X%X%X%X%X%X%X%X%X%X%X%X%X%X%X%X%X%X%X%X&X%X%X%X%X%X*X$X}.K.S.L.}.$X%X&X%X%X%X*X%X%X%X%X$X%X%X%X%X&X&X%X$X%X%X%X%X%X%X%X%X%X$X%X&X%X%X%X%X$X$X%X%X%X%X%X%X%X%X%X%X%X$X$X%X%X%X%X%X%X%X$X$X}.I.-.^ U L T o.=.S.G.F.T.W.[.[.}.$X&X&X&XU.$.I H F F H G G G G G n n n n n n n n n n n n n n b n n m n b c b b b n n n n n G G G G G G G n F N W ,.d.w.8.w.w.8.8.y =       xX",
"xXX     @ 8 6.f.8.8.p.8.8.8.8.8.8.i.`.rXdXsX8X;X$X$X$X$X$X$X$X$X$X$X*X%X$X$X$X$X$X%X%X%X%X%X%X%X%X$X%X%X&X%X&X&X$X$X$X$X$X%X%X%X%X%X%X%X%X%X%X%X$X$X%X$X$X$X%X%X$X%X%X%X%X%X%X%X%X%X$X%X%X%X$X%X$X%X$X%X%X%X$X%X%X%X%X%X%X$X$X%X%X$X$X$X$X%X%X$X%X%X%X$X$X*X#X$X%X%X$X%X$X*X%X$X%X$X%X%X%X$X%X%X%X%X%X%X$X%X%X%X%X$X$X%X%X%X%X%X%X%X%X%X*X%X%X%X%X%X%X%X$X%X$X$X$X$X$X$X%X$X$X%X$X$X%X%X%X$X$X$X%X%X%X%X%X%X%X%X%X%X$X*X%X%X%X%X%X%X&X%X$X*X$X$X$X%X{.Z.$.F.[.$X$X#X%X%X%X$X%X%X$X%X$X%X%X%X%X%X%X%X%X$X%X$X%X%X%X%X%X$X$X$X%X%X%X%X%X%X%X%X%X%X%X$X%X%X%X%X%X$X$X$X%X%X%X%X%X-X}.T.A.&.#.T I I X.-.K.{.OX$X$X-X=X%X%X%X%X%X$X%X[.&.U H F F H H G G G G G n G G n n n n n n n n n b b n b b m m c b c b n b n n G G F G G G G G F v M S [ i.i.d.9.0.w.7.y ;       xX",
"xXX     @ 8 6.w.8.8.8.8.8.8.8.8.8.i.`.rXdXdXwX=X$X$X$X$X$X$X$X$X$X$X*X$X$X%X%X$X$X%X$X%X%X%X%X%X&X$XOX&X%X%X%X%X$X}.$X$XOX%X%X%X%X%X%X*X%X$X%X$X$X$X$X%X$X=X$X&X$X%X%X&X$X$X%X%X%X%X$X$X%X*X$X%X%X%X$X%X$X%X$X%X*X%X$X$X%X$X%X%X%X&X%X$X%X%X%X%X$X%X%X%X*X$X*X*X$X&X$X=X$X$X$X%X%X$X%X*X%X%X%X$X%X%X%X%X%X$X$X$X%X$X$X$X%X%X%X%X%X%X%X$X$X$X%X%X%X%X%X%X$X%X%X$X%X&X$X&X%X$X*X%X%X$X%X%X%X%X%X%X%X%X%X%X$X$X%X$X$X%X*X$X%X%X%X%X%X%X%X%XoX$X$X%X*X$X}.L.F.P.$X$X$X%X%X%X%X%X%X%X%X%X%X%X%X%X%X%X%X%X%X%X%X%X%X&X%X%X%X%X%X%X%XOX$X%X%X%X%X%X%X$X$X$X$X%X%X%X%X%X%X%X$X%X%X%X-X}.L.#.R Y I J Y @.H.W.%X$XOX$X%X%X%X&X%X%X&X$XOXT.Z.o.I H F F H H H G G G G n G G G n n n n n n n n n b n n b b b b m b b c b n v F H G G G F G G F n M S } 9.i.9.9.9.8.8.s :       xX",
"xX      @ 8 5.8.9.8.8.8.p.8.8.8.9.f.`.wXdXdXrX;X$X%X$X$X$X$X$X$X%X%X$X$X$X$X$X*X*X*X$X&X&X&X%X&X%X$XOX%X%X%XOX$X$X%X$X$X$X%X=X;X:X:X3X:X:X:X<X<X4X:X3X4X:X:X:X:X:X:X:X:X5X;X;X3X;X<X:X:X:X5X:X3X:X=X%X$X%X$X$X%X%X%X$X$X%X%X&X&X;X;X:X:X:X4X:X:X:X;X;X3X3X3X3X;X3X:X:X3X:X:X3X:X:X;X:X:X3X3X:X:X;X3X3X:X:X:X:X:X:X:X%X%X$X%X%X%X%X%X%X%X%X$X%X%X$X$X$X&X:X:X;X:X:X:X:X:X:X:X3X:X:X:X:X:X:X:X:X3X<X:X<X;X:X;X=X%X$X$X*X*X%X$X%X%X%X%X%X%X$X$X$X%X3X;X;X=X=X;X;X:X:X4X:X:X:X4X:X:X;X;X3X:X:X3X:X;X:X;X;X:X:X5X;X5X;X;X3X<X:X;X;X&X$X$X$X%X$X%X*X$X$X$X$X%X=X;X;X3X<X:X<X<X5X<X,XQ.&.U J H J E -.~.&X;X;X;X&X;X<X<X;X:X:X:X:X:X+XG.o.U J H J J J F F F G G G F F H G H n G n n n n n n n b n b b b b b b b b n n n n F G G F F n G n v M S } d.i.8.8.9.8.0.q ;       xX",
"xXX     @ 8 6.0.8.8.r.e.p.8.8.8.8.f.(.wXlXdXqX;X$X$X$X%X$X%X$X%X%X%X%X$X$X$X$X*X%X$X$X$X$X%X%X&X$X$X%X%X%X%X$XOX$X%X%X=X&X&X6XpXiXeXwXiXwXiXiXiXiXiXiXiXwXaXaXyXiXiXeXeXwXaXpXaXeXyXeXiXiXiXiXiXwX:X%X%X%X%X%X$X$X$X$X$X%X&X5XwXwXiXaXeXiXiXiXiXaXyXtXiXiXwXpXtXiXiXiXiXeXiXiXeXiXiXaXaXiXiXiXiXwXaXiXiXaXwXyXyXeXwX6X&X$X$X%X%X$X%X%X@X$X%X$X$X$X$X$X=X8XeXeXyXeXeXaXaXiXeXiXyXeXeXaXaXiXeXaXiXeXeXeXwXwXrX3X%X$X$X$X$X$X$X%X%X%X$X$X$X$X$X*X;XrXwXaXwXpXiXaXiXeXiXiXiXeXeXaXiXeXaXiXiXiXiXiXiXwXaXeXaXwXaXaXwXtXeXpXtXiXpXwX5X%X$X$X$X$X$X$X%X$X$X$X*X<XwXyXtXwXaXyXyX1X.XK.*.T G H I / D.,XtXyXeXtXtXyXwXyXeXaXiXaXiXyXyXuX^.+.L F L T +.+.Y J H F F F H K Y I H F G H n n F n n n n n b c b m b b b c b n n n F G G F n n G n H N ( :.8.8.9.9.8.8.8.y ;       xX",
"xXX     @ 8 6.0.8.8.9.9.0.8.8.8.8.a.`.wXdXdXrX:X$X$X$X%X%X%X%X%X%X%X$X$X$X$X%X*X$X$X*X*X&X%X*X&X%X%X%X%X%X%X$XoX#X%X*X%X$X=XrXdXdXgXdXdXgXgXgXgXgXgXdXlXdXdXgXdXgXdXgXgXgXgXgXgXdXgXdXdXgXgXdXdXsX4X=X$X%X$X$X%X%X%X$X$X%X&X5XaXgXgXgXgXlXgXdXdXfXdXdXdXgXdXgXgXdXgXdXlXgXgXdXdXgXhXhXgXgXgXgXgXdXfXdXfXfXdXdXgXdXaX6X&X$X$X%X%X%X%X%X$X#X%X$X$X$X$X$X<XwXdXgXgXgXdXdXgXgXgXgXdXdXfXdXdXgXgXfXdXdXgXdXdXdXiX6X=X$X$X$X$X$X$X%X%X%X$X%X$X$X$X*X3XyXdXgXdXgXfXdXgXlXdXgXdXdXdXgXgXdXhXdXdXgXgXgXdXdXfXgXfXdXgXdXdXdXhXgXgXgXgXaX6X*X$X$X$X$X%X$X$X$X$X$X*X7XaXfXfXfXfXtX>X/.%./ Y I L Y #./.2XgXfXdXfXfXgXhXgXdXgXhXdXgXgXfXfXdX>X%.L L X.D.^.~.-.Y J F H F K ~ @.~ J F G F n H n n n n n n b b b b b b b c b n n n G H G v n n F G G V } w.w.w.e.9.7.d.7.y :       xX",
"xXX     @ 8 6.e.9.8.9.i.9.8.8.8.8.f.`.wXdXsXqX:X*X$X%X$X$X%X%X%X%X%X%X%X%X%X%X%X*X$X$X$X%X%X%X%X%X%X%X%X%XOXOX%X%X%X%X$X&X=XrXdXgXfXkXgXzXdXgXlXgXgXlXdXkXgXgXlXgXgXhXhXgXhXgXgXdXfXkXkXgXhXgXgXdX6X=X$X&X$XOX%X%X%X$X$X%X&X5XaXhXgXgXgXgXgXlXgXkXhXfXhXhXhXfXfXjXlXdXlXhXhXhXfXfXhXgXgXgXgXzXlXfXkXfXfXfXfXfXdXjXdX8X=X$X$X%X$X$X%X%X%X*X$X$X$X$X%X&X<XaXhXzXdXhXfXkXjXgXgXfXfXkXkXfXkXhXgXkXkXgXgXfXgXgXsX8X*X$X$X$X$X$X$X$X$X$X$X%X}.$X$X*X3XaXdXsXgXfXfXfXhXlXgXgXgXlXzXgXgXhXzXhXgXgXdXfXjXdXfXfXfXhXhXhXhXhXhXfXfXfXfXaX6X*X%X%X%X$X$X$X$X$X$X$X=X7XsXfXsXtX,X!.*./ E / / E +.A.^.uXfXfXfXhXhXhXhXhXgXhXgXhXfXdXfXkXkXdX~.~ K E /.2XgXyX!.^ J F H J Y *.Z.o.K H G n F v v n n n n n n n b c b b b b b n n n G H J K K F n J V W } 8.8.e.i.8.8.9.6.u ;       xX",
"xXX     + 8 6.e.8.8.9.w.w.8.8.w.8.i.`.8XdXdXrX=X*X$X$X$X$X%X%X%X%X%X%X%X%X%X-X%X%X%X&X%X%X%X%X%X%X%X%X%X%X$X$X$X$X&X&X=X=X4XwXdXhXhXfXjXfXfXgXhXhXgXfXkXjXgXgXjXgXhXzXzXdXfXkXkXfXkXkXdXkXdXgXgXdXqX:X:X;X*X#X*X%X$X$X$X$X*X6XsXfXfXfXdXfXfXfXkXfXkXkXhXhXhXhXfXdXlXdXkXkXhXfXfXfXfXhXfXfXfXfXfXkXfXfXfXfXkXkXjXjXdX<X=X%X#X$X$X%X%X$X$X%X$X$X%X%X&X:X6XeXdXzXgXfXfXfXkXkXfXfXhXzXkXgXgXzXgXdXkXjXdXkXhXgXsXqX:X&X=X*X$X$X$X$X$X$X*X$X$X$X$X#X3XaXdXdXgXhXhXhXzXfXfXhXfXfXfXkXkXkXgXgXhXkXfXkXhXkXfXfXkXhXhXhXfXfXkXfXfXfXzXdX6X=X=X=X%X%X$X$X$X$X$X$X*X7XaXsX2X!.*.E Y E *.!.~.!.~.2XyXfXfXhXhXhXhXhXhXkXfXfXkXkXfXkXkXkXfX2XA.Y E A.2XfXfX2XH.E G H K T &.T.T.=.~ P F n G n n v n F n n n n b m b b b b n n n F M U X.+.T U Y D ) ,.>.w.8.d.9.8.8.8.8.u ;       xX",
"xXX     @ 8 6.e.8.8.8.w.8.9.p.8.7.i.`.wXdXsXwX=X$X$X$X$X%X%X%X%X&X%X$X%X%X%X&X%X%X%X&X%X%X%X%X%X%X%X%X%X$X$X$X%X$X:X6XqXrXwXiXlXfXfXfXfXfXkXzXzXzXgXhXkXzXgXgXzXzXzXzXhXzXkXkXkXkXjXkXfXkXfXfXfXdXeXrXqXrX3X*X$X#X@X$X$X$X*X6XsXfXfXfXkXfXkXfXfXkXkXzXhXhXhXgXfXkXzXhXhXzXhXhXhXgXfXfXfXfXkXkXzXfXfXhXzXkXkXkXzXjXdXqX=X%X%X%X%X%X$X$X%X%X$X$X3X8X8X8XeXdXdXhXdXkXfXfXhXzXzXgXgXzXzXfXfXhXgXkXzXgXjXfXfXgXdXeXwX8X6X4X&X$X$X*X$X$X*X$X$X$X$X*X4XaXdXgXgXgXhXzXhXhXfXhXhXfXfXkXdXfXzXgXzXzXkXfXkXkXfXhXhXhXhXhXzXkXkXfXhXfXzXdXwXrXrX8X1X&X%X%X$X$X$X%X%X6XtX.XA./ U U X.-.>XuXdXyXdXkXzXfXfXhXfXfXfXgXgXuX2X2XuXfXfXkXkXkXfX^.#.Y *.>XfXfX>XH.+.P F P R -.T.OX{.T.2.O.R V U S T M n n F n n n n n b b b b n n n M T %.!.~.H.A.*.<.>.8.w.r.8.i.9.p.8.8.8.y -       xX",
"xX      @ 8 6.s.9.8.8.8.8.9.8.8.8.f.].wXdXsXwX=X$X$X$X%X%X%X$X$X%X%X%X%X%X%X&X%X%X%X%X%X%X%X%X%X%X%X%X$X$X%X%X$X%X3XwXdXgXdXgXlXgXhXhXhXzXkXzXzXzXzXzXzXzXzXfXfXzXzXzXhXzXzXjXdXfXdXfXfXfXfXfXfXlXdXdXdXsXrX;X$X$X$X$X$X%X%X6XsXfXfXjXjXkXkXfXhXfXzXzXhXhXhXfXfXdXhXfXhXhXhXhXhXhXhXhXhXhXfXkXzXfXhXhXzXzXzXkXkXjXdXqX=X%X$X%X%X%X$X$X$X$X$X%X3XaXsXdXdXdXzXzXfXkXkXfXfXhXzXhXhXzXgXlXdXgXzXzXzXzXzXgXzXgXgXdXdXdXiXqX=X$X$X$X$X$X$X$X$X$X$X*X3XiXgXgXgXlXzXhXhXhXhXhXhXfXfXfXkXfXkXhXhXzXzXkXkXzXzXkXzXhXzXzXzXkXfXfXfXzXzXdXdXsXsXaX8X=X$X%X$X$X$X$X%X,X~.%.Y I E %.H.,XfXkXkXkXfXhXzXhXhXfXhXfXfXuX>XH.*.-.^.uXkXkXkXjX2XH.E +.!.yXdX2XH.E L F P R -.U.$X%X%X%X{.K.Z.$.$.2.=.R M v F n n n n n n b b v n n n P @.T.5XyXtX,XW.w.7.8.8.i.8.8.w.d.8.8.7.y ; .     xX",
"xX      @ 8 6.0.8.8.8.8.8.8.8.8.9.f.`.rXdXdXwX;X$X$X$X$X%X%X%X%X%X%X%X%X%X#X%X%X%X%X%X%X%X%X%X%X%X%X%XOXOX$X%X%X%X;XiXgXlXgXlXgXfXhXhXdXzXhXzXzXzXzXzXzXzXhXzXfXgXzXzXzXzXzXjXdXhXzXfXfXfXhXhXhXjXgXgXgXdXwX;X$X$X$X$X$X$X%X6XsXkXdXjXjXkXzXhXhXhXhXzXhXhXgXhXfXhXhXhXhXhXhXhXhXhXhXgXhXhXhXkXzXzXfXhXhXzXzXkXkXjXdX4X%X%X$X$X%X%X$X%X%X$X$X*X6XaXdXdXgXdXzXhXhXfXdXfXkXzXzXzXgXgXgXgXdXkXzXzXzXzXzXdXgXjXjXfXgXjXdXwX=X#X%X%X$X$X$X*X$X*X$X$X3XaXgXgXgXzXhXhXzXhXhXhXhXdXfXfXdXfXzXzXhXhXzXzXkXzXzXzXzXzXzXzXzXfXfXfXfXzXgXdXdXgXgXaX9X=X%X$X$X$X$X$X}.G.#.U I E %.H.~.>XuXfXkXfXkXkXkXfXhXgXhXfXfX^.*.E L Y #.>XyXkXkXtX!.+.I +.^.dXkX>X*.I H I +.Z.T.OX$X%X%X%X%X*X}.Q.U.W.J.O.P n M K n n n n n n n v v n n I @.U.8XsXdXtXT.' [ >.d.i.9.8.w.0.8.8.8.y ; .     xX",
"xXX     + 8 6.w.8.8.e.e.8.8.8.8.8.a._.rXgXaXwX=X%X$X%X@X%X*X%X%X%X%X%X%X%X%X%X%X%X%X%X%X%X&X&X&X%X%X%X%X$X%X%X%X%X:XeXzXlXdXlXgXfXdXhXhXfXfXfXdXdXaXaXaXdXdXdXsXsXdXaXdXaXdXyXdXsXfXfXfXgXgXgXgXzXkXdXhXhXwX;X$X$X$X$X$X%X=X6XaXdXaXaXdXgXgXaXdXdXaXaXgXgXgXfXfXhXhXgXhXhXhXhXhXhXdXhXhXjXdXeXdXaXdXdXaXdXaXdXdXdXeX6X=X%X$X%X$X$X$X%X%X$X$X=X8XaXdXdXdXfXfXfXfXdXgXgXdXdXdXyXdXaXsXsXdXdXdXgXgXkXkXfXfXdXzXkXkXdXdXwX;X*X$X*X$X$X%X$X$X$X%X*X3XiXlXgXgXgXgXgXgXhXhXfXgXdXdXsXdXdXdXaXaXsXaXdXyXdXaXdXaXaXdXdXdXgXgXfXfXgXgXgXdXgXgXsX9X*X$X$X%X$X$X[.Z.o.Y E #.-.A.*.%.D.,XdXyXyXfXfXfXhXhXhXgXfXdX^.+.L H H E H.uXkXuX!.+.P b Y 3.2XsX,X*.U L X.D.{.OX$X%X%X%X%X%X&X&X&X}.F.$.R K Y o.+.^ T U M n v v v n M Y T O.U.rXsXdX7XA.D W [ 8.9.9.8.7.>.>.w.8.y :       xX",
"xXX     @ 5 6.9.8.8.e.9.8.8.8.8.8.f.].wXgXdXwX;X%X$X%X%X%X%X$X%X%X%X%X&X&X%X&X#X%X%X%X%X%X&X%X&X%X%X%X$X$X&X%X%X%X:XeXhXjXgXgXlXfXhXgXhXfXfXaX5X:X&X:X;X&X&X;X=X&X;X&X=X;X;X&X=X6XdXjXfXlXgXzXgXzXgXgXhXdXwX;X$X%X$X$X$X$X%X=X&X=X:X=X=X<X:X&X=X&X=X=X6XaXgXfXfXhXhXhXhXhXhXgXhXhXgXhXdXyXqX:X:X:X=X&X:X;X&X:X&X;X&X&X%X$X$X$X$X$X$X$X=X;X6X6XwXdXdXdXgXfXfXfXfXlXgXgXdXeX6X:X&X=X*X=X&X;X8XdXgXfXfXkXhXhXkXkXfXgXdXpX8X4X3X:X*X%X$X$X$X%X%X*X3XiXgXgXlXgXgXlXlXgXgXhXgXpX6X:X&X:X%X%X,X&X=X;X;X:X:X&X=X&X:XqXaXgXgXgXgXhXhXhXhXgXgXsXwX=X%X$X%X}.L.2.~ T o.2.J.I.&._ $.F.XX&X;X<XrXaXfXhXhXhXhXfXfX2X*.I H H E H.2X2XH.+.P G v N @.W.&XQ.#.U ^ Z.].$X$X$X%X%X%X%X%X%X&X$XL.@.U M N O.J.L.J.Z.$.~ A V K n n S $.=.2.W.rXsXsX7XS.C C ) :.9.9.9.>.,.:.7.0.y :       xX",
"xXX X   @ 8 6.9.8.8.8.8.8.8.8.8.0.f.`.wXdXsXwX;X%X$X%X$X%X%X%X%X%X%X%X%X%X%X%X%X%X%X%X%X%XOXOX&X%X%X%X%X%X%X%XOX%X:XeXdXzXgXzXfXfXgXhXhXfXdXrX'.b.h.b.b.h.b.b.z.z.b.c.b.b.z.h.b.OXaXdXkXlXgXlXgXgXgXgXgXdXwX:X$X$X%X$X*X$X$X_.b.c.z.z.z.z.z.z.b.h.b.b.'.wXgXfXfXhXhXhXhXhXhXhXgXhXgXdXjXeXoXm.c.c.l.z.c.z.b.h.h.b.n.B.@X*X$X$X$X$X$X&XrXyXaXaXsXgXgXgXgXfXkXfXfXjXdXgXdX4X`.c.z.b.n.z.b.b.#XpXgXfXfXfXzXfXhXkXkXgXgXdXiXiXiXrX;X*X$X$X$X$X$X#X3XiXgXgXgXgXgXlXlXhXgXhXdXqX`.b.z.c.h.r.r.g.z.z.z.c.b.z.z.c.M.%XaXgXgXgXgXhXhXgXdXgXgXgX9X3X%X$X[.D.@.^ ~ ] 1.g.z.g.1.1.r.j.z.h.z.n.$XyXfXgXgXhXhXfXfXyX!.+.Y E %.^.~.-.R N F G N S ' r.g.<.Q V ] P.%X%X$X%X%X%X%X%X%X%X$X{.2.T n v P $.U.*X%X}.T.D.2.$.~ U I X.J.W.W.OXqXdXdXpXP.W j W :.8.8.8.>.:.:.8.0.q >       xX",
"xXX     @ 8 6.9.9.8.i.i.8.8.8.8.8.a.`.rXdXdXrX=X$X$X$X$X$X%X%X%X%X%X%X%X%X%X%X&X%X%X%X$X%X%X%X%X%X%X%X%X%X%X%X$X=X3XeXgXkXgXfXfXfXfXhXdXfXdX5Xn.s.8.i.8.9.9.8.i.p.i.9.8.d.e.0.f.`.eXhXzXgXgXgXlXkXgXgXgXdXwX3X$X$X$X$X$X$X'.).f.9.9.d.9.9.8.d.8.0.e.s._.8XgXfXfXgXgXgXhXhXgXhXhXhXlXzXjXwX(.f.9.w.0.s.d.8.9.9.9.9.f.m.@X%X$X$X$X$X&X=XeXdXfXdXdXhXzXzXgXhXdXgXgXlXlXlXiX&Xc.9.i.p.p.s.s.f.`.pXgXkXhXdXkXfXdXkXgXgXlXgXgXgXdXiX3X$X$X$X$X$X*X#X3XpXgXgXgXlXgXgXgXgXdXhXdX:XN.d.e.e.8.7.1.>.p.p.w.7.8.8.9.0.j.`.eXgXgXfXhXhXgXhXdXgXhXsX9X*X{.K.&.^ ~ @.S.y.s.d.d.r.w.0.0.9.i.e.9.f.`.wXdXgXgXgXhXfXfXfXuX^.H.H.>X~.%.Y J F M N D ' 1.d.r.' Q _ 1.B.OX%X$X$X$X%X%X%X%X%X$XL.O.K n v U &.U.%X%X$X$X$X}.U.J.&.O.2.[.$X$X&X8XsXdXaX[.] C W :.8.8.8.8.7.8.8.0.p >       xX",
"xXX     @ 8 6.0.8.8.i.9.8.8.8.8.8.f.`.wXgXsXrX:X$X$X$X=X*X$X=X$XOX&X%X%X%X%X%X%X%X%X%X%X%X%X%X%X*X$X$X*X%X%X%X%X$X3XiXlXgXgXgXgXfXfXhXhXgXgX6Xn.i.p.p.p.p.>.p.d.p.p.p.8.p.d.8.s.(.wXdXlXlXlXdXdXdXdXdXlXdXpX=X$X%X@X$X$X$X'.).p.p.p.8.9.8.8.8.8.8.0.9.B.6XdXfXfXhXhXhXhXhXhXgXhXhXhXhXhXwX(.q.9.0.8.8.w.8.9.8.p.8.f.m.@X*X$X$X$X%X&X;XwXdXhXgXhXhXhXzXzXgXgXdXgXgXdXjXdX=Xh.p.p.p.d.p.d.s.`.pXsXdXdXgXgXdXfXkXdXgXgXgXzXgXgXaX:X$X$X$X$X*X$X*X3XaXdXgXgXgXlXgXhXfXgXfXgX<Xm.9.8.8.8.p.>.p.>.:.} ,.7.8.9.0.f._.rXsXdXfXfXfXfXfXfXfXsXsX0X|.S.o.R ^ &.J._.m.a.9.p.0.w.9.0.0.8.8.0.f._.wXdXgXhXgXhXfXfXfXfXtX2XuX,X3.Y v v v N _ } 1.8.9.0.1.} ,.d.M.OX%XOX$X$X%X%X%X%X%X$XS.S M v n T S.}.$X*X$X$X&X%X%XOXW.L.[.}.%X$X*X8XsXdXiX#X} D W :.8.8.8.9.i.8.9.8.w :       xX",
"xX      @ 8 6.e.9.9.8.8.9.8.8.8.8.s.`.rXfXaX8X:X#X$X$X$X$X$X$X&X&X%X%X%X%X%X%X%X%X*X%X%X%X%X%X%X%X*X$X$X%X%X%X%X$X;XwXgXgXgXgXlXkXkXfXdXhXgX6XR.g.f.s.s.s.s.s.s.s.s.f.s.f.f.f.g.(.:XrXrXwXqX8XwXwXwXqXqX9X6X=X$X%X%X$X$X$X$X).g.f.s.s.g.j.f.f.f.f.f.h.`.8XfXfXfXhXgXhXgXhXhXhXhXgXhXhXhXwXXXh.f.j.j.f.f.f.f.f.f.f.h.M.XX$X$X$X$X%X$X;XwXdXgXgXhXgXgXgXhXhXgXhXdXeXqXrX4XXXz.g.s.s.s.s.f.g.`.3X9XqXwXdXgXhXhXkXkXlXgXgXlXlXgXyX6X*X$X$X$X$X$X*X3XpXgXgXgXgXgXgXhXfXfXfXgX6XB.j.f.f.s.s.s.g.f.>.} ,.s.f.i.s.h.N.Q.2XdXfXfXfXfXgXgXfXfXtX^.3.^ R @.Z.W.'.@X(.j.a.f.f.j.f.f.f.g.g.f.h.'.wXgXhXhXgXhXfXfXfXfXkXkXfX^.+.L v v P ( 1.f.g.j.f.f.f.s.f.h._.'.$X%X%X$X$X%X%X%X&XOXS.R K v M ^ J.OX$X$X}.$X%X&X%X%X$X$X%X%X%X$X=X8XaXdXaX%Xr.' ..>.8.9.9.8.i.9.8.6.y : X     xX",
"xX      @ 8 6.w.w.e.w.w.8.8.8.8.8.f.`.wXdXsXrX=X$X$X$X$X$X*X$X$X&X%X%X%X%X%X%X%X%X%X%X%X%X$X%X%X%X%X$X$X%X%X%X%X$X;XpXgXlXgXgXlXkXdXgXgXhXdXwX$X).M.M.M.).).M.M.).n.M.M.M.M.).).(.B.(.(.(.(.(.(.(.(.(.(.).'.@X%X$X$X$X$X$X$X'.).N.M.M.M.V.M.M.M.M.M._.$XeXfXfXfXhXhXhXhXhXhXhXhXhXfXhXhXiX=X_.M.M.M.M.M.M.M.M.M.M.).'.#X$X%X%X*X$X$X=XwXdXgXlXlXfXzXgXgXgXgXgXaX=X`.B.(._.).).).).). X X).).(.(.(.%XwXdXhXgXfXfXdXkXzXlXzXzXyX<X$X$X$X$X$X$X*X3XiXdXgXgXlXgXgXhXfXfXfXsX8XXX_.).N.M.M.M.).).n.J.J.n.v.u.u.N.Y.I.,XdXfXfXgXgXsXfXgXsX,X*./ X.&.K.}.%X$X$X].(.N.).R.M.).M.).M.M.M._.=XaXdXdXhXgXhXfXyXfXfXkXkXuXD.U v v N X.u.m.B.v.v.M.B.R.B.B._.].$X%X$X%X$X%X%XOX%X%X$XL.=.T J J ^ F.{.T.J.W.}.%X%X%X$X$X$X$X$X%X$X=X9XsXsXiX*Xj.>.>.8.8.8.9.8.9.8.0.8.y : X     xX",
"xXX     + 8 6.w.8.0.w.w.8.8.8.8.8.s.].wXdXdXwX:X$X*X$X$X$X=X=X$X%X&X%X%X%X%X%X%X%X%X%X%X$X$X%X%X%X*X$X%X$X%X#X#X*X=XpXgXlXlXlXlXkXgXgXgXdXhXaX5X$X@X@X$X$X'.XX$X%X$X$XOX$X$X$X'.(.j.i.i.i.i.a.f.i.8.a.i.p.z.`.$X%X$X$X$X$X$X$X@X$X@X@X@X#X@X$XXX$X$X%X6XyXfXzXkXhXhXhXhXhXhXhXhXhXfXhXhXaX4X$XXX$X$X$X$X$XoX$X$X$X$X$X$X%X%X$X$X$X#X=XwXdXgXlXgXkXkXkXzXlXgXgXwX`.g.a.f.n.`.'.$X@X@X$X}.'.M.f.p.f.m.6XlXzXgXfXkXlXjXgXjXlXzXaX:X*X$X*X$X$X$X$X3XiXgXgXzXgXhXhXhXfXfXfXdXwX;X$X$X$X@X$X#X}.$X'.$X[.F.S.2.Z.{.;X,X2XfXfXfXfXgXgXgXfXsX.X*.@.D.{.$X%X%X$X*X$X#X$X#X}.$X$XoXOX@X@X$X%X:XdXdXhXhXgXhXfX0XuXfXkXkX>X%.L v N X.Z.E.#XE.J.J.'.OXOX%XoX@X$X%X%X%XOX%X&X%X&X%X$X%XOXU.&.U V @.L.Q.2.X.$.J.}.'.L.T.@X*X$X*X%X%X*XrXsXsXsX%Xh.9.e.8.8.d.e.w.8.8.9.8.y ;       xX",
"xXX     + 8 5.e.8.8.0.w.w.9.8.8.8.s.`.wXdXdXqX;X$X$X*X$X%X&X%XOX%X%X&X%X%X%X%X%X*X$X$X*X%X*X%X%X%X$X$X%X$X#X*X*X$X:XiXgXlXlXgXlXgXgXfXgXgXlXaX:X$X$X$X$X$X$X*X$X$X*X$X$X$X%X%X$XB.f.0.9.8.p.8.p.p.8.i.8.p.l.`.$X$X$X$X$X$X$X$X$X$X$X$X$X$X$X%X%X$X%X%X6XaXjXjXkXhXhXhXhXhXhXhXhXhXfXhXhXsX7X=X$X$X$X%X%X$X*X%X%X$X%X%X$X%X%X$X$X$X$X:XrXdXdXgXgXhXfXfXfXfXfXhXwX_.f.9.p.c.'.#X$X%X$X$X*X$Xn.s.p.i.b.4XgXhXgXgXgXgXhXhXdXjXlXaX:X*X$X$X$X$X$X%X5XaXdXgXgXhXhXhXgXzXgXgXdXaX<X%X$X$X$X$X$X%X%XOXW.S._ _ 2.L.+XqXyXfXfXfXfXfXfXgXgXgXsX0X~.T.{.%X%X%X%X$X%X%X%X%X%X$X$XE.E.XX%X%X%X=X:XjXjXfXfXfXfXtX2XuXyXfXdX>X%.T T O.S.W.OX%X'.L.L.OX%X%X%X$X%X%X%X$X%X$X%X%X%X%X%X$X%X%XOXJ.o.R Z.}.[.=.T V O.Z.2.@.=.Y.$X$X$X$X%X=XqXaXdXaX*Xl.>.8.8.8.8.i.9.9.9.8.0.y ;       xX",
"xXX     @ 6 6.9.8.8.d.9.8.8.8.8.8.s.`.wXdXiXrX;X$X$X%X$XOX&X%X%X%X%X%X%X%X%X&X%X%X$X$X%X%X}.%X%X%X%X$X$X$X*X*X*X$X:XiXlXlXlXgXgXgXgXfXgXgXdXaX4X*X*X*X=X*X=X=X*X=X=X=X=X%X*X%X$X(.j.a.p.i.f.p.i.f.f.i.i.i.z.`.%X$X$X$X%X$X%X$X$X$X$X$X*X$X%X%X$X$X$X%X6XiXdXdXkXhXhXhXhXzXhXhXzXhXfXhXgXaX<X%X%X$X$X$X*X$X$X%X$X$X$X$X%X%X$X$X$X$X*X4XwXlXdXgXlXgXfXfXfXfXfXhXwX_.g.i.i.b.`.$X%X$X*X$X$X@Xn.s.s.g.M.4XdXhXhXfXhXgXgXkXjXjXzXaX5X$X$X$X$X$X$X%X5XsXdXgXgXhXhXhXhXgXgXhXgXiX:X&X%X$X&X=X=X%X&XE.2.( V Q Z.OX=XqXjXfXfXfXsXfXfXgXgXgXgXaX0X&X$X%X%X$X%X$X$X$X$X$X$X$X{.F.J.{.$X$X$X=X<XdXdXfXfXfXfX2XuXfXfXkXdX2X~.H.H.!.&X%X%X%XOX}.OX%X%X%X$X%X%X%X%X$X$X$X%X%X&XOX%X$X%X%X%XU.2.@.J.}.$XJ.o.N V S S V Q J.@X$X$X$X%X=XqXdXdXiX%Xl.d.8.8.8.8.p.i.9.9.8.8.y ;       xX",
"xXX X   + 6 6.9.9.8.8.8.8.8.8.p.8.i._.wXdXdXwX:X*X$X$X$X%X%X%X%X%XOX%X%X%X#X%X%X%X%X%X%X$X*X*X%X*X$X*X$X$X$X%X%X*X:XiXlXlXgXgXgXfXfXfXkXlXgXaXrX6X6X6X6X6X6X6X4X4X4X6X4X4XqX6X3X#X`.(.(.(.).).).(.n.C.b.b.).'.$X$X$X*X*X$X$X$X$X$X%X%X$X%X%X%X%X$X$X%X6XiXlXgXkXhXhXzXhXhXhXhXhXhXhXhXhXaX6X%X$X$X$X$X$X$X%X$X$X$X$X$X%X%X%X$X$X$X$X:XwXgXgXgXgXfXfXfXfXfXhXhXwX@Xn.z.b.(.'.#X*X$X$X*X$X@X_.).n.b.'.rXgXhXfXfXgXhXfXkXjXkXkXaX<X$X$X$X$X%X%X%X3XaXdXgXdXhXhXhXhXfXfXjXdXsXrX4X6X6XqX4X:X6X<X!.#.~ o.3.W.<XqXtXfXfXfXfXfXfXfXfXgXgXhXsX9X=X*X}.%X$X$X&X%X$X$X$X$X$X}.T.U.OX*X$X#X%XqXdXfXfXfXfXtX>X2XyXkXfXkXdXyXyXuXuX:XOXoX$X$X$X%X%X%X$XOX$X%X$X$X%X%X%X%X%X$X%X%X%X%X%X%X{.L.S.].$X$X}.S.Q M M m V R =.[.$X$X#X%X%XrXiXdXiX%Xh.w.p.p.w.w.8.8.8.8.w.7.y ;       xX",
"xXX     @ 6 6.f.9.8.i.8.8.8.8.8.8.f._.wXdXdXwX=X#X$X%X%X%X%X%X%X%X&X%X%X%X&X%X%X%X%X%X%X*X*X$X%X%X*X*X$X$X$X*X=X#X:XiXlXgXgXlXgXhXhXkXkXgXdXdXaXiXaXiXsXiXiXdXdXiXdXiXaXdXiXdXiXiXwXrXqXqXqXwXqX4X#XoX'.'.'.$X$X$X$X$X$X*X*X$X$X%X$X%X%X%X%X%X$X%X%X%X<XyXjXzXzXhXhXhXhXhXhXhXhXhXhXhXhXdX6X%X$X*X$X$X%X%X%X%X$X%X%X%X%X%X%X%X$X#X$X:XrXdXlXlXgXfXfXfXfXfXfXhXaX:XXX'.'.@X#X=X*X$X$X$X$X%X'.'.`.XX=XiXgXfXfXgXgXzXfXfXfXkXdXyX<X$X$X$X$X$X$X*X5XpXdXgXhXhXdXfXhXgXfXjXdXdXdXaXiXiXdXdXdXiXjX2X~.I.^.2XtXaXsXsXsXfXfXfXfXfXhXgXgXgXhXsX7X=X%X$X$X$X$X%X%X%X%X%X$X$X$X}.$X$X$X$X$X&XrXsXfXfXfXfXfXtXyXfXkXkXkXkXkXkXkXyX:X$X$X$X$X$X%X%X%X%X%X%X%X%X%X$X%X$X%X&X%X%X$X&X%X%X%XOX}.{.'.%X%X%X}.2.A b N ( O.2.U.$X$X$X$X=X6XdXdXiX*Xg.d.8.8.p.8.p.i.8.8.8.8.y :       xX",
"xXX     # 8 6.9.9.8.9.8.8.8.p.8.8.f.`.wXdXsXrX=X$X$X$X$X%X%X&X$X%X&X%X%X%X%X%X%X%X%X%X%X%X%X$X$X&X$X=X%X#X$X$X%X#X3XiXgXgXgXgXgXdXgXgXzXgXhXgXgXdXkXgXgXgXgXgXhXgXgXgXgXgXgXgXjXjXdXlXgXdXlXgXgXsX6X%X$X$X$X$X$X$X$X$X%X%X*X*X$X$X$X%X$X%X%X$X$X%X%X%X4XaXjXkXzXhXhXhXhXzXhXhXhXhXfXzXzXaX6X&X#X$X$X%X-X$X%X$X%X%X%X%X$X%X%X%X$X#X*X=XwXgXgXhXgXhXfXfXfXfXfXfXaX6X%X#X$X$X$X*X$X$X$X$X$X$X$X%X#X*X4XiXgXfXfXhXfXdXhXgXfXkXhXaX<X*X@X$X$X$X$X$X3XaXgXgXgXhXzXhXgXhXhXhXfXfXgXgXgXhXgXdXdXdXzXdXtXtXdXdXkXgXgXgXgXfXgXfXfXfXfXgXgXgXgXsX9X=X%X$X$X$X$X%X$X%X%X%X*X$X%X&X%X$X$X$X$X=X6XaXjXjXdXhXhXhXhXfXhXhXfXfXfXfXgXaX:X%X$X$X$X%X%X%X%X%X%X$X$X$X$X$X%X%X%X%X%X$X*X*X*X%X$X$X$X$X%X*X$X*X&XJ._ S o.2.&.=.T.$X$X$X$X=X8XsXsXaX%Xh.8.8.8.8.8.8.d.8.8.8.8.y :       xX",
"xX      @ 5 6.9.8.8.9.9.8.8.8.8.8.s.`.wXdXdXrX:X$X$X$X#X$X=X%X%X%X%X%X%X%X%X%X%X$X%X&XOX%X=X$X$X=X$X$X$X%X$X$X$X*X3XwXdXdXdXdXdXdXdXlXgXgXgXdXhXjXjXlXgXgXgXgXhXhXgXjXgXgXdXgXgXgXlXgXlXlXzXlXgXsX6X=X$X$X$X$X$X$X$X$X$X$X%X%X%X$X$X%X%X$X%X$X#X%X%X%X:XiXjXlXzXhXhXhXhXzXhXhXhXhXfXfXkXaX4X%X%X$X%X%X$X$X%X&X$X%X%X%X%X%X%X$X%X%X%X=XwXgXhXhXhXhXhXhXhXfXkXkXaX8X*X%X$X*X$X$X$X@X$X%X%X%X$X$X$X*X4XiXgXfXfXhXfXhXhXgXhXzXhXiX6X$X$X$X$X$X$X*X3XiXsXgXlXgXgXgXzXfXhXgXfXfXhXgXzXhXdXzXhXhXkXkXkXkXkXfXdXgXgXjXgXgXgXfXhXfXgXgXdXgXsXsX9X*X$X$X$X$X%X%X$X$X%X%X%X*X%X%X$X%X%X%X$X&X8XdXdXjXjXhXzXhXhXhXhXhXfXhXgXfXgXaX:X%X$X$X$X%X%X%X%X%X%X$X$X+X%X%X%X&X%X%X%X*X$X$X*X$X$X$X}.[.}.$X%X*X&X}.S.2.K.W.J.=.J.$X$X$X$X=X8XsXgXaX%Xg.8.p.8.8.8.w.w.p.p.8.0.y :       xX",
"xXX     @ 6 >.8.8.8.e.9.8.8.8.8.8.f.].wXdXsXrX;X$X$X%X$X%X%X%X%X%X%X%X%X%X%X%X%X$X%X%X%X%X$X&X%X$X$X%X*X*X%X$X$X$X*X3X3X4X8XwXsXdXgXgXgXgXhXhXhXjXjXjXgXdXgXhXhXfXfXjXdXgXdXdXgXgXgXgXlXzXzXzXgXdXwX5X;X=X=X*X$X%X$X$X$X$X$X%X%X*X*X*X%X%X%X%X%X%X#X=X:XiXjXjXdXfXhXhXhXzXhXhXhXhXhXkXkXdX6X%X%X$X%X%X%X$X$X$X%X%X%X&X%X%X$X$X$X$X$X,XwXsXhXhXgXhXhXhXhXhXkXfXdXwX3X;X;X3X3X3X:X=X3X3X3X3X*X3X3X:X6XiXlXfXfXhXhXhXfXhXlXkXdXiX:X$X$X$X$X*X*X$X3XaXgXgXgXhXhXgXgXfXfXfXfXhXgXgXfXkXkXfXfXfXfXkXkXfXfXkXfXdXlXjXlXdXhXgXfXgXgXdXrX6X6X3X%X%X$X$X$X%X*X%X$X%X%X%X%X*X$X$X%X$X*X$X$X=X6XaXzXdXdXzXzXhXhXhXhXhXfXgXfXgXgXyX3X%X$X$X$X%X&X&X%X%X%X%X%X%X%X&X$X%X%X%X%X$X$X*X$X$X%X%X{.J.L.}.%X%X$X$X}.}.$X$XL.=.S.$X$X%X$X=XrXdXdXaX%Xh.8.8.8.p.8.w.w.8.8.8.9.y >       xX",
"xXX     @ 6 6.e.w.8.e.w.8.8.8.8.8.s.`.rXdXdXwX=X%X%X$X$X$X&X%X%X%X%X%X%X%X%X%X%X&X%X%X&X%X%X%X%X%X$X&X$X%X%X%XOX*X'.(.n.).).=XsXgXgXgXlXhXhXhXhXdXjXgXgXgXgXhXfXfXfXhXkXgXgXlXjXjXgXlXlXgXlXzXzXhXsXpXwXwX6X;X$X$X$X$X$X$X%X%X*X$X$X%X%X$X$X%X%X%X#X&X6XiXjXjXjXhXhXhXzXzXhXhXhXhXhXjXdXdX:X&X%X$X%X%X%X%X&X%X%X$X$X%X%X%X%X%X$X$X%X<XwXgXhXhXgXhXhXhXhXhXzXfXgXiXpXpXwXwXiXiXwXwXwXpXpXpXpXpXpXwXiXdXgXgXhXgXhXhXfXfXlXkXjXdX5X$X$X$X$X$X$X$X3XiXgXgXgXhXhXhXlXfXfXkXfXgXgXgXgXfXfXfXfXfXfXfXfXgXfXkXfXjXjXgXdXhXfXfXfXgXgXeX$X).n.n._.'.%X$X$X%X%X%X%X%X$X%X%X$X$X&X*X*X$X$X$X&X6XdXhXjXlXzXhXfXhXhXhXfXfXfXfXfXgXaX<X%X$X$X$X$X%X$X$X%X%X%X%X%X%X%X%X%X%X$X$X*X&X*X$X%X*X$X}.L.L.}.%X%X%X%X%X%X%X%X{.J.L.}.$X$X$X=XqXsXdXaX%Xh.8.8.8.8.8.7.7.8.8.8.0.y :       xX",
"xXX     + 8 6.e.8.8.e.9.8.8.8.8.8.s.`.9XdXsXwX;X$X$X%X%X$X%X%X%X%X%X%X%X%X%X%X%X$X%X%XOX=X&X%X%X%X%X%X%X%X%XOX$X$X_.l.i.9.g.@XaXlXzXlXdXhXhXhXhXlXlXgXgXgXgXlXlXhXhXdXzXgXjXlXlXgXgXgXgXgXgXhXzXdXgXdXdXsX9X5X%X$X$X$X$X$X*X%X%X&X%X$X$X$X$X%X%X%X%X%X<XyXfXkXkXhXhXhXzXhXzXhXhXhXhXhXzXiX:X:X%X%X$X%X%X%X%X%X%X%X$X%X%X%X%X$X$X$X$X=X9XfXfXfXfXhXhXgXgXhXfXfXfXgXgXdXgXgXgXlXgXsXdXlXlXzXgXdXgXfXhXdXfXhXhXhXhXfXfXzXdXkXkXyX:X$X$X$X$X*X$X%X3XpXgXgXgXgXlXgXgXfXfXjXjXkXkXdXhXgXlXgXfXhXhXgXgXfXfXlXgXgXgXjXgXgXgXzXhXfXzXwX`.f.i.g.M.'.*X*X$X$X%X%X%X%X$X%X%X%X%X$X%X%X@X%X$X%X8XsXzXhXhXhXhXhXhXzXhXhXhXfXfXfXfXaX3X%X$X$X$X%X%X%X%X%X%X%X%X$X$X%X&X%X%X%X&X*X*X$X$X%X%X$X}.}.{.}.*X%X%X%X%X%X%X%X$X].OX$X$X$X$X*X8XsXsXaX%Xh.p.8.8.8.8.8.>.7.8.8.8.y >       xX",
"xXX     @ 6 6.8.8.8.8.e.9.8.8.7.8.s.`.wXdXsXwX=X$X#X%X$X%X%X%X%X%X%X%X%X%X%X%X%X&X$X$X%X&X%X%X%X%X%X%X%X%X$X$X%X$X_.h.p.8.g.@XpXgXzXlXgXgXgXgXgXgXdXgXgXlXlXlXlXhXdXjXdXjXlXgXlXlXlXhXhXgXhXgXzXhXdXgXdXdXpX;X$X}.$X$X$X$X$X%X%X%X%XOX$X%X%X%X%X%X%X&X4XiXhXzXfXfXhXhXhXzXhXhXhXhXhXzXzXaX6X%X%X$X%X%X%X%X%X%X%X%X%X$X%X%X$X$X$X$X$X=XpXsXfXgXgXhXhXhXhXfXfXfXgXlXgXgXgXgXgXgXlXlXlXlXgXgXhXgXgXhXhXhXhXhXhXhXhXzXkXgXjXjXkXaX6X*X$X*X$X$X%X$X3XpXgXgXgXgXgXlXgXfXkXkXjXkXjXzXgXgXlXgXgXhXhXlXgXdXfXzXgXgXgXjXdXgXgXgXgXdXhXwX_.a.0.i.b.'.$X$X$X$X$X%X%X%X$X$X}.$X$X$X*X$X#X%X$X%X6XaXfXhXhXhXhXfXhXzXhXhXhXfXfXfXfXwX5X#X$X%X%X%X%X%X%X%X%X$X$X$X%X%X%X%X%X%X%X$X$X$X$X%X%X%X%X*X*X$X%X%X%X%X%X%X%X%X%X$X$X*X%X$X$X*X8XsXsXaX%Xz.p.8.p.i.8.7.:.:.7.8.7.y :       xX",
"xXX     @ 8 6.e.w.w.e.8.8.8.8.8.8.s.`.rXdXsXwX=X$X&X%X%X%X%X%X%X&X%X%X%X%X%X%X%X$X%X%X%X%X$X%X%X%X%X%X%X%X%X%X%X@X`.z.f.i.h.'.wXaXaXiXsXiXsXsXsXiXdXiXiXsXiXiXiXaXaXaXsXdXaXwXiXdXdXgXgXzXhXhXhXgXgXgXgXgXwX=X%X$X$X%X$X$X%X%X%X&X%X%X%X%X%X$X%X%X%X%X6XsXdXjXgXfXfXfXgXhXzXhXhXhXhXhXhXdX6X%X$X$X%X%X%X%X%X%X%X%X%X%X%X%X%X%X$X#X*X=XpXsXfXfXhXhXgXgXhXhXfXfXhXzXgXlXlXgXlXlXlXgXlXgXlXgXhXzXgXzXhXhXkXhXgXhXzXhXzXkXjXkXdXyX6X$X$X*X$X$X$X$X3XaXgXgXlXgXgXlXgXgXkXlXdXdXdXaXaXsXiXiXiXaXaXpXiXaXaXaXiXiXiXdXdXdXgXgXhXlXlXpX].f.f.f.b.'.#X$X$X*X%X%X%X%X&X}.Y.E.XX$X$X$X*X%X$X*X8XdXhXhXhXhXhXhXhXzXhXhXhXhXfXfXfXaX;X%X$X%X$X%X%X%X%X$X&X}.{.OX$X$X$X%X%X%X%X%X*X*X$X$X%X*X&X$X$X*X%X%X%X%X%X%X%X%X$X$X$X%X$X$X$X=XwXsXgXaX%Xh.8.8.p.w.w.8.6.8.8.8.0.y >       xX",
"xXX     @ 8 6.8.8.e.e.9.8.8.8.8.8.f.`.rXdXsXwX;X*X$X%X%X%X&X%X%X%X%X%X%X%X%X%X%X%X%X%X%X%X$X%X&X%X%X$X%X%X%X%X$X%X'.(.n.n.n.).'.XXXXXXXXoX'.'.'.XXXXXXXX'.@X@X'.XX'.'.XXXXXX'.$X:XiXgXgXgXhXkXhXhXhXgXgXgXpX=X%X%X%X%X%X*X%X%X%X%X%X$X%X%X$X$X%XOX$X%X6XiXjXfXdXgXhXzXzXhXhXhXhXhXhXhXhXiX6X*X$X$X$X$X%X%X%X%X%X*X%X%X%X%X%X%X$X%X$X=XwXfXgXgXgXhXhXhXhXhXhXfXkXzXlXgXlXlXgXlXlXgXlXlXgXhXzXzXzXkXhXgXzXhXhXgXgXfXfXkXjXjXjXaX:X$X$X$X$X$X#X$X3XpXlXgXgXlXgXgXgXgXkXlXdXwX&XXXXX'.XX#X'.XXXX'.@XXXXXXX'.'.@X3XdXgXgXgXgXlXgXiX;XXX'.`.#X$X$X$X&X*X$X%X$X%X*X[.<.| P.#X$X*X$X@X$X&X9XdXhXhXhXhXhXzXhXhXhXzXhXfXfXfXfXiX3X%X%X$X$X%X%X%X&X$X$X}.}.$X%X$X&X%X%X$X%X%X%X&X&X%X%X%X$X&X*X$X$X&X&X$X%X%X%X%X$X$X$X$X'.@X$X%X8XaXsXpX$Xh.8.8.8.w.8.i.8.8.8.8.8.y :       xX",
"xXX     + 8 6.9.8.9.9.8.p.8.8.8.p.s.`.wXdXsXwX=X$X$X$X%X$X%X%X%X%X%X%X%X%X%X%X%X%X%X%X&X%X$X%X%X%X%X%X%X%X%X%X$X$X$XXXXX'.`.).j.j.j.j.j.g.g.f.f.j.f.f.g.f.g.g.g.j.j.j.j.g.f.f.z.'.eXgXgXfXhXkXfXhXhXhXgXgXwX=X%X$X$X%X%X&X%X%X%X%X%X%X%X$X%X%X%XOX$X%X6XaXjXkXfXhXhXhXzXhXhXzXhXhXgXhXgXaX6X&X$X$X%X%X%X%X%X%X%X$X&X$X%X%X%X%X%X$X%X=XpXgXdXgXgXhXhXhXhXhXhXkXfXzXhXgXzXzXhXhXzXlXgXgXgXzXzXzXgXfXzXhXhXhXhXhXhXfXfXlXlXdXgXaX:X%X$X$X$X$X$X$X3XaXdXdXgXfXfXhXgXfXzXzXdX5XR.j.g.j.f.g.f.g.j.g.f.g.g.g.g.f.h.XXiXgXgXdXzXzXfXdXeXwXwXwX6X&X%X$X%X$X$X%X%X%X%XL.` ` J.oX*X%X%XXXW.OX8XdXfXhXhXhXhXhXhXhXzXhXfXfXfXfXfXeX:X%X$X$X$X%X%X%X%X%X%X%X$X$X%X%X%X%X$X$X%X%X*X$X$X*X*X$X*X%X%X%X%X$X&X%X%X%X%X%X%X$X$X'.[.@X$X[.[.,X0X8X$Xh.d.8.8.8.p.8.8.8.8.i.0.y :       xX",
"xXX X   + 8 6.e.8.9.i.8.8.8.8.8.8.s.`.9XdXdXtX=X*X$X*X$X$X$X%X%X%X%X%X%X%X%X%X%X%X%X%X&X%X%X%X$X%X%X&X%X%X%X%X$X$X%X%X%X}.'.).p.9.9.9.9.8.8.p.9.9.9.7.9.8.7.p.8.8.8.8.p.8.7.8.f._.wXgXkXfXfXdXfXhXhXgXgXgXtX,X$X$X$X$X%X%X%X%X%X$X%X%X%X%X$X$X%X&X%X%X6XiXgXkXkXfXfXhXhXhXhXzXhXhXhXhXgXsX5X$X$X$X%X%X%X%X$X%X$X$X$X&X%X%X%X%X$X%X%X=XwXdXgXlXgXhXhXhXhXhXhXfXhXhXgXzXlXlXzXhXzXgXgXgXlXzXzXhXhXzXhXfXfXzXhXhXhXfXfXfXlXzXhXaX<X$X$X$X$X*X$X$X6XaXgXgXhXfXfXfXfXfXzXdXdX5Xm.e.9.9.8.8.8.8.8.8.>.p.p.p.>.>.s._.wXdXgXgXjXkXkXfXhXlXlXlXwX&X%X$X$X%X%X%X%X%X%XY.u.2.U.$X$XOXW.F.=.Z.|.yXfXfXhXhXzXzXhXzXhXfXfXhXhXhXdXaX4X%X%X$X$X%X%X%X%X%X%X%X$X%X$X%X%X%X%X$X%X*X*X$X$X}.&X&X$X%X%X%X%X%X%X&X$X%X%X%X%X$X$X$XOX$X'.J.&.G.,X0X$Xh.8.8.8.p.8.9.p.9.8.i.0.y >       xX",
"xXX     @ 6 6.8.8.9.9.9.8.8.8.8.8.s.`.9XdXdXwX:X$X$X$X$X$X%X%X%X%X%X%X%X$X%X&X%X%X%X%X%X%X%X$X&X%X%X%X%X%X%X&X}.%X*X*X%X$X'.).i.i.i.9.i.p.8.p.p.i.p.p.p.i.8.i.d.i.8.p.i.i.8.8.f.`.eXlXdXfXfXhXkXgXhXhXgXgXtX<X$X$X$X$X%X%X%X&X%X$X%X$X$X%X$X$X%X%X$X%X:XiXlXfXfXfXkXfXzXhXzXkXhXgXhXhXgXsX6X&X%X$X%X%X%X%X%X%X%X%X%X$X%X%X%X$X$X$X%X=XpXdXgXgXgXhXhXhXhXfXhXhXhXzXkXgXgXgXhXhXhXlXgXgXgXhXzXgXzXhXfXfXfXfXhXhXhXhXkXfXjXjXkXaX<X%X$X$X*X$X$X$X3XaXdXgXsXgXfXgXgXgXfXfXdX;Xn.s.p.9.9.9.9.p.i.p.8.p.p.p.p.8.s.`.pXdXgXgXzXlXlXkXlXlXgXgXrX=X$X$X%X%X%X%X%X%X%XOX[.U.U.J.S.2.$.~ S X.K.tXkXfXfXhXfXhXhXhXhXhXfXdXhXhXdXaX:X$X$X$X$X%X%X&X%X%X%X%X$X$X$X&X%X%X$X%X%X*X$X$X$X$X-X,X$X%X%X*X&X%X%X%X%X%X%X%X%X%X$X$X%X%X}.J._ ` I.0X*Xh.8.8.8.9.9.9.9.9.9.9.8.y >       xX",
"xXX     @ 8 6.0.8.8.w.8.8.8.8.8.8.s.`.rXdXsXrX=X$X$X%X%X$X%X%X%X%X&X%X%X%X-X,X$X$X%X%X%X%X%X&X&X$X%X$X$X%X*X%X%X%X%X%X$X$X'.).z.h.g.h.g.g.g.h.h.h.h.h.l.z.g.h.g.h.h.h.l.h.g.h.z.'.wXlXjXfXfXfXkXgXgXgXgXgXwX3X$X$X%X$X%X%X%X$X%X%X%X%X$X$X%X%X%X$X$X%X6XyXfXfXfXfXfXfXkXzXhXhXhXhXhXhXhXaX6X&X$X$X%X%X%X%X%X%X%X%X$X%X%X%X%X%X$X@X%X=XpXgXlXgXlXhXhXhXhXhXhXhXhXgXfXgXgXgXgXgXhXgXgXlXlXgXgXgXgXhXfXfXfXhXhXhXhXzXfXgXgXkXkXaX:X%X$X$X$X$X$X$X3XaXdXgXgXfXfXgXgXhXhXdXdX6X`.b.h.h.h.h.h.h.h.h.h.h.h.h.h.h.n.$XiXgXgXgXlXyXuX2X2XyXlXdXrX=X%X$X$XOX%X%X%X%X%XOXU.F.=.( R A N M A @.Q.yXkXhXhXhXzXhXhXzXhXhXzXfXdXfXgXaX<X$X$X$X$X%X%X%X$X%X%X%X%X%X%X&X&X%X%X%X%X$X$X$X*X*X*X$X%X%X%X%X$X%X%X%X%X%X$X%X%X%X$X$X%X%X$XT._ Q K.0X*Xh.p.8.8.9.e.9.9.9.8.8.8.y >       xX",
"xXX     + 5 6.f.8.r.w.8.9.9.8.8.8.s._.wXdXdXrX=X$X$X%X%X%X&X%X%X%X%X%X%X$X$X%X%X$X$X%X%X%X&X%X%X%X%X%X%X%X=X%X%X%X}.$X$X$X'.'.`.`._.`._.).`.`.`.`.`._.`.`.`._._.(.`.`.`.'.(._.'.=XyXdXfXhXhXzXhXhXdXgXgXdXaX=X$X$X$X%X$X%X%X%X%X&X%X%X$X$X%X%X%X$X$X=X<XiXzXfXgXfXhXzXzXhXhXzXhXhXhXhXfXaX7X%X$X$X$X%X%X%X%X%X%X%X%X%X%X%X%X%X$X$X$X=X9XdXgXhXgXhXhXhXhXhXhXfXhXgXfXzXlXgXlXhXhXgXgXgXgXgXlXgXlXzXdXkXhXhXhXfXfXfXfXgXlXjXzXaX:X%X$X%X%X$X$X%X5XaXdXgXgXgXhXgXhXgXhXgXsXwX%X'.`.`.`.`._.`._.`.`.(.`.`.`._.'.3XdXgXgXhXaX>XG.2.A..XyXlXrX=X%X%X%X%X%X%X%X%XE.F.=.( V m b b b N o.J.<XaXdXkXkXhXhXzXhXfXhXhXzXhXfXfXdXyX6X*X$X$X$X%X%X%X%X%X%X%X%X%X%X%X%X%X%X%X&X*X$X*X$X$X$X*X$X%X%X%X$X%X*X%X%X%X$X%X$X%X%X$X%X*X$X[.2._ G.8X%Xh.9.8.8.8.w.w.9.9.9.8.6.y ;       xX",
"xXX     @ 5 6.i.8.8.8.8.9.8.8.8.8.f.`.rXdXdXwX:X%XoX$X$X%X%X%X%X%X%X%X%X%X%X%X$X*X%X%X%X%X%X%X%X%X$X%X$X$X%XOX$X%X%X%X%X$X%X$X$X$X#X%X@X@X$X%X'.$X#X$X}.}.%X$X$X$X$X$X$X$X$X$X*X6XaXhXfXfXhXhXhXhXhXgXgXgXwX=X%X$X$X%X%X%X%X%X%X&X%X$X$X%X,XOX%X%X$X%X4XiXlXjXjXdXhXhXhXhXhXhXhXhXhXhXgXaX6X*X$X$X%X%X%X%X%X&X%X%X%X%X%X%X%X$X$X$X%X3XpXdXhXhXhXhXhXhXhXhXhXhXhXgXzXlXlXlXlXzXzXlXlXlXlXgXgXlXgXgXfXfXhXhXhXfXhXzXzXgXlXjXkXaX3X%X$X$X$X%X$X%X3XaXdXdXgXgXhXhXgXhXhXhXgXwX;X$X}.oX$X$X$X%XOX$X%X#X*X%X'.#X$X6XsXgXgXgXuXD.o.S %.~.tXdXrX:X$X%X%X%X$X$XOXT.Z.( V M b c c m U X.S.OXqXdXkXhXhXhXhXhXzXhXhXhXfXfXfXhXdXaX:X$X$X$X$X$X%X%X%X%X%X%X%X%X$X%X%X%X%X%X%X%X$X$X$X$X%X%X*X%X%X%X$X%X&X$X$X%X%X%X$X$X$X$X%X%X'.$XT.D.^.wX*Xh.8.8.8.8.7.8.9.9.8.8.8.y ;       xX",
"xXX     + 5 6.e.8.8.8.9.9.8.8.8.8.s.`.wXdXdXrX=X%X%X$X$X%X%X$X%X%X%X%X%X%X%X%X%X=X%X%XoX&X%X%X%X&XOX%X%X&X&X%X%X%X$X$X%X*X$X$X$X$X$X$X@X$X$X%X$X$X$X$X*X%X$X%X%XOX%X$X%X$X$X#X&X8XdXhXfXhXhXhXhXhXhXgXgXgXwX;X%X$X$X$X%X%X%X%X%X$X&X&X$X%X%X$X$X$X$X=X<XeXlXjXkXzXhXhXhXzXhXhXzXhXhXhXgXaX5X*X%X$X%X%X%X%X%X%X%X%X%X%X%X%X%X%X$X%X%X=XwXdXhXhXhXhXgXhXhXhXgXgXdXhXgXlXgXzXdXfXhXlXlXlXlXlXgXlXlXdXgXgXfXfXfXhXhXzXzXdXzXlXlXaX:X%X$X$X$X%X%X*X3XaXgXgXgXhXhXhXhXhXhXhXdXaX<X%X$X$X$X$X$X%X$X$X$X$X$X*X$X$X=X6XdXgXgXhXyX^.2.D.Q.2XdXdXrX:X$X%X$X%X%XOXL.$.S m b c b m U ^ #.F.[.&X6XdXdXhXhXhXhXhXzXhXhXfXhXfXkXkXdXeX:X%X%X*X$X%X%X%X%X$X&X%X%X%X%X%X%X%X%X$X%X%X}.*X*X*X$X*X$X%X%X$X}.$X%X&X%X%X%X%X%X$X$X$X%X$X$X=X5X7X0XpX%Xh.p.8.8.p.p.8.9.8.8.8.8.y ;       xX",
"xXX X   + 8 6.8.8.8.w.w.8.8.8.8.8.s.`.9XjXdXrX:X$X$X$X$X%X%X%X%X%X%X%X%X&X*X$X$X%X=X%X%X%XOX%X$X%X%X$X$X$X$X%X%X%X%X$X%X*X$X'.*X%X$X%X%X%X%X%X$X$X$X$X%X%X$X$X%X$X%X%X%X$X$X$X&X6XdXfXfXhXhXhXhXhXhXgXhXgXtX=X%X$X$X%X%X%X%X%X%X%X%X-X-X%X$X$X$X$X%X&X4XiXjXjXfXzXzXhXhXzXhXzXhXhXfXhXfXdX5X%X$X$X%X$X%X%X$X%X%X%X%X$X%X%X%X$X$X$X$X=XwXsXhXhXhXhXhXhXfXfXgXhXdXdXwXeXwXwXwXwXeXwXwXwXwXwXeXpXiXeXiXdXhXfXfXfXzXhXfXlXgXhXlXaX<X$X$X$X$X$X%X&X5XwXgXgXgXhXgXhXhXhXhXhXdXwX5X%X$X$X$X$X$X$X$X%X$X$X$X%X%X$X=X8XsXgXgXdXdXwX2X2XyXdXdXdXqX&X$X%X$X$X$XL.] A b x b b N Q $.F.T.}.$X&X6XdXdXhXhXhXhXhXzXzXhXhXfXfXfXkXkXyX;X{.'.$X&X%X%X%X%X%X%X%X%X%X%X%X%X&X&X$X%X%X$X*X*X$X%X%X*X%X%X%X*X%X%X%X*X%X$X$X%X$X$X%X%X%X%X=X6XaXaXpX%Xg.p.8.8.p.8.i.i.9.9.9.8.y :       xX",
"xXX     + 6 6.9.8.8.e.e.8.8.8.8.8.f.`.rXgXdXrX;X*X$X$X$X*X$X=X*X%X%X%X%XOX%X%X%X$X&X%X%X%X%X%XXX%X$X}.$X@X*X$X$X$X$X*X@X$X@X$X*X%X$X%X%X*X$X*X$X%X%X$X}.%X$X'.$X%X$X$X%X$X$X&X=XqXdXdXzXzXhXhXhXfXhXhXfXgXwX=X%X%X%X$X$X%X%X%X%X%X%X%X#X$X$X$X$X$X$X&X:XeXzXhXhXhXfXhXhXzXhXhXhXfXfXzXfXsX7X&X%X$X$X$X%X%X%X%X%X%X%X%X%X%X%X$X$X$X#X;XwXdXgXgXlXgXzXzXhXhXhXhXaX3X'.(.(.(.`.(.`.(.`.`.`.(.'.(.(.'.&XiXgXgXgXkXgXfXfXfXhXfXzXaX:X%X%X%X$X$X$X*X3XiXdXdXhXhXhXhXgXhXhXgXgXsX5X$X$X$X$X$X*X$X$X$X$X$X$X$X$X$X*X6XsXgXgXhXfXhXhXhXhXhXfXdXrX&X$X%X%X$XU.$.C b c c M A O.S.U.oX%X$X#X&X8XsXhXhXhXhXhXhXhXhXhXzXhXfXfXfXfXyX+XF.F.[.%X&X$X%X%X%X%X$X%X%X%X%X*X$X&X%X%X%X%X%X%X%X%X%X%X%X%X%X%X&X$X$X%X*X$X$X$X$X$X$X$X$X$X*XwXsXdXaX%Xh.i.p.8.9.8.8.8.9.8.0.8.y :       xX",
"xXX     @ 6 6.9.8.8.9.8.p.8.8.8.8.s.`.wXdXsXrX=X*X$X$X$X$X$X%X$X%X%X%X%XOX%X*X&X$X%X%X%X*X*X$X$X*X%X*X*X%X$X$X$X$X*X*X$X$X*X$X#X%X%X%X$X$X$X$X%X*X%X$X$X%X%X*X*X%X$X%X%X$X#X$X;X6XiXkXkXhXhXfXhXhXhXhXhXhXtX=X%X%X%X$X%X%X%X%X&X%X%X%X$X$X$X$X%X&X$X&X6XeXlXfXgXhXhXhXhXzXhXzXhXhXhXzXfXaX6X&XOX$X%X$X%X%X%X%X%X%X%X%X%X%X%X$X%X*X*X:XrXgXgXgXgXhXzXhXhXhXhXhXrX`.l.f.f.i.f.f.f.f.f.g.f.a.a.j.a.f.B.6XdXgXgXfXhXfXfXfXjXkXzXsX:X$X%X%X$X$X$X$X;XaXdXgXhXhXhXhXhXgXgXhXdX9X3X$X*X$X*X$X*X$X$X*X%X$X$X$X@X$X*X6XsXlXgXfXfXfXhXhXdXfXfXdXrX=X#X$X%XOXS.S x k c M ~ 2.I.{.%X%X$X$X#X=X5XdXhXhXhXhXhXhXhXhXhXzXfXfXfXfXfXyX|. .=.L.%X*X&X%X%X%X%X%X%X$X%X%X%X*X%X%X%X%X*X%X%X%X%X%X%X%X%X%X%X%X*X*X&X$X$X*X$X*X$X$X$X$X$X*X8XdXdXiX%Xz.i.8.8.w.w.i.9.8.8.8.8.q ;       xX",
"xXX X   + 6 >.e.e.8.9.9.8.8.8.8.8.s.`.wXdXaXwX=X$X$X$X*X$X%X$X%X%X%X%X&X&X$X%X%X%X%X%X*X*X*X%X%X*X%X$X$X%X$X$X$X@X*X#X*X*X$X#X%X%X#X$X%X$X%X$X#X$X$X%X%X*X*X*X*X&X&X%X$X$X$X$X=X6XeXjXkXhXhXhXhXfXfXgXgXhXtX;X%X$X%X%X%X$X&X$X%X%X%X*X$X$X*X%X%X$X%X&X:XaXjXhXhXhXhXzXzXhXhXhXhXfXzXzXfXdX6X%X%X$X%X%X%X%X%X%X%X%X%X%X%X%X%X$X%X$X*X3XrXdXgXlXgXzXzXhXhXhXgXhXwX(.i.p.i.i.p.8.p.p.p.p.p.p.0.p.>.9.n.6XdXfXfXhXhXfXfXdXgXjXjXeX:X$X%X$X$X$X%X*X3XiXgXgXdXhXhXhXhXhXgXgXsXpX=X$X$X$X$X*X*X$X$X%X%X$X$X$X@X'.&X9XsXgXkXfXfXgXgXdXgXdXfXdXwX=X%X%X$XE.$.N b z N ~ Z.W.&X%X%X%X$X*X$X=X6XsXhXhXhXhXhXhXzXhXhXhXfXfXfXfXkXaX&XJ.F.U.$X$X&X%X%X%X%X%X%X%X%X%X%X$X%X%X%X%X%X%X%X%X%X%X%X%X%X%X%X%X*X%X%X$X*X$X$X$X$X$X*X*X*X;X8XsXgXiX*Xh.p.8.8.w.8.9.9.i.9.8.8.y = X     xX",
"xXX     @ 6 6.w.8.8.8.8.9.8.8.8.8.s.`.wXdXsXwX;X$X$X$X$X%X&X%X%X%X%X%X%X$X&X%X%XXX%X=X%X%X=X%X%X%X%X$X%X$X%X$X$X$X#X*X*X*X*X%X=X=X$X*X*X*X=X%X#X%X$X$X$X$X%X$X$X*X%X$X$X*X$X$X=XqXdXdXjXhXhXhXhXfXfXfXgXgXwX=X%X$X%X%X%X&X$X$X%X%X$X$X*X#X$X&X#X%X%X&X6XeXjXzXdXhXhXhXhXhXzXhXhXhXhXzXhXaX6X$X#X$X%X%X%X$X&X%X%X%X%X%X%X%X%X$X$X$X*X:XwXdXgXgXlXhXhXhXhXhXhXgXwX(.a.i.i.i.a.i.i.i.p.a.a.i.p.p.p.s.m.5XdXhXfXhXhXhXkXzXlXjXdXaX:X$X$X$X$X$X$X*X:XiXgXdXgXhXhXgXhXhXhXgXdXpX5X%X$X$X*X$X$X*X'.}.}.$X$X$X$X$X&X9XsXdXyX0X2X0XaXgXgXfXfXdXrX=X$X%X%XL._ m x V o.S.W.$X%X%X%X%X$X$X$X=X6XsXhXhXhXhXzXzXzXhXhXhXfXgXfXkXfXyX:X}.}.$X$X$X&X&X%X%X$X%X$X%X%X%X&X$X%X%X%X&X%X%X%X%X%X%X%X%X%X%X%X*X*X%X%X*X*X$X$X$X$X*X$X@X$X*X8XsXdXiX$Xh.p.8.8.9.9.9.9.9.9.9.8.y ;       xX",
"xXX X   @ 8 6.8.8.8.8.e.e.8.8.8.8.i.`.wXsXdXwX=X$X$X%X$X$X*X=X$X%X%X&XOX%X%X%X%X&X%X#XOXOX&X%X%X%X}.$X%X$X$X$X$X$X*X3X4X4X4X4X4X4X4X4X4X4X4X4X;X%X%X*X%X$X$X$X$X$X$X#X$X*X*X$X*X6XsXgXlXhXhXzXgXhXgXgXgXhXwX:X$X$X$X$X%X%X%X%X%X*X%X%X$X$X$X*X$XoX%X&X6XiXlXlXjXhXhXfXzXzXhXzXhXhXhXhXgXaX6X&X%X%X%X%X%X%X%X%X%X%X%X%X%X%X%X%X$X$X$X;XwXiXlXgXgXhXhXhXhXgXhXgXpX@X).g.n.z.z.z.z.l.h.b.C.l.l.l.l.b.`.8XdXgXfXgXhXhXfXkXlXjXjXsX<X$X$X$X*X$X$X*X3XiXgXgXgXgXhXhXhXhXhXgXgXpX3X%X$X$X*X$X$X$X[.J.T.$X$X$X$X$X$X5X7X>X!.H.H.~.0XgXgXfXfXdXrX:X$X%X$XT.] A A ` J.}.$X$X$X$X$X$X$X$X$X=XqXaXjXgXgXzXzXfXhXhXhXzXfXhXfXlXdXaX:X%X$X$X$X$X$X$X$X%X%X$X&X%X%X%X%X$X%X%X%X%X%X%X%X%X%X%X%X%X%X%X%X%X%X%X*X*X%X$X$X$X$X$X%X@X$X*X6XsXsXsX$Xg.p.8.8.8.p.9.9.9.8.8.8.y :       xX",
"xXX     @ 6 7.9.9.8.w.e.0.8.8.8.8.i._.wXdXsXpX=X*X$X$X$X$X$X$X$X$X%X%X%X%X%X%X%X%X%X%X%X&X&X%X%X%X%X%X$X$X*X$X$X*X3XqXpXsXiXsXdXiXiXdXdXiXdXwX3X*X%X%X$X@X$X$X$X$X=X&X$X$X$X@X*X6XsXlXgXhXgXgXhXhXhXgXgXhXwX<X$X$X$X$X%X%X$X%X%X%X%X$X%X$X$X&X$X%X$X%X<XyXdXlXgXhXzXhXhXhXhXzXhXhXhXhXgXeX6X$X%X$X$X%X%X%X%X%X%X%X%X%X%X%X%X%X}.$X*X=XwXdXlXgXlXgXhXhXhXhXgXgXpX3X'.(.(.'.@X'.`.XX(.@X(.(.'.'.'.'.&XwXdXfXfXgXfXkXkXkXzXjXjXaX:X%X$X$X$X$X$X$X3XsXgXgXgXgXgXhXhXhXhXgXgXpX;X$X$X*X$X*X$X%XT.S.J.'.$X$X$X$X=X;X.X-.+.#.A..X0XgXgXgXhXdX9X=X$X$X%X}.F.$.=.K.{.%X%X%X$X%X&X$X%X$X$X=X6XaXjXgXhXhXhXhXhXhXhXzXhXfXfXlXgXaX:X%X$X$X*X%X=X%X%X=X&X%X%X%X$X}.$X%X%X%X$X%X%X%X%X%X%X%X%X%X%X%X%X%X%X%X%X*X*X*X$X$X$X$X$X*X*X%X8XsXsXpX%Xh.p.p.7.8.8.p.8.p.9.8.6.y ;       xX",
"xXX     + 6 6.9.9.8.9.e.8.8.8.8.8.f.`.wXdXsXwX:X$X$X$X%X%X%X=X&X&X%X$X%X&X$X%X%X%X%X%X%X%X$X&X$X%X$X*X$X$X$X$X*X#X3XiXgXsXsXgXgXdXdXdXlXlXdXpX3X$X$X$X$X%X$X$X%X$X$X$X$X$X*X$X*X:XdXgXgXgXzXzXhXhXfXfXfXhXwX=XOX%X%X%X%X%X%X%X%X%X%X$X%X$X$X%X%X&X$X%X6XaXjXgXgXfXhXhXhXhXzXhXhXhXhXhXhXaX6X&X#X$X%X%X%X%X%X%X%X$X%X%X%X%X%X%X$X$X$X;XwXgXgXgXgXhXhXhXhXgXgXgXaX4X*X$X$X$X$X$X$X#X$X$X@X#X$X$X$X$X3XaXdXfXfXfXfXfXfXhXlXjXjXaX<X%X$X%X$X$X$X$X4XiXdXdXgXhXhXhXgXhXgXgXgXpX=X$X$X$X$X*X$X%X'.Y.].$X$X$X$X$X*X3X>XH.H.!.,XuXsXsXgXfXgXdX8X:X$X$X$XOX{.U.{.}.$X%X$X*X*X%X%X%X$X#X%X%X6XdXjXzXgXhXzXhXhXhXhXhXfXfXfXdXdXiX4X%X$X$X$X$X%X%X%X%X%X$X%X%X{.K.T.$X%X%X%X%X$X%X*X%X%X%X%X%X%X*X%X%X%X%X%X*X$X$X$X$X$X$X$X$X@X].,XpXsXsX%Xh.p.p.p.8.8.p.i.9.9.8.7.p :       xX",
"xXX     @ 6 6.9.8.9.9.9.8.8.8.8.8.s.`.pXdXsX9X=X$X$X$X%X%X=X$X$X%X%X%X&X%X%X%X%X%X%X%X%X%X&X&X%X$X%X$X%X$X$X$X#X#X3XiXlXlXlXgXgXlXlXdXlXlXgXsX3X*X$X$X%X%X$X$X#X$X$X#X#X#X$X#X*X:XaXdXgXhXhXzXhXgXhXfXfXhXwX:X$X%X$X$X%X%X%X%X%X&X%X%X$X$X$X$X%X%X$X%X4XeXkXkXkXfXhXfXhXhXhXhXhXhXhXhXdXaX8X*X$X$X%X$X%X%X%X%X$X$X%X%X%X%X%X%X$X$X$X;XwXdXgXlXgXhXhXhXhXfXfXgXaX4X*X*X$X*X$X$X$X$X$X$X$X*X*X@X$X$X4XaXdXhXfXfXfXhXkXdXjXlXlXaX5X%X#X#X*X$X&X$X3XaXgXdXgXhXhXgXhXhXgXgXgXpX3X*X$X$X*X*X$X%X%X@X$X$X$X$X$X$X*X3X9X2X2XyXfXfXgXgXgXfXdXdXrX=X$X$X$X%X$X%X%X%X%X%X%X$X*X$X%X$X$X$X%X*X4XiXjXhXhXhXhXhXzXhXhXhXhXfXfXlXlXiX4X%X$X$X%X%X%X%X%X%X%X%X$X$XJ.&.J.}.%X%X%X%X%X&X%X$X%X%X%X%X$X%X%X&X%X%X%X$X*X$X$X$X$X$X$X$X'.Y.Q.0XdXpX%Xg.p.8.8.8.p.p.8.8.9.8.0.y :       xX",
"xXX     + 8 6.9.8.8.8.9.9.8.8.p.8.s._.wXgXsXwX=X$X*X*X$X$X%X%X%X%X%X%X%X%X%X%X&X%X%X%X%X%X%X*X&X$X%X$X%X%X$X$X$X$X3XwXlXlXlXgXlXlXlXgXzXhXgXdX6X:X;X=X=X;X;X;X;X;X;X=X;X;X=X:X;XrXsXgXgXgXzXhXhXfXdXfXfXhXwX;X%X$X$X$X%X%X%X%X%X%X%X%X$X%X$X$X$X#X%X&X6XyXjXkXkXgXzXhXhXhXhXhXhXhXhXhXgXsX5X&X$X$X%X%X$X%X%X*X%X$X%X*X*X$X$X$X$X@X%X=XwXgXgXlXgXgXhXhXgXhXzXhXsX8X*X$X$X$X$X$X$X$X*X$X*X%X%X%X#X$X3XpXdXhXhXhXhXfXfXfXdXzXhXaX:X%X$X$X$X$X$X*X3XsXdXdXgXhXgXhXhXhXhXfXdXtX:X%X%X$X%X$X$X%X$X*X$X@X$X$X$X#X=X8XsXfXhXhXhXhXhXfXgXfXfXdX8X=X%X$X%X$X*X%X%X%X%X%X%X$X$X$X*X$X$X$X$X*X6XsXgXgXlXhXzXhXhXzXhXzXhXgXfXfXfXyX:XW.T.'.%X$X$X$X%X%X%X$X$XU.=.@.J.$X%X%X%X%X%X%X$X%X%X%X%X%X$X%X%X$X$X&X$X%X%X%X$X$X$X%X$X$XOXE.OXpXdXiX$Xh.8.8.8.w.8.p.8.p.p.8.8.y >       xX",
"xXX     + 5 6.9.8.8.8.9.8.8.p.>.8.a.`.wXgXdXwX=X$X$X$X%X%X%X%X%X%X%X%X$X%X%X%X&X&X%X%X%X%X%X%X%X%X%X%X%X%X$X$X$X$X3XpXgXlXlXgXlXlXgXlXlXzXgXdXiXpXwXwXwXrXwXwXpXwXwXwXwXwXwXwXiXdXgXlXgXgXgXhXhXfXhXfXfXhXwX3X%X%X%X%X%X$X%X%X%X$X%X%X%X%X$X$X%XoX%X%X<XeXjXkXkXhXzXzXhXhXhXhXhXhXhXhXhXaX8X%X$X$X$X%X%X%X*X%X%X%X$X*X*X*X*X$X$X%X%X;XpXdXgXgXhXhXhXhXhXhXzXfXaX4X*X$X$X$X$X$X*X*X$X*X$X%X$X$X@X*X3XpXdXhXhXhXfXfXfXfXhXfXfXyX<X%X$X$X$X$X*X$X3XsXsXgXgXhXhXhXhXhXfXfXgXtX;X%X%X$X%X%X$X%X*X*X$X*X%X$X$X$X&X8XsXfXfXhXhXgXsXsXgXgXhXsXrX=X$X$X%X%X%X%X%X%X%X%X%X$X*X$X*X*X$X$X$X*X9XdXgXgXlXhXhXzXhXhXkXzXgXgXhXkXdXyX<XT.Z.S.T.%X%X$X%X%X$X%XOXJ.@.2.[.%X%X%X%X%X%X%X%X%X%X%X%X&X$X%X%X$X$X%X%X%X%X%X$X$X$X$X%X%X%X%X6XsXgXiX*Xh.p.8.8.w.w.i.8.p.9.8.8.y >       xX",
"xXX     + 6 6.e.8.8.9.i.8.8.8.7.8.9.`.wXdXdXwX&X$X$X*X$X%X%X%X%X%X%X%X%X%X%X$X%X$X&X%X%X%X%X%X%X%X%X%X$X%X%X$X$X*X3XpXlXlXlXlXsXgXlXgXlXkXgXgXdXdXgXgXdXdXdXdXdXdXdXgXgXsXsXdXdXgXlXgXgXfXhXfXfXhXhXlXlXdXwX:X$X$X$X%X%X%X%X%X$X%X%X%X$X%X%X%X%X%X%X%X6XiXjXjXdXhXzXhXhXhXhXhXhXhXhXhXhXaX8X%X%X$X$X%X%X%X%X$X%X%X%X$X$X*X$X$X$X$X$X=XiXgXgXgXgXgXhXhXhXzXzXfXaX8X*X$X$X$X$X$X*X$X$X*X*X%X$X$X$X$X6XiXgXgXgXlXgXkXkXfXkXhXfXaX5X$X$X$X$X$X$X$X3XiXgXgXgXhXhXhXhXhXfXfXgXwX;X$X$X$X%X%X%X%X$X*X*X$X%X*X$X$X*X8XdXgXgXgXhXfXfXfXgXhXfXdX7X;X%X%X$X$X%X%X%X$X*X$X$X*X*X$X*X$X%X%X$X*X9XdXgXgXhXhXhXzXhXhXkXzXkXfXzXkXdXyX:X'.S.&.2.T.OX$X%X%X%X$X[.Z.2.T.OX%X%X%X%X%X%X%X%X%X%X$X%X&X&X%X%X%X%X%X%X%X%X$X$X%X%X$X%X%X%X=X8XsXdXiX*Xh.p.8.8.8.w.i.8.9.8.8.8.y :       xX",
"xXX     + 6 6.9.8.8.8.i.e.8.8.e.9.f.`.rXdXsXwX;X$X$X*X$X%X%X%X%X%X%X%X%X%X%X%X%X%X%X%X%X%X%X%X%X%X%X%X%X%X%X*X&X#X3XpXgXlXlXlXlXgXgXgXlXzXlXgXgXgXgXgXhXdXdXgXlXgXgXgXgXgXgXhXzXlXlXgXgXhXfXfXfXgXlXlXlXsXrX;X%X$X$X%X%X%X%X%X%X%X&X&X$X$X%X%X%X$X$X%X:XdXdXdXdXhXzXhXhXgXhXzXgXhXhXgXhXsX5X%X%X%X%X*X%X}.%X%X%X%X%X}.*X*X*X$X$X}.$X;XpXdXgXgXgXhXhXgXhXhXhXhXaX4X$X$X$X#X*X*X$X*X*X$X$X$X%X$X$X$X3XpXdXgXgXlXgXkXzXdXgXhXgXaX;X*X$X$X$X$X$X$X3XiXgXgXgXgXhXhXhXfXfXfXfXaX;X$X$X%X%X%X*X*X$X$X$X$X$X*X%X}.*XrXsXgXhXgXhXgXhXgXgXhXfXsX8X:X%X%X$X%X%X$X*X$X$X*X%X*X$X$X$X$X$X$X$X*X6XdXlXlXgXgXzXhXzXzXhXfXfXhXdXhXdXaX<X$XU.=.] 2.U.$X$X%X%X$X{.J.J.}.$X$X$X%X%X%X%X%X%X%X%X%X%X%X%X%X%X%X%X%X%X%X$X%X$X$X}.@X%X$X$X*X8XaXdXiX$Xh.p.8.8.i.i.8.8.i.9.8.6.y :       xX",
"xXX     + 8 6.e.8.9.8.w.e.8.8.8.8.a.`.wXdXdXqX=X#X$X%X$X%X%X%X%X$X%X%X%X$X%X&X%X%X$X%X&X$X+X%X%X%X%X%X$X$X%X$X$X$X3X8XaXaXaXdXgXlXgXgXzXzXgXgXgXgXgXgXgXgXlXlXlXdXlXlXgXfXfXfXhXzXgXgXhXfXfXfXfXgXdXiXiXiX6X=X$X$X$X$X$X%X%X%X&X%X$X$X%X$XOX%X%X$X$X$X6XaXgXgXhXhXhXhXhXhXhXhXgXzXhXgXzXaX6X%X$X$X$X%X$X%X%X%X%X%X%X%X*X%X$X*X*X%X$X=XpXsXhXhXhXgXgXgXgXhXhXgXaX8X*X$X$X$X$X$X$X*X*X*X*X*X$X$X$X#X:XiXdXlXlXlXlXzXzXgXgXgXgXpX3X$X%X$X$X$X$X*X3XaXgXgXgXgXgXhXhXhXhXgXgXtX5X%X$X*X$X*X*X$X$X*X$X$X%X%X$X$X=X8XsXgXgXfXgXgXgXsXgXfXhXdXrX=X%X$X%X%X%X$X%X$X#X*X%X*X$X$X$X$X$X$X$X*X3XsXlXlXgXgXlXhXhXgXhXhXhXgXgXgXhXaX3X$XL.=.] F.E.$X&X$X$X=X$X}.}.%X$X$X%X%X$X%X%X&X%X%X%XOX%X=X%X%X%X%X%X%X%X%X%X%X$X[.R.'.$X$X$X%XrXiXdXiX*Xh.p.8.p.i.8.8.i.8.8.8.0.y >       xX",
"xXX     @ 5 6.9.9.9.0.8.8.8.8.8.8.f.].rXdXiXwX;X$X%X%X$X$X$X*X%X$X%X%X%X&X%X%X$X%X%X%X%X%X*X%X%X%X%X$X$X%X%X$X$X$X#X@X#X@X#X8XgXjXlXlXdXgXgXgXgXlXgXlXlXgXgXlXlXlXlXlXgXgXfXfXdXdXgXgXhXhXfXhXfXgX4X#XXXoXoX#X$X$X$X$X$X%X$X%X%X&X$X%X%X$X$X%X%X$X$X=X5XiXdXgXgXhXhXhXhXgXhXhXgXgXhXlXlXyX6X=X%X$X$X$X$X%X%X*X%X%X%X%X%X%X%X*X$X$X$X*XpXdXhXgXgXgXgXgXgXhXhXgXaX4X*X$X$X$X$X$X$X$X$X$X$X$X%X$X$X$X3XiXdXlXgXgXgXlXlXgXgXdXgXpX3X$X%X$X$X$X$X*X4XpXdXdXgXgXlXhXhXhXhXgXgXaX;X$X$X$X$X$X$X*X$X*X*X$X$X%X$X%X%X4XsXgXgXgXgXgXfXgXgXsXgXdX9X=X$X$X$X$X%X%X%X*X*X%X%X$X$X*X$X$X$X*X$X*X8XaXgXgXlXgXlXhXhXhXhXgXhXjXgXgXdXaX:X}.Z.$.=.F.{.%X%X$X$X$X%X%X&X$X*X%X%X$X$X%X%X%X%X&X&X%X%X%X%X%X%X%X%X%X%X%X%X%X$X[.{.OX%X$X$X=XrXsXdXaX*Xh.d.8.8.w.w.8.i.8.8.8.8.y >       xX",
"xXX X   + 8 6.9.9.8.8.8.8.8.8.8.9.i.`.wXdXdXwX;X*X$X$X$X$X%X&X%X%X%X%X%X&X%X%X%X%X%X$X$X&X*X$X$X*X$X$X%X%X*X$X%X$X(.b.j.j.b.#XgXlXlXlXgXkXgXgXlXlXlXgXlXgXgXgXlXlXdXgXgXhXgXgXzXzXgXlXhXhXhXfXfXiXXXz.g.g.b.'.$X$X$X$X$X%X%X%X%X&X$X%X%X$X$X%X%X$X$X%X:XiXlXgXzXhXhXhXgXgXhXhXhXgXgXjXdXaX6X&X$X$X%X%X%X%X%X*X*X%X%X%X%X%X*X$X'.$X$X=XpXsXhXhXhXhXgXgXgXgXgXgXaX4X*X$X$X*X$X*X*X$X*X$X$X$X%X$X$X$X3XiXdXlXgXgXgXgXlXgXdXdXgXaX3X*X$X$X*X$X$X*X3XiXdXdXgXgXgXzXgXhXgXgXgXpX;X$X$X$X$X$X*X$X$X$X$X$X$X%X$X$X%X8XsXgXgXhXgXfXgXgXfXhXhXdXrX;X$X$X$X%X%X%X%X*X$X$X*X*X$X$X$X$X$X$X$X*X3XaXgXgXlXgXgXhXhXhXhXgXhXzXjXlXgXsX4XU.Z.&.&.=.L.%X%X%X%X%X%X%X$X%X%X%X%X*X%X%X%X$X%X%X%X%X%X%X%X%X%X%X%X&X%X%X%X%X%X$X'.#X$X$X$X=XrXdXdXpX%Xg.p.8.8.8.9.i.i.8.i.8.8.y ;       xX",
"xXX     + 6 6.9.8.8.9.9.8.8.8.8.8.f.`.rXdXdXrX:X$X$X%X$X%X%X%X%X%X$X%X%X%X%X%X%X$X$X&X$X$X$X*X*X*X%X%X%X*X$X$X$X$X`.h.p.p.f.@XaXlXlXlXhXfXzXgXlXlXlXgXgXgXlXlXdXlXlXgXgXfXgXhXzXzXgXdXhXgXhXhXfXwX_.f.p.p.z.`.%X$X$X%X%X%X$X%X%X%X%XOX%X%X%X%X%X$X$X%X6XyXgXzXzXhXhXgXgXgXhXhXhXdXgXdXdXsX6X=X$X$X%X%X%X%X%X$X*X$X$X%X%X*X%X$X$X$X$X=XpXsXgXhXhXhXgXgXgXgXgXgXpX4X*X$X$X$X$X$X$X*X$X*X$X%X$X$X%X$X4XiXdXgXlXgXgXzXzXgXgXgXlXiX;X$X$X$X$X$X$X$X3XaXgXdXgXgXzXhXhXhXhXgXdXwX=X$X$X$X$X$X$X$X$X$X$X%X$X$X$X%X&X5XaXgXgXgXgXgXgXgXfXhXhXdXrX=X%X$X$X$X%X%X%X*X$X*X$X*X$X*X$X$X$X$X$X*X3XaXgXgXgXgXgXhXhXhXhXhXhXgXlXlXgXiX:X[.L.L.J.S.U.%X$X%X%X$X%X%X%X&X%X%X%X$X%X$X%X%X$X%X%X%X%X%X%X%X%X%X%X%X%X%X%X$X$X%X%X$X$X=X$X=X6XsXsXsX%Xh.p.8.8.8.8.i.8.8.9.8.8.y :       xX",
"xXX X   + 8 6.w.8.0.e.9.8.8.8.8.8.f.`.wXdXdXrX;X#X*X$X$X%X%X%X%X$X%X%X%X$X%X%X%X%X%X%X%X%X%X%X%X%X%X%X%X%X%X%X%X$XB.g.p.p.g.'.pXgXjXjXdXgXgXgXgXgXgXgXdXgXgXgXgXgXlXdXlXgXgXgXlXlXgXgXdXdXdXgXgXwX`.f.i.p.l.'.*X%X*X$X%X%X%X$X$X%X%X$X%X$X%X$X$X$X$X%X6XaXdXdXjXgXgXjXdXdXdXdXgXdXdXdXdXaX6X*X$X$X$X%X%X%X%X$X%X*X$X%X$X$X}.$X$X$X*X;XwXsXdXdXgXgXgXgXdXgXgXdXaX6X*X%X$X$X$X%X%X%X%X*X%X%X$X$X$X*X4XpXdXdXgXlXdXgXdXdXdXgXgXpX<X*X$X$X$X$X$X*X3XpXlXdXdXlXlXlXlXgXgXdXsXwX;X$X$X#X$X$X$X%X=X$X$X$X*X*X@X@X*X6XsXdXgXgXgXgXdXdXdXgXgXdX8X=X%X$X$X*X%X%X%X*X%X%X%X*X$X*X$X$X$X%X$X*X4XsXdXdXdXgXgXdXdXgXgXgXgXdXdXdXsXiX:X$X'.OX}.}.}.%X}.%X%X%X*X*X*X*X$X%X*X$X$X&X%X%X$X%X%X%X%X%X$X$X$X%X%X$X&X$X%X$X%X$X$X*X%X$X%X=X9XsXdXiX*Xh.i.8.8.8.9.9.8.8.8.8.8.u : X     xX",
"xXX     @ 8 >.w.8.9.9.8.8.w.8.8.9.i.`.wXdXsXwX;X$X$X$X$X$X%X%X%X%X$X$X%X%X%X%X%X%X%X%X%X%X%X%X%X%X%X%X%X%X%X%X%X$X`.n.h.h.n.`.3X4X6X6X:X4X6X3X4X4X3X6X4X4X4X3X6X4X4X4X4X4X6X6X4X4X4X6X5X6X4X5X3X=X_.z.h.g.).'.'.%X$X$X$X%X%X%X%X&X$X%X%X*X$X$X%X&X%X%X&X:X4X4X4X6X6X4X6X6X4X6X3X6X4X5X6X3X*X%X$X$X$X$X$X%X*X%X%X%X$X%X*X*X*X$X$X$X$X*X=X3X3X3X4X4X4X4X6X<X6X3X;X*X*X$X$X$X$X$X%X%X%X%X%X%X$X$X%X%X#X3X4X3X4X4X4X3X6X3X;X5X5X;X*X$X$X*X$X$X$X$X*X3X4X4X3X4X3X3X3X5X5X4X4X3X*X$X$X%X$X$X%X%X$X*X=X%X$X$X$X$X%X=X=X4X4X4X4X6X3X3X6X3X3X3X3X$X$X$X*X*X%X%X%X$X$X%X*X%X$X%X$X$X$X$X$X#X=X3X4X3X3X4X4X6X6X6X4X4X3X3X3X:X3X4X=X$X$X$X}.$X%X%X%X%X%X%X%X*X%X%X$X$X*X%X*X=X%X$X%X%X%X%X$X%X$X%X$X%X%X=X$X%X%X$X*X*X#X#X$X%X@X*X8XiXgXaX=Xh.i.8.8.9.p.8.e.8.8.8.7.y :       xX",
"xXX     @ 8 6.9.9.9.9.9.w.w.8.8.8.i.`.rXdXdXrX=X$X$X$X*X%X%X*X%X*X%X}.*X%X%X*X%X$X$X%X%X%X%X%X%X%X%X%X%X%X$X$X%X$XXX`.`._.`.).).N.m.m.m.b.m.n.b.n.b.n.m.b.n.b.n.m.m.m.b.b.m.m.m.n.n.m.m.m.n.m.m.b.(.(.(.`.'.@X@X$X$X$X$X%X%X$X%X$X%X$X%X%X%X%X%X%X%X$X`.M.m.b.M.m.m.m.m.m.n.b.n.b.m.n.M.).`.$X$X$X%X$X$X$X$X%X%X%X%X%X$X*X%X%X$X$X$X@X(.n.n.n.m.b.b.n.n.b.n.b.).`.$X$X$X$X%X$X*X*X*X%X%X%X$X$X$X$X'.M.b.n.m.n.m.n.b.n.n.n.n.).'.$X$X*X$X$X$X*X'.).m.b.m.m.m.n.n.m.n.n.N.).'.$X$X%X%X%X%X%X%X$X$X$X$X$X$X%X@X(.n.).n.m.b.n.n.n.b.n.n.).(.@X$X$X$X$X%X*X*X%X$X%X*X%X%X%X%X$X$X$X$X@X(.M.m.n.b.n.n.b.m.n.m.n.n.b.n.n.n.N.XX$X$X'.E.}.$X*X%X%X%X%X%X$X%X%X%X$X*X$X%XOX$X%X&X&X%X%X%X%X%X=X$X$X%X&X$X%X%X%X$X*X$X$X$X%X$X*X8XaXdXpX$Xh.a.9.8.p.9.8.9.i.8.8.7.y >       xX",
"xXX     @ 8 6.9.9.8.9.9.8.8.8.8.8.s.`.wXdXdXrX=X$X$X$X$X%X%X%X%X$X%X*X%X*X%X%X%X$X%X%X%X%X%X%X%X%X%X*X&X*X$X$X$X$X$X#X$X@X`.n.f.a.9.9.a.9.i.p.i.i.i.i.i.i.9.9.9.p.i.i.p.i.i.i.i.e.0.9.e.i.p.p.i.f.M.XX$X$X$X%X%X$X$X%X$X$X$X%X*X%X%X%X%X%X%X%X%X%X%X$X Xg.s.9.d.9.0.q.9.i.9.9.9.0.p.i.i.f.).}.$X$X$X%X*X$X%X%X%X%X$X$X%X%X$X$X$X$X#X'.z.i.i.i.a.a.q.i.p.p.i.p.f.).@X$X$X$X$X%X%X}.%X%X%X%X%X%X%X#X(.j.8.q.9.p.i.9.9.p.p.p.p.g.`.$X$X$X$X*X$X#X(.f.i.i.0.0.i.i.i.s.9.9.9.h.`.$X$X$X%X%X$X$X%X$X$X$X$X%X@X#X@X).i.i.p.p.q.i.9.8.p.p.p.p.z.'.$X$X$X$X%X*X$X$X$X$X%X%X%X$X$X$X$X$X$X#X).a.0.i.i.i.i.0.9.i.i.i.9.i.i.9.i.g.R.$X$X'.U.[.$X%X%X%X%X%X%X%X%X%X$X%X*X*X%X%X%X%X%X&X&X%X%X*X$X$X%X%X%X%X&X%X%X%X%X$X$X*X*X%X@X*XwXsXpX,XU.f.9.9.8.9.9.9.9.i.8.8.8.y : X     xX",
"xXX     + 5 6.d.8.8.9.8.8.8.8.p.8.f._.wXgXdXrX;X$X$X$X$X$X$X%X%X%X%X%X$X$X%X%X%X%X%X%X%X%X%X%X%X%X&X$X%X&X%X$X%X$X$X%X$X$X'.z.i.8.7.7.i.i.8.8.p.i.p.p.i.8.8.8.8.p.8.p.p.8.p.p.p.8.0.p.p.8.p.p.0.f.m.@X%X*X%X$X%X%X%X%X$X%X%X%X%X%X%X$X%X%X%X%X%X%X%X#XM.f.d.w.8.i.p.8.p.9.8.i.8.9.p.p.8.s.R.}.%X$X$X$X*X$X%X*X%X*X$X*X*X$X$X$X$X$X$X'.c.9.9.p.p.9.9.p.8.8.8.8.f.).XX$X$X$X$X*X%X$X&X%X%X%X%X%X%X#X).h.i.i.q.8.8.9.8.8.9.p.8.s._.@X$X$X$X$X*X@X(.g.i.i.p.i.8.i.i.9.p.8.p.g._.$X*X$X%X%X%X%X%X$X$X$X$X$X$X%X'.n.p.8.p.p.8.8.9.8.8.p.>.p.z.'.$X$X$X$X$X$X$X*X*X%X%X$X*X*X*X$X$X$X$X@X).a.p.i.p.p.p.i.8.8.i.p.p.8.8.8.i.g.(.OX$X$XOX$X$X%X&X%X%X%X%X%X%X%X*X*X$X*X*X$X%XOX%X%X%X%X%X$X$X$X%X*X*X%X%X%X%X%X$X$X%X$X*X%X$X&X9XdX1XK.<.7.7.9.8.8.8.9.9.9.8.9.8.y >       xX",
"xXX     + 5 6.8.e.r.8.8.8.8.8.8.8.f.`.rXdXsXwX=X$X$X$X$X*X$X%X#X%X%X%X$X%X%X%X%X%X%X%X%X%X%X%X%X%X%X$X*X&X*X}.%X*X$X$X$X$X'.n.i.f.s.s.s.f.s.s.s.f.f.i.i.s.s.s.s.s.s.p.s.f.i.i.i.s.s.f.f.s.s.f.i.f.(.'.%X%X%X$X%X%X%X%X%X%X%X%X%X%X%X%X%X%X%X%X$X$X%X}.M.h.f.s.s.s.s.s.s.s.s.s.s.s.s.s.s.g.M.$X$X$X$X$X$X}.*X%X$X*X$X*X*X$X$X*X}.$X%X#Xb.f.i.s.s.a.9.s.p.i.i.s.h._.$X$X$X$X%X$X%X&X$X%X%X%X%X%X%X*X).l.f.f.f.i.f.f.f.f.i.s.s.h.`.$X$X$X$X$X*X@X(.C.j.f.q.f.i.i.s.i.i.f.s.z._.$X$X%X$X$X%X$X*X%X$X$X$X$X%X%X@X).g.s.f.s.f.f.i.s.s.s.s.g.).'.$X*X*X*X$X*X$X%X*X*X$X%X$X*X$X$X$X$X%X@X(.g.f.f.f.i.i.f.f.f.s.s.s.s.s.s.f.z.`.$X$X$XOX$X$X%X%X&X%X%X%X%X*X%X*X$X$X}.=X%X%X%X%X%X%X%X%X%X$X$X$X$X%X%X%X$X$X%X$X$X$X$X$X*X*X=X7XiX1X3.( } >.9.8.8.9.i.8.8.8.9.6.y >       xX",
"xXX X   + 5 6.8.8.8.8.8.8.8.8.8.8.s.`.rXdXsXwX;X*X$X*X%X$X$X$X$X%X%X$X%X%X%X%X%X$X%X$X$X$X$X$X%X$X%X%X$X%X%X%X%X$X$X$X#X$X$X`.).N.n.n.n.n.n.n.n.n.b.m.n.n.m.N.n.m.M.n.n.n.n.n.n.M.M.n.n.n.).n.M.(.`.$X%X%X%X%X%X%X%X%X%X%X%X%X*X%X%X%X%X%X%X%X%X%X$X$X].).n.n.n.n.n.n.n.n.n.n.n.n.n.n.n. X].%X%X$X$X$X$X*X$X$X*X$X$X*X*X$X$X$X*X$X%X#X(.M.n.).n.m.n.M.M.M.m.m.).'.#X$X%X$X%X%X$X$X*X%X%X%X$X%X%X*X'.M.m.m.n.n.M.n.N.m.m.n.M.R.'.$X$X$X*X$X$X@XXX).).n.n.).z.z.).n.M.M.M._.'.$X$X$X$X$X%X%X=X%X%X%X%X%X%X%X$X`.).N.n.n.).M.n.n.m.).z.).`.}.*X$X$X$X$X*X$X%X*X*X%X%X%X*X}.$X*X$X$X@X`.(.n.n.n.n.n.m.M.M.n.n.M.).n.n.n._.'.$X%X%X%X%X%X%XOX%X%X&X$X%X$X%X%X%X%X$X$X$X=X%X%X%X%X$X$X%X*X$X$X$X$X%X%X%X%X$X*X%X$X$X$X$X$X$XW.>X>X2.Q } >.8.8.8.8.i.i.9.8.8.8.y :       xX",
"xXX     @ 8 6.9.8.8.i.9.p.8.8.8.8.s.].rXdXdXwX=X#X$X%X%X$X*X*X$X$X$X}.$X$X$X$X$X$X$X$X$X$X$X%X%X%X%X%X$X%X%X%X%X$X$X%X%X$X*X$X'.#X@X$X'.}.@X@X@XXXXX'.@X'.@X@X#X@X@X@X@X@X#X}.'.@X'.@X'.'.}.'.@X#X$X%X$X$X%X$X$X%X%X$X%X%X%X%X%X%X%X%X%X%X%X%X%X%X$X$X$X$X'.'.'.'.@X@X@X'.@X@X@X'.@X@X'.$X$X}.$X$X$X$X*X*X%X%X%X$X$X$X$X$X$X$X$X%X%X#X@X@X'.'.}.#X@X'.@X@X@X@X#X@X$X%X%X$X$X%X%X%X%X%X%X%X%X%X$X#X#X@XXX'.XX@X'.#X@X'.#X@X'.}.$X$X$X$X$X*X$X*X*X(.XXXXXX'.'.'.'.@X@X'.'.@X$X$X$X$X%X%X%X%X$X%X%X%X%X%X%X$X$X'.$X$X'.'.'.@X'.@X@X'.'.'.'.%X$X$X$X%X$X*X$X%X$X$X*X%X%X$X$X*X$X$X$X$X$X@X'.@X'.'.'.'.'.$X'.'.}.'.'.$X'.$X$X$X%X%XOX*X=X%X}.%X&X$X$X%X}.$X%X%X*X,X}.$X&X&X%X%X%X%X%X%X=X$X$X$X$X$X*X$X$X$X$X$X%X*X$X$X#XU.| $.K.3.W ) >.8.8.w.8.8.9.8.8.9.9.p :       xX",
"xXX     @ 8 6.i.8.8.s.s.8.8.8.8.8.s.`.wXdXdXwX;X$X$X$X%X$X$X*X#X$X$X$X$X$X$X$X%X$X$X$X$X$X*X%X%X$X%X%X%X&X%X$X$X$X*X$X*X$X$X$X%X$X%X%X%X%X%X%X%X#X$X$X$X%X%X$X*X$X%X%X%X%X%X*X%X%X$X$X%X$X%X%X$X$X$X$X$X$X%X%X%X%X%X%X%X%X%X%X%X%X%X%X%X%X%X%X$X$X$X$X%X$X%X%X$X$X%X%X$X$X*X$X$X$X$X$X%X%X%X$X$X%X%X%X%X%X%X*X$X*X$X*X*X$X$X$X$X%X$X$X$X$X$X$X$X*X$X$X$X$X$X$X*X$X%X$X%X%X$X$X%X%X%X%X%X%X%X$X$X*X%X%X$X$X%X$X$X*X$X$X%X%X%X$X%X$X$X$X*X$X$X$X$X$X*X*X$X$X*X*X*X$X$X$X$X$X*X$X$X$X$X$X*X$X%X%X%X%X%X$X$X$X%X%X%X$X*X%X$X*X*X$X%X$X$X$X$X%X$X$X$X$X*XOX%X%X%X%X%X%X%X*X%X%X%X}.$X$X$X$X$X$X$X$X*X*X*X%X%X%X$X$X%X%X%X$X$X%X%X%X$X%X%X=X$X%X%X%X%X%X%X%X%X%X*X*X$X$X$X%X%X%X%X$X$X%X%X$X$X$X$X$X$X$X$X$X$X$X$X$X$X$X$XJ.Q S -.Z._ ) ,.i.8.e.e.8.8.p.8.8.8.y :       xX",
"xX      @ 8 6.e.8.8.e.e.8.8.8.8.9.i.`.wXdXsXwX=X$X$X$X$X*X*X*X*X*X$X=X$X'.$X$X%X$X$X$X$X%X$X%X$XOX%X%X%X%X%X}.%X$X*X$X$X$X$X$X$X$X$X%X%X%X%X%X$X$X$X$X%X%X$X%X$X$X%X%X$X$X$X$X%X$X$X$X%X%X$X$X$X$X$X$X$X$X$X%X$X%X%X*X&X%X%X%X%X%X%X%X%X%X%X$X$X$X%X$X$X$X%X%X$X%X$X$X%X%X%X$X$X*X*X$X$X%X%X$X$X%X%X%X%X%X$X%X$X*X$X$X*X*X$X$X$X$X%X$X$X$X$X%X$X$X*X$X$X$X$X$X$X$X$X$X$X$X%X%X%X%X%X$X%X%X%X%X$X%X%X%X@X$X$X$X%X%X%X$X$X%X$X$X%X$X$X$X$X$X*X$X$X$X*X$X$X*X$X$X$X$X$X#X*X*X*X$X$X$X$X$X$X%X%X%X%X%X%X$XOX$X%X%X%X$X$X%X$X$X$X$X$X$X$X$X%X%X$X$X$X%X%X%X%X%X&X*X%X%X%X%X$X%X%X%X$X*X$X$X$X%X%X$X$X$X$X%X$X%X%X%X$X%X%X$X$X$X%X%X%X$X*X%X=X%X%X%X%X%X%X%X%X%X%X*X$X%X$X%X%X%X%X%X$X$X$X$X$X$X$X$X$X%X$X=X$X$X*X$X@X$X'.J.D B @.S.O.W [ 7.p.9.d.i.9.9.8.8.7.y :       xX",
"xX      @ 8 6.s.8.8.w.w.8.8.8.8.8.a.`.rXdXsXrX=X$X$X*X=X3X3X4X3X3X3X3X=X$X'.'.XX'.$X%X%X%X%X$X$X$X$X%X$X$X%X%X%X$X$X$X$X*X%X$X$X$X$X%X%X%X%X%X%X$X$X%X%X%X$X$X$X%X%X%X$X%X%X$X%X$X$X$X$X%X$X%X$X$X%X%X%X$X%X$X%X%X%X%X&X%X%X%X%X&X%X%X%X%X%X%X%X%X$X%X$X$X%X%X$X%X$X$X%X$X%X%X$X%X*X@X%X%X%X$X$X$X%X%X%X%X%X%X%X$X*X$X$X*X$X$X$X$X%X%X%X$X%X$X$X$X*X$X$X$X*X$X$X%X%X$X$X%X%X%X%X%X%X%X%X%X%X%X$X%X%X%X%X%X$X%X%X$X$X$X%X$X%X%X%X*X$X$X$X#X$X$X*X$X$X%X$X*X$X$X$X$X$X$X$X$X$X$X%X*X$X$X$X%X%X%X$X%X=X=X$XOX%X%X%X$X%X%X%X%X%X*X%X%X$X%X%X%X$X$X$X$X%X%X%X$X$X$X&X%X%X%X%X%X%X$X$X$X$X$X$X$X%X%X$X*X$X$X#X%X%X%X$XOX%X%X%X%X%X%X$X%X*X%X$X%X%X%X%X%X%X%X%X%X%X%X*X%X%X%X%X%X%X%X%X$X$X$X$X$X*X=X;X<X;X3X3X3X3X=X#X].].S.D x o.D.&.D ' 7.0.7.9.i.8.8.8.8.0.y : X     xX",
"xXX     @ 8 6.e.8.7.w.0.8.8.8.8.8.f.`.wXdXdXrX:X$X*X=X4XwXpXiXeXwXpXpX6X$X_._.`.'.$X$X$X%X%X%X*X$X%X*X%X%X%X&X%X$X*X*X$X%X$X%X*X%X%X*X%X%X%X%X%X*X*X%X%X*X%X$X$X%X%X$X%X*X%X$X%X%X*X%X%X%X$X%X%X%X%X%X%X*X%X%X$X%X%X%X$X&X%X%X%X$X%X%X&X%X%X%X%X%X%X%X%X%X*X%X$X%X$X%X%X$X%X%X$X%X%X$X$X%X%X%X%X%X%X%X%X%X%X%X%X$X*X*X*X$X$X*X*X%X%X%X%X%X%X%X%X$X*X$X*X$X*X*X%X$X%X*X$X%X%X$X%X*X%X$X%X$X$X%X%X%X%X%X%X$X%X%X$X*X%X%X%X%X%X%X%X$X*X*X*X*X$X*X*X$X$X$X%X$X$X*X$X*X%X$X*X*X$X%X%X*X$X*X$X*X%X%X$XOX%X=X&XOX$X%X%X%X%X%X%X%X%X%X%X%X$X%X*X%X*X%X%X%X%X&X&X&X$X%X$X$X%X%X%X%X%X%X%X*X$X$X*X$X%X%X$X$X$X*X*X$X%X%X%X%X%X%X%X%X%X%XOXOX%X=XOX$X%X%X%X%X%X%X%X%X%X%X$X%X%X%X%X$X$X$X$X%X$X$X$X$X;X8XiXwXeXiXpXpXiX6X$X_.(.t.W x o.K.Z.Q ) >.9.8.8.9.i.9.8.0.8.y ;       xX",
"xXX     @ 8 6.9.8.8.i.8.8.8.7.8.8.q.(.wXlXsX4X3X$X*X*XqXaXsXlXsXdXsXdXwX#X(.M.(.'.$X$X$X$X%X$X$X%X%X%X*X%X%X%X*X$X$X*X$X$X*X$X%X%X%X&X%X%X%X%X%X%X*X%X%X*X$X%X*X%X%X%X%X%X%X%X%X%X%X%X%X%X%X%X%X%X%X%X%X%X%X%X%X%X%X%X%X%X$X%X%X%X$X%X$X&X%X%X%X%X%X%X%X%X%X%X%X%X%X%X%X%X%X%X%X%X*X*X$X*X%X%X%X%X%X%X%X%X%X%X%X%X%X%X%X$X$X*X$X%X%X%X%X%X%X&X%X$X$X&X&X*X*X$X$X%X%X%X%X%X%X%X%X%X%X%X$X%X%X$X%X$X%X%X%X%X%X%X%X%X%X%X%X%X%X%X%X%X%X%X%X%X%X%X%X$X*X%X%X%X%X%X*X*X$X$X%X$X$X%X%X$X$X%X%X$X%X%X*X%X%X*X%X%X%X%X%X%X%X%X%X%X%X%X%X%X%X%X%X%X%X%X%X%X%X$X$X%X%X%X$X$X%X%X%X%X%X%X%X$X$X*X$X*X%X%X*X%X%X%X%X*X$X$X%X&X%X%X%X%X%X&X%X*X*X&X=X%X%X%X%X%X%X%X%X*X$X*X$X%X%X$XOXOXOX%X$X$X$X$X$X%X=XqXsXdXdXdXsXsXsX6X$XB.B.y.( x X.I.I.( W :.7.9.8.8.9.9.8.8.8.y ;       xX",
"xXX     @ 6 >.9.8.8.i.i.9.8.8.8.p.q.`.iXsXsXwX*X$X$X*XqXsXdXsXdXdXsXdX8X@X).m.(.'.$X$X$X$X%X*X$X%X%X%X*X$X%X%X%X$X*X$X*X*X*X*X%X$X%X%X%X%X%X%X%X%X%X%X%X$X%X*X$X%X%X%X%X%X%X%X%X%X%X%X%X%X$X$X$X$X$X%X%X%X%X%X%X%X%X%X%X%X%X%X%X%X*X%X%X%X%X%X%X%X%X$X%X%X%X%X%X%X%X%X%X%X%X%X%X%X*X*X$X$X%X%X%X$X%X%X%X%X%X%X%X%X$X%X*X*X$X$X*X%X%X%X%X%X%X%X%X&X$X$X%X$X%X*X$X%X%X%X%X%X$X%X%X%X%X%X%X%X%X%X%X*X$X%X%X$X*X%X%X%X$X%X%X%X$X%X%X%X%X%X%X%X%X%X%X%X%X%X%X$X*X*X%X$X*X%X%X%X%X%X%X$X=X%X$X&X%X$X*X%X%X%X$X$X=X%X%X%X%X%X%X%X%X%X%X%X%X%X%X%X%X%X*X%X$X%X%X%X%X*X$X%X%X%X%X%X%X%X%X*X$X*X*X%X%X%X%X%X%X%X%X%X%X%X%XOX%X%X%X%X%X%XOX*X$X=X&XOX$X&X%X%X%X%X%X$X*X$X*X$X%XOXE.[.OX%X%X%X$X%X$X%X=XwXaXdXdXdXdXsXsX6X'.(.V.k.] B ( K.T.@.W [ 7.i.d.8.e.e.8.8.8.y :       xX",
"xXX     + 6 6.9.8.8.9.9.9.8.8.8.p.q.(.wXgXsXqX3X*X$X*XqXaXdXdXsXdXsXdX8X'.n.b.).`.'.$X$X$X%X%X%X%X%X%X$X$X$X*X*X$X*X*X$X$X$X$X$X%X%X%X%X$XOX%X%X$X*X%X%X%X%X#X*X%X%X%X%X%X%X%X%X%X%X%X%X%X%X%X%X%X%X%X%X%X%X&X%X$X}.$X&X&X%X%X%X%X%X%X%X%X%X%X%X*X%X}.*X%X%X%X%X%X%X%X$X%X%X%X%X%X%X%X$X$X%X}.&X&X%X&X%X$X%X%X%X%X$X%X*X*X$X*X*X%X%X%X%X%X%X%X%X%X%X%X%X$X$X*X*X%X%X%X%X%X$X%X%X%X%X%X%X%X%X%X$X*X$X$X*X*X%X%X$X%X%X$X%X%X%X%X%X%X%X$X$X*X*X*X%X%X%X%X%X%X*X*X%X%X%X*X%X%X$X%X%X$X$X$X$X$X%X*X%X*X*X%X$X$X%X%X%X%X%X%X%X%X%X%X$X%X%X%X%X%X$X$X%X%X%X%X%X$X%X%X%X*X%X%X%X$X%X%X%X$X*X*X$X%X%X%X%X%X%X%X%X%X%X%X%X$X%X%X%X%X%X%X$X$X$X%X%X$X$X%X%X%X*X*X$X*X}.$X$X%X%XOX{.{.OX%X$X$X%X%X%X%X=XwXsXdXdXsXsXsXsX5X].M.n.N.] C S D.E.<...[ 7.9.8.8.r.8.8.0.8.y :       xX",
"xXX     + 6 6.9.0.8.9.9.8.8.8.8.p.f.`.wXdXdXqX3X$X*X=XqXsXgXdXgXdXdXdX4X(.j.f.h.).$X$X$X$X$X%X%X%X%X%X%X*X%X#X$X*X$X*X$X*X*X*X*X%X%X%X%X%X%X=X%X%X$X%X%X$X%X%X%X%X%X%X%X%X%X%X%X%X%X%X%X%X%X%X%X%X%X%X%X%X%X%X%X%X%X%X%X%X%X%X%X$X%X%X%X%X%X%X%X%X%X$X*X*X%X%X%X%X%X%X%X%X%X*X%X%X%X%X%X%X%X%X%X%X%X&X%X%X%X%X%X%X%X*X%X%X*X$X$X%X%X%X%X%X%X%X%X%X*X%X%X$X$X$X*X%X%X%X%X%X%X%X%X%X%X%X%X$X%X%X$X$X*X%X%X%X%X%X*X%X%X%X%X%X%X%X%X%X%X%X$X$X%X%X$X%X%X$X%X%X%X%X%X%X%X$X%X%X&X%X%X$X&X=X*X$X*X*X$X%X%X%X%X%X$X%X%X%X%X%X%X%X$X%X%X$X%X%X&X%X%X%X%X%X%X%X%X%X%X%X&X%X%X%X%X%X$X%X%X*X$X$X*X*X*X%X%X%X%X%X%X%X%X%X%X%X%X%X%X%X%X%XOX$X$X%X%X%X%X%X%X*X$X*X*X*X*X$X*X%X%X$X%X%X%X$X$X$X%X%X$X%X=XwXsXdXdXsXsXsXsX5X).f.f.j. .S A Z.'.f.,.>.9.8.8.9.e.9.9.9.8.p ;       xX",
"xXX     + 5 6.r.8.8.9.e.w.8.8.8.8.f.`.wXgXsXwX;X#X*X=XqXsXdXsXsXdXdXsX3Xn.p.7.p.).'.%X}.*X$X*X$X$X*X%X*X%X%X%X%X%X%X%X%X%X$X*X$X%X%X$X*X*X*X*X%X*X%X*X*X$X$X%X%X%X%X%X%X%X$X*X$X%X%X%X%X$X*X%X$X%X*X*X%X%X%X%X%X%X*X*X*X%X%X$X$X$X$X%X%X%X%X%X%X*X*X*X$X%X*X*X%X$X%X%X%X%X*X%X%X*X$X*X$X$X*X*X*X%X%X%X%X%X%X%X&X%X%X%X%X%X%X%X$X$X$X*X*X$X*X$X*X$X*X$X$X$X$X$X*X=X%X*X$X$X$X*X*X*X*X$X*X'.$X*X$X$X=X*X%X$X*X$X$X$X*X%X%X%X%X&X*X$X*X*X$X$X$X*X%X$X%X%X*X%X%X*X%X%X%X%X%X%X%X*X$X&X*X&X}.$X*X$X$X}.%X%X%X%X%X%X%X%X%X%X%X%X%X%X%X$X&X$X*X%X$X&X%X&X*X$X%X*X$X*X%X%X*X*X}.$X*X*X%X%X%X%X*X*X%X*X$X%X%X%X%X%X%X%X%X%X%X%X%X*X%X$X}.}.}.*X$X*X*X*X$X$X*X$X$X}.=X*X$X*X%X}.*X}.}.}.}.$X$X$X$X$X;X8XsXdXsXsXsXsXsX3Xz.>.>.>.J.2.&.K.}.g.8.8.8.8.8.i.i.i.9.9.0.y ;       xX",
"xX      + 5 6.8.8.8.8.w.w.8.8.8.8.f.`.wXgXsXwX=X@X*X=X8XaXgXgXsXsXdXsX3Xb.>.>.p.n.'.%X%X$X$X$X*X*X$X%X%X$X$X*X%X%X%X%X%X*X$X$X$X%X%X%X$X$X%X*X*X*X}.%X*X%X%X%X%X*X$X%X%X%X%X&X$X$X*X*X*X$X%X%X%X%X%X%X%X%X%X%X%X$X$X%X%X%X%X$X*X*X*X%X%X%X%X%X*X*X*X%X'.$X*X%X$X%X%X$X%X%X%X%X%X$X*X$X*X*X*X$X*X%X%X*X%X$X%X%X%X%X%X%X%X%X%X,X$X$X*X$X$X$X$X*X$X*X*X$X'.$X*X$X*X,X%X$X*X*X*X$X$X*X*X$X$X=X*X$X*X%X$X*X%X$X%X$X*X$X$X&X%X*X%X%X%X*X$X$X*X*X$X*X$X%X%X'.%X%X%X%X%X%X%X%X%X%X*X*X*X%X%X*X*X*X$X}.$X$X%X&X%X%X%X%X%X=X%X%X%X%X%X%X%X$X*X$X&X&X&X%X%X%X%X%X$X*X$X$X$X*X}.$X*X%X%X$X%X%X%X*X$X}.}.$X$X%X%X%X%X%X%X%X%X%X%X%X%X%X&X%X}.}.}.*X$X*X*X*X*X$X*X*X*X$X*X*X*X%X%X=X*X-X[. X'.*X$X*X$X*X*XwXsXdXdXdXsXsXsX3Xz.>.>.d. X|..X.X*Xz.8.8.8.p.8.p.9.9.i.9.8.y ;       xX",
"xXX     @ 8 6.8.9.8.9.9.8.8.8.8.8.s.`.wXdXiXrX;X#X$X3X3XaXpXpXpXpXiXpX*Xz.p.>.g.).'.%X%X*X$X$X$X*X$X$X$X$X%X*X*X%X$X%X%X$X%X%X$X*X%X%X%X$X}.%X*X%X$X%X%X*X%X%X%X%X$X$X*X%X%X$X&X%X*X*X*X*X#X%X%X$X%X%X%X%X%X%X%X%X$X%X%X%X*X*X%X*X*X%X%X%X%X$X$X%X*X$X$X%X%X*X%X*X%X$X%X%X$X%X%X*X%X$X$X$X$X}.*X%X&X%X%X$X%X%X%X%X%X%X%X$X$X$X$X*X$X*X$X*X*X*X*X*X=X$X*X$X$X*X$X}.$X*X$X$X*X$X$X*X$X*X$X*X*X*X$X%X%X$X%X%X%X%X%X&X&X%X%X%X%X$X}.*X*X$X*X*X%X%X$X*X%X$X*X%X%X%X%X%X%X%X%X%X%X*X$X$X%X$X*X*X*X*X%X=X%X%X%X%X=X%X%X%X%X%X%X%X%X%X%X%X%X%X%X%X%X%X%X$X$X%X%X$X*X*X$X}.*X*X*X%X%X%X%X%X*X%X}.{.{.}.*X%X%X%X%X%X%X%X%X%X%X%X%X%X%X%X%X*X$X*X*X$X$X$X}.*X*X}.*X*X$X*X$X%X}.=X%X}.T.L.{.$X$X*X@X$X=X8XsXsXpXpXpXpXpX=Xz.>.>.g.}.pXsXsX*Xh.p.8.8.p.9.9.8.8.8.9.8.y ;       xX",
"xXX X   @ 6 6.0.8.8.9.9.e.8.8.8.8.i.(.rXlXdXwX;X$X$X$X3X3X3X3X*X@X@X'.`.).l.h.z.`.$X%X*X}.$X$X*X*X%X%X%X$X%X%X$X$X%X%X%X*X*X%X%X%X*X%X%X*X%X*X$X$X*X%X$X%X$X$X%X%X*X$X&X+X$X%X%X%X%X$X$X$X*X%X$X%X&X%X*X%X%X%X%X%X%X%X%X%X*X*X%X$X%X%X%X$X%X%X$X%X*X*X*X%X}.*X*X$X%X%X%X$X%X%X%X%X*X*X$X$X*X*X*X%X%X%X%X%X$X%X%X%X%X%X&X&X$X$X=X$X*X$X$X*X*X$X$X$X=X}.$X*X*X$X$X$X*X*X$X*X$X*X$X}.*X$X*X$X*X$X$X*X$X$X%X&X*X$X%X$X&X*X%X*X%X$X%X*X$X$X$X%X%X*X*X%X*X%X%X%X%X%X%X%X%X%X%X%X%X$X$X%X$X*X$X$X%X*X*X$X*X=X%X%X%X*X&X%X%X%X%X%X%X%X%X*X%X%X%X%X%X%X%X$X%X$X%X*X*X$X$X*X*X$X*X$X*X%X%X%X%X$X$X}.}.$X$X*X%X%X%X%X%X%X%X%X%X%X%X%X%X%X%X*X}.}.$X].L.J.[.$X*X}.}.$X$X*X*X*X*X=X=X}.{.].'.].'.@X*X*X*X=X3X;X-XT.T.'.'.'.).).z.).*XpXsXsX$Xg.p.8.8.9.p.9.8.8.8.9.6.y ;       xX",
"xXX     @ 8 6.9.8.8.8.8.8.8.8.8.p.a.(.wXdXdXwX=X@X*X@XXX`.(.).).g.g.d.l.).(.'.'.$X$X%X$X@X$X$X$X*X&X$X$X*X%X%X$X*X$X$X*X$X*X$X$X*X%X%X%X%X$X%X$X%X%X%X%X%X$X%X*X$X*X$X%X%X%X%X%X$X*X*X%X*X*X$X*X%X$X%X%X%X%X%X%X*X$X*X%X$X*X*X$X%X%X%X%X%X%X%X%X}.*X*X*X*X%X$X*X%X%X%X%X%X%X%X%X%X*X%X%X$X*X$X*X*X%X$X%X%X%X%X%X%X%X%X%X%X$X%X=X$X$X*X*X*X*X*X*X*X*X*X$X$X$X$X$X*X*X*X$X*X$X*X$X*X*X*X$X*X$X$X$X*X$X%X%X%X%X%X%X%X%X*X$X%X*X%X%X$X*X$X*X$X$X$X$X%X%X*X%X*X*X*X%X%X%X%X%X*X*X$X$X%X%X%X%X*X$X*X%X$X%X&X$X$XOX}.OX*X%X$X%X%X%X%X%X%X%X%X%X%X%X%X%X%X*X}.*X*X%X*X$X%X%X*X%X%X%X%X%X%X%X%X$X$X$X$X*X%X%X$X*X$X*X%X*X&X%X$X%X%X%X%X%X*X}.}.}.2.$.@.2.[.}.*X*X$X*X*X*X$X$X*X}.$X$X}.'. X'.}.=X*X'.'.'._.k.1.<.s.s.z.).`.'.%X5XsXsXpX%Xh.p.8.p.d.w.w.8.p.9.8.0.y > X . . xX",
"xXX     @ 6 6.9.8.8.9.8.8.8.8.8.p.f.`.wXdXdXwX=X@X$XXX(.(.).).h.>.>.>.s.).@X$X*X$X$X$X'.%X%X*X$X%X&X&X$X$X%X*X*X*X$X*X$X$X$X$X$X%X%X%X%X%X$X}.*X%X%X%X%X$X$X$X$X$X*X$X*X&X%X$X}.*X*X$X*X$X$X$X$X$X$X%X%X%X%X%X%X$X*X$X$X$X$X$X$X$X$X%X%X%X%X%X-X}.%X*X*X*X*X*X*X%X%X%X%X%X%X%X%X%X%X%X%X*X$X$X}.*X$X%X%X*X%X%X%X%X%X%X%X%X%X&X$X$X$X$X*X$X'.*X*X*X*X*X$X*X*X$X*X*X=X$X*X$X$X$X*X*X}.*X*X*X$X$X$X%X%X%X%X%X%X%X%X%X%X%X}.$X%X%X}.*X*X*X*X*X*X*X$X%X*X$X%X*X}.$X$X%X%X%X$X$X$X$X$X&X%X%X*X$X$X*X*X=X%X%X%X$X{.W.}.%X%X$X%X%X%X%X%X*X%X%X%X%X%X%X*X&X%X%X%X%X%X$X*X%X$X$X%X%X%X%X%X%X%X%X%X*X$X$X*X*X*X$X$X$X$X*X*X%X%X%X%X%X%X%X%X*X*X}.}.F.2.$.&.Y.*X*X*X*X*X$X$X$X*X$X*X*X*X*X}.}.}.}.%X*X'.'.).Y.N.r.>.>.>.z.(.'.}.*XwXsXsXsX%Xh.8.8.p.e.e.w.w.9.9.8.8.y : . X X xX",
"xXX     @ 8 6.9.8.8.9.p.8.8.8.8.p.q.`.wXdXiXwX=X$X$X$X`.(.(.).g.>.>.>.s.).$X$X$X$X$X*X%X$X*X$X*X%X%X$X*X*X$X$X*X$X*X$X*X*X*X*X$X%X%X$X*X$X$X*X*X%X%X%X%X*X%X$X*X*X*X$X*X*X%X%X%X*X$X*X*X$X$X*X*X$X%X%X%X%X%X%X%X$X$X$X*X*X$X$X*X&X&X%X%X%X%X%X=X%X}.*X$X$X$X$X$X%X%X%X%X%X%X%X%X%X%X%X%X*X$X$X$X%X*X$X*X%X%X%X%X%X%X&X%X%X%X%X$X*X*X$X$X$X*X$X*X$X*X$X*X$X*X*X*X}.$X*X*X*X*X*X$X$X$X*X$X$X*X*X*X*X%X%X%X%X%X%X%X%X%X%X$X%X*X*X%X$X*X}.$X*X$X$X$X$X$X*X%X%X$X%X*X*X%X%X$X$X$X*X%X%X%X%X%X*X*X}.}.$X%X$X%X%XOX[.}.%X*X%X%X%X%X%X%X%X%X%X%X%X%X$X*X%X$X%X%X$X$X$X*X$X*X%X%X%X%X%X%X%X%X%X%X$X$X*X$X%X$X$X%X*X$X*X$X%X%X%X%X%X$X%X%X*X}.*X}.[.[.[.J.[.*X}.*X*X}.$X*X$X*X*X*X$X$X*X*X$X$X*X$X$X'.).).M.M.h.>.>.>.g.(.'.}.*X6XsXsXpX$Xh.p.8.8.9.9.w.8.p.9.8.8.y >       xX",
"xXX .   @ 8 6.9.9.9.8.8.8.8.8.8.p.i.(.wXgXdXwX:X$X$X#XoX(.). Xz.g.g.g.z.(.$X$X$X$X$X%X*X*X*X$X$X$X$X$X*X$X$X$X$X$X$X*X*X$X$X*X$X%X$X$X*X$X*X%X%X$X%X*X$X%X%X*X*X%X$X$X$X%X$X$X$X$X$X$X*X$X$X*X$X$X%X%X$X$X%X$X$X*X$X$X*X*X$X$X*X&X%X$X*X$X$X$X=X%X'.$X*X*X$X$X*X%X$X%X*X%X%X%X%X$X%X%X$X$X$X*X*X$X%X$X$X$X$X%X%X*X%X%X%X%X$X$X$X$X$X*X*X*X$X$X$X$X$X$X$X$X$X$X'.$X*X$X$X$X*X$X$X*X$X*X*X$X*X$X$X$X*X$X$X$X$X%X$X%X%X*X*X*X%X%X%X$X*X*X*X*X$X*X$X%X%X%X$X$X*X*X%X}.%X$X%X*X%X$X%X*X$X$X%X$X$X*X$X=X$XOXOX%X%XOX$X$X$X%X%X%X%X%X%X*X*X*X%X$X$X$X$X%X$X$X*X%X$X$X$X%X*X$X$X$X$X$X$X$X$X%X%X*X}.$X$X*X*X%X*X$X*X$X$X$X*X%X%X%X%X%X%X*X*X}.$X*X}.'.'.}.$X}.*X$X$X*X$X$X*X$X$X$X*X$X$X$X$X$X*X*X'.'.`._._.n.g.s.g.z.(.'.$X*X8XsXsXsX$Xh.i.8.8.8.9.i.8.9.8.8.0.y >       xX",
"xXX     @ 8 5.w.0.9.9.8.8.8.8.8.p.f.(.wXdXdXqX=X#X*X@X@X'.'.'.`.).).).).'.$X$X$X$X$X$X$X$X$X$X$X$X%X$X%X$X$X$X$X}.*X%X$X$X$X$X$X$X$X$X$X$X$X%X$X$X$X$X$X$X$X$X$X$X$X$X$X$X*X*X}.%X*X$X$X$X*X*X$X%X%X$X$X$X$X$X$X$X$X$X$X$X$X$X$X%X$X$X$X$X$X$X%X}.$X$X$X$X$X$X*X$X$X$X$X$X$X$X$X$X$X$X*X$X$X$X$X$X$X$X$X$X$X$X$X$X$X$X$X$X$X$X$X$X$X$X$X$X$X$X$X$X$X$X$X$X$X%X*X*X$X$X*X$X$X*X$X$X$X*X$X$X*X$X$X$X$X$X$X$X$X$X$X$X%X%X}.$X$X$X$X*X$X$X$X$X*X$X$X$X$X$X%X$X$X*X$X$X%X}.$X*X$X$X}.*X*X$X$X$X}.$X*X*X*X$X}.$X*X*X$X$X$X$X$X$X$X$X$X$X$X%X$X$X$X$X*X*X$X$X*X$X$X$X$X*X$X$X$X$X$X$X$X$X$X*X*X$X}.$X*X*X$X'.$X*X$X*X$X$X%X$X$X%X%X$X$X$X$X$X*X$X$X$X*X*X$X$X$X$X$X$X$X$X}.$X$X$X$X$X$X*X$X$X$X$X'.'.'.}.'.`.).).).).'.$X$X=X8XsXsXaX*Xh.i.p.8.8.p.9.w.8.8.8.8.y :       xX",
"xXX     @ 8 6.8.e.i.9.9.p.8.8.8.8.q.(.wXdXdXwX:X#X#X$X$X$X$X$X$X$X$X*X*X$X$X$X$X$X$X$X$X@X$X$X$X$X$X$X$X$X$X%X$X$X$X$X$X$X$X$X$X$X$X$X$X$X$X$X$X$X$X$X'.$X$X$X$X$X$X$X}.*X*X$X%X*X*X}.}.$X$X$X$X$X$X$X$X$X$X$X$X$X$X$X$X$X$X$X$X$X$X$X$X%X%X$X$X$X$X$X$X$X$X$X$X$X$X$X*X$X$X$X$X$X$X'.*X'.$X$X$X$X$X$X$X$X$X$X$X$X$X$X$X$X$X$X$X$X$X$X$X'.$X$X$X$X$X$X$X$X$X'.$X$X$X}.$X$X}.$X$X$X'.$X$X$X$X$X$X$X$X$X$X$X$X$X$X%X$X}.$X$X$X$X$X$X$X$X$X$X$X$X$X$X$X$X$X}.$X$X*X*X$X*X$X$X$X$X$X'.%X$X$X$X$X%X*X*X$X*X*X$X$X$X$X$X$X$X$X$X%X$X$X*X}.}.$X$X$X$X$X'.$X$X*X$X$X$X$X$X$X$X$X$X$X$X$X$X$X$X$X}.$X$X$X%X$X'.*X$X$X$X$X$X$X}.$X$X$X$X$X$X$X$X'.$X$X$X$X'.$X$X$X$X$X$X$X$X$X*X*X$X$X$X$X'.$X$X$X$X*X$X$X$X$X$X$X'.$X#X$X$X$X*X8XaXsXaX*Xh.8.8.8.8.8.8.9.i.8.8.7.y :       xX",
"xXX     @ 8 6.9.8.p.8.8.p.7.8.8.p.f.`.wXdXaXwX=X$X$X$X$X$X$X$X$X$X$X$X$X*X$X$X$X$X$X$X$X@X$X*X$X$X$X$X$X%X$X$X$X$X$X$X}.$X$X$X$X$X$X$X$X$X$X%X%X$X*X$X$X$X$X$X%X$X$X$X'.$X}.}.$X*X*X$X'.$X$X$X}.$X$X$X$X$X$X}.$X$X$X$X$X$X$X$X$X'.$X$X$X$X}.$X$X$X$X$X$X$X'.$X$X$X$X}.}.*X}.'.$X*X$X$X$X*X$X$X$X$X$X$X$X$X$X%X$X$X#X$X$X$X$X$X$X$X$X$X'.$X$X$X*X$X$X$X*X$X$X}.}.*X}.$X*X*X}.'.*X$X*X$X'.$X$X$X$X$X$X$X$X$X$X%X$X$X$X$X*X$X}.$X$X$X}.$X$X$X'.$X$X$X$X$X'.$X$X}.$X%X}.}.*X$X$X$X$X@X%X$X$X$X'.}.}.$X}.$X*X$X$X$X$X$X$X$X$X*X$X}.$X*X}.$X}.}.$X$X$X$X$X$X$X$X$X$X$X$X}.*X$X$X$X$X$X$X$X$X'.*X$X$X$X}.$X*X$X'.$X$X$X$X$X$X$X}.$X$X$X$X$X$X*X$X$X*X$X$X}.$X$X$X$X$X$X$X*X$X'.$X$X$X$X@X*X$X$X$X$X$X$X$X$X$X$X$X$X%X$X$X$X*X8XdXdXsX*Xh.8.p.8.8.8.9.9.p.8.8.8.y ;       xX",
"xXX     @ 8 6.d.8.8.8.8.p.0.0.8.p.f.(.qXdXdXwX4X*X*X*X*X*X*X$X$X*X*X*X*X*X*X*X*X*X*X*X=X*X*X*X*X*X*X*X*X=X*X%X*X*X*X$X*X*X*X*X*X*X*X*X*X*X*X*X*X*X=X*X*X=X*X$X*X*X*X=X=X*X*X*X*X*X=X=X*X*X*X*X*X%X*X%X%X%X*X*X*X*X*X=X*X*X*X*X$X=X=X%X*X%X%X%X=X=X=X=X=X*X*X*X*X*X*X*X*X*X=X*X*X=X*X*X*X*X*X=X=X*X=X*X*X*X*X*X$X*X*X=X%X%X*X=X%X*X*X*X$X*X*X=X=X*X*X=X*X*X*X*X%X=X*X=X=X=X=X*X*X=X=X*X*X*X*X*X*X=X=X*X$X*X$X*X*X*X*X=X=X*X*X*X*X*X*X*X*X*X*X*X*X*X*X=X=X=X*X=X*X*X*X*X=X*X*X=X*X#X*X*X*X*X;X=X=X*X=X*X*X*X*X*X$X*X*X*X%X*X*X*X*X*X*X*X%X=X*X*X=X=X*X$X*X*X*X$X*X*X%X=X*X*X*X*X*X=X*X*X%X*X*X=X=X*X*X=X*X*X=X*X$X%X%X&X*X*X*X*X$X*X*X*X=X*X*X*X*X=X*X;X*X*X*X*X$X*X=X*X*X*X*X*X*X*X=X*X*X*X*X*X*X*X$X*X*X*X*X=X=X*X*X=XwXaXdXiX#Xh.p.8.8.8.8.9.i.p.8.0.8.y =       xX",
"xXX     @ 5 6.d.i.8.i.i.8.8.p.8.0.p.(.qXeXwXwXqX8X4X4X8X8X8X4X8X8X6X4X8X8X8X4X8X8X6X4X8X8X8X4X8X8X8X8X8X8X5X6X6X8X8X4X8X8X8X4X8X8X8X8X8X6X3X6X6X8X3X8X6X8X6X3X8X8X8X8X8X8X8X8X4X8X8X8X6X8X6X8X4X8X8X6X6X6X6X6X6X8X8X6X6X8X6X8X8X9X6X6X6X6X6X6X6X8X8X8X8X4X8X8X4X3X8X8X8X8X8X6X6X4X8X8X3X3X8X8X8X8X3X8X8X6X8X6X6X6X6X8X6X6X6X6X6X4X8X8X8X6X8X8X8X8X8X6X8X8X8X8X8X8X8X8X8X8X8X8X8X4X8X8X3X8X4X8X4X8X8X3X8X6X6X6X6X6X6X8X6X8X8X6X8X8X8X3X8X6X8X6X8X8X6X8X8X4X8X8X8X8X8X8X8X8X8X8X8X8X4X8X8X6X8X8X6X8X8X6X5X8X8X3X8X6X8X6X8X8X8X3X8X6X6X8X8X8X8X6X6X8X5X,X3X6X8X6X8X8X8X8X8X8X8X6X8X6X6X4X8X8X8X8X6X8X3X8X8X8X8X3X8X6X8X8X8X8X8X8X8X4X8X8X4X8X4X8X4X8X3X8X8X6X8X8X8X6X8X8X8X8X8X5X5X4X8X8X3X3X8X8X8X8X8X6X6X4X8X4X8XqX4XqXqXpXiXqX#Xh.p.8.8.9.8.8.9.i.p.8.8.q =       xX",
"xXX     @ 8 6.0.8.i.i.p.8.p.p.7.p.q.(.4XqXqXwXwXsXsXsXaXaXsXsXaXpXpXaXiXiXsXaXsXaXaXsXaXaXaXaXsXpXpXsXsXsXpXaXaXsXsXsXpXpXsXsXsXsXpXaXsXsXsXaXsXpXsXiXsXsXpXsXsXpXsXaXaXsXpXaXsXpXsXaXsXaXaXsXsXpXsXsXaXsXsXsXsXsXpXsXiXaXaXaXsXsXaXsXaXsXsXaXaXsXsXaXsXsXsXpXsXsXsXpXaXsXsXpXpXaXsXsXaXsXaXaXsXsXpXsXsXsXsXaXsXaXsXsXsXsXsXsXsXsXsXsXaXpXaXaXaXpXsXsXpXaXaXpXsXpXpXaXsXsXsXpXpXsXsXsXpXsXsXsXsXsXsXpXaXsXsXsXsXpXsXsXsXsXpXpXsXsXaXpXsXsXaXaXsXsXsXpXpXsXsXsXpXpXaXaXaXsXpXsXpXsXiXaXaXaXsXaXsXsXsXsXpXaXsXsXpXpXsXaXsXsXsXpXpXsXsXsXsXpXaXsXsXpX8X}.5XaXsXaXpXpXaXaXsXsXpXsXpXsXsXsXsXaXiXsXsXsXsXpXsXaXsXpXsXaXaXpXsXsXsXsXpXsXsXsXaXsXaXaXaXsXsXsXsXaXsXaXaXsXaXaXsXsXsXsXpXsXaXaXaXsXsXpXsXsXpXpXsXsXiXaXaXaXaXaXqX4XwX4X'.f.8.8.8.8.8.8.8.0.8.p.8.y ; X     xX",
"xXX     @ 8 6.0.8.8.p.>.8.8.8.9.p.f.(.:X4XqXwXdXsXdXsXsXsXsXsXsXsXsXsXsXsXlXsXsXsXsXlXsXsXsXlXsXsXdXsXgXgXsXdXsXsXsXsXdXsXgXdXdXsXsXdXdXsXsXdXdXsXdXdXsXsXsXdXdXsXdXdXdXsXsXsXsXsXsXsXsXsXdXdXdXsXdXdXdXsXdXdXdXsXsXdXsXdXdXdXdXgXdXgXsXsXdXdXdXsXdXdXdXsXsXsXsXsXdXdXdXdXdXsXsXsXsXdXdXsXdXsXdXdXdXsXsXdXdXdXdXsXdXdXdXdXdXsXsXdXdXdXdXdXdXdXdXsXsXsXsXsXdXsXdXdXsXdXdXdXsXsXdXdXdXdXdXsXdXdXsXdXdXsXdXdXdXdXsXsXdXsXdXdXdXsXsXdXsXsXsXsXsXdXdXdXdXsXsXdXdXdXdXdXdXsXsXsXdXsXsXsXdXdXdXsXdXsXdXdXdXsXsXdXdXdXdXsXdXgXdXsXdXdXsXsXgXgXsXsXdXsXdXsXtX1XpXsXsXdXdXsXdXdXgXdXsXsXsXdXgXgXdXsXdXdXsXsXsXsXsXdXsXsXdXsXdXdXdXdXdXsXsXdXdXdXdXdXdXgXlXsXsXsXsXdXdXdXsXsXsXdXdXdXdXsXsXdXdXdXsXsXdXdXsXsXsXsXsXdXdXdXdXdXdXdXwX4XqX4XXXh.q.8.8.8.8.8.8.8.8.p.8.y ;       xX",
"xX      + 5 >.8.8.8.8.8.8.9.p.i.p.q.M.*X:X:XqXeXaXaXaXaXaXaXaXaXaXaXiXsXaXaXiXaXaXaXaXaXaXaXaXiXsXaXaXaXaXaXaXaXpXsXaXaXpXpXaXaXsXpXsXiXiXsXiXsXsXpXsXsXiXaXaXaXsXaXaXaXaXpXaXaXsXsXiXiXaXaXaXaXsXpXaXsXaXpXsXaXpXsXsXsXaXiXaXaXaXpXaXaXsXsXsXiXpXaXaXaXaXaXpXaXpXaXsXaXaXpXaXsXaXaXaXaXaXaXaXaXaXaXpXaXsXiXsXiXaXiXiXiXsXiXsXiXaXaXaXaXaXaXaXsXpXaXaXsXaXaXaXpXaXsXaXsXaXiXaXsXaXaXaXaXaXaXaXaXaXaXaXaXsXiXsXaXaXaXaXiXsXaXaXsXpXaXaXpXaXaXiXpXsXiXsXsXaXaXaXpXaXaXaXpXaXaXaXaXdXsXiXaXiXaXaXiXsXpXsXsXaXpXiXsXpXsXiXaXaXaXsXsXpXaXaXaXaXaXsXpXsXpXpXpXsXpXaXaXaXaXaXaXaXiXaXsXiXaXdXaXiXiXsXiXsXsXsXpXaXaXaXiXaXaXiXiXsXaXiXaXaXaXaXaXaXaXiXiXsXsXpXpXaXaXiXsXiXiXiXaXaXiXsXsXaXaXaXaXaXaXpXaXpXsXaXaXsXiXaXiXiXdXiXqXqX4X3X'.c.a.8.8.8.p.p.8.8.8.8.q.y ;       xX",
"xXX     + 5 >.8.p.8.8.9.q.0.h.c.c.c.M.(.(.(.`.oXXXoXXXXXXX'.XXOXOXXXXXoXXXoXXXoXXXXXXXOX'.XXXX'.XXXXXXOXXXXXXXXX#XXXXXoXXXXXXXOXXXXXXXXXXX'.oXOXXXXXXXXXXXXXXXOXXXXXXXXXXXXXXXOXOXXXXXXXXXoXOX#XXX].XXXXXXXXXXOXXXXXoXOXXXXXoXOX'.'.XXOXXXXXXXOX].XXoXOXXXXX'.'.'.@X@XoXXXXXXXoXOXXXXXXXXXXXXXOXXXoXXXXXOXoXXXXXXXXXOXXXXXXXXXXXOXXXXXOXXXXX'.XX'.XXXXXXXXXXXXoXXXXXoXXXXXXXXXXXXXXXXXXX].oXOXXXXXXXXXXXXXXXXXXXXXXXOXXXXXXXXXXXXXXXXXXXXXXXXXXXoXXXXXXXXXXXXXoXXXXX'.'.OXoXXXXXOXXXoXXXXXXXOXXXoXXXXXXX'.'.XXoXXXXXOXXXXXoXXXXXOXXXoXXXXXXXXX+XXXXXXXXXoXoXXXXXXXXX'.'.@XXX'.XXOXXXXXXXXXXXoXXXXXXXoXXX}.XXXXXXXXXXXXXXXXXXXXXXXXXXXXXXXXXXOXXXXXOXXXXXOXXXXXOXXXXXoXXXXX].XXoX$XoXXX'.XXXX'.oXXXXXXXXXXXXXXXXXoX+XXX`.`.V.V.M.m.c.c.q.a.e.i.8.8.8.9.8.w >       xX",
"xXX     + 8 >.8.8.8.8.8.8.c.(.oX=XXXc.0.4.4.4.5.4.4.4.>.6.5.5.7.5.5.6.5.4.4.4.6.5.5.5.5.>.5.5.7.5.5.5.6.5.4.4.6.6.6.6.0.5.;.5.7.5.5.5.6.5.5.5.6.5.6.6.6.5.5.;.5.5.5.5.>.6.5.5.5.5.5.5.5.5.5.5.6.5.5.5.7.5.>.5.6.4.5.5.6.4.6.6.6.4.5.5.6.5.4.>.5.4.>.5.6.6.6.6.>.>.6.6.6.5.5.4.4.7.6.5.5.5.5.5.7.5.5.5.4.5.5.5.5.4.5.5.0.5.5.5.5.6.5.5.5.4.4.4.>.4.>.4.4.4.6.5.5.5.4.6.4.;.5.6.6.7.5.5.5.5.5.5.5.5.5.5.5.7.6.5.5.5.5.5.5.5.5.5.5.:.7.5.5.4.4.5.5.5.5.5.5.4.>.4.5.;.4.6.6.6.6.5.5.5.5.5.4.5.5.6.5.5.5.5.5.5.6.6.5.;.4.6.6.5.6.4.4.5.5.5.5.6.5.6.6.5.5.5.5.[ :.4.4.6.5.6.;.6.6.6.4.5.5.5.5.4.4.5.6.5.5.4.5.6.>.5.>.5.4.5.5.5.5.5.5.5.6.5.5.5.5.5.5.5.5.4.4.5.5.5.6.5.5.6.5.5.5.5.6.6.6.;.6.6.6.6.5.6.4.4.5.5.5.6.5.4.5.5.4.4.4.4.f.XX#XoXm.j.9.9.8.8.8.i.7.y >   X X xX",
"xXX     + 8 6.8.0.9.9.8.0.c.oX:X4X*Xj.f y i p a y s a d a a a a u a a a s a a a a a a a u i a a a s a s u s a a a a s a a a a a a a a a u s a a a a s a d u a d a s a a a a a a s d a a i a a a u s a a a a a a s a a a a s a a s a a s u a a a a a a a a a a d p p p a a a p s a a d a u a a a d a u u a a d a u u a a d a u a a a d a a a a s a a p i s a a a a s a a a a a a a a d a u u d u a a u i a a a a u a i a d a u u a a d a s a a a a a a a a s a a d a a a a a s a a a a a s a a a d a a a a a d a a d u a a a s a a a d a a a a a a u a r Z Z ..a s a a s a a a a a a a a s a a a a a a a t a { a u u a d s a a a a a d a a a a a a a i a a a a a a a s a a a a a a a t d a a a a a a s a a a d a u i u s s s s 0.oXqXqXoXm.e.9.8.8.8.8.8.y :       xX",
"xXX     + 8 5.9.8.9.i.i.q.j.oX4X4X*Xj.f p p e p y y u a a a t t u u e a a t e t u u u u e u t t a a u u u u u u p p u u u u e t u u a a u u a t e a u a u u a t u u u a u a a t u u u u u u u u u u e u t e t t a a u u u a t t t y u u u u a t t s t t u a a t p p p a a e e e e e e t u u u u u u u u u e e u u u u u u u u u e e t t u a a a a e e p a a p e p a a e t t e a t e e t u u u u u u u u u a a a u u u u u u u u e e e e u u a u a u a u u a a e e t a a a t t t u u a e u u u u u u u u t e e e u u u u a a a u e e e t a u a a a y q ..Z Z ..e a e a a a t a a e a a t u u u u a a e e e e e t u u u u u u u u e e e u u u a u u u a u u u u a a u a u a u u a t t e t a a a t a a t a u u u u u u u y e i s 0.#X4X:X#Xm.q.0.9.8.8.8.8.y :       xX",
"xXX     @ 8 6.8.9.i.f.h.h.c.(.oX#XoXq.f p p e p e p a t a a a a u u u u t a a a u a a u a t t a a a t a e u a u p a a a t a a t u a a a a a t t a t t a t a a a u u a a a a t e u u a u a a a t u u u a a t a t a u u u a a a a a a a a a t t a a a a t t a a a a u t a a p a q t a a t a a u u u u a u u a t a u a a u u a a a t a a a a a a a a a t a a a a a a a a t a e e a a a t a t a a a u u u a a a a a a a e a u u a a a a a a a a a u a a a a a u a t t t a a a a a a a t a a a t a a u a e a a a a t u u e a a a a u a a a a t e t a a u a r 0 0 r u t a a a a a a a a a a a a u e e a a t a a t t a a u a a a u u u u a u a a a u a a a a a a u a t e u a a a a a a a a a a a t t t a a a a a u u u u u u u a u s 6.`.oXoXXXm.j.j.q.9.9.i.0.y :     X xX",
"xXX     @ 8 0.p.9.j.V.(.`.m.c.j.q.q.4.f p t t t e a a a a a t a a a a a a a a a a a a a a a a t a a a a a a a a a a a a a a a a a a a a a a a a a t a a t d t a u a a a a a t a u u a a t a a a a a a a a a a a a a a a t a a a a a a t t a a a a a a a a a a t a a a a a a a a a a a a a a a t a u a u a a a a a a a a u u a a a a a a a a t a a a e a a t a a a a a a a a a a a a a a a a a a a a a a a a a a a a a a u a a a a a t a a a a t a a a a a a a a a a a t a a a a a a a a a a a a a a a a a a a a a a a a a a a a a t a t a a a a a a a u e a t a a a a a a a t a a a t a a a t d a a a a a a a t a a a a a a a a a a a a t a a a a a a a a a a t a t a a a a a a a a a t a a a a a a a a a a u u u u a t a e e ;.0.0.f.h.M.V.oXV.C.i.9.8.y >       xX",
"xXX     # 7 4.q.q.m.oX:X3XXXq.f d f i y t a t t a a a a a a a t a a a a a a a a a a a a a a a a a a a a a a a a a a a a a a a a a u a a a t a a t a a t d a a a a a a a a a a a a a a a a a a a a a a a a a t a a a a a a a a a a a a t a a a a a a a t a a a a a a a a a a a a t a a a a a a a a a a a a a a a a a a a a a a a a a a a a a a a a a a a a a a a t a a a a a a a a a a a a a a t a a a u a a a a a t a a a a a a a t a a a t a a a a a a a a a a a a a a a a a t a a a a a a a a a a a a a a a t a a a a t a a a a a a t a a a t a a a a a a a a a a a t a t a a a t a a a t a d a a a a a t a a a a a a a a a a a t a t a a a a a a a a a a a a a a t a a a a a a t a t a a a a a a a a a a u u a a a a a t q a d d f 0.B.#X:X=XV.f.9.9.y >       xX",
"xXX     @ 8 4.8.a.m.:XqX4XoX6.p p y y p a a a a a a a t t a a a a a a a a t a a a a a a a a a a a a a t a t a a a a a a a t a a a a a a a a a a t a a a t a a t a a a a a a a a a a a a a a t a a a a a t a a a a a a a a a a a a a t a a t a a t a a a t a a a t a a a t a a a a a a t a a a a a a a a a a a a a a a a a u a a a t a a a t t a a a a a a a a a t a t a a a t a t a a t a a a a a a a a a a a a a a e a a a a a a a t a a a a a a a a a a a a a a a a a t a a a a t a a t a a a a u a a t a a a a a a a a a a a a a a a a t a a a a a a a a a a a a a a a a a a t e d a a a a a a a a a a a a a a a a a a a a a a a a a a a a a a a a a a a a a a a a a a a a a a a a a a a a a a a a a a a a a u a a a a t t t u y i f V.:X6X:X`.j.9.0.y =       xX",
"xXX X X @ 6 ;.6.0.c.#X:X:X`.0.p p p p t a a a a a a a d a a a a a a a a a t a a a a a a a a a a t a a t a a a t a a a a a a a a a a a a a t a a a a a a a a a a a a a a a a a a a a t a a a a a a a a t a a a a a a a t a a a a a a a a a a a a a a a a a t a t a a a t a a a a a a a a a a a a a a t a a a a a t a a d a a a a a a a a a t a a a a a a d a a a a a d t a a a a a a a a a a a a a a a a a a a t a t a a a a a a t a a a a a t a a a a a a a a a a a a d d t t a a d e t a a a a a a a a t a a a a a a d t t a a a a a a a a a a t a a a a a a a t a a a a a a a a a d a a a a t t a a a a d a a t a t a a a t a a d a a a a a a a a t a a a a a a a a a t a a a t a a a a a a t a d d a a a a a a u a a a t a a e u u ;.m.:X:X:XM.q.5.6.q >       xX",
"xXxXX X @ 5 w w w ;.c.m.V.c.;.p p p t a a a a t t a a a a a a a a a a a a a a a a d a a a a a a a a a a a a a a t a a d a t a a d a a a a a a a a a a t a a a a t a d a a a a a a a a a a t a a d a a a d a a a t a a a a a a t a a a a a t a d t a a t a a a a a a a a a d a a a d a a a t a t t a a d d a a a a a a a a a a a a a a a a a a a a a a t t a a t a a d t t a a a d a a a a a t a a a a a a a a a a a d a a a t a a a d a a a a a a a t a t a a t t a t a a a t a a d a t a a d a a a a t a a a a a a a a t a a a a a t a a a d a a t a a t a a a a t t a a a t a a t t t t a a a a a a a a a a a a a a a a a a a a t t a a t a a d a a a a a a a a a a a a a a a a a a t t a a a a a u a a a a a a a a a a u a t a e a { q.m.M.b.5.i w w 7 = X   xXxX",
"xXxXxXxXxXxX= = = 9 a ;.;.;.f p p p t p a a a t a a a a a a a t a a a a a a a a a a a a a a a a a a a a a a a a a a t t a a a a a a a a a a a t a t a a t t t a a a a t t a a a a a a a a a a a a a a a a a a a a a a a a a t a a a a a a a a a a a a a a a a a a a a t a a t a a a a a a a t a a a a a e t a a a a a t t a a a a a a u e a a a t a a a t a a a a t t a a a a a a a t a a a a a t a a a a a a a a t a a a t a a a a a a a a a a a t a a a a a t t a a a t a a t t a a a t a a a t a a a a a u a t a a a a a a t a a a a a a a t a a e a a a a a a e a a a a a a a a a a a a a t a a a t a a a t a t a a a a t a a a a a a a a a a a e a a a a a a a a a a a a a a u a a a a a u a a a a a a u u a a a a a a u a e e a d f ;.{ { 8 : = > : = xXxXxXxX",
"xXxXxXxXxXxXX   X : 8 p y p p p e t p e a a a a e a e a a t a t u u u a a a a t t t u u a a a a t t a a a a t a t t t t a a t a a u u a t a t a a t a t e e t t e a e a t a t t t e a a t a a t e a a e a t a a t a a a t a a a a a a a a t a a e t a a t t a a a a a e e e t t a a a a a a e a e a e e e a u e t t a a a t t a a u u u u a u a t t a a e a a e t t t t a a a a a a a e t a a e t a t a t e a e a a t a t a t t u u a a a a u a a e e t a t a a t t e a a a a e a t a t e t a t a t a a u u u a a a t e t a t a a t t t t t t t t t a u a a u a a t e a e a t e t a a a a t t e a t a e u a a a a a a a a a t t a a u t t t e a e e a a t a u u a u a a a e a t u u u a a e e e a a a u u u u u u u a a a a a t e a a a y y a q 9 $   X o o xXxXxXxX",
"xXxXxXxXxXxX    o : 6 a p p p e p e e e e e e e t e e e u e u e e e e e e e e e e t e e e e e e u u u u t e e e t e e e q e q e u e e u t e e e t e e t e e e e e e e e a e e e e e e e e e e a e e e e e e e e e e e e u e e a a e t t e e e q e e e t e u u a e e e e e e e t e e q t t e e e e e e e t u e e e u y u e e e e e e e e u u e e e e e e e e q e t t e e e e u u e e e e e e t t t e e e e e e e e e e y e e e e e e e u e e u e e e e u e e e u t e e e t e t a e e t t e t e q e e e e t e e e e e e e e e e e e e e e e e e e t e e e e e e u e e e e e e e a t e t e e e e e e e e e e e e e e e y u e r u u t e e e u e e e e e e e e e e e u u e e e e e e u e e e e e e e e e e e e e u e e e e e e e e e t t t q p a p w , o       xXxXxXxXxX",
"xXxXxXxXxXxX  X $ : 9 6 7 5 7 5 6 5 5 5 5 5 5 5 6 6 5 5 5 5 5 5 5 5 6 6 6 6 6 6 6 6 5 6 5 5 5 5 5 8 5 5 6 6 5 6 6 6 6 5 6 6 5 5 5 5 5 6 6 6 5 6 5 5 5 5 6 5 5 6 5 5 5 5 6 6 6 6 6 6 5 5 6 5 5 5 5 5 6 6 5 5 5 5 6 5 5 5 5 5 5 5 5 6 5 5 5 5 5 5 5 6 6 6 5 5 5 5 5 6 6 6 5 5 5 5 5 5 5 5 5 5 5 5 6 6 5 6 6 6 6 5 5 6 5 5 6 6 5 6 5 6 6 6 5 5 5 5 6 6 6 6 5 5 6 6 6 6 5 5 5 6 5 5 5 5 5 5 5 5 5 6 6 6 6 6 6 6 6 5 5 5 5 8 6 5 5 5 6 6 5 6 5 6 5 5 6 6 5 6 5 6 5 5 6 6 5 5 5 5 6 6 6 5 6 6 5 6 5 5 6 6 5 6 6 6 6 5 5 5 6 6 6 6 6 6 5 6 6 5 5 5 6 6 6 6 6 6 5 5 5 5 6 6 5 5 5 5 5 5 6 6 5 5 5 5 6 6 6 6 5 6 5 5 5 5 5 5 5 5 6 6 5 8 6 6 5 6 5 5 5 5 6 6 6 6 5 6 5 6 5 6 5 5 5 5 6 6 6 6 6 6 6 5 5 6 6 5 5 6 6 5 6 6 5 5 5 5 6 5 5 6 5 5 5 5 5 5 6 5 9 # X   xXxXxXxXxXxX",
"xXxXxXxXxXxXxXX $ : > > - > - - : - - - - - > ; ; - = - ; - - ; ; - ; - ; - - - ; - - ; - - ; ; ; ; = - - - - ; ; ; ; ; ; : - ; - - = ; - - ; - = - ; - - ; - ; ; - - - - ; ; ; ; - - - ; ; ; ; - = - - - - - ; ; ; - - = ; - - ; ; ; - ; - - ; - - ; ; ; ; ; = - - - : ; ; ; - - - - - ; - - - - - = - - ; - - ; ; ; ; = = - - - ; ; = - ; = - ; ; ; ; - - - ; ; ; ; - - - - = - - = = - ; - - - - - ; ; ; ; - = - ; ; - = - - - ; - ; - - - = ; ; - - ; ; - ; ; - - - = ; ; ; ; - - ; - ; ; - ; = - - ; - - - - - : : ; ; ; ; - - ; - - - ; ; - ; - - = - = = ; - - - - - - = ; - - ; ; - ; - ; - - ; - - ; = = - > : - - - - ; - ; ; ; - - ; ; ; - ; - - ; ; - - - = = - ; - ; ; ; ; - - - - ; - = ; - - - - - = - - - - - - - - > - - - ; : ; * o xXxXxXxXxXxXxX",
"xXxXxXxXxXxXxXxXxXxXo       X   X   X     X   X     X X   X     X     X   X   .     X     X   X   X X   . . . .   . . .   .       X X   X . . . X   . X       X   X X   .     .   X   X   X       X   X   X   X X   X     X   X   X     X     X   X X   X         . X   .   . X X   X   X X   X X .       X   X   X   . X . . .     X X   X X   .   . X X       . . . X .   X . X     X   X X   X   . .     X   X     . X . . . X   X   X .     X   X       X   .     X     .   . . X       . X   X .   X   X     .   .     .       X . X     X       X X   X   . X   X X     X X .     X     X     X . X   X X       . X X   .   X       X     .     X   X X   X     X   X   X .   X     X   X .     X X   X X   X X .   X   . X   X     X   X $ xXxXxXxXxXxXxXxXxX",
"xXxXxXxXxXxXxXxXxXxX                                                                                                                                                                                                                                                                                                                                                                                                                                                                                                                                                                                                                                                                                                                              xXxXxXxXxXxXxXxXxX",
"xXxXxXxXxXxXxXxXxXxXX                                                                                                                                                                                                                                                                                                                                                                                                                                                                                                                                                                                                                                                                                                                           xXxXxXxXxXxXxXxXxXxX",
"xXxXxXxXxXxXxXxXxXxXxXxXxXxXxXxX            xXxXxXxXxXxXxXxXxXxXxXxXxXxXxXxXxXxXxXxXxXxXxXxXxXxXxXxXxXxXxXxXxXxXxXxXxXxXxXxXxXxXxXxXxXxXxXxXxXxXxXxXxXxXxXxXxXxXxXxXxXxXxXxXxXxXxXxXxXxXxXxXxXxXxXxXxXxXxXxXxXxXxXxXxXxXxXxXxXxXxXxXxXxXxXxXxXxXxXxXxXxXxXxXxXxXxXxXxXxXxXxXxXxXxXxXxXxXxXxXxXxXxXxXxXxXxXxXxXxXxXxXxXxXxXxXxXxXxXxXxXxXxXxXxXxXxXxXxXxXxXxXxXxXxXxXxXxXxXxXxXxXxXxXxXxXxXxXxXxXxXxXxXxXxXxXxXxXxXxXxXxXxXxXxXxXxXxXxXxXxXxXxXxXxXxXxXxXxXxXxXxXxXxXxXxXxXxXxXxXxXxXxXxXxXxXxXxXxXxXxXxXxXxXxXxXxXxXxXxXxXxXxXxXxXxXxXxXxXxXxXxXxXxXxXxXxXxXxXxXxXxXxXxXxXxXxXxXxXxXxXxXxXxXxXxXxXxXxXxXxXxXxXxXxXxXxXxXxXxXxXxXxXxXxXxXxXxXxXxXxXxXxXxXxXxXxXxXxXxXxXxXxXxXxXxXxXxXxXxXxXxXxXxXxXxXxXxXxXxXxXxXxX                      xXxXxXxXxXxXxXxXxXxXxXxXxXxX"
};
