/* XPM */
static char *button[] = {
/* columns rows colors chars-per-pixel */
"424 259 239 2 ",
"   c #010101",
".  c #0D0D0B",
"X  c #090606",
"o  c #160403",
"O  c #151412",
"+  c #1C1C1C",
"@  c #1A1616",
"#  c #290302",
"$  c #390705",
"%  c #241B1B",
"&  c #371615",
"*  c #3C120F",
"=  c #22221F",
"-  c #222220",
";  c #2A2B27",
":  c #2A2926",
">  c #373531",
",  c #201F20",
"<  c #450402",
"1  c #4D0402",
"2  c #460B08",
"3  c #530402",
"4  c #5A0603",
"5  c #4B1412",
"6  c #660704",
"7  c #740704",
"8  c #7D0906",
"9  c #790804",
"0  c #6D1815",
"q  c #532523",
"w  c #69201F",
"e  c #504E49",
"r  c #74584F",
"t  c #72665A",
"y  c #6C6D63",
"u  c #706D62",
"i  c #737162",
"p  c #77776A",
"a  c #727266",
"s  c #850804",
"d  c #990A06",
"f  c #9A110D",
"g  c #9C1613",
"h  c #861814",
"j  c #A40904",
"k  c #AD0903",
"l  c #A40E0A",
"z  c #AC0E09",
"x  c #A70601",
"c  c #B30601",
"v  c #BD0600",
"b  c #B40903",
"n  c #BC0A03",
"m  c #B40E09",
"M  c #BC0E09",
"N  c #A4110D",
"B  c #AC120D",
"V  c #B4120D",
"C  c #BC120C",
"Z  c #A41511",
"A  c #AC1511",
"S  c #AC1915",
"D  c #A71B17",
"F  c #B41611",
"G  c #BB1611",
"H  c #B41915",
"J  c #BC1A15",
"K  c #B81D19",
"L  c #BD231D",
"P  c #B5261E",
"I  c #A8221C",
"U  c #B92A24",
"Y  c #BC332C",
"T  c #BB3B34",
"R  c #A6322A",
"E  c #8B2823",
"W  c #C40600",
"Q  c #C30A03",
"!  c #CB0A03",
"~  c #C30F08",
"^  c #CA0F09",
"/  c #CA0600",
"(  c #C3120D",
")  c #CB120C",
"_  c #C31611",
"`  c #CB1611",
"'  c #C31A14",
"]  c #CB1914",
"[  c #C21E19",
"{  c #C81F19",
"}  c #D0100A",
"|  c #C3231C",
" . c #CA231C",
".. c #D0201A",
"X. c #C52A23",
"o. c #C7332C",
"O. c #C53A34",
"+. c #D02F2A",
"@. c #944137",
"#. c #A9493C",
"$. c #BA433B",
"%. c #C5423B",
"&. c #D1423E",
"*. c #95514A",
"=. c #BD4C45",
"-. c #BC534C",
";. c #AA574C",
":. c #A56759",
">. c #B96359",
",. c #9C7566",
"<. c #8E6F69",
"1. c #A37869",
"2. c #BB7268",
"3. c #BB756C",
"4. c #93635A",
"5. c #C64B44",
"6. c #C6544C",
"7. c #C75C54",
"8. c #D4534F",
"9. c #C6645B",
"0. c #D2615C",
"q. c #C56B63",
"w. c #C6756B",
"e. c #C87B73",
"r. c #D77470",
"t. c #878578",
"y. c #87857A",
"u. c #9C8876",
"i. c #98967C",
"p. c #BD857A",
"a. c #A28876",
"s. c #C8867C",
"d. c #D7817B",
"f. c #8C8B83",
"g. c #9D9D86",
"h. c #919188",
"j. c #9D9D89",
"k. c #979685",
"l. c #958C82",
"z. c #BE8C82",
"x. c #A19E8B",
"c. c #A29C86",
"v. c #BC9589",
"b. c #B99B90",
"n. c #9EA08C",
"m. c #9FA091",
"M. c #A2A28E",
"N. c #A9A78F",
"B. c #A3A492",
"V. c #AAAB96",
"C. c #ABAC9B",
"Z. c #A7A896",
"A. c #BAA89B",
"S. c #B0B19D",
"D. c #AEAEA1",
"F. c #B1AEA4",
"G. c #BDAEA3",
"H. c #AFB0A2",
"J. c #B2B2A4",
"K. c #B5B4AA",
"L. c #B9B6AA",
"P. c #BCBBAD",
"I. c #BBB6A6",
"U. c #BFBDB2",
"Y. c #BEBDBA",
"T. c #CA8B82",
"R. c #D88984",
"E. c #C9948A",
"W. c #CA9C92",
"Q. c #D79892",
"!. c #E29592",
"~. c #CAA499",
"^. c #D1A59B",
"/. c #C8ADA2",
"(. c #D4ABA3",
"). c #CEB5AA",
"_. c #C1BBAE",
"`. c #C5B5A9",
"'. c #D1B5AA",
"]. c #D3B5AB",
"[. c #C0BEB1",
"{. c #CDBDB3",
"}. c #D1BDB2",
"|. c #DABCB4",
" X c #E6B9B6",
".X c #E4AEA9",
"XX c #E5A29E",
"oX c #BFC0B2",
"OX c #BFC0AE",
"+X c #C2C2B4",
"@X c #C6C6BD",
"#X c #C9C6BC",
"$X c #C7C8BC",
"%X c #CBCBBD",
"&X c #C7C7B6",
"*X c #D2C5B9",
"=X c #D3CABD",
"-X c #D3C2B7",
";X c #C8CAB7",
":X c #E9C0BC",
">X c #CDCEC1",
",X c #C9C4C0",
"<X c #D3CEC2",
"1X c #DBC9C4",
"2X c #CFD0C3",
"3X c #D4D4C6",
"4X c #D5D5C9",
"5X c #D6D8CC",
"6X c #D8D9CC",
"7X c #D9D5CA",
"8X c #D6D7D0",
"9X c #DBDBD2",
"0X c #DDDDD9",
"qX c #D7D8D1",
"wX c #EAC9C6",
"eX c #EBD1CD",
"rX c #E9DBD6",
"tX c #F1DAD8",
"yX c #DFE0D6",
"uX c #DFE0D8",
"iX c #E3E3DC",
"pX c #E4E4DA",
"aX c #F1E3DD",
"sX c #E4E4E2",
"dX c #EAEBE4",
"fX c #EEEEE9",
"gX c #E7E7E2",
"hX c #F2EBE7",
"jX c #EFF1E9",
"kX c #EFF0E7",
"lX c #F2F3ED",
"zX c #F4F5ED",
"xX c #F6F7F1",
"cX c #F8F7F4",
"vX c #F7F9F3",
"bX c #F9F9F6",
"nX c #F9F9F9",
"mX c #F7FAF9",
"MX c None",
/* pixels */
"MXMXMXMXMXMXMXMXMXMXMXMXMXMXMXMXMXMXMXMXMXMXMXMXMXMXMXMXMXMXMXMXMXMXMXMXMXMXMXMXMXMXMXMXMXMXMXMXMXMXMXMXMXMXMXMXMXMXMXMXMXMXMXMXMXMXMXMXMXMXMXMXMXMXMXMXMXMXMXMXMXMXMXMXMXMXMXMXMXMXMXMXMXMXMXMXMXMXMXMXMXMXMXMXMXMXMXMXMXMXMXMXMXMXMXMXMXMXMXMXMXMXMXMXMXMXMXMXMXMXMXMXMXMXMXMXMXMXMXMXMXMXMXMXMXMXMXMXMXMXMXMXMXMXMXMXMXMXMXMXMXMXMXMXMXMXMXMXMXMXMXMXMXMXMXMXMXMXMXMXMXMXMXMXMXMXMXMXMXMXMXMXMXMXMXMXMXMXMXMXMXMXMXMXMXMXMXMXMXMXMXMXMXMXMXMXMXMXMXMXMXMXMXMXMXMXMXMXMXMXMXMXMXMXMXMXMXMXMXMXMXMXMXMXMXMXMXMXMXMXMXMXMXMXMXMXMXMXMXMXMXMXMXMXMXMXMXMXMXMXMXMXMXMXMXMXMXMXMXMXMXMXMXMXMXMXMXMXMXMXMXMXMXMXMXMXMXMXMXMXMXMXMXMXMXMXMXMXMXMXMXMXMXMXMXMXMXMXMXMXMXMXMXMXMXMXMXMXMXMXMXMXMXMXMXMXMXMXMXMXMXMXMXMXMXMXMXMXMXMXMXMXMXMXMXMXMXMXMXMXMXMXMXMXMXMXMXMXMXMXMXMXMXMXMXMXMXMXMXMXMXMXMXMXMXMXMXMXMXMXMXMXMXMXB k MXMXMXMXMXMXMXMXMXMXMXMXMXMXMXMXMXMXMXMXMXMXMXMXMXMXMXMX",
"MXMXMXMXMXMXMXMXMXMXMXMXMXMXMXMXMXMXMXMXMXMXMXMXMXMXMXMXMXMXMXMXMXMXMXMXMXMXMXMXMXMXMXMXMXMXMXMXMXMXMXMXMXMXMXMXMXMXMXMXMXMXMXMXMXMXMXMXMXMXMXMXMXMXMXMXMXMXMXMXMXMXMXMXMXMXMXMXMXMXMXMXMXMXMXMXMXMXMXMXMXMXMXMXMXMXMXMXMXMXMXMXMXMXMXMXMXMXMXMXMXMXMXMXMXMXMXMXMXMXMXMXMXMXMXMXMXMXMXMXMXMXMXMXMXMXMXMXMXMXMXMXMXMXMXMXMXMXMXMXMXMXMXMXMXMXMXMXMXMXMXMXMXMXMXMXMXMXMXMXMXMXMXMXMXMXMXMXMXMXMXMXMXMXMXMXMXMXMXMXMXMXMXMXMXMXMXMXMXMXMXMXMXMXMXMXMXMXMXMXMXMXMXMXMXMXMXMXMXMXMXMXMXMXMXMXMXMXMXMXMXMXMXMXMXMXMXMXMXMXMXMXMXMXMXMXMXMXMXMXMXMXMXMXMXMXMXMXMXMXMXMXMXMXMXMXMXMXMXMXMXMXMXMXMXMXMXMXMXMXMXMXMXMXMXMXMXMXMXMXMXMXMXMXMXMXMXMXMXMXMXMXMXMXMXMXMXMXMXMXMXMXMXMXMXMXMXMXMXMXMXMXMXMXMXMXMXMXMXMXMXMXMXMXMXMXMXMXMXMXMXMXMXMXMXMXMXMXMXMXMXMXMXMXMXMXMXMXMXMXMXMXMXMXMXMXMXMXMXMXMXMXMXMXMXMXMXMXMXMXMXMXMXMXMXB MXMXMXMXMXMXMXMXMXMXMXMXMXMXMXMXMXMXMXMXMXMXMXMXMXMXMXMX",
"MXMXMXMXMXMXMXMXMXMXMXMXMXMXMXMXMXMXMXMXMXMXMXMXMXMXMXMXMXMXMXMXMXMXMXMXMXMXMXMXMXMXMXMXMXMXMXMXMXMXMXMXMXMXMXMXMXMXMXMXMXMXMXMXMXMXMXMXMXMXMXMXMXMXMXMXMXMXMXMXMXMXMXMXMXMXMXMXMXMXMXMXMXMXMXMXMXMXMXMXMXMXMXMXMXMXMXMXMXMXMXMXMXMXMXMXMXMXMXMXMXMXMXMXMXMXMXMXMXMXMXMXMXMXMXMXMXMXMXMXMXMXMXMXMXMXMXMXMXMXMXMXMXMXMXMXMXMXMXMXMXMXMXMXMXMXMXMXMXMXMXMXMXMXMXMXMXMXMXMXMXMXMXMXMXMXMXMXMXMXMXMXMXMXMXMXMXMXMXMXMXMXMXMXMXMXMXMXMXMXMXMXMXMXMXMXMXMXMXMXMXMXMXMXMXMXMXMXMXMXMXMXMXMXMXMXMXMXMXMXMXMXMXMXMXMXMXMXMXMXMXMXMXMXMXMXMXMXMXMXMXMXMXMXMXMXMXMXMXMXMXMXMXMXMXMXMXMXMXMXMXMXMXMXMXMXMXMXMXMXMXMXMXMXMXMXMXMXMXMXMXMXMXMXMXMXMXMXMXMXMXMXMXMXMXMXMXMXMXMXMXMXMXMXMXMXMXMXMXMXMXMXMXMXMXMXMXMXMXMXMXMXMXMXMXMXMXMXMXMXMXMXMXMXMXMXMXMXMXMXMXMXMXMXMXMXMXMXMXMXMXMXMXMXMXMXMXMXMXMXMXMXMXMXMXMXMXMXMXMXMXMXMXMXMXMXMXMXMXMXMXMXMXMXMXMXMXMXMXMXMXMXMXMXMXMXMXMXMXMXMXMXMXMX",
"MXMXMXMXMXMXMXMXMXMXMXMXMXMXMXMXMXMXMXMXMXMXMXMXMXMXMXMXMXMXMXMXMXMXMXMXMXMXMXMXMXMXMXMXMXMXMXMXMXMXMXMXMXMXMXMXMXMXMXMXMXMXMXMXMXMXMXMXMXMXMXMXMXMXMXMXMXMXMXMXMXMXMXMXMXMXMXMXMXMXMXMXMXMXMXMXMXMXMXMXMXMXMXMXMXMXMXMXMXMXMXMXMXMXMXMXMXMXMXMXMXMXMXMXMXMXMXMXMXMXMXMXMXMXMXMXMXMXMXMXMXMXMXMXMXMXMXMXMXMXMXMXMXMXMXMXMXMXMXMXMXMXMXMXMXMXMXMXMXMXMXMXMXMXMXMXMXMXMXMXMXMXMXMXMXMXMXMXMXMXMXMXMXMXMXMXMXMXMXMXMXMXMXMXMXMXMXMXMXMXMXMXMXMXMXMXMXMXMXMXMXMXMXMXMXMXMXMXMXMXMXMXMXMXMXMXMXMXMXMXMXMXMXMXMXMXMXMXMXMXMXMXMXMXMXMXMXMXMXMXMXMXMXMXMXMXMXMXMXMXMXMXMXMXMXMXMXMXMXMXMXMXMXMXMXMXMXMXMXMXMXMXMXMXMXMXMXMXMXMXMXMXMXMXMXMXMXMXMXMXMXMXMXMXMXMXMXMXMXMXMXMXMXMXMXMXMXMXMXMXMXMXMXMXMXMXMXMXMXMXMXMXMXMXMXMXMXMXMXMXMXMXMXMXMXMXMXMXMXMXMXMXMXMXMXMXMXMXMXMXMXMXMXMXMXMXMXMXMXMXMXMXMXMXMXMXMXMXMXMXMXMXMXMXMXMXMXMXMXMXMXMXMXMXMXMXMXMXMXMXMXMXMXMXMXMXMXMXMXMXMXMXMXMX",
"MXMXMXMXMXMXMXMXMXMXMXMXMXMXMXMXMXMXMXMXMXMXMXMXMXMXMXMXMXMXMXMXMXMXMXMXMXMXMXMXMXMXMXMXMXMXMXMXMXMXMXMXMXMXMXMXMXMXMXMXMXMXMXMXMXMXMXMXMXMXMXMXMXMXMXMXMXMXMXMXMXMXMXMXMXMXMXMXMXMXMXMXMXMXMXMXMXMXMXMXMXMXMXMXMXMXMXMXMXMXMXMXMXMXMXMXMXMXMXMXMXMXMXMXMXMXMXMXMXMXMXMXMXMXMXMXMXMXMXMXMXMXMXMXMXMXMXMXMXMXMXMXMXMXMXMXMXMXMXMXMXMXMXMXMXMXMXMXMXMXMXMXMXMXMXMXMXMXMXMXMXMXMXMXMXMXMXMXMXMXMXMXMXMXMXMXMXMXMXMXMXMXMXMXMXMXMXMXMXMXMXMXMXMXMXMXMXMXMXMXMXMXMXMXMXMXMXMXMXMXMXMXMXMXMXMXMXMXMXMXMXMXMXMXMXMXMXMXMXMXMXMXMXMXMXMXMXMXMXMXMXMXMXMXMXMXMXMXMXMXMXMXMXMXMXMXMXMXMXMXMXMXMXMXMXMXMXMXMXMXMXMXMXMXMXMXMXMXMXMXMXMXMXMXMXMXMXMXMXMXMXMXMXMXMXMXMXMXMXMXMXMXMXMXMXMXMXMXMXMXMXMXMXMXMXMXMXMXMXMXMXMXMXMXMXMXMXMXMXMXMXMXMXMXMXMXMXMXMXMXMXMXMXMXMXH MXMXMXMXMXMXMXMXMXMXMXMXMXMXMXMXMXMXMXMXMXMXMXMXMXMXMXMXMXMXMXMXMXMXMXMXMXMXMXMXMXMXMXMXMXMXMXMXMXMXMXMXMXMXMXMXMXMX",
"MXMXMXMXMXMXMXMXMXMXMXMXMXMXMXMXMXMXMXMXMXMXMXMXMXMXMXMXMXMXMXMXMXMXMXMXMXMXMXMXMXMXMXMXMXMXMXMXMXMXMXMXMXMXMXMXMXMXMXMXMXMXMXMXMXMXMXMXMXMXMXMXMXMXMXMXMXMXMXMXMXMXMXMXMXMXMXMXMXMXMXMXMXMXMXMXMXMXMXMXMXMXMXMXMXMXMXMXMXMXMXMXMXMXMXMXMXMXMXMXMXMXMXMXMXMXMXMXMXMXMXMXMXMXMXMXMXMXMXMXMXMXMXMXMXMXMXMXMXMXMXMXMXMXMXMXMXMXMXMXMXMXMXMXMXMXMXMXMXMXMXMXMXMXMXMXMXMXMXMXMXMXMXMXMXMXMXMXMXMXMXMXMXMXMXMXMXMXMXMXMXMXMXMXMXMXMXMXMXMXMXMXMXMXMXMXMXMXMXMXMXMXMXMXMXMXMXMXMXMXMXMXMXMXMXMXMXMXMXMXMXMXMXMXMXMXMXMXMXMXMXMXMXMXMXMXMXMXMXMXMXMXMXMXMXMXMXMXMXMXMXMXMXMXMXMXMXMXMXMXMXMXMXMXMXMXMXMXMXMXMXMXMXMXMXMXMXMXMXMXMXMXMXMXMXMXMXMXMXMXMXMXMXMXMXMXMXMXMXMXMXMXMXMXMXMXMXMXMXMXMXMXMXMXMXMXMXMXMXMXMXMXMXMXMXMXMXMXMXMXMXMXMXMXMXMXMXMXMXMXMXMXMXMXMXMXMXMXMXMXMXMXMXMXMXMXMXMXMXMXMXMXMXMXMXMXMXMXMXMXMXMXMXMXMXMXMXMXMXMXMXMXMXMXMXMXMXMXMXMXMXMXMXMXMXMXMXMXMXMXMXMXMXMX",
"MXMXMXMXMXMXMXMXMXMXMXMXMXMXMXMXMXMXMXMXMXMXMXMXMXMXMXMXMXMXMXMXMXMXMXMXMXMXMXMXMXMXMXMXMXMXMXMXMXMXMXMXMXMXMXMXMXMXMXMXMXMXMXMXMXMXMXMXMXMXMXMXMXMXMXMXMXMXMXMXMXMXMXMXMXMXMXMXMXMXMXMXMXMXMXMXMXMXMXMXMXMXMXMXMXMXMXMXMXMXMXMXMXMXMXMXMXMXMXMXMXMXMXMXMXMXMXMXMXMXMXMXMXMXMXMXMXMXMXMXMXMXMXMXMXMXMXMXMXMXMXMXMXMXMXMXMXMXMXMXMXMXMXMXMXMXMXMXMXMXMXMXMXMXMXMXMXMXMXMXMXMXMXMXMXMXMXMXMXMXMXMXMXMXMXMXMXMXMXMXMXMXMXMXMXMXMXMXMXMXMXMXMXMXMXMXMXMXMXMXMXMXMXMXMXMXMXMXMXMXMXMXMXMXMXMXMXMXMXMXMXMXMXMXMXMXMXMXMXMXMXMXMXMXMXMXMXMXMXMXMXMXMXMXMXMXMXMXMXMXMXMXMXMXMXMXMXMXMXMXMXMXMXMXMXMXMXMXMXMXMXMXMXMXMXMXMXMXMXMXMXMXMXMXMXMXMXMXMXMXMXMXMXMXMXMXMXMXMXMXMXMXMXMXMXMXMXMXMXMXMXMXMXMXMXMXMXMXMXMXMXMXMXMXMXMXMXMXMXMXMXMXMXMXMXMXMXMXMXMXMXMXMXMXMXMXMXMXMXMXMXMXMXMXMXMXMXMXMXMXMXMXMXMXMXMXMXMXMXMXMXMXMXMXMXMXMXMXMXMXMXMXMXMXMXMXMXMXMXMXMXMXMXMXMXMXMXMXMXMXMXMXMXMX",
"MXMXMXMXMXMXMXMXMXMXMXMXMXMXMXMXMXMXMXMXMXMXMXMXMXMXMXMXMXMXMXMXMXMXMXMXMXMXMXMXMXMXMXMXMXMXMXMXMXMXMXMXMXMXMXMXMXMXMXMXMXMXMXMXMXMXMXMXMXMXMXMXMXMXMXMXMXMXMXMXMXMXMXMXMXMXMXMXMXMXMXMXMXMXMXMXMXMXMXMXMXMXMXMXMXMXMXMXMXMXMXMXMXMXMXMXMXMXMXMXMXMXMXMXMXMXMXMXMXMXMXMXMXMXMXMXMXMXMXMXMXMXMXMXMXMXMXMXMXMXMXMXMXMXMXMXMXMXMXMXMXMXMXMXMXMXMXMXMXMXMXMXMXMXMXMXMXMXMXMXMXMXMXMXMXMXMXMXMXMXMXMXMXMXMXMXMXMXMXMXMXMXMXMXMXMXMXMXMXMXMXMXMXMXMXMXMXMXMXMXMXMXMXMXMXMXMXMXMXMXMXMXMXMXMXMXMXMXMXMXMXMXMXMXMXMXMXMXMXMXMXMXMXMXMXMXMXMXMXMXMXMXMXMXMXMXMXMXMXMXMXMXMXMXMXMXMXMXMXMXMXMXMXMXMXMXMXMXMXMXMXMXMXMXMXMXMXMXMXMXMXMXMXMXMXMXMXMXMXMXMXMXMXMXMXMXMXMXMXMXMXMXMXMXMXMXMXMXMXMXMXMXMXMXMXMXMXMXMXMXMXMXMXMXMXMXMXMXMXMXMXMXMXMXMXMXMXMXMXMXMXMXMXMXMXMXMXMXMXMXMXMXMXMXMXMXMXMXMXMXMXMXMXMXMXMXMXMXMXMXMXMXMXMXMXMXMXMXMXMXMXMXMXMXMXMXMXMXMXMXMXMXMXMXMXMXMXMXMXMXMXMXMXMX",
"MXMXMXMXMXMXMXMXMXMXMXMXMXMXMXMXMXMXMXMXMXMXMXMXMXMXMXMXMXMXMXMXMXMXMXMXMXMXMXMXMXMXMXMXMXMXMXMXMXMXMXMXMXMXMXMXMXMXMXMXMXMXMXMXMXMXMXMXMXMXMXMXMXMXMXMXMXMXMXMXMXMXMXMXMXMXMXMXMXMXMXMXMXMXMXMXMXMXMXMXMXMXMXMXMXMXMXMXMXMXMXMXMXMXMXMXMXMXMXMXMXMXMXMXMXMXMXMXMXMXMXMXMXMXMXMXMXMXMXMXMXMXMXMXMXMXMXMXMXMXMXMXMXMXMXMXMXMXMXMXMXMXMXMXMXMXMXMXMXMXMXMXMXMXMXMXMXMXMXMXMXMXMXMXMXMXMXMXMXMXMXMXMXMXMXMXMXMXMXMXMXMXMXMXMXMXMXMXMXMXMXMXMXMXMXMXMXMXMXMXMXMXMXMXMXMXMXMXMXMXMXMXMXMXMXMXMXMXMXMXMXMXMXMXMXMXMXMXMXMXMXMXMXMXMXMXMXMXMXMXMXMXMXMXMXMXMXMXMXMXMXMXMXMXMXMXMXMXMXMXMXMXMXMXMXMXMXMXMXMXMXMXMXMXMXMXMXMXMXMXMXMXMXMXMXMXMXMXMXMXMXMXMXMXMXMXMXMXMXMXMXMXMXMXMXMXMXMXMXMXMXMXMXMXMXMXMXMXMXMXMXMXMXMXMXV V K MXMXMXMXMXMXMXMXMXMXMXMXMXMXMXMXMXMXMXMXMXMXMXMXMXMXMXMXMXMXMXMXMXS j A MXMXMXMXMXMXMXMXMXMXMXMXMXMXH MXMXMXMXMXMXMXMXMXMXMXMXMXMXMXMXMXMXMXMXMXMXMXMXMX",
"MXMXMXMXMXMXMXMXMXMXMXMXMXMXMXMXMXMXMXMXMXMXMXMXMXMXMXMXMXMXMXMXMXMXMXMXMXMXMXMXMXMXMXMXMXMXMXMXMXMXMXMXMXMXMXMXMXMXMXMXMXMXMXMXMXMXMXMXMXMXMXMXMXMXMXMXMXMXMXMXMXMXMXMXMXMXMXMXMXMXMXMXMXMXMXMXMXMXMXMXMXMXMXMXMXMXMXMXMXMXMXMXMXMXMXMXMXMXMXMXMXMXMXMXMXMXMXMXMXMXMXMXMXMXMXMXMXMXMXMXMXMXMXMXMXMXMXMXMXMXMXMXMXMXMXMXMXMXMXMXMXMXMXMXMXMXMXMXMXMXMXMXMXMXMXMXMXMXMXMXMXMXMXMXMXMXMXMXMXMXMXMXMXMXMXMXMXMXMXMXMXMXMXMXMXMXMXMXMXMXMXMXMXMXMXMXMXMXMXMXMXMXMXMXMXMXMXMXMXMXMXMXMXMXMXMXMXMXMXMXMXMXMXMXMXMXMXMXMXMXMXMXMXMXMXMXMXMXMXMXMXMXMXMXMXMXMXMXMXMXMXMXMXMXMXMXMXMXMXMXMXMXMXMXMXMXMXMXMXMXMXMXMXMXMXMXMXMXMXMXMXMXMXMXMXMXMXMXMXMXMXMXMXMXMXMXMXMXMXMXMXMXMXMXMXMXMXMXMXMXMXMXMXMXMXMXMXMXMXMXMXMXMXJ m n b b J MXMXMXMXMXMXMXMXMXMXMXMXMXMXMXMXMXMXMXMXMXMXMXMXMXMXMXMXMXMXMXH m k j D MXMXMXMXMXMXMXMXMXMXMXMXMXMXMXMXMXMXMXMXMXMXMXMXMXMXMXMXMXMXMXMXMXMXMXMXMXMXMX",
"MXMXMXMXMXMXMXMXMXMXMXMXMXMXMXMXMXMXMXMXMXMXMXMXMXMXMXMXMXMXMXMXMXMXMXMXMXMXMXMXMXMXMXMXMXMXMXMXMXMXMXMXMXMXMXMXMXMXMXMXMXMXMXMXMXMXMXMXMXMXMXMXMXMXMXMXMXMXMXMXMXMXMXMXMXMXMXMXMXMXMXMXMXMXMXMXMXMXMXMXMXMXMXMXMXMXMXMXMXMXMXMXMXMXMXMXMXMXMXMXMXMXMXMXMXMXMXMXMXMXMXMXMXMXMXMXMXMXMXMXMXMXMXMXMXMXMXMXMXMXMXMXMXMXMXMXMXMXMXMXMXMXMXMXMXMXMXMXMXMXMXMXMXMXMXMXMXMXMXMXMXMXMXMXMXMXMXMXMXMXMXMXMXMXMXMXMXMXMXMXMXMXMXMXMXMXMXMXMXMXMXMXMXMXMXMXMXMXMXMXMXMXMXMXMXMXMXMXMXMXMXMXMXMXMXMXMXMXMXMXMXMXMXMXMXMXMXMXMXMXMXMXMXMXMXMXMXMXMXMXMXMXMXMXMXMXMXMXMXMXMXMXMXMXMXMXMXMXMXMXMXMXMXMXMXMXMXMXMXMXMXMXMXMXMXMXMXMXMXMXMXMXMXMXMXMXMXMXMXMXMXMXMXMXMXMXMXMXMXMXMXMXMXMXMXMXMXMXMXMXMXMXMXMXMXMXMXMXMXMXMXMXMXb b b b b b L MXMXMXMXMXMXMXMXMXMXMXMXMXMXMXMXMXMXMXMXMXMXMXMXMXMXMXMXMXMXk b b j S MXMXMXMXMXMXMXMXMXMXMXMXMXMXMXMXMXMXMXMXMXMXMXMXMXMXMXMXMXMXMXMXMXMXMXMXMXMXMX",
"MXMXMXMXMXMXMXMXMXMXMXV V MXMXMXMXMXMXMXMXMXMXMXMXMXMXMXMXMXMXMXMXMXMXMXMXMXMXMXMXMXMXMXMXMXMXMXMXMXMXMXMXMXMXMXMXMXMXMXMXMXMXMXMXMXMXMXMXMXMXMXMXMXMXMXMXMXMXMXMXMXMXMXMXMXMXMXMXMXMXMXMXMXMXMXMXMXMXMXMXMXMXMXMXMXMXMXMXMXMXMXMXMXMXMXMXMXMXMXMXMXMXMXMXMXMXMXMXMXMXMXMXMXMXMXMXMXMXMXMXMXMXMXMXMXMXMXMXMXMXMXMXMXMXMXMXMXMXMXMXMXMXMXMXMXMXMXMXMXMXMXMXMXMXMXMXMXMXMXMXMXMXMXMXMXMXMXMXMXMXMXMXMXMXMXMXMXMXMXMXMXMXMXMXMXMXMXMXMXMXMXMXMXMXMXMXMXMXMXMXMXMXMXMXMXMXMXMXMXMXMXMXMXMXMXMXMXMXMXMXMXMXMXMXMXMXMXMXMXMXMXMXMXMXMXMXMXMXMXMXMXMXMXMXMXMXMXMXMXMXMXMXMXMXMXMXMXMXMXMXMXMXMXMXMXMXMXMXMXMXMXMXMXMXMXMXMXMXMXMXMXMXMXMXMXMXMXMXMXMXMXMXMXMXMXMXMXMXMXMXMXMXMXMXMXMXMXMXMXMXMXMXMXMXMXMXMXMXMXMXMXF b b b b b b V MXMXMXMXMXMXMXMXMXMXMXMXMXMXMXMXMXMXMXMXMXMXMXMXMXMXMXMXMXMXm b c z MXMXMXMXMXMXMXMXMXMXMXMXMXMXMXMXMXMXMXMXMXMXMXMXMXMXMXMXMXMXMXMXMXMXMXMXMXMXMXMX",
"MXMXMXMXMXMXMXMXMXMXMXm b MXMXMXMXMXMXMXMXMXMXMXMXMXMXMXMXMXMXMXMXMXMXMXMXMXMXMXMXMXMXMXMXMXMXMXMXMXMXMXMXMXMXMXMXMXMXMXMXMXMXMXMXMXMXMXMXMXMXMXMXMXMXMXMXMXMXMXMXMXMXMXMXMXMXMXMXMXMXMXMXMXMXMXMXMXMXMXMXMXMXMXMXMXMXMXMXMXMXMXMXMXMXMXMXMXMXMXMXMXMXMXMXMXMXMXMXMXMXMXMXMXMXMXMXMXMXMXMXMXMXMXMXMXMXMXMXMXMXMXMXMXMXMXMXMXMXMXMXMXMXMXMXMXMXMXMXMXMXMXMXMXMXMXMXMXMXMXMXMXMXMXMXMXMXMXMXMXMXMXMXMXMXMXMXMXMXMXMXMXMXMXMXMXMXMXMXMXMXMXMXMXMXMXMXMXMXMXMXMXMXMXMXMXMXMXMXMXMXMXMXMXMXMXMXMXMXMXMXMXMXMXMXMXMXMXMXMXMXMXMXMXMXMXMXMXMXMXMXMXMXMXMXMXMXMXMXMXMXMXMXMXMXMXMXMXMXMXMXMXMXMXMXMXMXMXMXMXMXMXMXMXMXMXMXMXMXMXMXMXMXMXMXMXMXMXMXMXMXMXMXMXMXMXMXMXMXMXMXMXMXMXMXMXMXMXMXMXMXMXMXMXMXMXMXMXMXMXMXMXV b b b b b b m MXMXMXMXMXMXMXMXMXMXMXMXMXMXMXMXMXMXMXMXMXMXMXMXMXMXMXMXMXMXMXMXMXMXMXMXMXMXMXMXMXMXMXMXMXMXMXMXMXMXMXMXMXMXMXMXMXMXMXMXMXMXMXMXMXMXMXMXMXMXMXMXMXMX",
"MXMXMXMXMXMXMXMXMXMXMXV M MXMXMXMXMXMXMXMXMXMXMXMXMXMXMXMXMXMXMXMXMXMXMXMXMXMXMXMXMXMXMXMXMXMXMXMXMXMXMXMXMXMXMXMXMXMXMXMXMXMXMXMXMXMXMXMXMXMXMXMXMXMXMXMXMXMXMXMXMXMXMXMXMXMXMXMXMXMXMXMXMXMXMXMXMXMXMXMXMXMXMXMXMXMXMXMXMXMXMXMXMXMXMXMXMXMXMXMXMXMXMXMXMXMXMXMXMXMXMXMXMXMXMXMXMXMXMXMXMXMXMXMXMXMXMXMXMXMXMXMXMXMXMXMXMXMXMXMXMXMXMXMXMXMXMXMXMXMXMXMXMXMXMXMXMXMXMXMXMXMXMXMXMXMXMXMXMXMXMXMXMXMXMXMXMXMXMXMXMXMXMXMXMXMXMXMXMXMXMXMXMXMXMXMXMXMXMXMXMXMXMXMXMXMXMXMXMXMXMXMXMXMXMXMXMXMXMXMXMXMXMXMXMXMXMXMXMXMXMXMXMXMXMXMXMXMXMXMXMXMXMXMXMXMXMXMXMXMXMXMXMXMXMXMXMXMXMXMXMXMXMXMXMXMXMXMXMXMXMXMXMXMXMXMXMXMXMXMXMXMXMXMXMXMXMXMXMXMXMXMXMXMXMXMXMXMXMXMXMXMXMXMXMXMXMXMXMXMXMXMXMXMXMXMXMXMXMXMXMXV b b b b b b b MXMXMXMXMXMXMXMXMXMXMXMXMXMXMXMXMXMXMXMXMXMXMXMXMXMXMXMXMXMXMXMXMXMXMXMXMXMXMXMXMXMXMXMXMXMXMXMXMXMXMXMXMXMXMXMXMXMXMXMXMXMXMXMXMXMXMXMXMXMXMXMXMXMX",
"MXMXMXMXMXMXMXMXMXMXMXMXMXMXMXMXMXMXMXMXMXMXMXMXMXMXMXMXMXMXMXMXMXMXMXMXMXMXMXMXMXMXMXMXMXMXMXMXMXMXMXMXMXMXMXMXMXMXMXMXMXMXMXMXMXMXMXMXMXMXMXMXMXMXMXMXMXMXMXMXMXMXMXMXMXMXMXMXMXMXMXMXMXMXMXMXMXMXMXMXMXMXMXMXMXMXMXMXMXMXMXMXMXMXMXMXMXMXMXMXMXMXMXMXMXMXMXMXMXMXMXMXMXMXMXMXMXMXMXMXMXMXMXMXMXMXMXMXMXMXMXMXMXMXMXMXMXMXMXMXMXMXMXMXMXMXMXMXMXMXMXMXMXMXMXMXMXMXMXMXMXMXMXMXMXMXMXMXMXMXMXMXMXMXMXMXMXMXMXMXMXMXMXMXMXMXMXMXMXMXMXMXMXMXMXMXMXMXMXMXMXMXMXMXMXMXMXMXMXMXMXMXMXMXMXMXMXMXMXMXMXMXMXMXMXMXMXMXMXMXMXMXMXMXMXMXMXMXMXMXMXMXMXMXMXMXMXMXMXMXMXMXMXMXMXMXMXMXMXMXMXMXMXMXMXMXMXMXMXMXMXMXMXMXMXMXMXMXMXMXMXMXMXMXMXMXMXMXMXMXMXMXMXMXMXMXMXMXMXMXMXMXMXMXMXMXMXMXMXMXMXMXMXMXMXMXMXMXMXMXMXMXM b b b b b b m MXMXMXMXMXMXMXMXMXMXMXMXMXMXMXMXMXMXMXMXMXMXMXMXMXMXMXMXMXMXMXMXMXMXMXMXMXMXMXMXMXMXMXMXMXMXMXMXMXMXMXMXMXMXMXMXMXMXMXMXMXMXMXMXMXMXMXMXMXMXMXMXMXMX",
"MXMXMXMXMXMXMXMXMXMXMXMXMXMXMXMXMXMXMXMXMXMXMXMXMXMXMXMXMXMXMXMXMXMXMXMXMXMXMXMXMXMXMXMXMXMXMXMXMXMXMXMXMXMXMXMXMXMXMXMXMXMXMXMXMXMXMXMXMXMXMXMXMXMXMXMXMXMXMXMXMXMXMXMXMXMXMXMXMXMXMXMXMXMXMXMXMXMXMXMXMXMXMXMXMXMXMXMXMXMXMXMXMXMXMXMXMXMXMXMXMXMXMXMXMXMXMXMXMXMXMXMXMXMXMXMXMXMXMXMXMXMXMXMXMXMXMXMXMXMXMXMXMXMXMXMXMXMXMXMXMXMXMXMXMXMXMXMXMXMXMXMXMXMXMXMXMXMXMXMXMXMXMXMXMXMXMXMXMXMXMXMXMXMXMXMXMXMXMXMXMXMXMXMXMXMXMXMXMXMXMXMXMXMXMXMXMXMXMXMXMXMXMXMXMXMXMXMXMXMXMXMXMXMXMXMXMXMXMXMXMXMXMXMXMXMXMXMXMXMXMXMXMXMXMXMXMXMXMXMXMXMXMXMXMXMXMXMXMXMXMXMXMXMXMXMXMXMXMXMXMXMXMXMXMXMXMXMXMXMXMXMXMXMXMXMXMXMXMXMXMXMXMXMXMXMXMXMXMXMXMXMXMXMXMXMXMXMXMXMXMXMXMXMXMXMXMXMXMXMXMXMXMXMXMXMXMXMXMXMXMXMXMXb b b b b b V MXMXMXMXMXMXMXMXMXMXMXMXMXMXMXMXMXMXMXMXMXMXMXMXMXMXMXMXMXMXMXMXMXMXMXMXMXMXMXMXMXMXMXMXMXMXMXMXMXMXMXMXMXMXN K MXMXMXMXMXMXMXMXMXMXMXMXMXMXMXMXMXMX",
"MXMXMXMXMXMXMXMXMXMXMXMXMXMXMXMXMXMXMXMXMXMXMXMXMXMXMXMXMXMXMXMXMXMXMXMXMXMXMXMXMXMXMXMXMXMXMXMXMXMXMXMXMXMXMXMXMXMXMXMXMXMXMXMXMXMXMXMXMXMXMXMXMXMXMXMXMXMXMXMXMXMXMXMXMXMXMXMXMXMXMXMXMXMXMXMXMXMXMXMXMXMXMXMXMXMXMXMXMXMXMXMXMXMXMXMXMXMXMXMXMXMXMXMXMXMXMXMXMXMXMXMXMXMXMXMXMXMXMXMXMXMXMXMXMXMXMXMXMXMXMXMXMXMXMXMXMXMXMXMXMXMXMXMXMXMXMXMXMXMXMXMXMXMXMXMXMXMXMXMXMXMXMXMXMXMXMXMXMXMXMXMXMXMXMXMXMXMXMXMXMXMXMXMXMXMXMXMXMXMXMXMXMXMXMXMXMXMXMXMXMXMXMXMXMXMXMXMXMXMXMXMXMXMXMXMXMXMXMXMXMXMXMXMXMXMXMXMXMXMXMXMXMXMXMXMXMXMXMXMXMXMXMXMXMXMXMXMXMXMXMXMXMXMXMXMXMXMXMXMXMXMXMXMXMXMXMXMXMXMXMXMXMXMXMXMXMXMXMXMXMXMXMXMXMXMXMXMXMXMXMXMXMXMXMXMXMXMXMXMXMXMXMXMXMXMXMXMXMXMXMXMXMXMXMXMXMXMXMXMXMXMXMXMXm b b b b MXMXMXMXMXMXMXMXMXMXMXMXMXMXMXMXMXMXMXMXMXMXMXMXMXMXMXMXMXMXMXMXMXMXMXMXMXMXMXMXMXMXMXMXMXMXMXMXMXMXMXMXMXMXMXV n C J n G V V MXMXMXV MXMXMXMXMXMXMXMX",
"MXMXMXMXMXMXMXMXMXMXMXMXMXMXMXMXMXMXMXMXMXMXMXMXMXMXMXMXMXMXMXMXMXMXMXMXMXMXMXMXMXMXMXMXMXMXMXMXMXMXMXMXMXMXMXMXMXMXMXMXMXMXMXMXMXMXMXMXMXMXMXMXMXMXMXMXMXMXMXMXMXMXMXMXMXMXMXMXMXMXMXMXK MXMXMXMXMXMXMXMXMXMXMXMXMXMXMXMXMXMXMXMXMXMXMXMXMXMXMXMXMXMXMXMXMXMXMXMXMXMXMXMXMXMXMXMXMXMXMXMXMXMXMXMXMXMXMXMXMXMXMXMXMXMXMXMXMXMXMXMXMXMXMXMXMXMXMXMXMXMXMXMXMXMXMXMXMXMXMXMXMXMXMXMXMXMXMXMXMXMXMXMXMXMXMXMXMXMXMXMXMXMXMXMXMXMXMXMXMXMXMXMXMXMXMXMXMXMXMXMXMXMXMXMXMXMXMXMXMXMXMXMXMXMXMXMXMXMXMXMXMXMXMXMXMXMXMXMXMXMXMXMXMXMXMXMXMXMXMXMXMXMXMXMXMXMXMXMXMXMXMXMXMXMXMXMXMXMXMXMXMXMXMXMXMXMXMXMXMXMXMXMXMXMXMXMXMXMXMXMXMXMXMXMXMXMXMXMXMXMXMXMXMXMXMXMXMXMXMXMXMXMXMXMXMXMXMXMXMXMXMXMXMXMXMXMXMXMXMXMXMXMXMXMXMXV m J MXMXMXMXMXMXMXMXMXMXMXMXMXMXMXMXMXMXMXMXMXMXMXMXMXMXMXMXMXMXMXMXMXMXMXMXMXMXMXMXMXMXMXMXMXMXMXMXMXMXMXMX' ' _ C n Q n n n n n n M M n G MXMXMXMXMXMXMX",
"MXMXMXMXMXMXMXMXMXMXMXMXMXMXMXMXMXMXMXMXMXMXMXMXMXMXMXMXMXMXMXMXMXMXMXMXMXMXMXMXMXMXMXMXMXMXMXMXMXMXMXMXMXMXMXMXMXMXMXMXMXMXMXMXMXMXMXMXMXMXMXMXMXMXMXMXMXMXMXMXMXMXMXMXMXMXMXMXMXMXMXMXS MXMXMXMXMXMXMXMXMXMXMXMXMXMXMXMXMXMXMXMXMXMXMXMXMXMXMXMXMXMXMXMXMXMXMXMXMXMXMXMXMXMXMXMXMXMXMXMXMXMXMXMXMXMXMXMXMXMXMXMXMXMXMXMXMXMXMXMXMXMXMXMXMXMXMXMXMXMXMXMXMXMXMXMXMXMXMXMXMXMXMXMXMXMXMXMXMXMXMXMXMXMXMXMXMXMXMXMXMXMXMXMXMXMXMXMXMXMXMXMXMXMXMXMXMXMXMXMXMXMXMXMXMXMXMXMXMXMXMXMXMXMXMXMXMXMXMXMXMXMXMXMXMXMXMXMXMXMXMXMXMXMXMXMXMXMXMXMXMXMXMXMXMXMXMXMXMXMXMXMXMXMXMXMXMXMXMXMXMXMXMXMXMXMXMXMXMXMXMXMXMXMXMXMXMXMXMXMXMXMXMXMXMXMXMXMXMXMXMXMXMXMXMXMXMXMXMXMXMXMXMXMXMXMXMXMXMXMXMXMXMXMXMXMXMXMXMXMXMXMXMXMXMXMXMXMXMXMXMXMXMXMXMXMXMXMXMXMXMXMXMXMXMXMXMXMXMXMXMXMXMXMXMXMXMXMXMXMXMXMXMXMXMXMXMXMXMXMXMXMXMXMXMXMXMXMX( Q n n n Q n n Q Q n n Q n n n n M MXMXMXMXMXMXMX",
"MXMXMXMXMXMXMXMXMXMXMXMXMXMXMXMXMXMXMXMXMXMXMXMXMXMXMXMXMXMXMXMXMXMXMXMXMXMXMXMXMXMXMXMXMXMXMXMXMXMXMXMXMXMXMXMXMXMXMXMXMXMXMXMXMXMXMXMXMXMXMXMXMXMXMXMXMXMXMXMXMXMXMXMXMXMXMXMXMXMXMXMXMXMXMXMXMXMXMXMXMXMXMXMXMXMXMXMXMXMXMXMXMXMXMXMXMXMXMXMXMXMXMXMXMXMXMXMXMXMXMXMXMXMXMXMXMXMXMXMXMXMXMXMXMXMXMXMXMXMXMXMXMXMXMXMXMXMXMXMXMXMXMXMXMXMXMXMXMXMXMXMXMXMXMXMXMXMXMXMXMXMXMXMXMXMXMXMXMXMXMXMXMXMXMXMXMXMXMXMXMXMXMXMXMXMXMXMXMXMXMXMXMXMXMXMXMXMXMXMXMXMXMXMXMXMXMXMXMXMXMXMXMXMXMXMXMXMXMXMXMXMXMXMXMXMXMXMXMXMXMXMXMXMXMXMXMXMXMXMXMXMXMXMXMXMXMXMXMXMXMXMXMXMXMXMXMXMXMXMXMXMXMXMXMXMXMXMXMXMXMXMXMXMXMXMXMXMXMXMXMXMXMXMXMXMXMXMXMXMXMXMXMXMXMXMXMXMXMXMXMXMXMXMXMXMXMXMXMXMXMXMXMXMXMXMXMXMXMXMXMXMXMXMXMXMXMXMXMXMXMXMXMXMXMXMXMXMXMXMXMXMXMXMXMXMXMXMXMXMXMXMXMXMXMXMXMXMXMXMXV m F MXMXMXMXMXMXMXMXMXMXMXMXMXMXMX~ Q Q n Q n n Q n n n n Q n n n n n n C MXMXMXMXMXMX",
"MXMXMXMXMXMXMXMXMXMXMXMXMXMXMXMXMXMXMXMXMXMXMXMXMXMXMXMXMXMXMXMXMXMXMXMXMXMXMXMXMXMXMXMXMXMXMXMXMXMXMXMXMXMXMXMXMXMXMXMXMXMXMXMXMXMXMXMXMXMXMXMXMXMXMXMXMXMXMXMXMXMXMXMXMXMXMXMXMXMXMXMXMXMXMXMXMXMXMXMXMXMXMXMXMXMXMXMXMXMXMXMXMXMXMXMXMXMXMXMXMXMXMXMXMXMXMXMXMXMXMXMXMXMXMXMXMXMXMXMXMXMXMXMXMXMXMXMXMXMXMXMXMXMXMXMXMXMXMXMXMXMXMXMXMXMXMXMXMXMXMXMXMXMXMXMXMXMXMXMXMXMXMXMXMXMXMXMXMXMXMXMXMXMXMXMXMXMXMXMXMXMXMXMXMXMXMXMXMXMXMXMXMXMXMXMXMXMXMXMXMXMXMXMXMXMXMXMXMXMXMXMXMXMXMXMXMXMXMXMXMXMXMXMXMXMXMXMXMXMXMXMXMXMXMXMXMXMXMXMXMXMXMXMXMXMXMXMXMXMXMXMXMXMXMXMXMXMXMXMXMXMXMXMXMXMXMXMXMXMXMXMXMXMXMXMXMXMXMXMXMXMXMXMXMXMXMXMXMXMXMXMXMXMXMXMXMXMXMXMXMXMXMXMXMXMXMXMX] MXMXMXMXMXMXMXMXMXMXMXMXMXMXMXMXMXMXH MXMXMXMXMXMXMXMXMXMXMXMXMXMXMXMXMXMXMXMXMXMXMXMXMXMXMXMXMXMXMXMXMXm V MXMXMXMXMXMXMXMXMXMXMXMXMXMXMXQ Q Q n Q n n Q n Q Q n n n n n n n n n G MXMXMXMXMX",
"MXMXMXMXMXMXMXMXMXMXMXMXMXMXMXMXMXMXMXMXMXMXMXMXMXMXMXMXMXMXMXMXMXMXMXMXMXMXMXMXMXMXMXMXMXMXMXMXMXMXMXMXMXMXMXMXMXMXMXMXMXMXMXMXMXMXMXMXMXMXMXMXMXMXMXMXMXMXMXMXMXMXMXMXMXMXMXMXMXMXMXMXMXMXMXMXMXMXMXMXMXMXMXMXMXMXMXMXMXMXMXMXMXMXMXMXMXMXMXMXMXMXMXMXMXMXMXMXMXMXMXMXMXMXMXMXMXMXMXMXMXMXMXMXMXMXMXMXMXMXMXMXMXMXMXMXMXMXMXMXMXMXMXMXMXMXMXMXMXMXMXMXMXMXMXMXMXMXMXMXMXMXMXMXMXMXMXMXMXMXMXMXMXMXMXMXMXMXMXMXMXMXMXMXMXMXMXMXMXMXMXMXMXMXMXMXMXMXMXMXMXMXMXMXMXMXMXMXMXMXMXMXMXMXMXMXMXMXMXMXMXMXMXMXMXMXMXMXMXMXMXMXMXMXMXMXMXMXMXMXMXMXMXMXMXMXMXMXMXMXMXMXMXMXMXMXMXMXMXMXMXMXMXMXMXMXMXMXMXMXMXMXMXMXMXMXMXMXMXMXMXMXMXMXMXMXMXMXMXMXMXMXMXMXMXMXMXMXMXMXMXMXMXMXMXMXMX^ ! ^ MXMXMXMXMXMXMXMXMXMXMXMXMXMXMXMXMXMXMXMXMXMXMXMXMXMXMXMXMXMXMXMXMXMXMXMXMXMXMXMXMXMXMXMXMXMXMXMXMXMXMXMXMXMXMXMXMXMXMXMXMXMXMXMXMXMXMXMXQ Q Q Q n n Q n Q n n Q Q n n n b n n n M C MXMXMXMX",
"MXMXMXMXMXMXMXMXMXMXMXMXMXMXMXMXMXMXMXMXMXMXMXMXMXMXMXMXMXMXMXMXMXMXMXMXMXMXMXMXMXMXMXMXMXMXMXMXMXMXMXMXMXMXMXMXMXMXMXMXMXMXMXMXMXMXMXMXMXMXMXMXMXMXMXMXMXMXMXMXMXMXMXMXMXMXMXMXMXMXMXMXMXMXMXMXMXMXMXMXMXMXMXMXMXMXMXMXMXMXMXMXMXMXMXMXMXMXMXMXMXMXMXMXMXMXMXMXMXMXMXMXMXMXMXMXMXMXMXMXMXMXMXMXMXMXMXMXMXMXMXMXMXMXMXMXMXMXMXMXMXMXMXMXMXMXMXMXg MXMXMXMXMXMXMXMXMXMXMXMXMXMXMXMXMXMXMXMXMXMXMXMXMXMXMXMXMXMXMXMXMXMXMXMXMXMXMXMXMXMXMXMXMXMXMXMXMXMXMXMXMXMXMXMXMXMXMXMXMXMXMXMXMXMXMXMXMXMXMXMXMXMXMXMXMXMXMXMXMXMXMXMXMXMXMXMXMXMXMXMXMXMXMXMXMXMXMXMXMXMXMXMXMXMXMXMXMXMXMXMXMXMXMXMXMXMXMXMXMXMXMXMXMXMXMXMXMXMXMXMXMXMXMXMXMXMXMXMXMXMXMXMXMXMXMXMXMXMXMXMXMXMXMXMXMXMXQ ! ! ) MXMXMXMXMXMXMXMXMXMXMXMXMXMXMXl MXMXMXMXMXMXMXMXMXMXMXMXMXMXMXMXMXMXMXMXMXMXMXMXMXMXMXMXMXMXMXMXm F MXMXMXMXMXMXMXMXMXMXMXMXMXMXMXMX( Q ! Q Q n Q n Q n Q Q n n n n b n b n b n n n C MXMX",
"MXMXMXMXMXMXMXMXMXMXMXMXMXMXMXMXMXMXMXMXMXMXMXMXMXMXMXMXMXMXMXMXMXMXMXMXMXMXMXMXMXMXMXMXMXMXMXMXMXMXMXMXMXMXMXMXMXMXMXMXMXMXMXMXMXMXMXMXMXMXMXMXMXMXMXMXMXMXMXMXMXMXMXMXMXMXMXMXMXMXMXMXMXMXMXMXMXMXMXMXMXMXMXMXMXMXMXMXMXMXMXMXMXMXMXMXMXMXMXMXMXMXMXMXMXMXMXMXMXMXMXMXMXMXMXMXMXMXMXMXMXMXMXMXMXMXMXMXMXMXMXMXMXMXMXMXMXMXMXMXMXMXMXMXMXMXMXMXd f MXMXMXMXMXMXMXMXMXMXMXMXMXMXMXMXMXMXMXMXMXMXMXMXMXMXMXMXMXMXMXMXMXMXMXMXMXMXMXMXMXMXMXMXMXMXMXMXMXMXMXMXMXMXMXMXMXMXMXMXMXMXMXMXMXMXMXMXMXMXMXMXMXMXMXMXMXMXMXMXMXMXMXMXMXMXMXMXMXMXMXMXMXMXMXMXMXMXMXMXMXMXMXMXMXMXMXMXMXMXMXMXMXMXMXMXMXMXMXMXMXMXMXMXMXMXMXMXMXMXMXMXMXMXMXMXMXMXMXMXMXMXMXMXMXMXMXMXMXMXMXMXMXMXMXMXMXQ ! Q ] MXMXMXMXMXMXMXMXMXMXMXMXMXMXMXl MXMXMXMXMXMXMXMXMXMXMXMXMXMXMXMXMXMXMXMXMXMXMXMXMXMXMXMXMXMXMXMXm m MXMXMXMXMXMXMXMXMXMXMXMXMXMXMX( Q Q Q ! Q Q n Q n Q n n n Q n n M n b b b b n n n G MX",
"MXMXMXMXMXMXMXMXMXMXMXMXMXMXMXMXMXMXMXMXMXMXMXMXMXMXMXMXMXMXMXMXMXMXMXMXMXMXMXMXMXMXMXMXMXMXMXMXMXMXMXMXMXMXMXMXMXMXMXMXMXMXMXMXMXMXMXMXMXMXMXMXMXMXMXMXMXMXMXMXMXMXMXMXMXMXMXMXMXMXMXMXMXMXMXMXMXMXMXMXMXMXMXMXMXMXMXMXMXMXMXMXMXMXMXMXMXMXMXMXMXMXMXMXMXMXMXMXMXMXMXMXMXMXMXMXMXMXMXMXMXMXMXMXMXMXMXMXMXMXMXMXMXMXMXMXMXMXMXMXMXMXB S MXMXMXMXf f MXMXMXMXMXMXMXMXMXMXMXMXMXMXMXMXMXMXMXMXMXMXMXMXMXMXMXMXMXMXMXMXMXMXMXMXMXMXMXMXMXMXMXMXMXMXMXMXMXMXMXMXMXMXMXMXMXMXMXMXMXMXMXMXMXMXMXMXMXMXMXMXMXMXMXMXMXMXMXMXMXMXMXMXMXMXMXMXMXMXMXMXMXMXMXMXMXMXMXMXMXMXMXMXMXMXMXMXMXMXMXMXMXMXMXMXMXMXMXMXMXMXMXMXMXMXMXMXMXMXMXMXMXMXMXMXMXMXMXMXMXMXMXMXMXMXMXMXMXMXMXMXMXMXMXMXMXMXMXMXMXMXMXMXMXMXMXMXMXMXMXMXMXMXMXMXMXMXMXMXMXMXMXMXMXMXMXMXMXMXMXMXMXMXMXMXMXMXMXMXMXMXMXMXMXMXMXMXMXMXMXMXMXMXMXMXMXMXMXMXMXMXMXMXMXMXV Q Q Q Q Q Q v Q n Q Q n n Q n n n b b b b b b b n n M ",
"MXMXMXMXMXMXMXMXMXMXMXMXMXMXMXMXMXMXMXMXMXMXMXMXMXMXMXMXMXMXMXMXMXMXMXMXMXMXMXMXMXMXMXMXMXMXMXMXMXMXMXMXMXMXMXMXMXMXMXMXMXMXMXMXMXMXMXMXMXMXMXMXMXMXMXMXMXMXMXMXMXMXMXMXMXMXMXMXMXMXMXMXMXMXMXMXMXMXMXMXMXMXMXMXMXMXMXMXMXMXMXMXMXMXMXMXMXMXMXMXMXMXMXMXMXMXMXMXMXMXMXMXMXMXMXMXMXMXMXMXMXMXMXMXMXMXMXMXMXMXMXMXMXMXMXMXMXMXMXMXMXMXj j A MXMXMXMXMXMXMXMXMXMXMXMXMXMXMXMXMXMXMXMXMXMXMXMXMXMXMXMXMXMXMXMXMXMXMXMXMXMXMXMXMXMXMXMXMXMXMXMXMXMXMXMXMXMXMXMXMXMXMXMXMXMXMXMXMXMXMXMXMXMXMXMXMXMXMXMXMXMXMXMXMXMXMXMXMXMXMXMXMXMXMXMXMXMXMXMXMXMXMXMXMXMXMXMXMXMXMXMXMXMXMXMXMXMXMXMXMXMXMXMXMXMXMXMXMXMXMXMXMXMXMXMXMXMXMXMXMXMXMXMXMXMXMXMXMXMXMXMXMXMXMXMXMXMXMXMXMXMXMXMXMXMXMXMXMXMXMXMXMXMXMXMXMXMXMXMXMXMXMXMXMXMXMXMXMXMXMXMXMXMXMXMXMXMXMXMXMXMXMXMXMXMXMXMXMXMXMXMXMXMXMXMXMXMXMXMXMXMXMXMXMXMXMXMXMXMXMXMXMXMXMXMX~ ! Q Q n Q n Q n n n Q n n n n M b b b b b b b b n n ",
"MXMXMXMXMXMXMXMXMXMXMXMXMXMXMXMXMXMXMXMXMXMXMXMXMXMXMXMXMXMXMXMXMXMXMXMXMXMXMXMXMXMXMXMXMXMXMXMXMXMXMXMXMXMXMXMXMXMXMXMXMXMXMXMXMXMXMXMXMXMXMXMXMXMXMXMXMXMXMXMXMXMXMXMXMXMXMXMXMXMXMXMXMXMXMXMXMXMXMXMXMXMXMXMXMXMXMXMXMXMXMXMXMXMXMXMXMXMXMXMXMXMXMXMXMXMXMXMXMXMXMXMXMXMXMXMXMXMXMXMXMXMXMXMXMXMXMXMXMXMXMXMXMXMXMXMXMXMXMXMXMXMXMXA N MXMXMXMXMXMXMXMXMXMXMXMXMXMXJ J MXMXMXMXMXMXMXMXMXMXMXMXMXMXMXMXMXMXMXMXMXMXMXMXMXMXMXMXMXMXMXMXMXMXMXMXMXMXMXMXMXMXMXMXMXMXMXMXMXMXMXMXMXMXMXMXMXMXMXMXMXMXMXMXMXMXMXMXMXMXMXMXMXMXMXMXMXMXMXMXMXMXMXMXMXMXMXMXMXMXMXMXMXMXMXMXMXMXMXMXMXMXMXMXMXMXMXMXMXMXMXMXMXMXMXMXMXMXMXMXMXMXMXMXMXMXMXMXMXMXMXMXMXMXMXMXMXMXMXMXMXMXMXMXMXMXMXMXMXMXMXMXMXMXMXMXMXMXMXMXMXMXMXMXMXMXMXMXMXMXMXMXMXMXMXMXMXMXMXMXMXMXMXMXMXMXMXMXMXMXMXMXMXMXMXMXMXMXMXMXMXMXMXMXMXMXMXMXMXMXMXMXMXMXMXMX^ Q Q n Q n Q Q n n n Q n Q n n b n b b b b b b b b n ",
"MXMXMXMXMXMXMXMXMXMXMXMXMXMXMXMXMXMXMXMXMXMXMXMXMXMXMXMXMXMXMXMXMXMXMXMXMXMXMXMXMXMXMXMXMXMXMXMXMXMXMXMXMXMXMXMXMXMXMXMXMXMXMXMXMXMXMXMXMXMXMXMXMXMXMXMXMXMXMXMXMXMXMXMXMXMXMXMXMXMXMXMXMXMXMXMXMXMXMXMXMXMXMXMXMXMXMXMXMXMXMXMXMXMXMXMXMXMXMXMXMXMXMXMXMXMXMXMXMXMXMXMXMXMXMXMXMXMXMXMXMXMXMXMXMXMXMXMXMXMXMXMXMXMXMXMXMXMXMXMXMXMXMXMXMXMXMXMXMXMXMXMXMXMXMXMXMXMXMXMXMXMXMXMXMXMXMXMXMXMXMXMXMXMXMXMXMXMXMXMXMXMXMXMXMXMXMXMXMXMXMXMXMXMXMXMXMXMXMXMXMXMXMXMXMXMXMXMXMXMXMXMXMXMXMXMXMXMXMXMXMXMXMXMXMXMXMXMXMXMXMXMXMXMXMXMXMXMXMXMXMXMXMXMXMXMXMXMXMXMXMXMXMXMXMXMXMXMXMXMXMXMXMXMXMXMXMXMXMXMXMXMXMXMXMXMXMXMXMXMXMXMXMXMXMXMXMXMXMXMXMXMXMXMXMXMXMXMXMXMXMXMXMXMXMXMXMXMXMXMXMXMXMXMXMXMXMXMXMXMXMXMXMXMXMXMXMXMXMXMXMXMXMXMXMXMXMXMXMXMXMXMXMXMXMXMXMXMXMXMXMXMXMXMXMXMXMXMXMXMXMXMXMXMXMXMXMXMXMXMXMXMXMXMXMXMXMXMXQ Q Q n n n n n Q n n Q n n n n b b b b k b b b b b ",
"MXMXMXMXMXMXMXMXMXMXMXMXMXMXMXMXMXMXMXMXMXMXMXMXMXMXV MXMXMXMXMXMXMXMXMXMXMXMXMXMXMXMXMXMXMXMXMXMXMXMXMXMXMXMXMXMXMXMXMXMXMXMXMXMXMXMXMXMXMXMXMXMXMXMXMXMXMXMXMXMXMXMXMXMXMXMXMXMXMXMXMXMXMXMXMXMXMXMXMXMXMXMXMXMXMXMXMXMXMXMXMXMXMXMXMXMXMXMXMXMXMXMXMXMXMXMXMXMXMXMXMXMXMXMXMXMXMXMXMXMXMXMXMXMXMXMXMXMXMXMXMXMXMXMXMXMXMXMXMXMXMXMXMXMXMXMXMXMXMXMXMXMXMXMXMXMXMXMXMXMXMXMXMXMXMXMXMXMXMXMXMXMXMXMXMXMXMXMXMXMXMXMXMXMXMXMXMXMXMXMXMXMXMXMXMXMXMXMXMXMXMXMXMXMXMXMXMXMXMXMXMXMXMXMXMXMXMXMXMXMXMXMXMXMXMXMXMXMXMXMXMXMXMXMXMXMXMXMXMXMXMXMXMXMXMXMXMXMXMXMXMXMXMXMXMXMXMXMXMXMXMXMXMXMXMXMXMXMXMXMXMXMXMXMXMXMXMXMXMXMXMXMXMXMXMXMXMXMXMXMXMXMXMXMXMXMXMXMXMXMXMXMXMXMXMXMXMXMXMXMXMXMXMXMXMXMXMXMXMXMXMXMXMXMXMXMXMXMXMXMXMXMXMXMXMXMXMXMXMXMXMXMXMXMXMXMXMXMXMXMXMXMXMXMXMXMXMXMXMXMXMXMXMXMXK K MXMXMXMXMXMXMXMXMXMXMX~ Q Q n n n n n n n n Q n n n b b b b b b c b k b b ",
"MXMXMXMXMXMXMXMXMXMXMXMXMXMXMXMXMXMXMXMXMXMXMXMXMXMXJ m MXMXMXMXMXMXMXMXMXMXMXMXMXMXMXMXMXMXMXMXMXMXMXMXMXMXMXMXMXMXMXMXMXMXMXMXMXMXMXMXMXMXMXMXMXMXMXMXMXMXMXMXMXMXMXMXMXMXMXMXMXMXMXMXMXMXMXMXMXMXMXMXMXMXMXMXMXMXMXMXMXMXMXMXMXMXMXMXMXMXMXMXMXMXMXMXMXMXMXMXMXMXMXMXMXMXMXMXMXMXMXMXMXMXMXMXMXMXMXMXMXMXMXMXMXMXMXMXMXMXMXMXMXMXMXMXMXMXMXMXMXMXMXMXMXMXMXMXMXMXMXMXMXMXMXMXMXMXMXMXMXMXMXMXMXMXMXMXMXMXMXMXMXMXMXMXMXMXMXMXMXMXMXMXMXMXMXMXMXMXMXMXMXMXMXMXMXMXMXMXMXMXMXMXMXMXMXMXMXMXMXMXMXMXMXMXMXMXMXMXMXMXMXMXMXMXMXMXMXMXMXMXMXMXMXMXMXMXMXMXMXMXMXMXMXMXMXMXMXMXMXMXMXMXMXMXMXMXMXMXMXMXMXMXMXMXMXMXMXMXMXMXMXMXMXMXMXMXMXMXMXMXMXMXMXMXMXMXMXMXMXMXMXMXMXMXMXMXMXMXMXMXMXMXMXMXMXMXMXMXMXMXMXMXMXMXMXMXMXMXMXMXMXMXMXMXMXMXMXMXMXMXMXMXMXMXMXMXMXMXMXMXMXMXMXMXMXMXMXMXMXMXMXMXMXMXMXMXz V MXMXMXMXMXMXMXMXMXMXMXQ n n n n n n n n n n n n n b b b b b b b b b b c ",
"MXMXMXMXMXMXMXMXMXMXMXMXMXMXMXMXMXMXMXMXMXMXMXMXMXMXMXMXK MXMXMXMXMXMXMXMXMXMXMXMXMXMXMXMXMXMXMXMXMXMXMXMXMXMXMXMXMXMXMXMXMXMXMXMXMXMXMXMXMXMXMXMXMXMXMXMXMXMXMXMXMXMXMXMXMXMXMXMXMXMXMXMXMXMXMXMXMXMXMXMXMXMXMXMXMXMXMXMXMXMXMXMXMXMXMXMXMXMXMXMXMXMXMXMXMXMXMXMXMXMXMXMXMXMXMXMXMXMXMXMXMXMXMXMXMXMXMXMXMXMXMXMXMXMXMXMXMXMXMXMXMXMXMXMXMXMXMXMXMXMXMXMXMXMXMXMXMXMXMXMXMXMXMXMXMXMXMXMXMXMXMXMXMXMXMXMXMXMXMXMXMXMXMXMXMXMXMXMXMXMXMXMXMXMXMXMXMXMXMXMXMXMXMXMXMXMXMXMXMXMXMXMXMXMXMXMXMXMXMXMXMXMXMXMXMXMXMXMXMXMXMXMXMXMXMXMXMXMXMXMXMXMXMXMXMXMXMXMXMXMXMXMXMXMXMXMXMXMXMXMXMXMXMXMXMXMXMXMXMXMXMXMXMXMXMXMXMXMXMXMXMXMXMXMXMXMXMXMXMXMXMXMXMXMXMXMXMXMXMXMXMXMXMXMXMXMXMXMXMXMXMXV F MXMXMXMXMXMXMXMXMXMXMXMXMXMXMXMXMXMXMXMXMXMXMXMXMXMXMXMXMXMXMXMXMXMXMXMXMXMXMXMXMXMXMXMXMXMXMXMXMXMXMXMXMXk V MXMXMXMXMXMXMXMXMXMXMXQ n n n n b n n n b n b b n b n c b b b c b b b ",
"MXMXMXMXMXMXMXMXMXMXMXMXMXMXMXMXMXMXMXMXMXMXMXMXMXMXMXMXMXMXMXMXMXMXMXMXMXMXMXMXMXMXMXMXMXMXMXMXMXMXMXMXMXMXMXMXMXMXMXMXMXMXMXMXMXMXMXMXMXMXMXMXMXMXMXMXMXMXMXMXMXMXMXMXMXMXMXMXMXMXMXMXMXMXMXMXMXMXMXMXMXMXMXMXMXMXMXMXMXMXMXMXMXMXMXMXMXMXMXMXMXMXMXMXMXMXMXMXMXMXMXMXMXMXMXMXMXMXMXMXMXMXMXMXMXMXMXMXMXMXMXMXMXMXMXMXMXMXMXMXMXMXMXMXMXMXMXMXMXMXMXMXMXMXMXMXMXMXMXMXMXMXMXMXMXMXMXMXMXMXMXMXMXMXMXMXMXMXMXMXMXMXMXMXMXMXMXMXMXMXMXMXMXMXMXMXMXMXMXMXMXMXMXMXMXMXMXMXMXMXMXMXMXMXMXMXMXMXMXMXMXMXMXMXMXMXMXMXMXMXMXMXMXMXMXMXMXMXMXMXMXMXMXMXMXMXMXMXMXMXMXMXMXMXMXMXMXMXMXMXMXMXMXMXMXMXMXMXMXMXMXMXMXMXMXMXMXMXMXMXMXMXMXMXMXMXMXMXMXMXMXMXMXMXMXMXMXMXMXMXMXMXMXMXMXMXMXMXMXMXK b b k b K MXMXMXMXMXMXMXMXMXMXMXMXMXMXMXMXMXMXMXMXMXMXMXMXMXMXMXMXMXMXMXMXMXMXMXMXMXMXMXMXMXMXMXMXMXMXMXMXMXMXMXH k V MXMXMXMXMXMXMXMXMXMX( n n n b n b n b n b n b b b b b b b b b b b b ",
"MXMXMXMXMXMXMXMXMXMXMXMXMXMXMXMXMXMXMXMXMXMXMXMXMXMXMXMXMXMXMXMXMXMXMXMXMXMXMXMXMXMXMXMXMXMXMXMXMXMXMXMXMXMXMXMXMXMXMXMXMXMXMXMXMXMXMXMXMXMXMXMXMXMXMX| { MXMXMXMXMXMXMXMXMXMXMXMXMXMXMXMXMXMXMXMXMXMXMXMXMXMXMXMXMXMXMXMXMXMXMXMXMXMXMXMXMXMXMXMXMXMXMXMXMXMXMXMXMXMXMXMXMXMXMXMXMXMXMXMXMXMXMXMXMXJ M MXMXMXMXMXMXMXMXMXMXMXMXMXMXMXMXMXMXMXMXMXMXMXMXMXMXMXMXMXMXMXMXMXMXMXMXMXMXMXMXMXMXMXMXMXMXMXMXMXMXMXMXMXMXMXMXMXMXMXMXMXMXMXMXMXMXMXMXMXMXMXMXMXMXMXMXMX[ MXMXMX( C MXMXMXMXMXMXMXMXMXMXMXMXMXMXMXMXMXMXMXMXMXMXMXMXMXMXMXMXMXMXMXMXMXMXMXMXMXMXMXMXMXMXMXMXMXMXMXMXMXMXMXMXMXMXMXMXMXMXMXMXMXMXMXMXMXMXMXMXMXMXMXMXMXMXMXMXMXMXMXMXMXMXMXMXMXMXMXMXMXMXMXMXMXMXMXMXMXMXMXV b b b b m MXMXMXMXMXMXMXMXMXMXMXMXMXMXMXMXMXMXMXMXMXMXMXMXMXMXMXMXMXMXMXMXMXMXMXMXMXMXMXMXMXMXMXMXMXMXMXMXMXMXMXMXm k H MXMXMXMXMXMXMXMXMXMXQ n n n b n b b b b b b b b b b b b b c b b b ",
"MXMXMXMXMXMXMXMXMXMXMXMXMXMXMXMXMXMXMXMXMXMXMXMXMXMXMXMXMXMXMXMXMXMXMXMXMXMXMXMXMXMXMXMXMXMXMXMXMXMXMXMXMXMXMXMXMXMXMXMXMXMXMXMXMXMXMXMXMXMXMXMXMXMXMXQ Q _ MXMXMXMXMXMXMXMXMXMXMXMXMXMXMXMXMXMXMXMXMXMXMXMXMXMXMXMXMXMXMXMXMXMXMXMXMXMXMXMXMXMXMXMXMXMXMXMXMXMXMXMXMXMXMXMXMXMXMXMXMXMXMXMXMXMXMXMXV V MXMXMXMXMXMXMXMXMXMXMXMXMXMXMXMXMXMXMXMXMXMXMXMXMXMXMXMXMXMXMXMXMXMXMXMXMXMXMXMXMXMXMXMXMXMXMXMXMXMXMXMXMXMXMXMXMXMXMXMXMXMXMXMXMXMXMXMXMXMXMXMXMXMXMXMXMXMXG C M n n J MXMXMXMXMXMXMXMXMXMXMXMXMXMXMXMXMXMXMXMXMXMXMXMXMXMXMXMXMXMXMXMXMXMXMXMXMXMXMXMXMXMXMXMXMXMXMXMXMXMXMXMXMXMXMXMXMXMXMXMXMXMXMXMXMXMXMXMXMXMXMXMXMXMXMXMXMXMXMXMXMXMXMXMXMXMXMXMXMXMXMXMXMXMXMXMXMXMXMXb b b c k G MXMXMXMXMXMXMXMXMXMXMXMXMXMXMXMXMXMXMXMXMXMXMXMXMXMXMXMXMXMXMXMXMXMXMXMXMXMXMXMXMXMXMXMXMXMXMXMXMXMXMXMXz k S MXMXMXMXMXMXMXMXMXMXm n b b b b b b b b b b b b b b b b b b b b ",
"MXMXMXMXMXMXMXMXMXMXMXMXMXMXMXMXMXMXMXMXMXMXMXMXMXMXMXMXMXMXMXMXMXMXMXMXMXMXMXMXMXMXMXMXMXMXMXMXMXMXMXMXMXMXMXMXMXMXMXMXMXMXMXMXMXMXMXMXMXMXMXMXMXMXMX^ Q Q ' MXMXMXMXMXMXMXMXMXMXMXMXMXMXMXMXMXMXMXMXMXMXMXMXMXMXMXMXMXMXMXMXMXMXMXMXMXMXMXMXMXMXMXMXMXMXMXMXMXMXMXMXMXMXMXMXMXMXMXMXMXMXMXMXMXMXMXMXMXMXMXMXMXMXMXMXMXMXMXMXMXMXMXMXMXMXMXMXMXMXMXMXMXMXMXMXMXMXMXMXMXMXMXMXMXMXMXMXMXMXMXMXMXMXMXMXMXMXMXMXMXMXMXMXMXMXMXMXMXMXMXMXMXMXMXMXMXMXMXMXMXMXMXMXMXMXMXMXMXC n n M MXMXMXMXMXMXMXMXMXMXMXMXMXMXMXMXMXMXMXMXMXMXMXMXMXMXMXMXMXMXMXMXMXMXMXMXMXMXMXMXMXMXMXMXMXMXMXMXMXMXMXMXMXMXMXMXMXMXMXMXMXMXMXMXMXMXMXMXMXMXMXMXMXMXMXMXMXMXMXMXMXMXMXMXMXMXMXMXMXMXMXMXMXMXMXMXMXMXMXm c b b b m MXMXMXMXMXMXMXMXMXMXMXMXMXMXMXMXMXMXMXMXMXMXMXMXMXMXMXMXMXMXMXMXMXMXMXMXMXMXMXMXMXMXMXMXMXMXMXMXMXMXMXMXMXMXz S MXMXMXMXMXMXMXMXMXm n b b b k b b b b b b b b b b b b b b b b ",
"MXMXMXMXMXMXMXMXMXMXMXMXMXMXMXMXMXMXMXMXMXMXMXMXMXMXMXMXMXMXMXMXMXMXMX[ MXMXMXMXMXMXMXMXMXMXMXMXMXMXMXMXMXMXMXMXMXMXMXMXMXMXMXMXMXMXMXMXMXMXMXMXMXMXMX' Q Q Q { MXMXMXMXMXMXMXMXMXMXMXMXMXMXMXMXMXMXMXMXMXMXMXMXMXMXMXMXMXMXMXMXMXMXMXMXMXMXMXMXMXMXMXMXMXMXMXMXMXMXMXMXMXMXMXMXMXMXMXMXMXMXMXMXMXMXMXMXMXMXMXMXMXMXMXMXMXMXMXMXMXMXMXMXMXMXMXMXMXMXMXMXMXMXMXMXMXMXMXMXMXMXMXMXMXMXMXMXMXMXMXMXMXMXMXMXMXMXMXMXMXMXMXMXMXMXMXMXMXMXMXMXMXMXMXMXMXMXMXMXMXMXMXMXMXMXMXMXMXMX( M C MXMXMXMXMXMXMXMXMXMXMXMXMXMXMXMXMXMXMXMXMXMXMXMXMXMXMXMXMXMXMXMXMXMXMXMXMXMXMXMXMXMXMXMXMXMXMXMXMXMXMXMXMXMXMXMXMXMXMXMXMXMXMXMXMXMXMXMXMXMXMXMXMXMXMXMXMXMXMXMXMXMXMXMXMXMXMXMXMXMXMXV m G MXMXMXMXMXb b b b b K MXMXMXMXMXMXMXMXMXMXMXMXMXMXMXMXMXMXMXMXMXMXMXMXMXMXMXMXMXMXMXMXMXMXMXMXMXMXMXMXMXMXMXMXMXMXMXMXMXMXMXMXMXMXl A MXMXMXMXMXMXMXV n b b b k k b b k b b b b b b b b b b b b b ",
"MXMXMXMXMXMXMXMXMXMXMXMXMXMXMXMXMXMXMXMXMXMXMXMXMXMXMXMXMXMXMXMXMXMXMXMXC G MXMXMXMXMXMXMXMXMXMXMXMXMXMXMXMXMXMXMXMXMXMXMXMXMXMXMXMXMXMXMXMXMXMXMXMXMXMX( Q Q Q MXMXMXMXMXMXMXMXMXMXMXMXMXMXMXMXMXMXMXMXMXMXMXMXMXMXMXMXMXMXMXMXMXMXMXMXMXMXMXMXMXMXMXMXMXMXMXMXMXMXMXMXMXMXMXMXMXMXMXMXMXMXMXMXMXMXMXMXMXMXMXMXMXMXMXMXMXMXMXMXMXMXMXMXMXMXMXMXMXMXMXMXMXMXMXMXMXMXMXMXMXMXMXMXMXMXMXMXMXMXMXMXMXMXMXMXMXMXMXMXMXMXMXMXMXMXMXMXMXMXMXMXMXMXMXMXMXMXMXMXMXMXMXMXMXMXMXMXMXMXMXMXMXMXMXMXMXMXMXMXMXMXMXMXMXMXMXMXMXMXMXMXMXMXMXMXMXMXMXMXMXMXMXMXMXMXMXMXMXMXMXMXMXMXMXMXMXMXMXMXMXMXMXMXMXMXMXMXMXMXMXMXMXMXMXMXMXMXMXMXMXMXMXMXMXMXMXMXMXMXMXMXMXMXMXMXMXMXMXMXMXMXMXF b b b J MXMXMXMXV b b m m F MXMXMXMXMXMXMXMXMXMXMXMXMXMXMXMXMXMXMXMXMXMXMXMXMXMXMXMXMXMXMXMXMXMXMXMXMXMXMXMXMXMXMXMXMXMXMXMXMXMXMX_ G J U l B MXMXMXMXMXMXm n b c k k k k k b b k b b b b b b b b b b b ",
"MXMXMXMXMXMXMXMXMXMXMXMXMXMXMXMXMXMXMXMXMXMXMXMXMXMXMXMXMXMXMXMXMXMXMXMXMXG MXMXMXMXMXMXMXMXMXMXMXMXMXMXMXMXMXMXMXMXMXMXMXMXMXMXMXMXMXMXMXMXMXMXMXMXMXMXMX' Q Q Q J MXMXMXMXMXMXMXMXMXMXMXMXMXMXMXMXMXMXMXMXMXMXMXMXMXMXMXMXMXMXMXMXMXMXMXMXMXMXMXMXMXMXMXMXMXMXMXMXMXMXMXMXMXMXMXMXMXMXMXMXMXMXMXMXMXMXMXMXMXMXMXMXMXMXMXMXMXMXMXMXMXMXMXMXMXMXMXMXMXMXMXMXMXMXMXMXMXMXMXMXMXMXMXMXMXMXMXMXMXMXMXMXMXMXMXMXMXMXMXMXMXMXMXMXMXMXMXMXMXMXMXMXMXMXMXMXMXMXMXMXMXMXMXMXMXMXMXMXMXMXMXMXMXMXMXMXMXMXMXMXMXMXMXMXMXMXMXMXMXMXMXMXMXMXMXMXMXMXMXMXMXMXMXMXMXMXMXMXMXMXMXMXMXMXMXMXMXMXMXMXMXMXMXMXMXMXMXMXMXMXMXMXMXMXMXMXMXMXMXMXMXMXMXMXMXMXMXMXMXMXMXMXMXMXMXMXMXMXMXMXMXM b b b m MXMXMXMXMXMXMXMXMXMXMXMXMXMXMXMXMXMXMXMXMXMXMXMXMXMXMXMXMXMXMXMXMXMXMXMXMXMXMXMXMXMXMXMXMXMXMXMXMXMXJ H F V V J K F V V V M V MXMXMXl z MXMXMXMXMXm n b b k k k k k k k b c b b b b b b b b b b ",
"MXMXMXMXMXMXMXMXMXMXMXMXMXMXMXMXMXMXMXMXMXMXMXMXMXMXMXMXMXMXMXMXMXMXMXMXMXMXMXMXMXMXMXMXMXMXMXMXMXMXMXMXMXMXMXMXMXMXMXMXMXMXMXMXMXMXMXMXMXMXMXMXMXMXMXMXMXMXMX~ Q n G MXMXMXMXMXMXMXMXMXMXMXMXMXMXMXMXMXMXMXMXMXMXMXMXMXMXMXMXMXMXMXMXMXMXMXMXMXMXMXMXMXMXMXMXMXMXMXMXMXMXMXMXMXMXMXMXMXMXMXMXMXMXMXMXMXMXMXMXMXMXMXMXMXMXMXMXMXMXMXMXMXMXMXMXMXMXMXMXMXMXMXMXMXMXMXMXMXMXMXMXMXMXMXMXMXMXMXMXMXMXMXMXMXMXMXMXMXMXMXMXMXMXMXMXMXMXMXMXMXMXMXMXMXMXMXMXMXMXMXMXMXMXMXMXMXMXMXMXMXMXMXMXMXMXMXMXMXC [ MXMXMXMXMXMXMXMXMXMXMXMXMXMXMXMXMXMXMXMXMXMXMXMXMXMXMXMXMXMXMXMXMXMXMXMXMXMXMXMXMXMXMXMXMXMXMXMXMXMXMXMXMXMXMXMXMXMXMXMXMXMXMXMXMXMXMXMXMXMXMXMXMXMXMXMXMXMXMXMXMXV b m b b MXMXMXMXMXMXMXMXMXMXMXMXMXMXMXMXMXMXMXMXMXMXMXMXMXMXMXMXMXMXMXMXMXMXMXMXMXMXMXMXMXMXMXMXMXMXMXMXMXMXMXMXMXMXB MXMXMXMXMXMXMXMXMXMXMXMXA B I MXMXm b b b k k k k k k k k k b b b b c b b b b b c ",
"MXMXMXMXMXMXMXMXMXMXMXMXMXMXMXMXMXMXMXMXMXMXMXMXMXMXMXMXMXMXMXMXMXMXMXMXMXMXMXMXMXMXMXMXMXMXMXMXMXMXMXMXMXMXMXMXMXMXMXMXMXMXMXMXMXMXMXMXMXMXMXMXMXMXMXMXMXMXMXMX~ Q n J MXMXMXMXMXMXMXMXMXMXMXMXMXMXMXMXMXMXMXMXMXMXMXMXMXMXMXMXMXMXMXMXMXMXMXMXMXMXMXMXMXMXMXMXMXMXMXMXMXMXMXMXMXMXMXMXMXMXMXMXMXMXMXMXMXMXMXMXMXMXMXMXMXMXMXMXMXMXMXMXMXMXMXMXMXMXMXMXMXMXMXMXMXMXMXMXMXMXMXMXMXMXMXMXMXMXMXMXMXMXMXMXMXMXMXMXMXMXMXMXMXMXMXMXMXMXMXMXMXMXMXMXMXMXMXMXMXMXMXMXMXMXMXMXMXMXMXMXMXMXMXMXMXMXMXMX( n n V MXMXMXMXMXMXMXMXMXMXMXMXMXMXMXMXMXMXMXMXMXMXMXMXMXMXMXMXMXMXMXMXMXMXMXMXMXMXMXMXMXMXMXMXMXMXMXMXMXMXMXMXMXMXMXMXMXMXMXMXMXMXMXMXMXMXMXMXMXMXMXMXMXMXMXMXMXMXMXV b b b m MXMXMXMXMXMXMXMXMXMXMXMXMXMXMXMXMXMXMXMXJ MXMXMXMXJ F MXMXMXMXMXMXMXMXMXMXMXMXMXMXMXMXMXMXMXMXMXMXMXMXMXMXMXS MXMXMXMXMXMXMXMXMXMXMXMXMXMXMXMXMXm n b c k k k k k k k b k b k b b c b b b b b b ",
"MXMXMXMXMXMXMXMXMXMXMXMXMXMXMXMXMXMXMXMXMXMXMXMXMXMXMXMXMXMXMXMXMXMXMXMXMXMXMXMXMXMXMXMXMXMXMXMXMXMXMXMXMXMXMXMXMXMXMXMXMXMXMXMXMXMXMXMXMXMXMXMXMXMXMXMXMXMXMXMXMX~ n M MXMXMXMXMXMXMXMXMXMXMXMXMXMXMXMXMXMXMXMXMXMXMXMXMXMXMXMXMXMXMXMXMXMXMXMXMXMXMXMXMXMXMXMXMXMXMXMXMXMXMXMXMXMXMXMXMXMXMXMXMXMXMXMXMXMXMXMXMXMXMXMXMXMXMXMXMXMXMXMXMXMXMXMXMXMXMXMXMXMXMXMXMXMXMXMXMXMXMXMXMXMXMXMXMXMXMXMXMXMXMXMXMXMXMXMXMXMXMXMXMXMXMXMXMXMXMXMXMXMXMXMXMXMXMXMXMXMXMXMXMXMXMXMXMXMXMXMXMXMXMXMXMXMXMXMXMXMXn b m V MXMXMXMXMXMXMXMXMXMXMXMXMXMXMXMXMXMXMXMXMXMXMXMXMXMXMXMXMXMXMXMXMXMXMXMXMXMXMXMXMXMXMXMXMXMXMXMXMXMXMXMXMXMXMXMXMXMXMXMXMXMXMXMXMXMXMXMXMXMXMXMXMXMXMXMXMXV b b b V MXMXMXMXMXMXMXMXMXMXMXMXMXMXMXMXMXMXMXMXMXMXMXMXMXMXMXMXMXMXMXMXMXMXK K MXMXMXMXMXMXMXMXMXm m MXMXMXMXMXMXMXMXMXMXMXMXMXMXMXMXMXMXMXMXMXMXMXMXMXMXM n b b b k k k k k k k b b k b b k c b b b b ",
"MXMXMXMXMXMXMXMXMXMXMXMXMXMXMXMXMXMXMXMXMXMXMXMXMXMXMXMXMXMXMXMXMXMXMXMXMXMXMXMXMXMXMXMXMXMXMXMXMXMXMXMXMXMXMXMXMXMXMXMXMXMXMXMXMXMXMXMXMXMXMXMXMXMXMXMXMXMXMXMXMXMXQ Q C MXMXMXMXMXMXMXMXMXMXMXMXMXMXMXMXMXMXMXMXMXMXMXMXMXMXMXMXMXMXMXMXMXMXMXMXMXMXMXMXMXMXMXMXMXMXMXMXMXMXMXMXMXMXMXMXMXMXMXMXMXMXMXMXMXMXMXMXMXMXMXMXMXMXMXMXMXMXMXMXMXMXMXMXMXMXMXMXMXMXMXMXMXMXMXMXMXMXMXMXMXMXMXMXMXMXMXMXMXMXMXMXMXMXMXMXMXMXMXMXMXMXMXMXMXMXMXMXMXMXMXMXMXMXMXMXMXMXMXMXMXMXMXMXMXMXMXMXMXMXMXMXMXMXMXMXMXF b b M MXMXMXMXMXMXMXMXMXMXMXMXMXMXMXMXMXMXMXMXMXMXMXMXMXMXMXMXMXMXMXMXMXMXMXMXMXMXMXMXMXMXMXMXMXMXMXMXMXMXMXMXMXMXMXMXMXMXMXMXMXMXMXMXMXMXMXMXMXMXMXMXMXMXMXMXMXMXb b b MXMXMXMXMXMXMXMXMXMXMXMXMXMXMXMXMXMXMXMXMXMXMXMXMXMXMXMXMXMXMXMXMXMXMXMXMXMXMXMXMXMXMXMXMXMXb n V MXMXMXMXMXMXMXMXMXMXMXMXMXMXMXMXMXMXMXMXMXMXMXMXMXM b b b k k k k k k b k k c b b b b b b b b b ",
"MXMXMXMXMXMXMXMXMXMXMXMXMXMXMXMXMXMXMXMXMXMXMXMXMXMXMXMXMXMXMXMXMXMXMXMXMXMXMXMXMXMXMXMXMXMXMXMXMXMXMXMXMXMXMXMXMXMXMXMXMXMXMXMXMXMXMXMXMXMXMXMXMXMXMXMXMXMXMXMXMXMX' Q n G MXMXMXMXMXMXMXMXMXMXMXMXMXMXMXMXMXMXMXMXMXMXMXMXMXMXMXMXMXMXMXMXMXMXMXMXMXMXMXMXMXMXMXMXMXMXMXMXMXMXMXMXMXMXC MXMXMXMXMXMXMXMXMXMXMXMXMXMXMXMXMXMXMXMXMXMXMXMXMXMXMXMXMXMXMXMXMXMXMXMXMXMXMXMXMXMXMXMXMXMXMXMXMXMXMXMXMXMXMXMXMXMXMXMXMXMXMXMXMXMXMXMXMXMXMXMXMXMXMXMXMXMXMXMXMXMXMXMXMXMXMXMXMXMXMXMXMXMXMXMXMXMXMXMXMXMXm m MXMXMXMXMXMXMXMXMXMXMXMXMXMXMXMXMXMXMXMXMXMXMXMXMXMXMXMXMXMXMXMXMXMXMXMXMXMXMXMXMXMXMXMXMXMXMXMXMXMXMXMXMXMXMXMXMXMXMXMXMXMXMXMXMXMXMXMXMXMXMXMXS F MXMXMXMXMXm b V MXMXMXMXMXMXMXMXMXMXMXMXMXMXMXMXMXMXMXMXMXMXMXMXMXMXMXMXMXMXMXMXMXMXMXMXMXMXMXMXMXMXMXMXMXF b b n ' MXMXMXMXMXMXMXMXMXMXMXMXMXMXMXMXMXMXMXMXMXMXMXMXMXM n b b b k k k k k c k b k c b b b b b m b ",
"MXMXMXMXMXMXMXMXMXMXMXMXMXMXMXMXMXMXMXMXMXMXMXMXMXMXMXMXMXMXMXMXMXMXMXMXMXMXMXMXMXMXMXMXMXMXMXMXMXMXMXMXMXMXMXMXMXMXMXMXMXMXMXMXMXMXMXMXMXMXMXMXMXMXMXMXMXMXMXMXMXMXMX_ Q Q ( MXMXMXMXMXMXMXMXMXMXMXMXMXMXMXMXMXMXMXMXMXMXMXMXMXMXMXMXMXMXMXMXMXMXMXMXMXMXMXMXMXMXMXMXMXMXMXMXMXMXMXMX_ ~ MXMXMXMXMXMXMXMXMXMXMXMXMXMXMXMXMXMXMXMXMXMXMXMXMXMXMXMXMXMXMXMXMXMXMXMXMXMXMXMXMXMXMXMXMXMXMXMXMXMXMXMXMXMXMXMXMXMXMXMXMXMXMXMXMXMXMXMXMXMXMXMXMXMXMXMXMXMXMXMXMXMXMXMXMXMXMXMXMXMXMXMXMXMXMXMXMXMXMXMXMXMXMXMXMXMXMXMXMXMXMXMXMXMXMXMXMXMXMXMXMXMXMXMXMXMXMXMXMXMXMXMXMXMXMXMXMXMXMXMXMXMXMXMXMXMXMXMXMXMXMXMXMXMXMXMXMXMXMXMXMXMXMXMXMXMXMXMXMXMXMXMXMXMXMXMXF k B MXMXMXMXMXMXMXMXMXMXMXMXMXMXMXMXMXMXMXMXMXMXMXMXMXMXMXMXMXMXMXMXMXMXMXMXMXMXMXMXMXMXMXMXMXMXMXMXMXMXMXF b n n V MXMXMXMXMXMXMXMXMXMXMXMXMXMX( ^ Q _ MXMXMXMXMXMXMXMXMXm b b b c b b c b b b b b b k b b b b b b ",
"MXMXMXMXMXMXMXMXMXMXMXMXMXMXMXMXMXMXMXMXMXMXMXMXMXMXMXMXMXMXMXMXMXMXMXMXMXMXMXMXMXMXMXMXMXMXMXMXMXMXMXMXMXMXMXMXMXMXMXMXMXMXMXMXMXMXMXMXMXMXMXMXMXMXMXMXMXMXMXMXMXMXMXMX( Q Q _ MXMXMXMXMX{ MXMXMXMXMXMXMXMXMXMXMXMXMXMXMXMXMXMXMXMXMXMXMXMXMXMXMXMXMXMXMXMXMXMXMXMXMXMXMXMXMXMXMXMXMXM M MXMXMXMXMXMXMXMXMXMXMXMXMXMXMXMXMXMXMXMXMXMXMXMXMXMXMXMXMXMXMXMXMXMXMXMXMXMXMXMXMXMXMXMXMXMXMXMXMXMXMXMXMXMXMXMXMXMXMXMXMXMXMXMXMXMXMXMXMXMXMXMXMXMXMXMXMXMXMXMXMXMXMXMXMXMXMXMXMXMXMXMXMXMXMXMXMXMXMXMXMXMXMXMXMXMXMXMXMXMXMXMXMXMXMXMXMXMXMXMXMXMXMXMXMXMXMXMXMXMXMXMXMXMXMXMXMXMXMXMXMXMXMXMXMXMXMXMXMXMXMXMXMXMXMXMXMXMXMXMXMXMXMXMXMXMXMXMXMXMXMXMXMXMXMXMXMXA l D MXMXMXMXMXMXMXMXMXMXMXMXMXMXMXMXMXMXMXMXMXMXMXMXMXMXMXMXMXMXMXMXMXMXMXMXMXMXMXMXMXMXMXMXMXMXMXMXMXMXm k n MXMXMXMXMXMXMXMXMXMXMXMXMXMX' ^ Q Q ( MXMXMXMXMXMXMXMXMXMXV b n b b b n M b k b b b b b b b b b b b ",
"MXMXMXMXMXMXMXMXMXMXMXMXMXMXMXM Q ( MXMXMXMXMXMXMXMXMXMXMXMXMXMXMXMXMXMXMXMXMXMXMXMXMXMXMXMXMXMXMXMXMXMXMXMXMXMXMXMXMXMXMXMXMXMXMXMXMXMXMXMXMXMXMXMXMXMXMXMXMXMXMXMXMXMXMXQ Q Q _ MXMXMXMXMX( _ MXMXMXMXMXMXMXMXMXMXMXMXMXMXMXMXMXMXMXMXMXMXMXMXMXMXMXMXMXMXMXMXMXMXMXMXMXMXMXMXMXMXMXQ M MXMXMXMXMXMXMXMXMXMXMXMXMXMXMXMXMXMXMXMXMXMXMXMXMXMXMXMXMXMXMXMXMXMXMXMXMXMXMXMXMXMXMXMXMXMXMXMXMXMXMXMXMXMXMXMXMXMXMXMXMXMXMXMXMXMXMXMXMXMXMXMXMXMXMXMXMXMXMXMXMXMXMXMXMXMXMXMXMXMXMXMXMXMXMXMXMXMXMXMXMXMXMXMXMXMXMXMXMXMXMXMXMXMXMXMXMXMXMXMXMXMXMXMXMXMXMXMXMXMXMXMXMXMXMXMXMXMXMXMXMXMXMXMXMXMXMXMXMXMXMXMXMXMXMXMXMXMXMXMXMXMXMXMXMXMXMXMXMXMXMXMXMXMXMXMXMXMXMXMXMXMXMXMXMXMXMXMXMXMXMXMXMXMXMXMXMXMXMXMXMXMXMXMXMXMXMXMXMXMXMXMXMXMXMXMXMXMXMXMXMXMXMXMXMXMXMXMXMXMXMXk z MXMXMXMXMXMXMXMXMXMXMXMX_ Q Q Q ^ MXMXMXMXMXMXMXMXMXMXMXMXn n b n n C MXMXM b b b b k b b b b b b b ",
"MXMXMXMXMXMXMXMXMXMXMXMXMXMXMXQ n Q MXMXMXMXMXMXMXMXMXMXMXMXMXMXMXMXMXMXMXMXMXMXMXMXMXMXMXMXMXMXMXMXMXMXMXMXMXMXMXMXMXMXMXMXMXMXMXMXMXMXMXMXMXMXMXMXMXMXMXMXMXMXMXMXMXMXMXMXQ n Q MXMXMXMXMXMX^ Q _ MXMXMXMXMXMXMXMXMXMXMXMXMXMXMXMXMXMXMXMXMXMXMXMXMXMXMXMXMXMXMXMXMXMXMXMXMXMXMXMXMXM M MXMXMXMXMXMXMXMXMXMXMXMXMXMXMXMXMXMXMXMXMXMXMXMXMXMXMXMXMXMXMXMXMXMXMXMXMXMXMXMXMXMXMXMXMXMXMXMXMXMXMXMXMXMXMXMXMXMXMXMXMXMXMXMXMXMXMXMXMXMXMXMXMXMXMXMXMXMXMXMXMXMXMXMXMXMXMXMXMXMXMXMXMXMXMXMXMXMXMXMXMXMXMXMXMXMXMXMXMXMXMXMXMXMXMXMXMXMXMXMXMXMXMXMXMXMXMXMXMXMXMXMXMXMXMXMXMXMXMXMXMXMXMXMXMXMXMXMXMXMXMXMXMXMXMXMXMXMXMXMXMXMXMXMXMXMXMXMXMXMXMXMXMXMXMXMXMXMXMXMXMXMXMXMXMXMXMXMXMXMXMXMXMXMXMXMXMXMXMXMXMXMXMXMXMXMXMXMXMXMXMXMXMXMXMXMXMXMXMXMXMXMXMXMXMXMXMXMXMXMXMXMXMXMXMXMXMXMXMXMXMXMXMXMX) Q Q Q ! MXMXMXMXMXMXQ ) MXMXMXMXV Q n M G MXMXMXMXMXn b b b b b b b b b b b ",
"MXMXMXMXMXMXMXMXMXMXMXMXMXMXMXQ Q n ( MXMXMXMXMXMXMXMXMXMXMXMXMXMXMXMXMXMXMXMXMXMXMXMXMXMXMXMXMXMXMXMXMXMXMXMXMXMXMXMXMXMXMXMXMXMXMXMXMXMXMXMXMXMXMXMXMXMXMXMXMXMXMXMXMXMXMX' Q Q Q MXMXMXMXMXMX` Q Q ) MXMXMXMXMXMXMXMXMXMXMXMXMXMXMXMXMXMXMXMXMXMXMXMXMXMXMXMXMXMXMXMXMXMXMXMXMXMXMXM Q MXMXMXMXMXMXMXMXMXMXMXMXMXMXMXMXMXMXMXMXMXMXMXMXMXMXMXMXMXMXMXMXMXMXMXMXMXMXMXMXMXMXMXMXMXMXMXMXMXMXMXMXMXMXMXMXMXMXMXMXMXMXMXMXMXMXMXMXMXMXMXMXMXMXMXMXMXMXMXMXMXMXMXMXMXMXMXMXMXMXMXMXMXMXMXMXMXMXMXMXMXMXMXMXMXMXMXMXMXMXMXMXMXMXMXMXMXMXMXMXMXMXMXMXMXMXMXMXMXMXMXMXMXMXMXMXMXMXMXMXMXMXMXMXMXMXMXMXMXMXMXMXMXMXMXMXMXMXMXMXMXMXMXMXMXMXMXMXMXMXMXMXMXMXMXMXMXMXMXMXMXMXMXMXMXMXMXMXMXMXMXMXMXMXMXMXMXMXMXMXMXMXMXMXMXMXMXMXMXMXMXMXMXMXMXMXMXMXMXMXMXMXMXMXMXMXMXMXMXMXMXMXMXMXMXMXMXMXMXMXMXMXMXz k Q Q Q Q ` MXMXMXMXC ^ _ MXMXMXG n M MXMXMXMXMXMXMXMXM n n n n b b b b m b n ",
"MXMXMXMXMXMXMXMXMXMXMXMXMXMXMX~ Q n ( MXMXMXMXMXMX[ M C MXMXMXMXMXMXMXMXMXMXMXMXMXMXMXMXMXMXMXMXMXMXMXMXMXMXMXMXMXMXMXMXMXMXMXMXMXMXMXMXMXMXMXMXMXMXMXMXMXMXMXMXMXMXMXMXMXMXMX( Q Q ~ MXMXMXMXMXMXMXQ Q ' MXMXMXMXMX' Q ` MXMXMXMXMXMXMXMXMXMXMXMXMXMXMXMXMXMXMXMXMXMXMXMXMXMXMXMXMXMXM n MXMXMXMXMXMXMXMXMXMXMXMXMXMXMXMXMXMXMXMXMXMXMXMXMXMXMXMXMXMXMXMXMXMXMXMXMXMXMXMXMXMXMXMXMXMXMXMXMXMXMXMXMXMXMXMXMXMXMXMXMXMXMXMXMXMXMXMXMXMXMXMXMXMXMXMXMXMXMXMXMXMXMXMXMXMXMXMXMXMXMXMXMXMXMXMXMXMXMXMXMXMXMXMXMXMXF MXMXMXMXMXMXMXMXMXMXMXMXMXMXMXMXMXMXMXMXMXMXMXMXMXMXMXMXMXMXMXMXMXMXMXMXMXMXMXMXMXMXMXMXMXMXMXMXMXMXMXMXMXMXMXMXMXMXMXMXMXMXMXMXMXMXMXMXMXMXMXMXMXMXMXMXMXMXMXMXMXMXMXMXMXMXMXMXMXMXMXMXMXMXMXMXMXMXMXMXMXMXMXMXMXMXMXMXMXMXMXMXMXMXMXMXMXMXMXMXG MXMXMXMXMXMXMXMXMXMXMXMXMXMXMXb k b Q Q ! ^ MXMXMXMXMXMXMXMXMXMXb b MXMXMXMXMXMXMXMXMXMXV C M b M n b n b b n ",
"MXMXMXMXMXMXMXMXMXMXMXMXMXMXMX' n ~ MXMXMXMXMXMXMXMXn n M MXMXMXMXMXMXMXMXMXMXMXMXMXMXMXMXMXMXMXMXMXMX' MXMXMXMXMXMXMXMXMXMXMXMXMXMXMXMXMXMXMXMXMXMXMXMXMXMXMXMXMXMXMXMXMXMXMXMX( n Q ~ MXMXMXMXMXMXMX^ Q MXMXMXMXMXMX^ Q MXMXMXMXMXMXC MXMXMXMXMXMXMXMXMXMXMXMXMXMXMXMXMXMXMXMXMXMXMX( n MXMXMXMXMXMXMXMXMXMXMXMXMXMXMXMXMXMXMXMXMXMXMXMXMXMXMXMXMXMXMXMXMXMXMXMXMXMXMXMXMXMXMXMXMXMXMXMXMXMXMXMXMXMXMXMXMXMXMXMXMXMXMXMXMXMXMXMXMXMXMXMXMXMXMXMXMXMXMXMXMXMXMXMXMXMXMXMXMXMXMXMXMXMXMXMXMXMXMXMXMXMXMXMXMXMXG m K MXMXMXMXMXMXMXMXMXMXMXMXMXMXMXMXMXMXMXMXMXMXMXMXMXMXMXMXMXMXMXMXMXMXMXMXMXMXMXMXMXMXMXMXMXMXMXMXMXMXMXMXMXMXMXMXMXMXMXMXMXMXMXMXMXMXMXMXMXMXMXMXMXMXMXMXMXMXMXMXMXMXMXMXMXMXMXMXMXMXMXMXMXMXMXMXMXMXMXMXMXMXMXMXMXMXMXMXMXMXMXMXMXMXMXMXMXMXb M MXMXMXMXMXMXMXMXMXMXMXMXMXMXF MXb Q Q Q Q ' MXMXMXMXMXMXMXMXM b A MXMXMXMXMXMXMXMXMXMXMXMXMXb MXMXn n n n n ",
"MXMXMXMXMXMXMXMXMXMXMXMXMXMXMXMXMXMXMXMXMXMXMXMXMXMXV n n M MXMXMXMXMXMXMXMXMXMXMXMXMXMXMXMXMXMXMXMX[ n ( MXMXMXMXMXMXMXMXMXMXMXMXMXMXMXMXMXMXMXMXMXMXMXMXMXMXMXMXMXMXMXMXMXMXMXMX( n Q ( MXMXMXMXMXMXMX^ ( MXMXMXMXMXMX! MXMXMXMXMXMXV MXMXMXMXMXMXMXMXMXMXMXMXMXMXMXMXMXMXMXMXMXMXMXC n MXMXMXMXMXMXMXMXMXMXMXMXMXMXMXMXMXMXMXMXMXMXMXMXMXMXMXMXMXMXMXMXMXMXMXMXMXMXMXMXMXMXMXMXMXMXMXMXMXMXMXMXMXMXMXMXMXMXMXMXMXMXMXMXMXMXMXMXMXMXMXMXMXMXMXMXMXMXMXMXMXMXMXMXMXMXMXMXMXMXMXMXMXMXMXMXMXMXMXMXMXMXMXMXMXMXMXV n J MXMXMXMXMXMXMXMXMXMXMXMXMXMXMXMXMXMXMXMXMXMXMXMXMXMXMXMXMXMXMXMXMXH J MXMXMXMXMXMXMXMXMXMXMXMXMXMXMXMXMXMXMXMXMXMXMXMXMXMXMXMXMXMXMXMXMXMXMXMXMXMXMXMXMXMXMXMXMXMXMXMXMXMXMXMXMXMXMXMXMXMXMXMXMXMXMXMXMXMXMXMXMXMXMXMXMXMXMXMXMXMXMXMXMXMXb n MXMXMXMXMXMXMXMXMXMXMXMXMXMXMXMXM Q Q Q Q ^ MXMXMXMXMXMXMXM M MXMXMXMXMXMXMXMXMXMXMXMXMXMXMXB MXMXF b b M G ",
"MXMXMXMXMXMXMXMXMXMXMXMXMXMXMXMXMXMXMXMXMXMXMXMXMXMXMXM n n C MXMXMXMXMXMXMXMXMXMXMXMXMXMXMXMXMXMXMXMXC n C MXMXMXMXMXMXMXMXMXMXMXMXMXMXMXMXMXMXMXMXMXMXMXMXMXMXMXMXMXMXMXMXMXMXMXMX( Q Q ( MXMXMXMXMXMXMXQ MXMXMXMXMXMX_ ( MXMXMXMXMXMXMXMXMXMXMXMXMXMXMXMXMXMXMXMXMXMXMXMXMXMXMXMXMXM n ( MXMXMXMXMXMXMXMXMXMXMXMXMXMXMXMXMXMXMXMXMXMXMXMXMXMXMXMXMXMXMXMXMXMXMXMXMXMXMXMXMXMXMXMXMXMXMXMXMXMXMXMXMXMXMXMXMXMXMXMXMXMXMXMXMXMXMXMXMXMXMXMXMXMXMXMXMXMXMXMXMXMXMXMXMXMXMXMXMXMXMXMXMXMXMXMXMXMXMXMXMXMXMXMXMXMXMXMXMXMXMXMXMXMXMXMXMXMXMXMXMXMXMXMXMXMXMXMXMXMXMXMXMXMXMXMXMXMXMXMXMXMXMXMXMXMXMXMXMXMXMXMXMXMXMXMXMXMXMXMXMXMXMXMXMXMXMXMXMXMXMXMXMXMXMXMXMXMXMXMXMXMXMXMXMXMXMXMXMXMXMXMXMXMXMXMXMXMXMXMXMXMXMXMXMXMXMXMXMXMXMXMXMXMXMXMXMXMXMXMXMXMXMXMXMXMXMXMXMXMXMXMXMXMXMXMXMXMXMXMXMXMXMXM Q Q Q Q _ MXMXMXMXMXMXMXm m MXMXMXMXMXMXMXMXMXMXMXMXMXMXMXMXD MXMXMXMXMXMXMX",
"MXMXMXMXMXMXMXMXMXMXMXMXMXMXMXMXMXMXMXMXMXMXMXMXMXMXMXMXG M n Q MXMXMXMXMXMXMXMXMXMXMXMXMXMXMXMXMXMXMXMXM n ( MXMXMXMXMXMXMXMXMXMXMXMXMXMXMXMXMXMXMXMXMXMXMXMXMXMXMXMXMXMXMXMXMXMXMXMX~ Q n ' MXMXMXMXMXMX' ) MXMXMXMXMXMX( MXMXMXMXMXMXMXMXMXMXMXMXMXMXMXMXMXMXMXMXMXMXMXMXMXMXMXMXMX( n M MXMXMXMXMXMXMXMXMXMXMXMXMXMXMXMXMXMXMXMXMXMXMXMXMXMXMXMXMXMXMXMXMXMXMXMXMXMXMXMXMXMXMXMXMXMXMXMXMXMXMXMXMXMXMXMXMXMXMXMXMXMXMXMXMXMXMXMXMXMXMXMXMXMXMXMXMXMXMXMXMXMXMXMXMXMXMXMXMXMXMXMXMXMXMXMXMXMXMXMXMXMXMXMXMXMXMXMXMXMXMXMXMXMXMXMXMXMXMXMXMXMXMXMXMXMXMXMXMXMXMXMXMXMXMXMXMXMXMXMXMXMXMXMXMXMXMXMXMXMXMXMXMXMXMXMXMXMXMXMXMXMXMXMXMXMXMXMXMXMXMXMXMXMXMXMXMXMXMXMXMXMXMXMXMXMXMXMXMXMXMXMXMXMXMXMXMXMXMXMXMXMXMXMXMXMXMXMXMXMXMXMXMXMXMXMXMXMXMXMXMXMXMXMXMXMXMXMXMXMXMXMXMXMXMXMXMXMXMXMXF m H MXQ Q Q _ MXMXMXMXMXMXMXm b MXMXMXMXMXMXMXMXMXMXMXMXMXMXMXMXMXMXMXMXMXMXMXMXMX",
"MXMXMXMXMXMXMXMXMXMXMXMXMXMXMXMXMXMXMXMXMXMXMXMXMXMXMXMXMXMXJ Q Q C MXMXMXMXMXMXMXMXMXMXMXMXMXMXMXMXMXMXMX( n M MXMXMXMXMXMXMXMXMXMXMXMXMXMXMXMXMXMXMXMXMXMXMXMXMXMXMXMXMXMXMXMXMXMXMXMX( Q Q MXMXMXMXMXMXMX_ MXMXMXMXMXMX' ( MXMXMXMXMXMXMXMXMXMXMXMXMXMXMX( MXMXMXMXMXMXMXMXMXMXMXMXC Q n MXMXMXMXMXMXMXMXMXMXMXMXMXMXMXMXMXMXMXMXMXMXMXMXMXMXMXMXMXMXMXMXMXMXMXMXMXMXMXMXMXMXMXMXMXMXMXMXMXMXMXMXMXMXMXMXMXMXMXMXMXMXMXMXMXMXMXMXMXMXMXMXMXMXMXMXMXMXMXMXMXMXMXMXMXMXMXMXMXMXMXMXMXMXMXMXMXMXMXMXMXMXMXMXMXMXMXMXMXMXMXMXMXMXMXMXMXMXMXMXMXMXMXMXMXMXMXMXMXMXMXMXMXMXMXMXMXMXMXMXMXMXMXMXMXMXMXMXMXMXMXMXMXMXMXMXMXMXMXMXMXMXMXMXMXMXMXMXMX) ) MXMXMXMXMXMXMXMXMXMXMXMXMXMXMXMXMXMXMXMXMXMXMXMXMXMXMXMXMXMXMXMXMXMXMXMXMXMXMXMXMXMXMXMXMXMXMXMXMXMXMXMXMXMXMXMXMXMXMXMXMXMXMXMXMXMXMXMXMXMXMXMXMXn Q _ MXMXz B MXMXMXF b F MXMXMXP MXMXMXMXMXMXMXMXMXMXMXMXMXMXMXMXMXMXMXMXMX",
"MXMXMXMXMXMXMXMXMXMXMXMXMXMXMXMXMXMXMXMXMXMXMXMXMXMXMXMXMXMXMXMXM Q n ( MXMXMXMXMXMXMXMXMXMXMXMXMXMXMXMXMXMX' n n ' MXMXMXMXMXMXMXMXMXMXMXMXMXMXMXMXMXMXMXMXMXMXMXMXMXMXMXMXMXMXMXMXMXMXMX( Q M MXMXMXMXMXMXMXMXMXMXMXMXMXMX( _ MXMXMXMXMXMXMXC M C MXMXMX' Q MXMXMXMXMXMXMXMXMXMXMXMXMXn n M MX' ( ( ( ' MXMXMXMXMXMXMXMXMXMXMXMXMXMXMXMXMXMXMXMXMXMXMXMXMXMXMXMXMXMXMXMXMXMXMXMXMXMXMXMXMXMXMXMXMXMXMXMXMXMXMXMXMXMXMXMXMXMXMXMXMXMXMXMXMXMXMXMXMXMXMXMXMXMXMXMXMXMXMXMXMXMXMXMXMXMXMXMXMXMXMXMXMXMXMXMXMXMXMXMXMXMXMXMXMXMXMXMXV m M G MXMXMXMXMXMXMXMXMXMXMXMXMXMXMXMXMXMXMXMXMXMXMXMXMXMXMXMXMXMXMXMXMXMXMXMXMXMXMXMXMXMXMXMXMXMXMXMXMX) ! ! ! ] MXMXMXMXMXMXMXMXMXMXMXMXMXMXMXMXMXMXMXMXMXMXMXMXMXMXMXMXMXMXMXMXMXMXMXMXMXMXMXMXMXMXMXMXMXMXMXMXMXMXMXMXMXMXMXMXMXMXMXMXMXMXMXMXMXMXMXMXMXMXM n Q [ MXMXl j S MXF b Q { MXMXMXMXMXMXMXMXMXMXMXMXMXMXMXMXMXMXMXMXMXMXMXMXMX",
"MXMXMXMXMXMXMXMXMXMXMXMXMXMXMXMXMXMXMXMXMXMXMXMXMXMXMXMXMXMXMXMXMXM Q n n ' MXMXMXMXMXMXMXMXMXMXMXMXMXMXMXMXMXMXn Q _ MXMXMXMXMXMXMXMXMXMXMXMXMXMXMXMXMXMXMXMXMXMXMXMXMXMXMXMXMXMXMXMXMXMXMXQ Q ~ MXMXMXMXMXMXMXMXMXMXMXMXMXMXM MXMXMXMXMXMXMXn n n M MXMXMXM ( MXMXMXMXMXMXMXMXMXMXMXMXM Q Q Q Q Q n Q Q Q _ MXMXMXMXMXMXMXMXMXMXMXMXMXMXMXMXMXMXMXMXMXMXMXMXMXMXMXMXMXMXMXMXMXMXMXMXMXMXMXMXMXMXMXMXMXMXMXMXMXMXMXMXMXMXMXMXMXMXMXMXMXMXMXMXMXMXMXMXMXMXMXMXMXMXMXMXMXMXMXMXMXMXMXMXMXMXMXMXMXMXMXMXMXMXMXMXMXMXMXMXMXMXMXMXMXMXMXG n n n V MXMXMXMXMXMXMXMXMXMXMXMXMXMXMXMXMXG MXMXMXMXMXMXMXMXMXMXMXMXMXMXMXMXMXMXMXMXMXMXMXMXMXMXMX_ ! ! ! ! ! Q MXMXMXMXMXMXF MXMXMXMXMXMXMXMXMXMXMXMXMXMXMXMXMXMXMXMXMXMXMXV V MXMXMXMXMXMXMXMXMXMXMXMXMXMXMXMXMXMXMXMXMXMXMXMXMX] _ ' _ _ ' ] _ ( ] MXMXJ G V n G MXMXz j B K b n Q n F MXMXMXMXMXMXMXMXMXMXMXMXMXMXMXD MXMXMXMXMXMXF MX",
"MXMXMXMXMXMXMXMXMXMXMXMXMXMXMXMXMXMXMXMXMXMXMXMXMXMXMXMXMXMXMXMXMXMX( n Q n ( MXMXMXMXMXMXMXMXMXMXMXMXMXMXMXMXMXMXQ n _ MXMXMXMXMXMXMXMXMXMXMXMXMXMXMXMXMXMXMXMXMXMXMXMXMXMXMXMXMXMXMXMXMXMXMXQ Q ~ MXMXMXMXMXMXMXMXMXMXMXMXMX( ( MXMXMXMXMXMXn n n n G MXMXn Q MXMXMXMXMXMXMXMXMXMXMXMX' n Q Q Q n Q Q Q Q Q MXMXMXMXMXMXMXMXMXMXMXMXMXMXMXMXMXMXMXMXMXMXMXMXMXMXMXMXMXMXMXMXMXMXMXMXMXMXMXMXMXMXMXMXMXMXMXMXMXMXMXMXMXMXMXMXMXMXMXMXMXMXMXMXMXMXMXMXMXMXMXMXMXMXMXMXMXMXMXMXMXMXMXMXMXMXMXMXMXMXMXMXMXMXMXMXMXMXMXMXMXMXMXMXMXMXMXMXMXM n b n _ MXMXMXMXMXMXMXMXMXMXMXMXMXMXMXMXMXMXMXMXMXMXMXMXMXMXMXMXMXMXMXMXMXMXMXMXMXMXMXMXMXMXMX! ! ! ! ! ! ! ^ MXMXMXMXMXMXMXMXMXMXMXMXMXMXMXMXMXMXMXMXMXMXMXMXMXMXMXMXMXV m MXMXMXMXMXMXMXMXMXMXMXMXMXMXMXMXMXMXM M C MXMX( Q Q Q ! Q Q / Q Q W Q Q ( MXMXMXV MXMXMXl k b n b n n m MXMXMXMXMXMXMXMXMXMXMXMXMXMXMXMXMXMXMXMXMXMXMXMXMX",
"MXMXMXMXMXMXMXMXMXMXMXMXMXMXMXMXMXMXm M MXMXMXMXMXMXMXMXMXMXMXMXMXMXMX' M Q n ( MXMXMXMXMXMXMXMXMXMXMXMXMXMXMXMXMXMXQ Q ( MXMXMXMXMXMXMXMXMXMXMXMXMXMXMXMXMXMXMXMXMXMXMXMXMXMXMXMXMXMXMXMXMXMX) n Q ( MXMXMXMXMXMXMXMXMXMXMXMXMXn ' MXMXMXMXMXM n n v M MXMXQ n ( MXMXMXMXMXMXMXMXMXMXMXMXQ Q n n Q n Q n Q n ' MXMXMXMXMXMXMXMXMXMXMXMXMXMXMXMXMXMXMXMXMXMXMXMXMXMXMXMXMXMXMXMXMXMXMXMXMXMXMXMXMXMXMXMXMXMXMXMXMXMXMXMXMXMXMXMXMXMXMXMXMXMXMXMXMXMXMXMXMXMXMXMXMXMXMXMXMXMXMXMXMXMXMXMXMXMXMXMXMXMXMXMXMXMXMXMXMXMXMXMXMXMXMXMXMXMXMXMXMXMXG M M V MXMXMXMXMXMXMXMXMXMXMXMXMXMXMXMXMXMXMXMXMXMXMXMXMXMXMXMXMXMXMXMXMXMXMXMXMXMXMXMXMX` ! ! ! ! ! ! ! ! ] MXMXMXMXMXMXMXMXMXMXMXMXMXMXMXMXMXMXMXMXMXMXMXMXMXMXG G MXMXMXMXMXMXMXMXMXMXMXMXMXMXMXMXMXMXMXMXn n n [ _ Q Q Q Q Q Q Q Q Q Q Q Q n n ~ MXMXMXMXMXMXm n n n b n b MXMXMXMXMXMXMXMXMXMXMXMXMXMXMXMXMXMXMXMXMXMXMXG MXMX",
"MXMXMXMXMXMXMXMXMXMXMXMXMXMXMXMXMXMXm n MXMXMXMXMXMXMXMXMXMXMXMXMXMXMXMXMXC n Q ( MXMXMXMXMXMXMXMXMXMXMXMXMXMXMXMXMXMX( Q Q ( MXMXMXMXMXMXMXMXMXMXMXMXMXMXMXMXMXMXMXMXMXMXMXMXMXMXMXMXMXMXMXMXMX~ Q n G MXMXMXMXMXMXMXMXMXMXMXMXQ ~ MXMXMXMXMXM n b n n MX_ n Q n MXMXMXMXMXMXMXMXMXMXMXMXQ n n n Q Q Q Q Q n ( MXMXMXMXMXMXMXMXMXMXMXMXMXMXMXMXMXMXMXMXMXMXMXMXMXMXMXMXMXMXMXMXMXMXMXMXMXMXMXMXMXMXMXMXMXMXMXMXMXMXMXMXMXMXMXMXMXMXMXMXMXMXMXMXMXMXMXMXMXMXMXMXMXMXMXMXMXMXMXMXMXMXMXMXMXMXMXMXMXMXMXMXMXMXMXMXMXMXMXMXMXMXMXMXMXMXMXMXMXMXMXMXMXMXMXMXMXMXMXMXMXMXMXMXMXMXMXMXMXMXMXMXMXMXMXMXMXMXMXMXMXMXMXMXMXMXMXMXMXMXMXMXMXMX} } ! ! ! ! ! ! ! ! } MXMXMXMXMXMXMXMXMXMXMXMXMXMXMXMXMXMXMXMXMXMXMXMXMXMXV ' MXMXMXMXMXMXMXMXMXMXMXMXMXMXMXMXMXMXMXMXM n n [ ^ Q Q Q Q Q Q Q Q Q Q Q n n n Q n ( MXMXMXC n n n n n n J MXMXMXMXMXMXMXMXMXMXMXMXMXMXMXMXMXMXMXMXMXMXMXJ MXMX",
"MXMXMXMXMXMXMXMXMXMXMXMXMXMXMXMXMXMXG V MXMXMXMXMXMXMXMXMXMXMXMXMXMXMXMXMXMX( Q Q ~ MXMXMXMXMXMXMXMXMXMXMXMXMXMXMXMXMXMX_ Q Q Q ' MXMXMXMXMXMXMXMXMXMXMXMXMXMXMXMXMXMXMXMXMXMXMXMXMXMXMXMXMXMXMXMXn Q n MXMXMXMXMXMXMXMXMXMXMXMXM Q _ MXMXMXMXMXM n n n K _ n Q Q ( MXMXMXMXMXMXMXMXMXMXMXQ n Q n n n n n Q Q ( MXMXMXMXMXMXMXMXMXMXMXMXMXMXMXMXMXMXMXMXMXMXMXMXMXMXMXMXMXMXMXMXMXMXMXMXMXMXMXMXMXMXMXMXMXMXMXMXMXMXMXMXMXMXMXMXMXMXMXMXMXMXMXMXMXMXMXMXMXMXMXMXMXMXMXMXMXMXMXMXMXMXMXMXMXMXMXMXMXMXMXMXMXMXMXMXMXMXMXMXMXMXMXMXMXMXMXMXMXMXMXMXMXMXMXMXMXMXMXMXMXMXMXMXMXMXMXMXMXMXMXMXMXMXMXMXMXMXMXMXMXMXMXMXMXMXMXMXMXMXMXMXMXMX! ! ! ! ! ! ! ! ! ! ! MXMXMXMXMXMXMXMXMXMXMXMXMXMXMXMXMXMXMXMXMXMXMXMXMXMXMXMXMXMXMXMXMXMXMXMXMXMXMXMXMXMXMXMXMXMXMXMXMXm b V Q Q Q Q Q Q Q Q Q Q Q n n Q n n Q n ~ C ~ n Q n n n n n J MXMXMXMXMXMXMXMXMXMXMXMXMXMXMXMXMXMXMXMXMXMXF MXMXMX",
"MXMXMXMXMXMXMXMXMXMXMXMXMXMXMXMXMXMXMXMXMXMXMXMXMXMXMXMXMXMXMXMXMXMXMXMXMXMXMXMXQ Q M ( MXMXMXMXMXMXMXMXMXMXMXMXMXMXMXMXMXMX~ Q Q ~ MXMXMXMXMXMXMXMXMXMXMXMXMXMXMXMXMXMXMXMXMXMXMXMXMXMXMXMXMXMXMXJ n Q M MXMXMXMXMXMXMXMXMXMXMXM Q n MXMXMXMXMXMXM n n M MXQ n n n MXMXMXMXMXMXMXMXMXMXMXM n n n n n Q Q n Q _ MXMXMXMXMXMXMXMXMXMXMXMXMXMXMXMXMXMXMXMXMXMXMXMXMXMXMXMXMXMXMXMXMXMXMXMXMXMXMXMXMXMXMXMXMXMXMXMXMXMXMXMXMXMXMXMXMXMXMXMXMXMXMXMXMXMXMXMXMXMXMXMXMXMXMXMXMXMXMXMXMXMXMXMXMXMXMXMXMXMXMXMXMXMXMXMXMXMXMXMXMXMXMXMXMXMXMXMXMXMXMXMXMXMXMXMXMXMXMXMXMXMXMXMXMXMXMXMXMXMXMXMXMXMXMXMXMXMXMXMXMXMXMXMXMXMXMXMXMXMXMXMXMXMX} ! ! ! ! ! ! ! ! ! ^ MXMXMXMXC MXMXMXMXMXMXMXMXMXMXMXMXMXMXMXMXMXMXMXMXMXK MXMXMXMXMXMXMXMXMXMXMXMXMXMXMXMXMXMXMXMXMXMXMXm n Q Q Q Q Q ! Q Q Q Q n n n n Q n n n n n Q Q v n n n b n C MXMXMXMXMXMXMXMXMXMXMXMXMXMXMXMXMXMXMXMXMXH MXMXMXMX",
"MXMXMXMXMXMXMXMXMXMXMXMXMXMXMXMXMXMXMXMXMXMXMXMXMXMXMXMXMXMXMXMXMXMXMXMXMXMXMXMXMX( Q n ~ ' MXMXMXMXMXMXMXMXMXMXMXMXMXMXMXMXMX_ Q Q Q { MXMXMXMXMXMXMXMXMXMXMXMXMXMXMXMXMXMXMXMXMXMXMXMXMXMXMXMXMXMXM n n G MXMXMXMXMXMXMXMXMXMX( Q Q MXMXMXMXMXMXMXn n n | M Q n Q MXMXMXMXMXMXMXMXMXMXMX( n n n n n Q Q Q Q MXMXMXMXMXMXMXMXMXMXMXMXMXMXMXMXMXMXMXMXMXMXMXMXMXMXMXMXMXMXMXMXMXMXMXMXMXMXMXMXMXMXMXMXMXMXMXMXMXMXMXMXMXMXMXMXMXMXMXMXMXMXMXMXMXMXMXMXMXMXMXMXMXMXMXMXMXMXMXMXH MXMXMXMXMXMXMXMXMXMXMXMXMXMXMXMXMXMXMXMXMXMXMXMXMXMXMXMXMXMXMXMXMXMXMXMXMXMXMXMXMXMXMXMXMXMXMXMXMXMXMXMXMXMXMXMXMXMXMXMXMXMXMXMXMXMXMXMXMXMXMXMXMXMX) ! ! ! / ! ! ! ! ! ^ MXMXMXMXMXJ MXMXMXMXMXMXMXMXMXMXMXMXMXMXMXMXMXMXMXMXC MXQ _ MXMXMXMXMXMXMXMXMXMXMXMXMXMXMXV V K MXMX{ Q Q ! Q Q Q Q W ! Q n Q n Q n n n n n n n n n Q n n n n b [ MXMXM V MXMXMXMXMXMXMXMXMXMXMXMXMXMXMXMXMXMXMXMXMXMX",
"MXMXMXMXMXMXMXMXMXMXMXMXMXMXMXMXMXMXMXMXMXMXMXMXMXMXMXMXMXMXMXMXMXMXMXMXMXMXMXMXMXMX_ Q n n Q _ MXMXMXMXMXMXMXMXMXMXMXMXMXMXMXMXMX( ! Q ! ( _ MXMXMXMXMXMXMXMXMXMXMXMXMXMXMXMXMXMXMXMXMXMXMXMXMXMXMXMXM Q n MXMXMXMXMXMXMXMXMXMX{ Q ~ MXMXMXMXMXMXMXC n v ' _ Q Q Q MXMXMXMXMXMXMXMXMXMXMXG Q n Q Q Q Q Q Q MXMXMXMXMXMXMXMXMXMXMXMXMXMXMXMXMXMXMXMXMXMXMXMXMXMXMXMXMXMXMXMXMXMXMXMXMXMXMXMXMXMXMXMXMXMXMXMXMXMXMXMXMXMXMXMXMXMXMXMXMXMXMXMXMXMXMXMXMXMXMXMXMXMXMXMXMXMXMXMXMXMXMXMXMXMXMXMXMXMXMXMXMXMXMXMXMXMXMXMXMXMXMXMXMXMXMXMXMXMXMXMXMXMXMXMXMXMXMXMXMXMXMXMXMXMXMXMXMXMXMXMXMXMXMXMXMXMXMXMXMXMXMXMXMXMXMXMXMXMXMXMXMXMXMXMX} / } ! ! ! ! ! ! ! ] MXMXMXMXMXMX' MXMX_ ( MXMXMXMXMXMXMXMXMXMXMXMXC ~ Q Q Q Q ! ^ ( ] MXMXMXMXMXMXMXMXMXMXMXV b b n ( ) Q Q ! Q Q ! Q Q Q Q Q n n n n n n n n n n n n n Q Q n v n n C MXMXn m MXMXMXMXMXMXMXMXMXMXMXMXMXMXMXMXMXMXMXMXMXMX",
"MXMXMXMXMXMXMXMXMXMXMXMXMXMXMXMXMXMXMXMXMXMXMXMXMXMXMXMXMXMXMXMXMXMXMXMXMXMXMXMXMXMXMXMXM Q n n ( MXMXMXMXMXMXMXMXMXMXMXMXMXMXMXMXMXMX^ Q Q ! Q ( MXMXMXMXMXMXMXMXMXMXMXMXMXMXMXMXMXMXMXMXMXMXMXMXMXMX0 8 9 0 MXMXMXMXMXMXMXMXMXq 8 9 MXMXMXMXMXMXMXw 8 8 0 0 s s 8 w MXMXMXMXMXMXMXMXMXMXw 8 8 8 8 8 8 8 w MXMXMXMXMXMXMXMXMXMXMXMXMXMXMXMXMXMXMXMXMXMXMXMXMXMXMXMXMXMXMXMXMXMXMXMXMXMXq w MXMXMXMXMXMXMXMXMXMXMXMXMXMXMXMXMXMXMXMXMXMXMXMXMXMXMXMXMXMXMXMXMXMXMXMXMX5 MXMXMXMXMXMXMXMXMXMXMXMXB MXMXMXMXMXMXMXMXMXMXMXMXMXMXMXMXMXMXMXMXMXMXMXMXMXMXMXMXMXMXMXMXMXMXMXMXMXMXMXMXMXMXMXMXMXMXMXMXMXMXMXMXMXMXMXMXMXMXMXMXMXMXMXMXMX} } ! ! ! ! ! ! W h MXMXMXMXMXMXMX8 m ~ n Q M MXMXMXMXMXMXMXMXMXMXV Q Q Q Q Q ! Q ! ! Q g MXMXMXMXMXMXMXMXMXMXb n n Q n n Q Q ! ! Q Q Q ! Q Q Q n n n Q Q n c b n n v n Q Q n b b Q n n M M b n J MXMXMXMXMXMXMXMXMXMXMXMXMXMXMXMXMXMXMXMXMX",
"MXMXMXMXMXMXMXMXMXMXMXMXMXMXMXMXMXMXMXMXMXMXMXMXMXMXMXMXMXMXMXMXMXMXMXMXMXMXMXMXMXMXMXMXMX( n Q n Q MXMXMXMXMXMXMXMXMXMXMXMXMXMXMXMXMXMX) Q Q ! Q E X X X       X     X     X     X     X     X     X     X     X     X   X       X       X         X                   X             X             X         X X   X   X     X X   X   X     X X   X   X     X X   X   X   X   X   X   X     X X X   X   X X   X     X   X   X   X X   X   X   X   X     X   X   X   X     X     X   X   X   X # o X   # 8 o         X     X   X   X   X     X     X     X     X       X   X   X X   X   X     X     X     X     X           X   $ j k / / ! ! / / 3           X       1 c n Q d X       o   # d k b n Q n n Q Q ! Q ! Q ! 6   # o X X . MXMXMXMXn v Q n W Q Q W ! Q Q Q Q ! Q Q n n n Q n Q b k k c n n Q Q n b b n Q n Q n n b b V MXMXMXMXMXMXMXMXMXMXMXMXMXMXMXMXMXMXMXMXMX",
"MXMXMXMXMXMXMXMXMXMXMXMXMXMXMXMXMXMXMXMXMXMXMXMXMXMXMXMXMXMXMXMXMXMXMXMXMXMXMXMXMXMXMXMXMXMX_ M Q n ( MXMXMXMXMXMXMXMXMXMXMXMXMXMXMXMXMXMX( Q Q W h X                                                                                                                                                                                                                                                                                                                                                     o X                                                                                                                       X o c ! ! x 3 s 4 X       X           6 v Q 6       X 9 1 X s n n n Q Q Q Q Q Q ! Q Q / 6           X - MXMXMXn n Q Q Q Q Q Q Q Q Q Q ! Q Q Q Q n Q n n v b k k b n n n n b b n Q n Q n n n n n M MXMXMXV K MXMXMXMXMXMXMXMXMXMXMXMXMXMXMXMX",
"MXMXMXMXMXMXMXMXMXMXMXMXMXMXMXMXMXMXMXMXMXMXMXMXMXMXMXMXMXMXMXMXMXMXMXMXMXMXMXMXMXMXMXMXMXMXMXMX( M Q ' MXMXMXMXMXMXMXMXMXMXMXMXMXMXMXMXMXMX] M C E O O . . . . . . . . . . . . . . . . . . . . . . . . . . . . . . . . . . . . . . . . . . . . . . . . . . . . . . . . . . . . . . . . . . . . . . . . . . . . . . . . . . . . . . . . . . . . . . . . . . . . . . . . . . . . . . . . . . . . . . . . . . . . . . . . . . . . . . . . . . . . . . . . . . . . . . . . . . . . . . . . . . . . . . . . . . . . . . . . . . . . . . . . . . . . . . . . . . . . . . . . . . . . . . . . . . . . . . . . . . . . . . . . . X . X X X X . 6 M / 4 O * s 3 . . o 3 < o     X o 6 c 9 X   X o s j # 4 x d n n Q n Q n Q Q ! / n $ X X X . X o : MX_ n n n n n Q Q ! Q Q Q ! Q ! Q Q Q Q n n Q n n b n n n n n Q n b v n Q n n Q n Q n n n b m m n V MXMXMXMXMXMXMXMXMXMXMXMXMXMXMXMX",
"MXMXMXMXMXMXMXMXMXMXMXMXMXMXMXMXMXMXMXMXMXMXMXMXMXMXMXMXMXMXMXMXMXMXMXMXMXMXMXMXMXMXMXMXMXMXMXMXMXMXMXMXMXMXMXMXMXMXMXMXMXMXMXMXMXMXMXMXMXMX> * 2 e h.h.h.h.h.h.h.h.h.h.h.h.h.h.h.h.h.h.h.h.h.h.h.h.h.h.h.h.h.h.h.h.h.h.h.h.h.h.h.h.h.h.h.h.h.h.h.h.h.h.h.h.h.h.h.h.h.h.h.h.h.h.h.h.h.h.h.h.h.h.h.h.h.h.h.h.h.h.h.h.h.h.h.h.h.h.h.h.h.h.h.h.h.h.h.h.h.h.h.h.h.h.h.h.h.h.h.h.h.h.h.h.h.h.h.h.h.h.h.h.h.h.h.h.h.h.h.h.h.h.h.h.h.h.h.h.h.h.h.h.h.h.h.h.h.h.h.h.h.h.h.h.h.h.h.h.h.h.h.h.h.h.h.h.h.h.h.h.h.h.h.h.h.h.h.h.h.h.h.h.h.h.h.h.h.h.h.h.h.h.h.h.h.h.h.h.h.h.h.h.h.h.h.h.h.h.h.h.h.h.h.h.h.h.h.h.h.h.h.h.h.h.h.h.h.h.h.f.h.f.t.<.<.f.h.c.q.I *.<.l.,.<.*.h *.H g <.f.y.f.<.1.U *.f.y.*.k C *.<.A *.T n W Q Q Q v Q W J 2.f.f.y.f.y.t.<.e 5 b n n n Q Q Q Q Q Q ! Q Q ! Q Q Q Q Q Q n n n n b n n n Q n n b v Q n n Q Q n Q n Q n n n k b b m MXMXMXMXMXMXMXMXMXMXMXMXMXMXMXMX",
"MXMXMXMXMXMXMXMXMXMXMXMXMXMXMXMXMXMXMXMXMXMXMXMXMXMXMXMXMXMXMXMXMXMXMXMXMXMXMXMXMXMXMXMXMXMXMXMXMXMXMXMXMXMXMXMXMXMXMXMXMXMXMXMXMXMXMXMXMXMX@     e Y.oX+XoXoXoXY.+X+X[.+X+X[.@X[.[.@X[.Y.+X[.+X[.@X[.[.+X[.+X+XY.+X[.+X[.@X[.[.[.[.[.@X[.+X[.+X+X[.@X[.[.+X+X+X[.@X[.[.[.+X[.@X+X[.@X[.+X+X+X[.[.@X[.[.@XU.[.[.Y.+X+X[.+X+X+X[.Y.+X+X[.@XY.[.[.Y.+X+X[.+X+X[.+XY.+X+X[.[.@XY.[.Y.+X+X[.+X[.+X[.U.+X[.@XY.[.+X[.@X[.,X[.Y.+X[.+X+X[.@X[.[.+X+X+XY.+X+X[.+X+X[.@X[.+X[.[.Y.+X[.@X[.@X[.[.+X[.+X+X[.[.@X[.[.[.,XY.[.[.Y.@XY.+X+X[.[.@X[.[.+X[.+X+XY.+X[.+X+X[.,XY.[.[.Y.@XY.+X[.+X[.@X[.[.+X[.+X[.Y.+X[.@X[.[.[.,X+X[.[.[.Y.+X+X[.P.q.o.>.E.A./.b.5.7./.Y.Y.2.n H U M T ~.`.U.>.2.z.b.[.+Xb.K U b.~.T U Y V ' Q n J X.T q.e.U.oX+XoX+X+XP.K.y 1 b n n n n Q Q Q Q Q Q ! Q Q ! Q Q Q Q n n Q n n n n Q Q n n b v n n Q n n n Q n Q n n n n n b b b G MXMXMXMXMXMXMXMXMXMXMXMXMXMXMX",
"MXMXMXMXMXMXMXMXMXMXMXMXMXMXMXMXMXMXMXMXMXMXMXMXMXMXMXMXMXMXMXMXMXMXMXMXMXMXMXMXMXMXMXMXMXMXMXMXMXMXMXMXMXMXMXMXMXV n MXMXMXMXMXMXMXMXMXMXMXO   X e oXoXoXoXU.U.[.[.[.[.[.[.[.[.[.[.Y.[.[.[.[.[.[.[.[.[.[.[.[.[.[.[.[.[.[.Y.[.[.[.[.Y.[.Y.[.[.[.[.[.[.[.[.[.[.[.[.[.[.[.[.[.[.[.[.[.[.Y.[.[.[.[.[.[.[.[.[.[.[.[.[.[.[.[.[.[.[.[.[.[.[.[.[.[.[.[.[.[.[.[.[.[.[.[.[.[.[.[.[.[.[.[.[.[.[.[.[.[.[.[.[.U.[.[.[.[.[.[.Y.U.U.[.U.[.[.[.[.[.[.[.[.[.[.[.[.[.[.[.[.[.[.[.[.[.[.[.[.[.[.Y.[.[.[.[.[.[.[.[.[.[.[.[.[.[.[.[.[.[.[.[.[.[.[.[.[.[.[.[.[.[.[.[.[.[.[.[.[.[.[.[.[.[.[.[.[.[.[.[.[.[.[.[.[.[.[.[.[.[.[.[.[.[.[.[.[.[.[.w.-.3.z./.[._.3.X.J X.2.`.Y.v.2.w.~.G.3.=.H U J L Y T $.F 3.A.z._._.T L 2.-.-.b b J -.T 5.p.v.`.[.[.[.U.[.U.[.[.I.Y.p 8 n n n n n Q ! Q ! ! Q Q ! Q ! Q Q Q n v Q v n Q n n n n Q n b n Q Q n Q n n n Q n n Q Q n n b b b m MXMXMXMXMXMXMXMXMXMXMXMXMXMXMX",
"MXMXMXMXMXMXMXMXMXMXMXMXMXMXMXMXMXMXMXMXMXMXMXMXMXMXMXMXMXMXMXMXMXMXMXMXMXMXMXMXMXMXMXMXMXMXMXMXMXMXMXMXMXMXMXMXMXM n V MXMXMXMXMXMXMXMXMXMX> > > y oX,X@XU.U.OXU.[.[.[.[.[.[.[.[.[.[.[.[.[.[.[.[.[.[.[.[.[.[.[.[.[.[.[.[.[.[.[.[.[.[.[.[.[.[.[.[.[.[.[.[.[.[.[.[.[.[.[.[.[.[.[.[.[.[.[.[.[.[.[.[.[.[.[.[.[.[.[.[.[.[.[.[.[.[._.[.[.[.[.[.[.[.[.[.[.[.[.[.[.[.[.[.[.[.[.[.[.[.[.[.[.[.[.[.[.[.[.[.[.[.[.[.[.[.[.U.U.[.[.[.[.[.[.[.[.[.[.[.[.[.[.[.[.[.[.[.[.[.[.[.[.[.[.[.[.[.[.[.[.[.[.[.[.[.[.[.[.[.[.[.[.[.[.[.[.[.[.[.[.[.[.[.[.[.[.[.[.[.[.[.[.[.[.[.[.[.[.[.[.[.[.[.[.[.[.[.[.[.[.[.[.[.[.[.[.[.[.[.[.[.[.[.[.[.b.7.=.Y T 9.p.G./.E.p.9.>.b.[._.3.Y p.+X[.p.=.-.T M v n b U 3.J -./.$.n [ Q Q n n Q ~ $./.I.E.P.U.+X[.[.[.[.[.,X,X#X1.d n n n n n v Q Q Q Q Q Q ! Q W Q Q Q n Q n n Q n n Q n n n n n Q n Q n n n Q n n Q Q n Q n Q n n n n M MXMXMXMXMXMXMXMXMXMXMXMXMXMX",
"MXMXMXMXMXMXMXMXMXMXMXMXMXMXMXMXMXMXMXMXMXMXMXMXMXMXMXMXMXMXMXMXMXMXMXMXMXMXMXMXMXMXMXMXMXMXMXMXMXMXMXMXMXMXMXMXMXJ V MXMXMXMXMXMXMXMXO . @ t.k.h.D.qXqX8XoXU.U.U.[.[.[.[.[.[.[.[.[.[.[.[.[.[.[.[.[.[.[.[.[.[.[.[.U.[.[.[.[.[.[.[.[.[.[.[.[.[.[.[.[.[.[.[.[.[.[.[.[.[.[.U.[.[.[.[.[.[.[.[.[.[.[.[.[.[.[.U.[.[.[.[.[.[.[.[.[.[.+X[.[.[.[.[.[.[.[.[.[.[.[.[.[.[.oX[.[.[.[.[.[.[.[.[.[.[.[.[.+X[.P.[.[.[.[.[.[.[.[.[.U.[.[.[.[.[.[.[.[.[.[.[.[.[.[.[.[.Y.[.[.[.[.[.[.[.U.[.[.[.[.U.[.[.[.[.[.[.[.[.[.[.[.[.[.[.[.[.[.[.[.[.[.[.[.[.[.[.[.[.[.[.[.[.[.Y.[.[.[.[.[.[.[.[.[.[.[.[.[.[.[.[.[.[.[.[.[.U.[.U.[.[.[.[.[.[.[.[.U.oXoX[.G.z.-.L U -.p.I.+XI._.[.[.[.>.$.I.[.P./.2.J $.=.M b m q.=.n =.| Q W Q Q n n Q Q n Y -.T =.z._.[.[._.[.[.0XsX1XT n b b b b 4 9 Q ! Q Q Q Q Q Q Q Q Q n n n Q Q n Q Q n Q n v n Q n Q n Q Q Q n Q n Q n Q n Q n n n n Q n ( MXMXMXMXMXMXMXMXMXMXMXMXMX",
"MXMXMXMXMXMXMXMXMXMXMXMXMXMXMXMXMXMXMXMXMXMXMXMXMXMXMXMXMXMXMXMXMXMXMXMXMXMXMXMXMXMXMXMXMXMXMXMXMXMXMXMXMXMXMXMXMXMXMXMXMXMXMXMXMXMXMXX   O t.n.g.H.qX0X8XY.Y.U.+X[.P.+X[.+X+X_.[.[.[.[.[.[.[.U.[.U._.P.+X[.[.[.+XP._.oXU.U.U.U.[.[.[.[.+XU.P.[.[.[.[.[.[.U.[.[.[.[.[.[.[.[.[.[.[.[.U.U.P.+XU.[.[.[.[.[.[.[.[.[.[.+XU.[.+X[.[.[.[.[.[.[.[.[.[.[.[.U.[.[.U.+X[.[.[.[.[.[.[.[.[.[.[.[.[.[.[.[._.+X[.[.[.P.[.U.[.[.[.[.[.[.[.[.[.[.U._.+X[.[.[.[.[.[.[.[.[.[.U.U.U.[.[.[.[.[.[.oX[.U.U.P.+X+X[.[.[.[.P.[.[.+XU.[.[.[.[.[.[.+X[.[.[.[.[.[.[.[.[.[.[.[.[.+XP.[.[.oXU.[.[.[.[.[.[.[.[.[.[.[.U.[.[.[.[.[.[.[.[.[.[.[.[.[.[.[.[.[.[.[.+XP.b.w.=.Y Y 6.p.G.oX[.[.[.A.U.[.U.oXP.5.C ' ~ n n J o.Q Q Q Q Q Q Q Q n Q Q Q Q Q Q n L b.+XU.P.A.3.1X(.q.m c b b b d o 3 W Q Q W n n W Q Q Q Q n n n Q n Q n Q Q n n n Q n Q Q n Q Q n n b b n Q n n Q n n Q n n n n MXMXMXJ m V MXMXMXMXMXMXMX",
"MXMXMXMXMXMXMXMXMXMXMXMXMXMXMXMXMXMXMXMXMXMXMXMXMXMXMXMXMXMXMXMXMXMXMXMXMXMXMXMXMXMXMXMXMXMXMXMXMXMXMXMXMXMXMXMXMXMXMXMXMXMXMXMXMXMXMXX   O t.n.n.C.8X8X8X,XY.Y.P.[.[._.[.P.U.U.[.[.[.[.[.[.[.[.[.[.+XU.[.[.[.+X[.U.+X[._.+XP.oX[.[.[.[._.U.+X[.[.[.+XU.[.[.+XP.[.[.[.[.[.[.[.Y.[.[._.+X[.[.[.oX[.[.[.[.[.[.U.[.[._.P.[.[.[.[.[.[.[.[.[.[.[.U.[.[.[.[.[.[.P._.+XY.[.[.[.[.[.U.[.[.[.U.[._.U.oXU.+X[.[.+X[.[.[.[.U.[.[.[.[.oX[.U.[.[.P.+XU.[.P.+X[.U.[.oXU.+X[.U.[.[.[.[.[._.[.[._.+X[.[.[.P.U.[.[.+X[._.U.U.`.I.[.[.[.[.[.U.U.[.[.[.U.[._.U.OXU.[.[.[.U.[.+XP.U.[.[.[.+X[.[.[.[.[.[.[.[.[.[.[.[.[.P.+XoX[.[.[.[.[.[.[.[.[.[.[.U.U.+XP.G.~.p.-.L U 2.`.[.[.[.[.[.U.U.`.T Q Q Q Q Q W n Q Q Q Q Q Q n n n n n Q n n Q Q Q %._.P.>.U G Y F b b b b b b k 6 6 Q n n n n n n n n v Q Q n Q n Q n Q n n v n Q n Q Q n Q n n Q Q v n Q n n Q n Q Q n Q n n Q b V V b b n K MXMXMXMXMXMX",
"MXMXMXMXMXMXMXMXMXMXMXMXMXMXMXMXMXMXMXMXMXMXMXMXMXMXMXMXMXMXMXMXMXMXMXMXMXMXMXMXMXMXMXMXMXMXMXMXMXMXMXMXMXMXMXMXMXMXMXMXMXMXMXMXMXMXMXX   O y.j.n.m.D.D.F.,X8X4X$X+XP.+X[.[.U.U.[.[.[.[.[.[.[.[.[.[.[.[.[._.oXP.[.[.[.[.+XP.oXY.[.[.[.[.+X[.[.[._.+XP.[.[.[.[.[.[.[.[.[.[.[.[.[.+X[.[.[.[._.oX_.Y.[.[.[.[.[.[.[.P.+XoXoX[.+XP.[.Y.[.[.[.[.+X+XU.[.oX[.[.[._.+XP.[.[.[.[.P.+X+XU.P.+XU.oX+XP.+X+X_.U.[.[.[.[.[.[._.[.[.[._.+X_.+X+XU.[.[.[.P.+X_.[.[.+X_.[.[.oXU.[.[.[.[.[.+X[.[.P.+X[.[._.+X[.[.[.[.[.+X_.+X`.A.[.[.[.[.[.[.[.[.+X[.[.[.+XP.+X+X[.[.oX+X[.[.U.U.U.U.L.b._.[.[.[._.+X_.+X[.[.[.[.[.[.+X_.[.U.[.[.[.[.[.[.[.[.[.[.[.[.oXU.P.I.A.b.>.T >.G.[.[.[.[.[.oXz.( Q Q Q Q Q Q Q Q Q n n n n n n n n n n Q Q n n Q ' =.=.V c b c k k b k k b c b k x b n b b b n n n n n Q Q n Q Q W n Q Q b v n Q Q n Q n Q n Q n Q n Q n Q n n Q n Q n n n n n n n n n b b V MXMXMXMXMXMX",
"MXMXMXMXMXMXMXMXMXMXMXMXMXMXMXMXMXMXMXMXMXMXMXMXMXMXMXMXMXMXMXMXMXMXMXMXMXMXMXMXMXMXMXMXMXMXMXMXMXMXMXMXMXMXMXMXMXMXMXMXMXMXMXMXMXMXMXX   O t.x.n.n.n.h.m.4XsX0X3X[.+X_.+X_.oXoX[.[.[.[.[.[.[.[.[.[.[.oX_.+X_.+X+X_._.+X_.+XoXoX[.[.[.[._.[.[._.+X_.+X_.[.[.[.[.[.[.[.[.[.[.[.[._.[.[.[._.+X_.+X[.[.[.[._.[.[.[.+X_.U.P._.[.[.[.[.[.[.[._._.[.[._.+X_.[._.+X_.+X[.[.[.[.+X_.[._.+XP.U.U._.+X_._.+X_.[.[.[._.[.[.[._.[.[.[._.+XP._.[.[.[._.+X_.+X_.[._.[.[.[.oXoX[.[.[.[.[.[._.[.[._.+X_.+X_.[.[.+X_.[.[.[.P.[.[.[.[.[.[.[.[.[.[._.[.[.[._.+X_._.+X_._._.+X_.U.oXU.U.A.>.P.[.[._._._.+XP.[._.[.[.[.[._.[.[._.[._.[.[.[.[.[.[.[.[._.+XP.U.oXP.G.A.A.A.A.`.[.[.+X+X+X+Xw.Q ! Q ! Q Q Q Q Q Q n n n n n n n n n n Q Q Q n Q n n n b b b k b k k k b k k k b b b b b b b b b n n n Q Q n n n n Q n n b n Q n Q n n v n Q n Q n Q n Q n Q Q n n n n n n n n n n n n n n V MXMXMXMXMXMX",
"MXMXMXMXMXMXMXMXMXMXMXMXMXMXMXMXMXMXMXMXMXMXMXMXMXMXMXMXMXMXMXMXMXMXMXMXMXMXMXMXMXMXMXMXMXMXMXMXMXMXMXMXMXMXMXMXMXMXMXMXMXMXMXMXMXMXMXX   O y.x.g.g.g.j.B.4XsXsX4XY.U.U.oXU.U.oXU.U.U.U.U.[.U.U.U.U.U.U.U.U.U.U.P.[.[.U.oXoXY.oX[.U.U.U.U.U.[.U.P.[.U.U.U.U.U.U.U.[.[.P.[.U.U.U.U.U.U.U.U.[.U.U.U.[.[.P.oX[.U.U.oXoXY.U.Y.oXoXoXU.U.U.U.U.U.U.U.U.U.U.U.U.U.U.U.U.U.U.U.[.U.U.[.oXY.P.oXoXY.oXoXU.U.U.U.P.[.U.[.U.U.U.U.U.U.U.U.U.U.U.U.U.U.U.U.oXU.U.U.oXoXoXoX[.[.U.U.U.U.U.U.[.[.U.U.U.U.U.U.U.[.U.U.U.U.U.[.U.[.[.P.[.U.[.U.U.U.U.U.U.U.U.U.P.[.U.[.oXY.P.oXU.U.U.L.[.[.U.U.oXU.[.[.[.U.U.U.+X[.[.U.U.U.U.U.U.U.U.U.U.[.[.U.U.U.U.U.[.b.3.A.A.G.K.I.I.L.~.3.p.p.o.! Q Q ! Q Q Q Q Q n n b n n b n n n n n n Q n b n n b n n b b b k k c k k k k k k k k k b b k b b b n n Q n n c n n n Q v Q Q n Q n Q n n Q n Q n n Q Q n Q n n n n n n n n n n n n n n n n C MXMXMXMXMXMX",
"MXMXMXMXMXMXMXMXMXMXMXMXMXMXMXMXMXMXMXMXMXMXMXMXMXMXMXMXMXMXMXMXMXMXMXMXMXMXMXMXMXMXMXMXMXMXMXMXMXMXMXMXMXMXMXMXMXMXMXMXMXMXMXMXMXMXMXX   O t.x.g.g.g.j.m.$X8X8X,X@X@XoX$X,X,X,X,X$X,X$X$X$X$X,X$X$X,X$X@X@X@X@X$X@X$X,X@X@XoX,X,X,X$X@X@X@X@X@X@X$X@X@X@X@X@X$X@X@X@X@X@X@X@X@X@X@X@X@X@X@X@X@X@X@X$X@X@X@X@X@X,X,X@X@XoX@X@X$X@X@X@X@X$X@X@X@X@X@X@X@X@X@X@X@X@X@X@X@X@X@X@X@X,X,X@X@XoX@X@X$X$X@X@X@X@X@X@X@X@X$X@X$X$X@X@X@X@X$X@X@X@X@X@X@X$X@X@X@X,X,XoX,X,X,X@X@X@X@X@X@X@X$X@X@X@X@X@X$X$X@X@X@X@X@X@X@X@X@X@X@X@X$X$X,X$X@X@X@X@X@X@X@X@X@X@X@X,X,X@X@X@X,X@X@X@X@X@X@X@X$X[.v._.@X@X`._.@X@X@X@X@X@X@X@X@X@X@X@X@X@X@X,X,X$X,X,XW.>.z._.[././.#X{.$.Q Q Q Q Q Q Q Q Q Q Q Q Q n n n n n n n n n n Q n Q b n b n n n n b b k k k k x x j j j j x k k k k b c b n v Q n Q n n n n n Q Q Q n Q n n n Q n n b n n Q n n Q n n n n n n n n n n b n n n n n n M MXMXMXMXMXMX",
"MXMXMXMXMXMXMXMXMXMXMXMXMXMXMXMXMXMXMXMXMXMXMXMXMXMXMXMXMXMXMXMXMXMXMXMXMXMXMXMXMXMXMXMXMXMXMXMXMXMXMXMXMXMXMXMXMXMXMXMXMXMXMXMXMXMXMXX   O y.x.g.j.j.j.j.x.B.B.K.8X8XqXdXjXlXlXlXjXlXlXlXlXlXlXlXlXlXlXlXlXlXlXlXlXlXlXjXlXlXjXjXlXlXlXlXlXlXlXlXlXlXlXlXlXlXlXlXlXlXlXlXlXlXlXlXlXlXlXlXlXlXlXlXlXlXlXlXlXlXlXjXjXjXlXlXlXjXlXlXlXlXlXlXlXlXlXlXlXlXlXlXlXlXlXlXlXlXlXlXlXlXlXfXlXxXjXlXlXlXlXlXlXlXlXlXlXlXlXlXlXlXlXlXlXlXlXlXlXlXlXlXlXlXlXlXlXlXlXjXjXjXjXjXlXlXlXlXlXlXlXlXlXlXlXlXlXlXlXlXlXlXlXlXlXlXlXlXlXlXlXlXlXlXlXlXlXlXlXlXlXlXlXlXlXlXlXfXlXxXjXlXlXlXlXlXlXlXlXlXlXdXaXhXlXfX|.eXlXlXlXlXlXjXxXxXlXlXlXlXxXxXxXxXlXxXjXvXxXlXhXlXhXT.w.jXhX8.W Q Q Q Q Q Q Q Q Q n Q n n n n n n n n n n n n n n n n n n n n b b b k k k j j j j j j j k k k k k b b b n n n n Q Q n Q n Q Q n n n Q n Q n Q Q v b b n n n Q n n n v n n n n n n k b n n b n n n M MXMXMXMXMXMX",
"MXMXMXMXMXMXMXMXMXMXMXMXMXMXMXMXMXMXMXMXMXMXMXMXMXMXMXMXMXMXMXMXMXMXMXMXMXMXMXMXMXMXMXMXMXMXMXMXMXMXMXMXMXMXMXMXMXMXMXMXMXMXMXMXMXMXMXX   O y.x.g.j.j.j.g.j.j.x.D.qX0XsXjXcXcXvXmXmXcXcXxXxXmXmXcXxXmXcXcXcXcXxXxXmXcXmXvXvXmXvXmXmXxXmXvXcXmXxXmXxXcXcXmXcXxXcXxXmXmXcXcXvXmXcXcXxXxXmXcXcXxXmXcXmXmXcXcXcXxXmXmXvXmXvXmXmXvXmXxXmXcXxXmXcXxXmXcXxXmXcXxXmXcXcXcXxXxXmXcXvXxXmXvXvXvXvXmXmXvXvXxXvXxXmXmXxXxXmXcXmXcXcXxXcXxXmXcXcXcXxXxXmXcXxXmXcXxXmXmXvXmXmXmXmXmXxXmXxXvXcXmXxXcXcXcXcXmXxXcXcXxXmXmXcXcXxXmXcXmXcXxXmXcXmXcXcXcXxXmXcXcXxXmXcXxXmXvXvXvXmXmXcXmXxXcXcXmXxXmXxXcXcXcXcXcXcXmXxXmXcXmXnXrXr.Q..XwXaXtXtXtX X.XlXcXmXcXcXcXnXnXnXhXaXxXlX8.W Q Q n Q Q n Q n Q n n Q n n n n n n n n n n n n n n n b n b n b b b k k j j j j j j j j j k k k k b b c n n n Q n n Q n Q n n Q Q n n Q n Q n n n n n n Q n n n n n n n n n n n n n n n n n n n n ( MXMXMXMXMXMX",
"MXMXMXMXMXMXMXMXMXMXMXMXMXMXMXMXMXMXMXMXMXMXMXMXMXMXMXMXMXMXMXMXMXMXMXMXMXMXMXMXMXMXMXMXMXMXMXMXMXMXMXMXMXMXMXMXMXMXMXMXMXMXMXMXMXMXMXX   O t.x.j.j.j.c.c.g.j.k.F.qXsXsXfXmXvXvXlXvXlXvXvXlXvXvXvXzXvXvXvXzXvXlXvXvXlXvXmXzXvXvXvXzXvXzXlXvXvXlXxXxXvXvXxXxXxXcXxXxXxXxXvXlXvXvXvXlXlXvXvXvXlXvXvXvXvXxXxXxXvXvXxXxXxXxXzXmXzXzXxXvXzXvXxXlXvXvXzXvXlXvXvXlXvXvXcXxXxXxXxXxXzXvXvXxXxXxXmXmXjXvXxXxXvXvXvXxXxXxXvXxXxXxXxXxXzXvXvXzXvXlXvXvXvXlXzXvXxXxXxXxXlXvXlXvXlXmXxXxXvXvXxXxXxXvXxXxXxXxXxXxXxXxXvXlXvXvXlXvXxXxXxXxXxXxXxXxXxXvXxXvXvXvXvXlXvXvXzXvXvXzXxXvXvXvXxXxXxXxXvXvXlXvXxXxXxXxXzXxXcXxXxXxXhX(.R.r.6.8.5.&.5.X.] .XmXxXxXmXzXzXxXxXxXvXvX:X' Q Q Q n n n n n n Q n n n Q n Q n n n Q n n n n n n n n n n b b b k k j j j j j j j j j j j x k k b b b b n Q n Q n n Q n Q n Q n n n Q n Q n n Q n Q n Q n Q Q n n n n n Q n b n n n n n b n n n n M MXMXMXMXMXMX",
"MXMXMXMXMXMXMXMXMXMXMXMXMXMXMXMXMXMXMXMXMXMXMXMXMXMXMXMXMXMXMXMX[ n M ( MXMXMXMXMXMXMXMXMXMXMXMXMXMXMXMXMXMXMXMXMXMXMXMXMXMXMXMXMXMXMX    O t.x.j.j.j.j.j.j.j.m.F.sXfXdX0XuXuXuXuXuXuXuXuXuXuXuXuXuXuXuXuXuXuXuXuXuXuXuXuX0XuXuXuXuXuX0XuXuXuXuXuXuXuXuXuXuXuXuXuXuXuXuXuXuXuXuXuXuXuXuXuXuXuXuXuXuX0XuXuXuXuXuXuXuXuXuX0X0XuXuXyX0X9XiXuXuXuXuXuXuXuXuXuXuXuXuX0X0XuXuXuXuXuXuXuXuXuXuXuXuXuXuXuXuXuXuX0XuXuXuXuXuX0XuXuXuXuXuXuXuXuXuXuXuXuXuXuXuXuXuXuXuXuXuXuXuXuXuXuXuXuXuXuXuXuXuXuXuXuX0XyXuXuXuXuXuXuXuXuXuXuXuXyXuXuXuXuXuXuXuXuXyXuXuXuXuXuXuXuXuXuXuXuXuXuXuXuXuXuXuXuXuXuXuXyXuXuXuXyXiXuXuXuXuXrXpXuXyX7X1X-X|.}.'.^.|.uXsXiXiX-Xd.rXiXiXgX|.o.Q Q Q n n n n n Q n n n n Q n n n n n Q n Q Q Q n n n n n n n b b b x j j j j j j d j j j d j k k c Q n v n n n n Q Q n n Q n n n Q Q Q v Q n Q n n n n Q n Q n n n n n n n b b n n n b n n n n n n n M MXMXMXMXMXMX",
"MXMXMXMXMXMXMXMXMXMXMXMXMXMXMXMXMXMXMXMXMXMXMXMXMXMXMXMXMXMXMXMXMXM n n MXMXMXMXMXMXMXMXMXMXMXMXMXMXMXMXMXMXMXMXMXMXMXMXMXMXMXMXMXMXMXX   O t.x.c.j.j.j.j.g.j.j.F.lXmXlXqX8X4X4X4X8X4X8X8X4X4X4X4X4X4X5X4X8X4X8X5X8X4X8X4X4X5X5X5X4X4X8X8X4X4X8X4X4X4X4X4X4X4X4X4X4X4X4X8X4X4X4X4X8X4X8X5X8X4X8X4X4X4X4X4X4X4X4X4X8X4X4X4X8X8X4X4X4X5X5X4X8X4X5X4X8X4X8X4X8X4X4X8X4X4X4X4X4X4X8X4X8X4X4X8X2X4X4X5X4X4X4X4X4X4X4X8X4X4X4X4X4X4X8X8X4X4X8X4X4X4X8X5X5X5X4X5X4X4X8X8X4X4X4X4X4X5X4X4X4X5X4X4X4X5X4X4X4X4X4X8X4X4X4X4X8X8X5X4X4X5X5X4X5X5X5X5X5X4X4X4X8X4X4X8X5X5X4X4X4X4X4X4X4X4X4X4X4X4X4X4X4X4X5X4X4X4X4X8X4X4X4X4X5X5X5X6XqX5X8X9X<XW.W.}.<X*X^.}.*X3X'.o.! Q Q n n n n n n n n Q n n n n n Q n Q n n Q n Q n n n n n b b b b k k j j j j d j j d j j j j j c n n n n n n n n n n Q Q n n Q Q n n Q n n Q n n W Q n Q n n n n n n n n n n M n n n n n n n n n n n M MXMXMXMXMXMX",
"MXMXMXMXMXMXMXMXMXMXMXMXMXMXMXMXMXMXMXMXMXMXMXMXMXMXMXMXMXMXMXMXMXMX' C MXMXMXMXMXMXMXMXMXMXMXMXMXMXMXMXMXMXMXMXMXMXMXMXMXMXMXMXMXMXMX    O t.x.j.j.x.g.j.j.j.j.F.fXmXlXuX4X4X5X4X4X4X4X2X4X4X5X4X5X4X4X4X4X4X4X5X2X5X4X4X5X4X2X2X5X5X5X2X5X4X4X4X4X4X5X4X4X4X4X4X4X5X4X4X4X5X5X4X4X4X4X5X2X5X4X4X4X4X4X4X4X5X4X4X4X4X4X4X4X4X5X4X4X4X4X5X4X4X3X4X4X4X4X4X5X4X4X4X4X4X4X5X3X5X4X4X4X4X4X4X5X4X5X4X4X4X4X4X4X5X4X4X4X4X3X4X5X4X4X4X4X4X4X2X5X4X4X4X4X4X4X3X5X4X4X4X4X8X4X4X4X5X2X4X4X4X4X4X5X4X4X5X4X4X5X4X4X4X5X4X2X_.#X).w.3.{.3X4X4X3X4X4X4X4X4X4X4X4X2X5X3X4X4X4X4X4X5X4X4X4X4X4X5X5X4X5X'.E.).-X{.-X>X3X4X3X4X5X4X4X3X<X4X4X4X=Xq.T X.O.%.o.X.o.&. .! ! Q Q Q n n n n n n n n n Q n Q Q n n n n Q Q Q Q Q n n Q n b b b b b k k j j j j j d j j j j k c b n n n n n n n n Q n n Q n Q n n Q n n Q n Q n n Q n Q n Q n n n n n n n n n b n b b n n n b Q b n n M MXMXMXMXMXMX",
"MXMXMXMXMXMXMXMXMXMXMXMXMXMXMXMXMXMXMXMXMXMXMXMXMXMXMXMXMXMXMXMXMXMXMXMXMXMXMXMXMXMXMXMXMXMXMXMXMXMXMXMXMXMXMXMXMXMXMXMXMXMXMXMXMXMXMXX   O y.x.j.c.j.j.g.g.c.j.F.lXcXlX9X4X4X4XqXqXqXqXqXqX5X2X2X2X4X3X3X5X3X4X2X5X5X4X4X4X4X4X8X5X5X2X4X4X4X4X4X4X4X4X4X4X4X4X4X5X4X4X3X4X4X3X5X2X4X4X2X5X5X4X4X4X4X4X4X4X4X4X4X4X4X4X4X4X4X4X4X4X4X4X4X4X4X4X4X4X4X4X4X2X5X5X4X4X4X4X4X4X4X4X4X4X4X4X4X4X4X4X4X4X4X4X4X4X4X4X4X3X4X4X4X4X4X4X4X4X2X5X8X4X4X4X3X4X4X4X3X4X4X4X4X4X4X5X4X4X4X5X5X2X5X4X4X4X3X4X4X4X4X4X4X3X4X4X4X*XT U L c k Y e.~.^.~.].%X=X3X5X4X4X4X3X4X4X4X4X4X4X4X4X4X4X4X4X4X_.E.=X4X~.O.$.6.%.Y T 6.7.6.5.q.'.4XW.e.7X4X3X=X*X-Xe. .'  .^ ! ! / ! ! Q Q n n n n n n n n n n n Q n Q n n n Q Q Q Q n Q n n n n b b b b k k k j j j j j j d j j k n b n n n b n n n n n n n Q Q n v k n n Q n Q n n Q n n n W n n n n n n n n n b n n n M n n n n n n n n n M MXMXMXMXMXMX",
"MXMXMXMXMXMXMXMXMXMXMXMXMXMXMXMXMXMXMXMXMXMXMXMXMXMXMXMXMXMXMXMXMXMXMXMXMXMXMXMXMXMXMXMXMXMXMXMXMXMXMXMXMXMXMXMXMXMXMXMXMXMXMXMXMXMXMX    O t.x.j.j.j.g.x.g.g.j.F.lXcXxX9X4X5XqXjXlXlXjXlXlXiXoXoXoX2X4X3X3X3X4X2X4X4X4X4X4X4X4X5X2X4X5X4X4X4X4X4X4X4X4X7X4X4X4X4X3X4X4X4X4X4X4X4X4X4X4X5X2X4X4X4X4X4X4X4X4X4X4X4X4X4X4X4X4X4X4X4X4X4X4X4X4X4X4X4X4X4X4X4X4X4X4X4X4X4X4X4X4X4X4X4X4X2X4X4X4X4X4X4X4X4X4X4X4X4X4X4X4X4X4X4X4X4X4X4X4X5X4X5X4X4X4X4X4X4X4X4X4X4X4X4X4X5X2X4X4X4X4X4X4X4X4X4X4X4X4X4X3X4X4X4X4X4X4X4X4X/.w.9.R j c Q ' | _ X.%.5.7.[.4X4X4X4X4X4X4X4X4X4X4X4X4X4X4X4X8XW.J T.4X3X#X-X-X).^.W.T.e.w.q.e.].4X-X'.4X4X3X}.0.q.s.s.w.5.Q Q ! ! ! ! Q n n n n n n n n b n n n n Q n n Q n n Q n Q Q Q Q Q b b n b M b b k k k j j j j j j x x b c n n n n n n n n n n n n n n n n k n n n Q Q n Q n n Q Q n Q n n n n Q n n n n n b b n b n n b n n n n n M MXMXMXMXMXMX",
"MXMXMXMXMXMXMXMXMXMXMXMXMXMXMXMXMXMXMXMXMXMXMXMXMXMXMXMXMXMXMXMXMXMXMXMXMXMXMXMXMXMXMXMXMXMXMXMXMXMXMXMXMXMXMXMXMXMXMXMXMXMXMXMXMXMXMXX   O y.j.j.g.j.c.g.g.g.j.D.lXmXlX9X3X4X9XzXvXvXvXvXmXdXoXoXU.2X4X5X5X4X4X5X4X4X4X4X4X4X4X4X4X4X4X4X4X4X4X4X4X4X4X4X4X4X4X4X4X4X4X4X4X4X4X4X4X4X4X4X4X4X4X4X4X4X4X4X4X4X4X4X4X4X4X4X4X4X4X4X4X4X4X4X4X4X4X4X4X4X4X4X4X4X4X4X4X4X4X3X4X4X4X4X4X4X4X4X4X4X4X4X4X4X4X4X4X4X4X4X4X4X4X4X4X4X4X4X4X4X4X2X5X4X4X4X4X4X4X4X4X4X4X4X4X4X4X3X4X4X4X4X4X4X4X4X4X4X4X4X4X4X4X4X4X4X4X4X4X4X5X5X#XT.e.E.E.s.e.9.5.O.6.{.4X4X4X4X4X4X4X4X4X4X4X4X4X4X4X4X4X3XE.'.4X4X4X4X4X4X4X4X4X4X5X4X5X4X4X3X4X3X4X6X=X^.E.9.%.X.| X.^ ! ! ! ! Q Q Q n n n n n n n n n n n Q n n Q n Q n Q n Q Q n n n b b b b b b k c k k k j j j k j c 8 6 n n n n b n b n n n n n n Q Q Q n Q Q Q n n Q v Q Q n n Q n n n n n n b b n b n b n n M b n n b n n n n C MXMXMXMXMXMX",
"MXMXMXMXMXMXMXMXMXMXMXMXMXMXMXMXMXMXMXMXMXMXMXMXMXMXMXMXMXMXMXMXMXMXMXMXMXMXMXMXMXMXMXMXMXMXMXMXMXMXMXMXMXMXMXMXMXMXMXMXMXMXMXMXMXMXMXX   O t.c.c.j.j.j.x.g.g.j.F.lXcXxX9X4X4XqXvXvXvXvXvXvXgXoXOXOX%X4X4X4X4X4X4X4X4X4X4X4X4X4X4X4X4X4X4X4X4X4X4X4X4X4X4X4X4X4X4X4X4X4X4X4X4X4X4X4X4X4X4X4X4X4X4X4X4X3X4X4X3X4X4X4X4X4X4X4X2X4X4X4X4X4X4X4X4X4X5X2X4X4X4X5X2X4X4X4X4X4X4X4X4X4X4X4X4X4X4X4X4X4X4X4X4X4X4X4X4X4X4X4X4X4X4X4X4X4X4X4X4X4X5X5X2X4X4X4X4X4X4X4X4X4X4X4X4X4X4X4X4X4X4X4X4X4X4X4X4X4X4X4X4X4X4X4X4X4X4X4X4X4X4X4X4X4X5X5X4X4X4X3X<X<X4X4X4X4X4X4X4X4X4X4X4X4X4X4X4X3X4X4X4X7X5X<X}.3X4X4X4X4X4X4X4X4X4X4X4X4X4X4X7X4X3X4X5X4X3X*X}.).'.O.! ! ! ! Q n n n n n n b n n v n n n n n Q n n n Q n Q n Q n n b b b b b b b b k k k k k j k k k b 3 < n n n n n n n n n n n n n n n n Q n n n Q n n n Q n n Q n Q n n n n n b n b n b M n b n b b n n n n n n M MXMXMXMXMXMX",
"MXMXMXMXMXMXMXMXMXMXMXMXMXMXMXMXMXMXMXMXMXMXMXMXMXMXMXMXMXMXMXMXMXMXMXMXMXMXMXMXMXMXMXMXMXMXMXMXMXMXMXMXMXMXMXMXMXMXMXMXMXMXMXMXMXMXMXX   O y.m.x.g.j.g.x.g.g.g.J.lXcXlX9X4X4X9XzXvXxXxXmXvXpXS.N.N.&X3X5X3X4X4X4X4X3X4X4X4X4X4X4X4X4X4X4X4X4X4X4X4X4X3X4X7X4X4X4X3X4X4X4X4X4X4X4X4X4X4X4X4X4X4X4X4X4X4X4X4X4X4X4X4X4X4X4X4X4X4X4X4X4X4X4X4X4X4X4X4X4X4X4X4X4X4X4X4X4X4X3X7X4X4X4X4X4X4X4X4X4X4X4X5X3X4X4X4X4X4X4X4X4X4X4X4X4X4X4X4X4X4X4X4X4X4X4X4X4X4X3X4X4X4X4X4X4X4X4X4X4X4X4X4X4X4X4X4X4X4X4X4X4X4X4X4X4X4X4X4X4X4X4X4X4X4X4X4X4X4X4X4X4X4X3X4X4X4X4X4X4X4X4X4X4X4X4X4X4X4X4X4X4X4X4X].q.=X4X4X4X4X4X7X4X4X4X4X4X4X4X4X4X4X6X4X4X4X3X4X4X4X}.%.! ! ! ! ! Q n Q n n n n n n n b n n Q n Q n n n Q Q n n b n n M b b b b b b b b b b b k k k k b b d 6 n n n b n n n b n n n n Q n n n n Q n Q n n Q n Q n n n n n n Q n n n n m n b n n n n n n n b n b n n n n MXMXMXMXMXMX",
"MXMXMXMXMXMXMXMXMXMXMXMXMXMXMXMXMXMXMXMXMXMXMXMXMXMXMXMXMXMXMXMXMXMXMXMXMXMXMXMXMXMXMXMXMXMXMXMXMXMXMXMXMXMXMXMXMXMXMXMXMXMXMXMXMXMXMXX   O t.x.g.g.g.x.g.g.g.g.H.lXcXzX9X3X3X9XzXvXxXxXxXcX9Xg.i.i.I.3X3X3X4X4X4X4X4X4X4X4X4X4X4X4X4X4X4X4X4X4X4X4X4X4X4X4X4X4X4X4X4X4X4X4X4X4X4X4X4X4X4X4X4X4X4X4X4X4X4X4X4X4X4X4X4X4X4X4X4X4X4X4X4X4X4X4X3X4X4X4X4X4X4X4X4X4X4X4X4X4X4X4X4X4X4X3X4X7X4X4X4X4X2X5X4X4X4X4X4X4X4X4X4X4X4X4X4X4X4X4X4X4X4X4X4X4X4X4X4X4X4X4X4X4X4X4X4X4X4X4X4X4X4X4X4X4X4X4X4X4X4X4X4X4X4X4X4X4X4X4X4X4X4X4X4X4X4X4X4X4X4X3X4X4X4X4X4X4X4X4X4X4X4X4X4X4X4X4X4X4X4X4X4X4X4X4X-X4X4X4X4X4X4X4X4X4X4X3X4X4X4X4X4X4X3X4X4X4X6X3X5X^.o.! ! ! ! ! ! Q Q n n n n n n n n n n n n n n Q Q n n n Q b n n b b b b b b b b b b b b b b b b k b b b s n n n n n n n n n n b n n n n Q Q n n Q n n Q Q n n Q Q n n n n n n b n n b n b b b m b b b n n n n n n n ' MXMXMXMXMX",
"MXMXMXMXMXMXMXMXMXMXMXMXMXMXMXMXMXMXMXMXMXMXMXMXMXMXMXMXMXMXMXMXMXMXMXMXMXMXMXMXMXMXMXMXMXMXMXMXMXMXMXMXMXMXMXMXMXMXMXMXMXMXMXMXMXMXMXX   O t.x.j.x.j.c.c.j.j.g.D.lXmXlX9X4X4X9XxXvXmXmXvXvXyXg.i.i.I.3X3X3X6X4X4X4X4X4X4X4X4X4X4X4X4X4X4X4X4X4X4X4X4X4X4X4X4X4X4X4X3X4X4X4X4X4X4X4X4X4X4X2X4X4X7X3X4X4X4X4X4X7X4X4X4X4X4X4X4X4X4X4X4X4X4X4X4X4X4X4X4X4X4X4X4X4X4X4X4X4X4X4X4X3X4X4X4X4X4X3X4X4X4X4X4X4X4X4X4X4X4X4X4X4X4X4X4X4X4X4X4X4X4X4X4X4X4X4X4X4X4X4X4X4X4X4X4X4X4X4X4X4X4X4X4X5X4X4X4X4X4X3X7X4X4X4X4X4X4X4X4X4X4X4X3X7X7X4X4X4X4X4X4X4X4X4X3X4X4X4X4X4X4X4X4X4X4X3X4X4X3X4X4X4X4X4X4X4X4X4X4X4X4X3X4X4X4X4X4X4X4X3X4X4X4X4X4X4X7X3X5Xd.W ! ! ' ! ! ! ! Q Q n n n n n n n n n n n n n Q n n n n n n n b n b b b b b b b n n n b b b b b b b b b d b n n n n n n n n n n n n n n n n n Q n Q n n v Q Q n Q n n n n n b n b n b n b b b b b b m n b n n n n n C MXMXMXMXMX",
"MXMXMXMXMXMXMXMXMXMXMXMXMXMXMXMXMXMXMXMXMXMXMXMXMXMXMXMXMXMXMXMXMXMXMXMXMXMXMXMXMXMXMXMXMXMXMXMXMXMXMXMXMXMXMXMXMXMXMXMXMXMXMXMXMXMXMXX   O t.x.j.g.j.j.j.g.g.g.F.lXmXjX9X4X4X5XdXkXfXgXfXpX3XM.n.c._.7X5X3X3X5X4X3X4X4X4X4X4X4X4X4X4X4X4X4X4X4X4X4X4X4X4X4X4X<X4X4X4X4X4X4X4X4X4X4X4X4X4X4X4X4X4X4X4X4X4X3X4X4X3X4X4X4X4X3X4X4X4X4X4X4X4X4X4X4X4X4X4X4X4X4X4X4X4X4X3X4X4X4X4X4X4X4X4X4X4X4X4X4X4X4X4X4X4X4X4X3X4X4X4X4X4X4X4X4X4X4X4X4X4X4X4X4X4X4X4X4X4X4X4X4X4X4X4X4X4X4X4X4X4X4X4X<X<X4X4X4X4X4X4X4X4X4X4X4X4X4X4X4X4X4X4X4X3X4X4X4X4X4X4X4X4X4X4X4X4X4X4X4X4X4X2X5X4X4X4X4X4X4X4X4X4X4X4X4X4X4X4X4X4X4X4X7X4X4X4X4X4X4X4X4X4X4X4X4X=XW.E.5.W ! X.MX+.! ! ! ! Q Q n n n n n n n n n n Q n n Q n Q Q n b b n b n n M n b n n n Q n Q n n n b n Q Q b d b b v n b n n b n n n n n n n n n Q n Q n n Q Q n Q n n n n n n n n b n b n m b b b b b b b b b b n n n n n G MXMXMXMX",
"MXMXMXMXMXMXMXMXMXMXMXMXMXMXMXMXMXMXMXMXMXMXMXMXMXMXMXMXMXMXMXMXMXMXMXMXMXMXMXMXMXMXMXMXMXMXMXMXMXMXMXMXMXMXMXMXMXMXMXMXMXMXMXMXMXMXMX    O y.x.g.g.c.j.x.g.g.g.D.lXcXlX9X4X4X2X@XoX&XH.B.B.C.;X%X%X3X7X3X4X4X4X4X4X4X4X4X4X3X4X4X4X4X4X4X4X4X4X4X4X4X4X4X4X4X4X4X3X4X4X4X4X4X4X4X4X4X4X4X4X4X4X3X4X4X4X4X4X4X4X4X4X4X4X4X4X4X4X4X4X4X4X4X4X4X3X4X4X4X4X4X4X4X4X4X4X4X7X4X3X4X4X4X4X4X4X4X4X4X4X3X4X4X4X3X4X4X4X4X4X4X4X4X4X4X4X4X4X4X4X4X4X4X4X4X4X4X3X4X4X4X3X4X4X4X4X4X4X4X2X4X4X*X$.q.<X4X4X4X4X4X4X7X<X4X4X4X4X4X4X4X3X4X4X4X4X4X4X4X4X4X4X4X4X4X4X4X4X4X4X4X4X4X4X4X4X4X4X4X4X4X4X4X4X4X4X4X4X4X3X4X4X3XW.^.3X4X4X4X4X4X4X3X6X4X4X-X6.X._ ) %.s.d.7.! ! ! ! Q Q Q n n n n n n n n n n n n Q n n n n n n b b b n n n n n Q n n Q n n Q Q Q Q Q x $ 3 b c k k b b b b b b n b n b n n n n n n Q Q n n n n n n n n b n b v m n b b b b k m b b b m b b n n n n n n n ' MXMXMX",
"MXMXMXMXMXMXMXMXMXMXMXMXMXMXMXMXMXMXMXMXMXMXMXMXMXMXMXMXMXMXMXMXMXMXMXMXMXMXMXMXMXMXMXMXMXMXMXMXMXMXMXMXMXMXMXMXMXMXMXMXMXMXMXMXMXMXMXX   O t.x.x.g.j.g.g.g.g.g.F.lXcXzX9X4X4X2XoXoXOXN.i.i.M.3X7X7X3X3X4X4X4X4X4X4X4X4X4X4X4X4X4X4X4X4X4X4X4X4X4X4X4X3X4X4X4X4X3X4X4X4X4X4X4X4X4X4X4X4X4X4X4X4X4X4X4X4X4X4X4X4X4X4X4X4X4X4X4X3X4X4X4X4X4X4X4X4X4X4X4X4X4X4X4X4X4X4X4X3X4X4X4X4X4X4X4X4X4X4X4X4X4X4X4X4X4X4X4X4X4X4X4X4X3X4X4X4X4X4X4X4X4X4X4X4X4X4X4X4X4X4X4X4X4X4X4X4X4X4X4X4X4X4X*Xq.T.4X4X4X4X4X4X4X4X4X4X4X4X4X4X7X4X4X4X4X4X4X4X4X4X4X4X4X4X4X4X4X4X4X4X4X4X4X4X4X4X4X4X4X4X4X4X4X4X4X4X4X4X4X4X4X4X4X7Xs.T.3X4X4X4X4X7X3X4X3X4X3X7X3X-X(.^.-X-X].9.! ! ! ! Q ! Q Q Q Q n n n n n n n n n b Q n b n n n n n Q n Q Q n n n Q Q Q Q Q Q ! ! ( 8 #   3 n n b b b b k b b k b n n n n n n n n n n n Q n Q Q n v m n n n m n b b b b b b j b b b b b b m b b n n n n n n C MXMX",
"MXMXMXMXMXMXMXMXMXMXMXMXMXMXMXMXMXMXMXMXMXMXMXMXMXMXMXMXMXMXMXMXMXMXMXMXMXMXMXMXMXMXMXMXMXMXMXMXMXMXMXMXMXMXMXMXMXMXMXMXMXMXMXMXMXMXMXX   O t.x.j.g.g.x.g.j.g.g.F.lXcXxX9X4X5X2XoXoXOXn.i.i.M.=X4X4X4X4X4X4X4X4X4X3X4X4X4X4X4X4X4X4X4X4X4X4X2X4X4X4X4X4X4X4X4X4X4X4X4X4X4X4X4X4X4X4X4X4X4X4X4X4X4X4X4X4X4X4X4X4X4X4X4X4X4X4X4X4X3X4X4X4X4X3X4X4X3X4X4X4X4X4X4X4X3X4X4X4X4X7X3X4X4X4X3X7X4X4X4X4X4X4X4X4X4X4X4X4X3X4X4X3X5X4X4X4X4X4X4X4X4X4X4X4X4X4X4X4X4X3X4X4X4X4X4X4X4X4X4X4X4X4X4X4X5X4X4X4X7X3X4X4X4X4X4X4X4X4X4X3X4X4X4X4X4X4X4X4X4X4X4X4X4X4X4X4X4X4X4X4X4X4X4X4X4X3X4X4X3X4X4X4X4X4X4X4X3X4X4X4X4X4X4X4X5X4X4X4X4X4X4X4X4X4X4X7X3X4X4X7X4X4X=X(. .! ! ! ! Q Q Q Q Q n Q n n n n n n n n n b n n n b n b n n Q n Q n n Q n Q n Q Q Q ! ' ,.; o 6 x n b n n b n b b b b c b b b n n n n n n Q n n n n n n n n n n n n n n v m b b b k b b b b b b b b b n b n n n n n J MX",
"MXMXMXMXMXMXMXMXMXMXMXMXMXMXMXMXMXMXMXMXMXMXMXMXMXMXMXMXMXMXMXMXMXMXMXMXMXMXMXMXMXMXMXMXMXMXMXMXMXMXMXMXMXMXMXMXMXMXMXMXMXMXMXMXMXMXMX    O t.x.j.c.g.g.x.g.g.g.F.lXmXlX9X4X4X2X@X@X;XI.S.S.I.3X4X4X4X4X4X4X4X4X4X4X4X4X4X4X4X4X4X4X4X4X4X4X4X4X4X4X4X4X4X4X4X4X4X4X4X4X4X4X4X4X4X4X4X4X4X4X4X4X4X4X4X7X3X4X4X4X3X4X4X4X4X4X4X4X4X4X4X4X4X4X4X4X4X4X4X4X4X4X4X4X4X4X4X4X4X3X4X4X4X4X4X4X4X4X7X4X4X4X4X4X4X4X4X4X4X4X4X4X3X4X4X4X4X4X4X4X2X4X4X4X4X4X4X4X4X4X4X4X4X4X4X4X4X4X4X4X4X4X4X4X4X4X4X4X4X4X4X4X4X4X4X4X4X3X4X4X4X4X4X4X3X4X4X4X4X4X4X4X4X4X4X4X4X4X4X4X4X4X4X4X4X4X4X4X4X4X4X4X4X4X4X4X7X4X4X4X4X4X4X4X4X4X4X4X4X4X4X4X4X4X4X4X3X4X4X4X4X4X=Xs.Q ! ! ! ! ! Q / Q Q Q Q n n b n b b n b b n b b n n n n n n Q n n n Q n Q n Q Q Q Q C K *.: 4 n n n n b b n b b n b b b b b b b c b n n n n n n n n n b n b n b n n v m n m b b b b b m b b b b b m b n n n n n n n M MX",
"MXMXMXMXMXMXMXMXMXMXMXMXMXMXMXMXMXMXMXMXMXMXMXMXMXMXMXMXMXMXMXMXMXMXMXMXMXMXMXMXMXMXMXMXMXMXMXMXMXMXMXMXMXMXMXMXMXMXMXMXMXMXMXMXMXMXMXX   O t.x.c.g.g.g.x.g.g.g.F.lXcXlX9X4X4X4X4X4X4X4X3X6X3X4X4X4X4X4X4X4X4X4X4X4X4X4X4X4X4X3X4X4X4X4X4X4X4X4X4X4X4X4X4X4X4X4X4X4X4X4X4X4X4X4X4X4X4X4X4X4X4X4X4X4X4X4X4X4X4X4X4X4X4X4X7X4X4X4X4X4X4X4X4X4X4X4X4X4X4X4X4X4X4X4X4X4X4X4X4X4X4X4X4X4X4X4X4X4X4X4X4X4X4X4X4X4X4X4X4X4X4X4X4X4X4X5X4X4X4X4X4X4X4X4X4X4X3X5X4X4X4X4X4X4X4X4X4X4X4X4X4X4X4X4X4X4X4X4X4X4X4X4X4X4X4X4X4X4X4X4X4X4X4X4X4X4X4X4X4X4X4X4X4X4X4X4X4X4X4X4X4X4X4X{.-X3X3X4X4X4X4X4X4X4X4X4X4X4X4X4X4X4X4X4X4X4X4X4X4X4X4X4X4X4X4X4X4X4X4X4X7X<X*X6.W ! ! ! ! Q ! Q Q Q Q Q Q n n b n n n b M n b n n n b n n n n n n n Q n n Q Q Q Q Q #.#.N 5 s n n Q n n b b b n b b M b b b b b b k k b n n n n b n n b n n b M n n b b b b b b m b b b b b b b b b b n n n n n n n n MX",
"MXMXMXMXMXMXMXMXMXMXMXMXMXMXMXMXMXMXMXMXMXMXMXMXMXMXMXMXMXMXMXMXMXMXMXMXMXMXMXMXMXMXMXMXMXMXMXMXMXMXMXMXMXMXMXMXMXMXMXMXMXMXMXMXMXMXw     O t.x.j.j.j.j.g.j.g.g.F.lXcXlX9X4X4X3X3X4X4X4X4X4X4X4X4X4X4X4X3X4X4X7X4X4X4X4X4X4X4X7X4X4X4X4X4X4X4X4X4X4X4X4X4X4X4X4X4X3X4X4X4X4X4X4X4X4X4X4X4X4X4X4X4X4X4X4X4X4X4X4X4X4X4X4X4X4X4X4X4X4X4X4X4X4X4X4X4X4X4X4X4X4X4X4X4X3X4X4X4X4X4X4X4X4X4X4X4X4X4X4X4X4X4X4X4X4X4X4X4X4X4X4X4X4X4X3X4X4X4X4X4X4X4X4X4X4X4X3X4X3X4X4X4X4X4X4X4X4X4X4X4X4X4X4X4X4X4X4X4X4X4X4X4X4X4X4X3X4X4X4X4X4X4X4X4X3X4X4X4X4X4X4X4X4X4X4X4X4X4X4X4X4X4X).{.3X4X4X3X4X4X4X4X4X4X4X4X4X4X4X4X4X4X4X4X4X4X4X4X4X4X4X4X4X4X4X4X4X4X4X3X-Xs.' Q Q Q ! ! ! Q Q ! Q ! Q Q n b n n b b n n b n b b n n n n n n n n Q n Q Q n Q Q Q Q P a.4.w b n n n n b n b b b b n b n n b n b b b k k b n b n n n n b n n n Q b n n b n b b b b b b b b b b b b b m b b n n n n n n MX",
"MXMXMXMXMXMXMXMXMXMXMXMXMXMXMXMXMXMXMXMXMXMXMXMXMXMXMXMXMXMXMXMXMXMXMXMXMXMXMXMXMXMXMXMXMXMXMXMXMXMXMXMXMXMXMXMXMXMXMXMXMXMXMXMXMX` 7     O t.x.g.j.x.c.g.j.c.g.F.lXmXxX9X3X4X4X6X3X4X3X3X4X3X4X4X4X4X4X4X4X4X4X3X4X4X4X4X4X4X4X4X4X4X4X4X5X4X8X5X5X4X5X5X5X5X4X4X5X5X5X5X5X4X5X4X5X4X6X4X5X5X5X4X4X4X4X4X4X4X4X4X4X4X4X4X4X4X5X4X5X7X7X4X5X5X5X4X5X4X4X5X5X5X4X4X4X5X5X4X4X4X4X4X5X7X7X4X5X4X4X4X4X4X4X4X4X4X4X4X4X4X4X4X4X4X5X4X4X5X5X4X5X4X4X4X4X5X4X6X4X4X4X4X4X4X4X4X4X4X4X4X4X4X4X4X4X4X4X4X5X4X4X5X5X4X4X4X5X5X5X4X4X4X4X5X5X4X5X5X5X4X8X4X5X5X4X5X5X6X7X4X3X3X4X4X4X4X4X4X4X4X6X6X5X4X5X4X5X4X4X4X4X7X5X4X7X4X5X5X4X7X7X7X8X4X4X7X4X8X3X^.5.~ Q Q Q Q ! Q Q Q ! ! Q Q Q n n n n n b n b b M n b b n b n n n b n n n n Q Q Q Q Q ! ! b :.k.> s Q n n n b b n b n n b b b b n b n n n b b b n n n n n M n b b n b M b n b b b b b b b c b b b b b b b b m n n n n n n M MX",
"MXMXMXMXMXMXMXMXMXMXMXMXMXMXMXMXMXMXMXMXMXMXMXMXMXMXMXMXMXMXMXMXMXMXMXMXMXMXMXMXMXMXMXMXMXMXMXMXMXMXMXMXMXMXMXMXMXMXMXMXMXMXMXMXMX' 7     O t.x.x.g.g.g.g.j.g.g.F.lXxXlXyX3X4X4X3X4X4X4X4X4X7X4X4X4X4X4X4X4X4X4X4X4X4X4X3X4X3X4X4X4X4X4XiXjXjXjXfXjXfXfXfXjXjXlXlXjXfXjXfXfXfXfXjXjXlXzXfXfXfXjXiX4X4X4X4X4X4X4X4X4X4XpXlXjXjXjXfXjXlXkXjXfXfXjXlXfXfXlXjXfXlXlXfXlXfXfXfXlXfXlXlXfXjXjXfXfXsX4X4X4X4X4X4X4X4X4X4X4X4X4X8XdXjXlXlXfXjXfXjXjXlXlXfXfXjXjXjXlXlXlXfXdXyX2X4X4X4X4X4X4X4X4X4X4X4X4XuXjXfXfXjXjXlXlXfXjXfXfXfXlXfXlXjXjXjXlXfXfXfXfXlXfXfXlXdXlXfXkXrX3X4X4X4X4X4X4X4X3X6XpXjXjXjXjXlXfXfXfXlXjXjXjXlXfXfXfXlXjXjXjXfXhXfXfXlXhXtXr.| Q n Q ! Q ! Q ! ! ! Q W Q ! Q Q n n n b n n n n n b n n b n n b n n n n n n n Q Q Q Q Q Q Q P ,.: # j n n n b b b b b b b b n n b b M b n n M n n b n n n b b b m b b b b n b b b c b b b b k j c b b b b b b b b n n n n n MX",
"MXMXMXMXMXMXMXMXMXMXMXMXMXMXMXMXMXMXMXMXMXMXMXMXMXMXMXMXMXMXMXMXMXMXMXMXMXMXMXMXMXMXMXMXMXMXMXMXMXMXMXMXMXMXMXMXMXMXMXMXMXMXMXMXMXMX5 X   O t.x.g.x.x.g.x.g.g.g.F.lXcXlX9X3X4X4X4X4X6X3X4X4X4X4X4X4X3X4X4X4X4X4X4X4X3X6X4X6X3X4X4X4X4X4XlXbXbXnXnXnXnXcXnXvXnXnXbXbXnXnXnXnXnXbXbXbXbXbXbXbXbXbXpX5X4X4X4X4X4X4X3X4X4XdXnXnXnXbXnXbXnXbXbXbXbXnXnXcXcXcXnXcXcXnXnXcXcXnXnXnXcXnXnXnXnXnXnXnXfX4X3X4X4X4X4X4X4X4X4X4X3X4X5XxXcXcXnXcXcXnXcXnXvXnXnXnXnXnXnXbXbXbXmXvXyX4X4X4X4X4X4X4X4X4X4X4X4X4XuXmXvXbXvXbXbXbXnXcXcXnXnXnXcXnXnXnXnXvXnXvXnXnXnXcXcXnXcXnXnXnXiX4X7X4X4X4X4X4X4X5X5XkXnXbXcXnXnXnXcXnXnXcXnXnXnXnXcXnXcXnXnXnXnXnXnXcX X8.+.^ W Q W Q W Q ) ] Q ! ! Q ! ! Q Q Q n n n n n n Q n n n b n b n n n M b n n n n n Q Q Q Q Q Q n Q M 2   o 9 v b b b b b b m b b n b b n b b b b n b n n b M b b n n b b b b n b b b c b k c k b b j b b b b b b b b n n n n n n | ",
"MXMXMXMXMXMXMXMXMXMXMXMXMXMXMXMXMXMXMXMXMXMXMXMXMXMXMXMXMXMXMXMXMXMXMXMXMXMXMXMXMXMXMXMXMXMXMXMXMXMXMXMXMXMXMXMXMXMXMXMXMXMXMXMXMXMXMX    O t.x.j.g.g.x.g.j.g.g.D.lXcXxX9X3X4X4X4X4X4X4X4X4X4X4X3X4X4X4X4X4X4X4X4X4X4X4X4X3X3X4X4X4X4X8XkXbXnXnXcXnXnXnXnXnXnXnXnXnXnXnXnXcXnXnXnXbXnXbXbXbXbXbXgX4X4X5X4X4X4X4X4X3X4XhXcXnXbXnXnXnXnXbXnXnXnXnXnXnXnXnXnXnXnXnXnXnXnXnXnXnXnXnXnXnXnXnXnXmXhX8X4X4X4X4X4X4X4X4X4X4X4X4X8XxXnXnXnXnXnXnXnXnXnXnXnXnXcXnXcXnXbXbXmXzX0X4X4X4X4X4X4X4X4X4X4X4X4X4XiXmXvXvXbXnXnXnXnXnXnXnXnXnXnXnXnXnXnXnXnXnXnXnXnXnXnXnXcXnXnXcXrX4X4X5X4X4X4X4X4X4X5XkXnXnXvXnXnXcXnXnXnXnXnXnXnXnXcXnXnXnXnXnXnXnXtXr.` / } / Q ' o.o.0.XX|.^.e.( ! Q Q Q ! Q Q Q n n n n n n n n n n n n b m b b b b b n n n Q Q Q Q Q Q Q Q n d o   < b b b b b b b b b b b b b b b M n b b n b b b b n b b b n m n n b b n b b b b b b b b c b b c b b b b b b b n n n n J ",
"MXMXMXMXMXMXMXMXMXMXMXMXMXMXMXMXMXMXMXMXMXMXMXMXMXMXMXMXMXMXMXMXMXMXMXMXMXMXMXMXMXMXMXMXMXMXMXMXMXMXMXMXMXMXMXMXMXMXMXMXMXMXMXMXMXMXMXX   O t.x.c.j.j.g.g.j.c.g.D.xXcXzX9X4X4X4X4X4X4X4X4X4X3X4X7X4X4X4X4X4X4X3X4X4X4X3X4X4X6X3X5X0XuXuXlXcXnXnXnXnXnXnXnXnXnXnXnXnXnXnXnXnXnXcXnXnXnXnXnXnXnXbXfX0X0X9X4X4X4X4X3X6X3XdXnXnXnXnXnXnXnXnXnXnXnXnXnXnXnXnXnXnXnXnXnXnXnXnXnXnXnXnXnXnXnXmXnXnXfX4X4X4X4X4X4X4X4X4X4X5X9XrXpXmXnXnXnXnXnXnXnXnXnXnXnXnXnXnXnXnXnXnXmXxXgXuXyX9X4X4X4X4X4X4X4X4X4X2XgXvXnXnXnXnXnXnXnXnXnXnXnXnXnXnXnXnXnXnXnXnXnXnXnXnXnXnXnXnXnXnXiXyX9X9X5X4X4X4X4X3X4XlXnXnXnXnXnXnXnXnXnXmXnXnXnXnXnXnXnXnXnXnXnXwX&.! / ..r.d.!.wXhXhXxXnXfX5X3X5.W ! Q Q Q Q Q Q n n n n n n n n n n b b n n n b n b b b n n n Q Q Q Q Q Q n Q b #   < b c b b k b b b b b m m b b b b b b n b n b n n n b n n b n b n b b b b b b c b b b b b b b b b b b b b b n n n n n n ",
"MXMXMXMXMXMXMXMXMXMXMXMXMXMXMXMXMXMXMXMXMXMXMXMXMXMXMXMXMXMXMXMXMXMXMXMXMXMXMXMXMXMXMXMXMXMXMXMXMXMXMXMXMXMXMXMXMXMXMXMXMXMXMXMXMXMXMXX   O t.x.j.j.g.x.g.g.g.g.J.xXcXlX9X4X4X4X4X4X3X4X4X4X6X3X4X4X4X4X4X4X4X7X4X4X4X4X4X4X4X3XyXmXnXcXnXnXnXnXnXnXnXnXnXnXnXnXnXnXnXnXnXnXnXnXnXnXnXnXnXnXnXnXmXcXnXxXqX4X4X4X4X3X3XhXnXnXnXnXnXnXnXnXnXnXnXnXnXnXnXnXnXnXnXnXnXnXnXnXnXnXnXnXnXnXnXnXnXnXfX8X4X3X7X4X4X4X4X4X4XpXmXmXvXbXnXnXnXnXnXnXnXnXnXnXnXnXnXnXnXnXnXnXnXcXxXmXvXkX4X4X4X4X4X4X4X4X4X4XiXmXvXvXnXnXnXnXnXnXnXnXcXnXnXnXnXnXnXnXnXnXnXnXnXnXnXnXnXnXnXnXxXxXxXlX6X4X4X3X4X3X6XzXnXnXnXnXnXnXnXnXnXnXmXnXnXnXnXnXnXnXhXtX!.../ ] r.eXnXnXnXnXnXcXnXcXgX5X5X0./ Q ! ! Q ! Q Q Q Q Q Q n Q n n n n n n n b b b b b b n b n Q Q ! Q ! Q Q Q n n #   < b k b k b b b b b b b b b b b b n b M b b n b b b M b n b b b b b M b b b k b b b c c b b k b c b b b b m n n n n n b ",
"MXMXMXMXMXMXMXMXMXMXMXMXMXMXMXMXMXMXMXMXMXMXMXMXMXMXMXMXMXMXMXMXMXMXMXMXMXMXMXMXMXMXMXMXMXMXMXMXMXMXMXMXMXMXMXMXMXMXMXMXMXMXMXMXMXMXMXX   O t.x.g.j.j.j.c.g.g.j.J.xXcXlX9X3X4X4X4X4X4X4X4X4X4X4X4X4X4X4X4X4X4X4X4X4X4X4X4X5X4X4XyXnXnXnXnXcXnXbXnXnXnXnXnXnXnXnXnXnXnXnXnXnXnXnXbXcXcXnXbXbXnXbXnXnXnXxX9X4X4X4X4X4X5XfXnXnXnXnXnXnXnXnXnXnXnXcXcXnXbXnXbXnXcXnXvXbXbXbXmXmXnXnXnXnXnXnXnXnXfX4X4X4X3X7X4X4X4X4X4XpXbXbXbXbXbXbXcXnXnXnXnXnXvXbXbXbXvXnXnXvXbXbXcXnXvXnXnXlX5X4X4X4X4X4X3X4X4X5XpXbXvXbXnXbXnXnXcXnXnXeX9.wXnXnXnXnXnXnXnXnXnXnXnXnXnXnXbXbXnXbXvXvXnXlX9X3X4X3X3X3X6XxXnXnXnXnXnXnXnXnXcXnXnXnXnXcXnXnXnXwX&. ./ / +..XnXnXhXhXnXnXnXnXnXnXdX'.w.X.W Q Q ! Q Q Q Q Q ! Q Q Q Q Q n Q n n n b n n b b b b b n n n Q Q Q Q Q Q Q W c o   < k k k k k b k k b b b b b b b b b b b n b m b b n b n b b b n b m n b b c c c b b b b b k b b b c b b b b b n n n b n ",
"MXMXMXMXMXMXMXMXMXMXMXMXMXMXMXMXMXMXMXMXMXMXMXMXMXMXMXMXMXMXMXMXMXMXMXMXMXMXMXMXMXMXMXMXMXMXMXMXMXMXMXMXMXMXMXMXMXMXMXMXMXMXMXMXMXMXMXX   O t.x.c.j.j.x.g.g.j.j.F.lXcXxX9X3X4X4X4X4X4X4X4X4X4X4X4X4X4X4X4X4X4X4X7X3X4X3X4X4X4X4XyXnXnXmXnXnXvXnXcXnXcXzXzXzXzXlXzXzXzXxXlXlXzXzXzXxXnXnXnXbXbXbXcXcXnXxX9X4X4X4X3X6X5XpXlXlXxXxXzXlXxXlXlXzXnXnXnXbXbXbXnXnXnXbXbXbXbXbXxXlXlXlXxXlXzXzXlXlXgX4X4X4X4X4X4X4X4X4X5XpXbXbXbXbXbXbXcXnXnXnXxXxXzXkXlXlXzXcXnXnXnXbXnXnXnXnXvXlX5X4X4X4X4X4X4X4X5X2XpXbXvXbXnXbXnXvXnXvXnX.X5.(.xXxXzXlXzXzXlXxXlXjXzXvXnXbXbXbXbXbXvXnXnXlX5X3X3X4X4X4X7XdXlXjXxXxXxXlXlXlXlXzXcXnXnXnXnXnXtXO.W / / 8.wXnXxXzXzXhXlXlXxXlXzXzXpX(.o.W Q Q ] ' Q ! ! Q ! Q ) ) Q Q Q Q n n n n n n n b b b M b n b n Q Q Q Q Q Q Q Q s X   < k k k k k k b b c b b b b b b b b b b b b n b b b b b b b b n b b b b b b b b c b b b b c b b b b b b b m b n b n n n ",
"MXMXMXMXMXMXMXMXMXMXMXMXMXMXMXMXMXMXMXMXMXMXMXMXMXMXMXMXMXMXMXMXMXMXMXMXMXMXMXMXMXMXMXMXMXMXMXMXMXMXMXMXMXMXMXMXMXMXMXMXMXMXMXMXMXMXMXX   O t.x.j.g.x.g.j.g.g.j.J.xXcXzX9X4X4X4X3X7X4X4X3X4X7X4X4X4X3X4X4X4X4X4X4X4X4X4X4X5X5X4XuXmXnXcXnXnXcXvXnXcXxX@XD.J.C.S.D.F.F.F.D.D.J.J.C.3XbXbXnXcXnXvXbXnXcXvX6X6X4X4X4X4X3XP.F.F.S.F.D.F.H.J.S.P.jXnXnXbXnXbXbXnXbXbXnXvXnXzXY.D.H.H.F.F.F.F.F.F.U.3X4X4X4X4X4XqXdXfXlXzXvXnXbXnXvXnXnXnXnXlX[.S.J.J.J.J.K.pXnXnXbXbXnXcXvXnXcXcXfXfXdX9X4X4X4X4X4X4XpXbXbXbXnXnXnXnXnXbXzXI.N.C.F.J.H.J.J.H.J.J.H.H.J.9XbXnXbXbXbXbXvXnXnXlX9X3X4X3X3X3X3XK.H.D.H.H.F.S.F.H.H.@XxXcXcXnXtX!.0.! / / 5.tXnXdXK.D.S.S.F.S.C.F.F.C.`.3Xq.W W 5.(.'.6.Q ! Q Q Q w.7.W Q n Q Q n n n n n n b m b b b b n n Q Q ! Q n Q Q C 2     < j k k k k k k b b b b b b b b b m b b b b n b b m n b M n b m b b b b c b b b b b b b b b b b b b b b b b b b n n n n ",
"MXMXMXMXMXMXMXMXMXMXMXMXMXMXMXMXMXMXMXMXMXMXMXMXMXMXMXMXMXMXMXMXMXMXMXMXMXMXMXMXMXMXMXMXMXMXMXMXMXMXMXMXMXMXMXMXMXMXMXMXMXMXMXMXMXMXMX    O t.x.j.j.g.j.j.g.g.g.K.xXcXlX9X4X4X4X4X4X4X4X4X4X3X4X4X4X4X4X4X4X4X4X4X4X4X4X4X4X4X3XuXnXnXnXcXnXnXvXvXnXzXK.k.g.g.g.g.g.g.g.g.g.g.k.k.&XbXbXnXbXnXnXbXcXnXvX6X7X4X4X4X3X3XS.k.g.g.g.g.g.j.k.g.Z.dXnXnXbXbXnXcXnXnXbXvXcXnXlXC.k.g.g.g.g.g.g.g.g.Z.3X4X4X4X4X4XqXcXnXnXbXnXnXvXvXnXnXnXcXnXhXC.g.M.c.j.g.B.yXnXbXbXnXvXnXnXnXnXcXnXnXmXuX4X4X4X4X4X4XpXbXbXbXnXcXnXvXnXbXlXV.j.g.g.g.g.g.g.i.j.k.g.g.j.2XbXbXbXbXbXbXbXvXnXlX6X3X3X4X4X4X2XB.g.g.g.g.g.g.g.k.k.J.zXnXhXXXO.! / / ..R.tXnXnXgXm.j.c.c.j.g.g.g.c.k.V.*XO.W O.}.6X9XW.! Q ! ! %.].5.Q Q Q n n Q n Q n n n b n b n b b n n Q Q o.$.C C #.,.:     < k k k k k k k k k b k c b b k b b b b b b b b b n m b b b b b b b b b b b b b b b b b b b c b k b b b b b b n M b b n ",
"MXMXMXMXMXMXMXMXMXMXMXMXMXMXMXMXMXMXMXMXMXMXMXMXMXMXMXMXMXMXMXMXMXMXMXMXMXMXMXMXMXMXMXMXMXMXMXMXMXMXMXMXMXMXMXMXMXMXMXMXMXMXMXMXMXMXMXX   O y.x.j.c.g.x.c.g.g.j.K.lXcXxX9X4X3X4X4X4X4X4X4X4X4X4X4X4X4X4X4X4X4X5X4X4X4X4X4X8X4X4XyXcXnXnXbXbXbXbXnXnXvXI.g.g.g.n.g.g.g.g.g.g.g.j.j.+XvXnXnXnXcXnXnXnXnXbX9X4X4X3X4X4X3XC.g.g.g.g.k.j.j.g.g.V.hXnXnXbXnXcXnXcXnXbXnXnXnXfXC.k.k.g.g.g.k.g.j.g.C.3X4X4X4X4X4X9XlXnXcXnXnXnXnXnXcXnXcXnXnXjXZ.x.g.g.n.g.n.yXnXcXcXmXnXnXbXnXbXbXnXnXmXuX4X4X4X4X4X3XdXnXbXbXvXnXnXnXmXcXjXD.j.j.g.g.n.n.i.n.n.n.g.g.m.2XnXnXbXbXbXbXbXbXnXzX6X4X4X4X3X6X%XN.n.g.k.n.g.n.n.n.n.J.hX.X8.Q ` r.!.r.:XnXbXnXbXpXm.g.j.j.g.g.g.c.g.g.V.~.V [ ^.5X4X{.6.Q / ) 0.}.=X'.q.| Q n J C Q n n n n n n b b b n n n J :.i.i.a.a.j.k.;     < j k k k j k k k k c b k b b b b b b b b b m n M b b b b b n b b n b b b b b b b c b b b b b b b c k b b b m n b n n n ",
"MXMXMXMXMXMXMXMXMXMXMXMXMXMXMXMXMXMXMXMXMXMXMXMXMXMXMXMXMXMXMXMXMXMXMXMXMXMXMXMXMXMXMXMXMXMXMXMXMXMXMXMXMXMXMXMXMXMXMXMXMXMXMXMXMXMXMXX   O t.x.g.j.j.g.j.g.g.g.K.xXcXzX9X3X7X4X4X4X3X4X4X4X4X4X4X4X4X4X4X4X4X2X2X4X4X4X4X4X4X4XyXmXnXnXbXbXbXbXvXnXmXoXZ.N.V.V.V.V.V.V.V.C.C.C.C.[.9X5X9X9X9X6X9X9XrX6X4X4X4X4X4X4X4XK.V.V.C.C.C.D.C.Z.V.K.kXnXbXbXbXnXbXbXnXbXvXnXnXlXL.D.C.D.C.C.C.D.C.C.L.4X4X4X4X4X4XqXxXnXnXnXvXnXnXcXnXnXdX9X9X4XF.V.V.V.Z.V.C.%XyX9XiXcXnXnXnXnXbXbXnXnXcXuX3X4X4X4X3X3XpXvXbXbXnXnXnXcXnXmXxXL.Z.Z.N.B.B.Z.V.V.N.B.Z.N.Z.qXcXmXbXbXnXbXbXbXvXlX6X4X4X4X4X3X3XJ.C.C.C.D.Z.C.C.C.Z.c.0.Q W  .XXcXnXnXbXbXnXnXbXdXD.B.x.1.1.c.B.B.M.M.A.7.Q e.4X4X^.X.Q Q ) %.=X7X4X3X=X}.e.6.~.s._ Q Q Q n n n n M n n n n L a.M.c.g.g.,.u.;     < k k k k k k k k k k b b b k b b c b b b b b b b b n b b b b c b c b b b b b b b b b b b b b b b b b b b b b b n n n b ",
"MXMXMXMXMXMXMXMXMXMXMXMXMXMXMXMXMXMXMXMXMXMXMXMXMXMXMXMXMXMXMXMXMXMXMXMXMXMXMXMXMXMXMXMXMXMXMXMXMXMXMXMXMXMXMXMXMXMXMXMXMXMXMXMXMXMXMXX   O y.x.j.j.j.j.g.g.g.j.L.lXcXlX9X4X4X4X4X4X4X4X4X4X4X3X4X4X4X4X4X5X4X4X4X4X4X4X4X4X4X4XyXnXnXbXbXbXbXbXnXvXxXqX>X3X>X3X3X3X3X3X3X2X3X2X4XL.n.n.M.n.n.n.n.n.n.B.#X4X4X4X4X4X4X3X2X3X<X2X4X2X3X<X3X4XxXcXnXbXnXbXbXnXnXnXnXnXnXzX4X4X2X2X<X2X3X2X2X3X2X4X4X4X4X4X4X9XxXcXvXnXvXnXvXnXcXnX,Xn.n.B.#X3X3X%X2X2X$XV.M.j.K.xXnXnXcXvXnXnXnXnXcXiX3X4X4X4X4X4XpXbXbXbXnXcXcXnXcXcXxX9X3X>X<X>X>X>X%X>X;X&X$X%X3XpXnXcXnXnXnXnXbXbXbXlX8X4X4X4X3X4X4X4X2X3X2X2X2X3X2X2XE.| Q Q 0.eXnXnXnXnXnXbXnXnXbXkX;XW.6.{ ) 7.#X>X>X2XT.( X.(.4X4Xe.Q Q ( e.~.=X7X4X4X4X4X4X3X*X^.U Q [ ' n n v n n n n n M M 1.n.c.j.,.Z R :     < j j k k k k x b k b b k b k b b b b b b b b b b b b b b b b b b b b c c b b b b b c b b b b b b b k k b b b b m n n b ",
"MXMXMXMXMXMXMXMXMXMXMXMXMXMXMXMXMXMXMXMXMXMXMXMXMXMXMXMXMXMXMXMXMXMXMXMXMXMXMXMXMXMXMXMXMXMXMXMXMXMXMXMXMXMXMXMXMXMXMXMXMXMXMXMXMXMXMXX   O t.x.c.j.g.c.g.c.g.g.L.xXcXlX9X3X4X4X4X4X4X4X4X4X4X4X4X4X4X4X4X4X4X4X4X4X4X4X4X8X4X4XpXnXnXbXbXbXbXbXvXnXcX9X4X4X4X5X3X4X3X3X4X4X3X4X5XL.n.n.n.g.g.n.g.g.n.n.%X4X4X3X4X4X4X4X4X4X4X5X4X4X4X5X4XqXxXnXcXbXnXbXbXbXnXcXnXnXnXxX9X4X8X4X5X4X8X4X8X8X4X4X4X4X4X4X4X6XxXnXnXnXnXcXnXnXmXmX@Xg.n.N.%X4X4X4X4X4X2XN.n.g.H.xXnXnXnXnXbXbXnXnXcXiX4X4X4X4X4X4XpXbXvXbXnXnXnXnXnXcXxX9X3X<X3X3X4X2X2X2X3X2X4X4X5XdXbXnXvXnXvXvXbXbXbXzX7X5X4X4X4X4X5X4X4X4X8X4X4X5X4XE.| Q ] r. XR.:XnXbXnXbXbXnXbXvXlX3Xs.! ! / ` Q.8X7X/.U v v %.-X3XE.^ ^ 7.*X3X<X<X3X3X3X4X4X4Xw.G Q ' W.^.T.q.| M n v Q V ;.#.a.j.j.j.u.I d $     < k j k k k k k k k k b b b c b k b b c b b b b b b b b b b b b b b b b v b b c b b b b b b b b b b c j b b b b b b b b ",
"MXMXMXMXMXMXMXMXMXMXMXMXMXMXMXMXMXMXMXMXMXMXMXMXMXMXMXMXMXMXMXMXMXMXMXMXMXMXMXMXMXMXMXMXMXMXMXMXMXMXMXMXMXMXMXMXMXMXMXMXMXMXMXMXMXMXMXX   O y.m.j.j.g.g.g.g.g.x.L.lXmXzX9X4X4X4X3X4X4X4X4X4X7X4X4X4X4X4X4X4X4X4X4X4X4X3X7X4X4X4X0XnXnXnXnXnXvXnXvXnXbX9X4X4X4X4X4X3X4X4X3X3X4X5X8XP.j.m.j.j.j.n.n.n.n.n.%X5X3X4X3X3X4X4X4X4X4X4X4X4X4X4X4XqXlXnXnXcXnXnXbXbXnXbXnXnXnXzX6X4X4X4X4X4X3X6X4X4X3X4X4X4X6X3X3X9XzXmXmXvXbXbXnXbXbXbX$Xn.n.B.%X5X4X5X5X4X2XC.n.n.J.xXnXcXnXcXnXnXnXmXmXuX4X4X4X4X4X4XpXbXbXbXnXbXbXbXbXbXvX9X<X<X3X3X4X4X4X4X4X5X4X4X8XdXnXnXnXcXnXnXvXnXcXlX6X4X4X7X4X4X4X4X3X7X6X3X4X3XT.| ( 7. Xr.X.O. XnXnXnXnXnXnXbXbXhX7X'.+.! ! } Q.3XT.L n Q n O.}.*Xe.Q 6.=X4X4X4X3X7X<X<X<X3X}.Y v n L }.5X9X4X)..XR.O.Q U u.j.g.j.g.j.j.;.l 1     < j k k k k k k k b k k b c b k b b b c m b b b b b m b b m b b b b b b b b b b v b b b b b b b c b b b b b b b b b b b ",
"MXMXMXMXMXMXMXMXMXMXMXMXMXMXMXMXMXMXMXMXMXMXMXMXMXMXMXMXMXMXMXMXMXMXMXMXMXMXMXMXMXMXMXMXMXMXMXMXMXMXMXMXMXMXMXMXMXMXMXMXMXMXMXMXMXMXMXX   O t.x.j.c.j.x.j.c.g.j.L.lXcXlX9X4X4X4X7X4X4X4X4X4X4X4X4X4X4X4X4X4X3X4X4X4X4X4X4X4X4X4X0XnXnXcXvXnXnXnXnXnXbXkXdXdXdXdXdXdXdXdXdXdXdXfXdX0X2X2X2X2X2X3XoXP.P.OX=X5X5X3X6X3X4X4X4X4X4X4X4X4X4X4X4X9XxXnXnXnXnXcXnXbXbXbXcXnXnXxX9X4X4X4X3X4X4X3X4X4X4X4X4X3X4X4X4X9XxXmXnXvXnXbXbXnXbXbX5XoXOXoX2X4X4X4X3X4X4XoXOXoX2XvXnXcXnXnXnXnXnXmXmXuX4X4X4X4X4X4XpXnXbXbXnXbXbXnXbXnXcXjXgXdXgXdXdXdXdXdXdXdXdXgXrXlXnXnXnXnXnXvXbXvXcXlX6X4X4X4X4X4X4X4X3X3X3X3X%Xq._ o.E.7XnXeX XhXnXnXnXnXbXbXbXbXbXzX4X=XT. ...q.'.9.( v Q M 5.(.4X3X5. .(.4X4X4X4X4X4X4X4X<X=X9.n n n L ).4X4X4X9XvXmXaX3.:.j.j.j.j.j.x.m.1.Z 1     < k k k k k k k k k c k k k b b k b k b b b b b b b b b b b b b b b b b b b c b c b b b b b b b b b b c b b b b m b b b ",
"MXMXMXMXMXMXMXMXMXMXMXMXMXMXMXMXMXMXMXMXMXMXMXMXMXMXMXMXMXMXMXMXMXMXMXMXMXMXMXMXMXMXMXMXMXMXMXMXMXMXMXMXMXMXMXMXMXMXMXMXMXMXMXMXMXMXMXX   O t.x.j.j.c.g.j.g.g.j.L.lXcXlX9X4X4X4X4X4X4X4X4X4X4X4X4X4X4X4X3X4X4X4X4X3X4X4X4X4X4X4XrXnXnXcXbXbXvXnXnXcXcXbXcXnXnXnXnXnXnXnXmXnXnXnXmXmXnXnXnXnXnXbXuX4X4X3X5X3X6X3X3X4X4X4X4X4X4X4X4X4X4X4X4X9XxXnXnXnXcXnXnXnXnXbXnXnXnXxX9X4X4X4X7X4X4X4X4X4X4X4X4X4X4X4X4X9XvXnXvXnXvXbXbXnXnXbXuX4X4X5X5X4X4X4X3X5X5X4X4X4X9XmXnXnXcXnXnXnXmXmXvXuX4X4X4X4X4X2XpXbXbXbXnXbXbXbXbXbXbXnXnXnXnXnXnXbXbXbXxXcXnXcXXXwXnXnXmXnXnXnXnXvXcXlX5X4X4X4X4X4X4X4X3X6X6X^.%.] 9.].4XuXcXnXnXnXnXnXbXbXnXbXbXnXnXhX6X=X=X^.(.3Xq.n n Q ( e.=X4X4X5X^.^.4X4X4X4X4X4X4X4X4X<X#XO.v n v 9.3X4X5X4X5XjXxXvX&Xg.g.j.j.j.j.c.j.j.;.*     < j k k k k k k k k k b k k b b b b b b b b b b m b b b b b b b b b b b b b b b b b b b b b b b b c b b b b b b b b b b ",
"MXMXMXMXMXMXMXMXMXMXMXMXMXMXMXMXMXMXMXMXMXMXMXMXMXMXMXMXMXMXMXMXMXMXMXMXMXMXMXMXMXMXMXMXMXMXMXMXMXMXMXMXMXMXMXMXMXMXMXMXMXMXMXMXMXMXMXX   O t.x.j.j.j.j.g.g.c.j.L.xXcXxX9X3X4X4X4X4X4X4X4X3X4X4X4X4X4X4X4X4X4X4X4X4X4X4X4X4X4X3X0XmXcXnXbXbXbXbXnXbXnXbXcXnXvXnXmXnXnXcXnXmXnXvXcXmXnXmXnXnXnXvXgX4X4X4X3X5X3X3X3X4X4X4X4X4X4X4X4X4X8X4X4XqXlXnXcXnXcXnXcXbXbXbXcXnXnXxX6X4X4X4X4X4X4X4X4X4X4X4X4X4X4X4X4XyXzXnXnXnXnXbXbXnXnXnXiX4X4X4X4X4X4X4X3X3X5X5X4X4X9XmXnXnXnXnXcXnXnXnXmXuX4X4X4X4X4X4XpXbXvXbXnXbXnXbXbXnXnXbXnXcXnXnXnXbXbXcXcXcXnXnXhXhXnXcXtXcXnXnXnXbXcXlX5X4X4X4X4X4X4X4X4X<Xw.` +.E.3X4X4XuXvXnXnXnXnXnXnXnXbXbXnXnXnXlX7X3X3X<X=X'.L Q n n 8.3X5X4X4X4X5X5X4X4X4X4X4X4X4X4X4X4X=X9.J Q v 6.3X#X`.4X5XxXnXzX+Xg.g.c.j.j.j.j.j.g.h.;     < k k k k j k k k k k b k b k b c k k b b k b b b b b b b b b m b b b b b b b b b b b b b b b b b b c c b b b b b b m b ",
"MXMXMXMXMXMXMXMXMXMXMXMXMXMXMXMXMXMXMXMXMXMXMXMXMXMXMXMXMXMXMXMXMXMXMXMXMXMXMXMXMXMXMXMXMXMXMXMXMXMXMXMXMXMXMXMXMXMXMXMXMXMXMXMXMXMXMXX   O y.x.g.c.j.j.x.g.j.g.K.xXcXzX9X4X4X4X3X4X4X4X4X4X4X4X4X4X4X4X4X4X4X4X4X4X4X4X4X4X4X4X4XpXpXpXzXbXbXbXbXnXbXnXcXnXnXnXcXcXnXnXmXnXvXnXnXnXnXnXnXnXnXnXdXqX5X6X4X4X4X5X4X4X3X4X4X4X4X4X4X4X8X4X7XqXxXnXnXnXnXcXnXnXbXnXnXcXnXxX9X4X4X3X4X4X4X3X4X3X7X4X4X4X4X4X3XyXzXvXnXnXbXbXbXnXnXnXdX5X8X8XqX8X9X6X5XqX9XqX5XqXiXcXnXnXnXnXnXcXnXnXmXuX4X4X4X4X4X4XpXbXbXbXbXbXbXnXnXcXnXvXnXcXnXnXvXnXnXnXnXnXvXmXmXmXnXeX-.tXnXnXdXyX|.=X3X6X4X3X7X4X4X4X^.5. .0.}.3X4X4X4XyXxXcXnXbXbXbXvXbXnXcXnXnXnXzX7X<X<X<X=Xs.n n v o.].5X<X{.3X4X4X4X7X4X4X4X4X4X4X4X4X4X4X3Xe.) M e.3Xw.K w.3XjX XrX+Xg.j.j.j.x.j.j.j.x.k.;     < k k j k k k k k k k k k k k b b b k b k b b b b b b b n b b b b b b b b b b b b c b b b b b b b b k b b b b b b b b m ",
"MXMXMXMXMXMXMXMXMX' _ MXMXMXMXMXMXMXMXMXMXMXMXMXMXMXMXMXMXMX) ( ( ! Q ` MXMXMXMXMXMXMXMXMXMXMXMXMX] ] ] MXMXMXMXMXMXMXMXMXMXMXMXMXMXMXX   O t.x.g.x.j.j.g.j.g.j.L.xXcXzX9X3X4X4X4X4X4X4X4X4X4X4X4X4X4X4X4X4X4X3X4X4X4X4X4X4X4X4X+XM.n.M.yXbXvXbXbXnXbXbXnXnXvXnXnXnXnXcXnXnXnXnXnXcXcXnXbXbXnXnXvXvXzXlX6X4X4X3X4X4X4X3X4X4X3X4X4X4X4X4X4XqXlXnXnXcXbXnXbXbXbXnXnXnXnXxX9X4X4X4X4X4X4X4X4X4X4X4X4X4X4X4X4X6XzXbXnXbXbXbXbXnXnXnXmXxXxXxXxXxXxXzXlXvXxXzXxXxXcXvXcXnXcXnXnXcXnXnXmXyX3X4X4X4X4X3XpXbXbXbXbXbXbXnXnXnXnXnXcXnXnXcXnXnXnXnXvXvXcXmXnXnXnXhXeXcXnX Xp.B.:.a.%X4X4X4X4X4X4X*Xo. .W.3X4X3X4X4X4XyXmXmXnXnXnXbXnXnXnXnXnXcXnXhX}./.<X<X&X%.v v o./.5X4X).w.3X4X4X4X4X3X4X4X4X4X4X4X4X4X3X4X=X6.P -X5Xs.V n 9.R.H r.+Xg.j.j.g.j.c.j.j.j.h.;     < k k k k k k k k k b k k b k b b k c b c b b b b b b b b b b b b b b b b b b c b b b b b b b b b c b b b b b b b b b b ",
"MX] ) Q Q Q Q Q Q n n n Q M ~ Q Q ^ Q ) ) ! ^ ) MXMXMXMX( ! Q ! ! Q Q Q Q ) ] ] ] ` } ^ ^ ^ ! ! ! ! ! ! ! ! ! ! ^ MXMXMXMXMXMXMXMXMXq     O t.x.g.g.g.j.c.g.g.c.K.lXvXzX9X4X4X4X4X4X4X4X4X4X4X4X4X4X4X4X4X4X4X4X4X7X4X4X4X4X4X4XoXn.n.n.rXnXnXnXvXnXnXvXvXnXnXvXcXnXcXnXnXnXnXmXmXnXnXcXbXbXnXbXvXvXmXxXyX4X4X4X4X6X4X6X4X4X4X4X4X4X4X7X4XqXlXnXnXnXcXnXbXbXnXnXnXnXnXxX6X4X4X4X4X4X4X4X4X4X4X4X4X4X4X4X4X5XxXmXcXbXbXnXbXbXbXnXnXnXnXnXnXcXnXbXmXvXmXmXmXvXcXcXbXbXnXnXnXmXnXnXcXiX4X4X4X4X5X3XdXnXvXbXbXbXbXbXnXnXnXnXcXnXnXvXnXvXnXcXnXnXmXmXnXnXnXcXmXeXQ.e.:.g.c.N.%X4X4X4X4X4X4X*Xs.'.4X4X4X4X4X4X4XyXvXmXaXtXbXnXnXbXbXbXnXnXcXfX-X}.<X5X*X9.5.6.).4X4X4X3X=X4X4X4X4X4X4X4X4X3X7X7X4X4X4X4X4X6Xs.6.3X4X3Xe.n b b m X.v.i.g.j.c.j.j.j.g.j.k.;     < k k k k k j x k k k k k k x b b b b k b b b b b b b b b b b b b b c b b b c v b b b b b c b b b b b b b b b b n b b b ",
"! Q Q Q ! Q ! Q Q n Q Q n Q Q ! Q ! ! ! Q Q ! Q ! ) ` ! Q Q ! Q Q ! ! Q ! Q ! ! ! ! ! ! ! ! ! ! ! ! ! ! ! ! ! ! ! Q ^ ~ ~ ^ ^ Q ~ ^ 7     O t.x.x.g.x.j.j.g.g.g.L.xXmXzX9X3X4X4X4X4X4X7X3X4X4X4X4X4X4X4X4X4X4X4X4X4X4X4X4X4X4X7XOXn.n.n.6XnXnXnXnXcXnXnXnXnXcXnXnXnXnXnXnXnXnXnXvXvXnXvXnXbXbXnXmXmXmXxX9X4X4X4X4X3X4X4X4X4X4X4X4X4X4X4X7XqXxXnXnXnXnXnXnXbXbXcXcXcXmXxX9X3X7X4X4X4X4X4X4X4X4X4X4X4X4X4X4XyXxXmXnXbXbXbXnXnXcXnXcXnXcXnXcXnXbXbXmXmXmXmXmXmXcXnXnXnXbXbXnXnXnXnXcX0X3X4X3X5X3X3XpXvXbXbXbXbXbXbXnXnXnXcXnXnXnXnXnXcXnXnXnXnXvXvXxXcXnXmXwX6.b R.`.j.g.B.3X4X4X4X4X4X4X7X5X4X4X4X4X4X4X4X4XyXvXmX^.Q.nXnXcXbXnXbXcXnXnXtXE.4X4X4X3X3X3X3X4X4X4X4X4X4X4X4X4X4X3X4X4X4X4X4X3X4X4X4X4X4X4X*X'.3X3X4X<X=.b b 6.%.2.n.g.j.j.j.j.j.j.c.h.;     $ k k k k k k k k k c k k k k k k b c b b b b b b b b m b b b b b b b b b b b b b b b c b b b c b b b c b b b b b b b b ",
"Q ! Q Q Q Q ! Q n Q n Q M Q Q Q Q Q ! ! ! ! Q ! ! ! ! ! Q Q ! Q Q ! Q Q Q ! ! ! ! ! ! ! ! ! ! ! ! ! ! ! ! ! ! ! ! Q Q Q ! Q Q Q Q Q 7     O y.x.j.g.c.j.j.g.g.x.L.lXcXxX9X4X4X4X4X4X4X4X4X4X4X3X4X4X4X4X3X4X7X4X4X4X4X3X4X3X4X4X%XP.P.P.OXoXoXoXoXoXoXoXOXoX+X+X@X&X#X@X#X@X@X$X$XuXmXnXnXcXnXcXcXnXnXxX9X4X4X4X4X4X4X4X4X4X4X4X4X4X4X4X4XqXxXcXcXnXbXnXbXnXnXnXnXnXnXxX6X4X4X4X4X4X3X4X4X4X6X3X4X4X4X4X4X6XbXnXbXbXnXnXnXbXbXbXnXvXnXnXnXnXbXnXbXnXbXbXnXbXbXbXbXcXnXbXnXnXcXnXcXiX4X4X4X4X4X3XpXbXvXbXbXnXbXbXnXnXlX,XoXoXoXoXOXOXoXP.oXoXOXoX+XpXnXeXX.n o. X8X{.@X@X3X4X4X4X4X4X4X4X4X4X4X4X4X4X4X4X4X0XxXnXlXcXnXnXcXnXnXbXnXnXnXhX-X3X4X4X4X4X4X4X3X4X4X4X4X4X4X4X3X4X4X4X4X4X4X4X4X7X4X4X4X4X4X4X3X3X3X4X5X~.H Y  XR.;.k.j.j.j.x.g.j.j.j.h.;     < k k k k k k k k k b k b k k b c k b b k b b b b b b b m b b b b b b b b b b b c b b b b b b v b c b b c b b b b b b b ",
"Q Q ! Q Q Q Q Q Q n Q n Q Q Q Q Q ! ! Q Q ! ! ! ! ! ! Q ! Q Q ! ! Q Q ! Q ! ! ! ! ! ! ! ! ! ! ! ! ! ! ! ! ! ! ! ! Q ! Q Q Q Q Q Q Q 9     O t.x.j.g.j.j.j.j.g.x.L.xXcXlX9X3X4X4X4X4X4X4X4X4X4X4X4X4X4X4X4X4X4X4X4X4X4X4X4X7X4X4X5X4X5X2XV.g.g.k.n.g.g.n.g.g.g.g.g.g.c.g.g.g.g.g.k.>XcXnXnXnXbXnXnXnXcXxX9X4X4X4X4X3X3X4X4X4X4X4X4X4X4X4X7XqXxXnXnXnXbXbXnXnXvXcXcXnXmXxX9X4X4X4X4X4X4X4X4X4X3X4X4X4X4X4X4XyXzXnXnXbXnXbXnXcXbXbXnXcXnXvXnXnXbXnXnXcXnXnXbXbXnXbXnXnXnXcXbXbXnXnXcX0X4X4X3X4X4X3XpXbXbXbXnXbXbXbXnXnXjXZ.k.n.g.g.g.g.g.g.g.j.g.g.j.3XbXaXQ..XtXbXnXmXcXfX4X4X4X4X4X4X4X4X4X3X4X4X4X4X4X4X4X9XcXnXcXcXnXnXnXnXnXbXnXcXnXhX7X3X4X4X4X4X4X7X4X4X4X4X4X4X4X4X4X4X4X4X3X4X4X4X4X4X4X4X4X4X4X3X-X3X2X4X3X3X~.eXmX.X$.i.j.j.g.j.x.g.j.x.k.;     < k k k k k k k k k k k k k b k b b k b b c b b b b b b b b b b b b b b k c b b b b b b c b b c b b b b b k b b b b b b ",
"Q Q Q Q Q Q Q Q Q Q Q Q Q Q Q Q Q ^ ` ` ] ` } ! ! ! ! Q Q ! ! Q Q ! ! Q ! Q ! ! ! ! ! ! ! ! ! ! ! ! ! ! ! ! ! ! ! Q W Q Q Q Q Q Q Q 7     O t.x.j.c.j.g.j.j.g.j.K.lXcXlX9X4X4X4X4X4X3X4X4X4X4X4X3X4X4X4X4X4X4X4X4X4X4X4X3X4X4X4X4X5X5X2XV.n.g.n.j.j.g.g.n.g.n.n.j.g.g.g.k.g.g.n.j.>XcXnXcXnXnXnXnXnXnXxX9X7X4X4X4X4X7X4X3X4X4X4X4X4X4X4X5XqXxXnXnXbXnXbXbXbXnXnXnXnXnXxXqX4X4X4X4X4X4X4X4X4X4X4X4X4X4X4X4XyXzXvXnXcXbXbXvXnXbXnXnXnXnXcXnXnXnXbXbXbXbXbXbXnXbXnXbXbXbXbXcXnXnXnXcXiX4X4X4X4X4X4XpXbXbXbXnXbXbXnXnXnXkXC.m.j.j.j.n.n.n.n.j.g.g.g.j.<XbXbXcXnXbXbXcXmXnXlX8X4X4X4X4X4X4X4X4X4X4X4X4X4X4X4X4X9XxXnXnXnXcXcXbXnXbXcXnXnXcXlX5X4X4X4X4X4X4X3X4X4X4X4X4X4X4X4X4X4X4X4X4X4X4X4X3X4X4X4X4X4X4X<X2.W.3X2X3X4XqXxXcXtX>.i.j.j.j.g.g.g.x.j.k.;     < k k k k k k b b k b k k b k k b b b b b b k c b b b b b b b b b b b b x x b b b b c b b b b b b k c b b b c b b c k b ",
"MX] ( ) ^ ^ ^ ( ` MXMXMXMXMXMXMXMXMXMXMXMXMXMX{ ! Q ! Q Q ! Q Q Q Q ! Q Q Q ! ! ! ! ! ! ^ ) } ` ) } ^ } } ^ ! ! Q Q Q Q Q Q Q Q Q Q 7 X   O t.x.j.g.x.g.c.g.g.x.L.xXcXxX9X3X4X4X4X4X4X4X7X3X4X4X4X4X4X4X4X4X4X4X3X4X4X4X4X4X4X4X4X4X4X4XH.B.n.N.m.B.B.B.N.M.M.N.B.B.B.B.B.B.M.N.B.2XnXcXnXvXnXvXnXvXnXcX9X3X4X4X4X4X4X4X7X4X4X4X4X4X4X5X4XqXxXnXnXbXbXcXnXnXnXvXcXnXnXxX6X4X4X4X4X4X4X4X4X4X4X4X4X4X4X4X4X5XvXnXnXnXbXbXnXnXnXnXnXvXnXnXnXvXnXbXbXnXnXbXnXcXbXnXbXnXnXbXnXnXnXnXmXuX4X4X4X4X4X4XpXbXbXbXnXbXbXbXnXnXjXH.m.B.B.m.N.M.M.N.B.B.B.B.B.4XnXnXvXnXbXbXcXnXnXjX7X4X4X4X4X4X4X4X4X4X3X4X4X4X4X4X4XuXxXnXcXnXnXnXbXbXnXnXcXnXnXlX5X4X4X4X4X3X4X4X4X4X4X7X4X4X4X4X4X4X4X4X4X4X4X4X4X4X4X4X4X4X4X3X%X*X4X4X4X3XqXlXcXzX_.i.g.x.g.x.x.g.j.j.h.;     < j x b k k k k k k c k k k b c k b k c k b b b b b b b b b b m b b b b b b b b b b b b b b b b b c c b b k b b b b b c ",
"MXMXMXMXMXMXMXMXMXMXMXMXMXMXMXMXMXMXMXMXMXMXMXMX` Q Q Q Q Q Q ! ! Q Q Q ! ^ ] ] ] MXMXMXMXMXMXMXMXMXMXMXMXMXMX] Q Q Q Q Q Q Q Q Q Q 7     O t.x.g.g.x.g.g.g.g.j.L.xXcXlX9X4X4X4X4X4X4X7X4X4X4X4X4X4X3X4X4X4X4X4X7X4X4X4X4X4X4X4X4X4X4X4X2X%X%X%X>X%X%X%X%X%X%X%X%X;X%X%X%X%X%X%X>XrXmXnXnXnXnXnXnXbXcXxX9X7X4X4X7X3X4X4X4X4X4X4X4X4X4X7X4X9XzXnXcXbXnXvXnXcXnXnXcXnXnXxX9X4X4X4X4X4X4X3X4X4X4X4X4X4X4X4X4X9XzXnXcXbXbXnXnXbXbXnXnXcXnXcXnXvXnXcXbXnXnXbXnXnXbXbXnXnXnXcXnXnXnXnXvXpX4X4X4X4X4X4XpXvXbXbXnXnXcXnXnXnXlX3X>X%X%X%X%X%X%X%X%X%X%X%X>XuXmXnXbXnXbXbXnXcXnXlX8X4X4X4X4X4X4X4X4X4X4X4X4X4X4X4X4X0XxXcXnXbXbXbXbXbXcXnXnXcXnXhX8X4X4X4X4X4X4X4X4X4X4X3X4X4X4X4X3X4X4X4X4X4X7X4X4X3X4X4X4X4X4X4X4X4X4X4X4X4X5XlXcXxX&Xg.g.c.j.j.j.j.g.j.k.;     < k k k k k k b k k b k b k k k b c b b c b c b b b b b b b m b b b b b b b b b b b b b b b b c b b b b c b b b c b k b ",
"MXMXMXMXMXMXMXMXMXMXMXMXMXMXMXMXMXMXMXMXMXMXMXMXMX] ^ ^ ) ) ) ( ^ ^ ) ( MXMXMXMXMXMXMXMXMXMXMXMXMXMXMXMXMXMXMXMXMX) Q Q Q Q Q Q Q Q 7 X   O t.x.g.x.g.x.x.g.g.c.K.xXmXlX9X3X3X4X4X4X4X4X4X4X4X4X4X4X4X4X4X4X4X4X4X4X4X3X3X4X4X4X4X4X4X4X4X4X4X4X4X4X3X5X6X6X6X3X6X6X6X6X4X3X6X6X4XgXnXnXbXvXnXnXnXbXcXxX9X4X4X4X4X4X4X4X4X4X4X4X4X4X4X4X4X9XxXnXnXnXnXnXnXcXnXcXnXnXnXxX9X4X4X4X4X4X3X3X4X4X4X4X4X4X4X4X3X9XxXvXnXnXbXbXbXnXbXbXnXcXnXnXnXnXnXnXnXcXnXbXnXnXnXbXcXcXnXnXcXnXnXnXvXuX4X4X4X4X3X4XdXvXbXbXnXbXbXbXnXvXlX9X5X4X3X4X3X5X6X3X3X3X5X4X4XdXnXnXbXbXbXbXnXnXcXjX4X4X4X4X4X4X4X4X4X4X4X3X4X4X4X4X4X9XvXmXbXbXnXbXnXbXbXnXnXcXcXlX7X4X3X4X4X4X7X3X4X4X4X4X4X4X4X4X7X4X*X<X4X4X3X4X4X4X4X4X4X4X4X4X4X4X4X4X5X4X5XxXmXvX+Xg.g.g.g.j.j.c.j.c.k.;     < k b k b b k k b k k k k k b b k b k b b b b k b b b b b b b b b b b b b b b c v b b b b b b b b b c b b b b b b b b b ",
"MXMXMXMXMX' n n M M C MXMXMXMXMXMXMXMXMXMXMXMXMXMXMXMXMXMXMXMXMXMXMXMXMXMXMXMXMXMXMXMXMXMXMXMXMXMXMXMXMXMXMXMXMXMXMX' ( ^ Q Q Q Q Q 9     O y.x.j.j.g.g.g.g.g.x.K.lXcXxX9X4X4X4X4X4X4X4X3X4X4X4X4X4X4X4X4X7X4X4X3X4X4X4X7X4X4X4X4X4X4X8X5X5X4X4X4X4X3X4X3X6X3X3X=X6X3X3X3X5X3X3X4XgXnXnXnXbXnXcXnXcXnXcX9X7X4X4X4X4X4X4X4X4X4X3X4X4X4X4X4XqXzXnXcXnXbXnXnXnXnXnXcXnXnXxX9X3X4X4X3X4X4X4X4X4X4X4X4X4X4X5X4X9XxXbXnXbXbXbXnXbXbXnXcXnXnXnXbXnXcXnXnXnXbXbXnXnXnXnXnXnXnXcXnXnXnXmXvXyX4X4X4X4X5X4XpXbXbXbXnXbXbXnXvXnXzX9X4X4X4X6X3X3X3X6X5X3X4X4X4XdXvXnXnXbXbXbXbXnXnXlX8X4X4X4X4X4X4X4X4X4X4X4X4X4X4X4X4X9XaXhXnXbXbXnXbXnXnXbXcXnXnXlX8X3X4X4X4X4X4X4X4X4X4X4X4X4X4X4X4X4X<X<X4X4X4X4X4X4X4X4X3X4X4X4X4X4X4X4X4X4X6XlXxXvX&Xi.u.g.j.i.k.c.c.g.h.;     < b b k k k k k b k b k b k k c b b k b k c b b b k b b m b b b b m b b b b b b c b b b b c b b b b b b b c b k k b c b ",
"MXMXMXMXMX[ n n n n n n M MXMXMXMXMXMXMXMXMXMXMXMXMXMXMXMXMXMXMXMXMXMXMXMXMXMXMXMXMXMXMXMXMXMXMXMXMXMXMXMXMXMXMXMXMXMXMXMXMXMX( Q ! 7     O t.x.c.j.j.j.x.g.g.g.L.xXcXlX9X4X4X4X4X4X3X4X4X4X4X4X4X4X4X4X4X4X3X4X4X4X4X4X4X4X4X4X4X4X4X4X4X4X4X4X4X4X4X4X3X3X3X6X3X6X3X6X3X3X3X5X7XgXnXcXnXbXnXnXnXnXcXcX9X3X4X4X4X4X4X4X4X4X4X4X4X4X4X4X7XqXxXnXnXnXnXnXcXnXcXcXnXnXnXxX7X4X4X4X4X4X4X4X4X4X4X4X4X4X4X4X3X6XxXbXnXbXnXbXbXbXbXbXiX$X$X$X$X$X$X$X#X$X$X#X@X$X7XxXnXnXnXcXnXnXnXmXmXyX4X4X4X4X3X6XpXbXbXbXnXbXnXnXnXvXzX9X4X4X4X3X4X4X5X3X5X3X4X5X4XkXvXnXbXbXbXbXbXbXnXlX8X4X4X4X4X3X4X4X4X4X4X4X4X4X4X4X3X1X-.q.xXnXbXnXnXnXnXbXnXnXnXhX8X3X3X4X4X4X3X4X4X4X4X4X4X3X4X4X4X4X4X4X4X4X4X4X4X4X4X4X7X4X4X4X4X4X4X4X4X4X4XlXcXzX&Xn.k.g.j.;.R a.i.j.k.;     < k b b k c b k k k c k k k b b b k x k b b b b c b b b b b b b b m b b b b b b b b b b b b b b b c b b b b b b b b b b ",
"MXMXMXMXMXMX' M n n n n n M MXMXMXMXMXMXMXMXMXMXMXMXMXMXMXMXMXMXMXMXMXMXMXMXMXMXMXMXMXMXMXMXMXMXMXMXMXMXMXMXMXMXMXMXMXMXMXMXMXMXMX_ 7     O t.x.g.g.x.g.j.g.c.g.K.xXcXzX9X3X3X4X4X4X4X7X4X4X4X4X4X4X3X4X4X4X3X4X4X4X4X4X4X4X4X3X3X4X4X5X5X4X4X5X4X4X4X4X4X4X4X4X3X6X3X4X6X4X4X4X4XsXnXnXcXnXcXbXnXbXnXcX9X4X4X4X4X3X4X4X4X4X4X4X4X4X4X4X4XqXxXnXnXnXcXnXbXbXnXnXbXnXnXzX9X4X4X4X4X4X4X4X4X7X4X4X4X4X4X4X4X9XzXvXvXnXbXbXnXnXbXbX$Xk.n.k.n.k.n.n.k.n.k.n.n.k.S.zXmXvXvXnXnXnXnXnXxXiX4X4X4X4X4X3XsXmXvXvXnXbXbXnXnXnXzX6X4X4X4X4X4X4X4X4X4X4X5X5X3XgXvXvXbXbXnXbXbXbXvXzX9X4X4X4X4X4X4X4X4X4X4X4X4X4X3X4X4X}.R 9.cXnXnXnXtX:XlXnXcXnXbXlX7X7X4X4X4X4X4X4X4X4X4X4X4X4X3X4X4X4X4X4X4X4X4X4X4X4X4X4X4X4X4X4X4X4X4X4X4X4X5XjXmXxX&Xg.j.j.j.1.l :.n.j.k.;     < b b b b k b k k k k b b b k b k c b k b b b b b b b b b b b b m b b b b b b b b b c v b b b b b b b b b b b b b b b b ",
"MXMXMXMXMXMXMXMXJ J J C M MXMXMXMXMXMXMXMXMXMXMXMXMXMXMXMXMXMXMXMXMXMXMXMXMXMXMXMXMXMXMXMXMXMXMXMXMXMXMXMXMXMXMXMXMXMXMXMXMXMXMXMXMX5     O t.x.x.x.g.j.g.g.g.g.K.xXcXzX9X4X4X4X4X4X4X4X4X4X4X4X4X4X4X4X4X4X4X4X4X4X4X4X4X4X4X4X4X5X4X4X3X4X4X4X8X4X4X8X4X4X4X4X5X3X3X6X4X4X4X4X4XgXnXnXcXnXnXnXnXvXnXxX9X7X4X4X4X7X4X3X4X4X4X4X4X4X4X4X7XqXxXnXcXnXnXcXnXbXcXnXbXbXnXxX9X4X4X4X4X3X4X4X3X4X4X4X4X4X4X4X4X9XxXmXnXnXnXnXbXbXbXbXoXg.n.n.n.n.n.n.n.n.n.i.n.n.S.lXmXmXnXnXnXvXnXnXmXyX4X3X4X4X4X4XiXmXbXvXnXbXbXbXnXnXzX6X4X4X4X4X4X4X4X4X4X4X5X3X5XgXbXmXbXbXbXbXbXbXcXzX5X4X4X4X4X4X4X4X4X3X4X4X4X4X4X4X4XqXeXhXcXtXwXR.o.V Q.mXnXbXbXhX7X3X4X4X4X4X3X4X4X4X4X4X4X4X4X4X4X4X4X4X4X4X4X3X4X4X4X4X4X4X4X4X4X4X3X4X4X4X8XjXmXxX+Xg.g.j.j.u.N ;.j.j.h.;     < b b b b b k b c b k b k b b b b b b b b k b b c b k b b b b b b b b b b b c b b b b c b c b b b b b b b b b b c b b c ",
"MXMXMXMXMXMXMXMXMXMXMXMXMXMXMXMXMXMXMXMXMXMXMXMXMXMXMXMXMXMXMXMXMXMXMXMXMXMXMXMXMXMXMXMXMXMXMXMXMXMXMXMXMXMXMXMXMXMXMXMXMXMXMXMXMXMXMXX   O t.x.g.j.g.j.x.g.g.g.J.xXcXxX9X4X4X4X4X3X3X4X4X4X3X4X4X4X4X4X4X4X4X4X4X4X4X4X4X4X4X4X4X8X8X8X5X5X5X5X8X8X8X4X4X4X4X4X3X3X5X3X4X5X4X4X5XsXnXnXnXnXnXnXnXnXnXxX9X4X4X4X4X4X4X4X4X4X4X4X4X4X4X4X4XqXxXnXnXnXnXcXbXbXnXbXnXcXnXzX7X4X4X4X4X4X4X4X4X4X4X4X4X4X4X4X4X9XvXvXvXvXnXcXbXbXbXbX%Xn.M.M.n.n.n.n.B.n.n.n.B.n.J.lXmXnXnXnXnXnXnXnXvXpX4X4X4X4X4X3XpXbXbXbXnXbXbXbXbXbXzX6X4X3X4X4X4X4X4X4X4X4X3X3X4XdXbXvXbXbXbXbXbXbXbXzX4X4X4X4X8X4X4X4X4X4X4X4X4X4X4X4X4X0XcXwX0.X.G v c 8.eXnXnXbXnXlX5X4X4X4X4X4X4X4X4X4X4X4X4X4X4X4X3X4X4X4X4X4X4X4X4X4X7X4X4X7X4X4X4X4X4X4X5X4X5XxXmXxX&Xg.j.j.c.j.;.;.j.j.h.;     < n b b b b b b b b b b b c b k k k x k k c b c b b b c b b m b b b b b b b b j c b b b b b b b b b b b b b b b b b b b ",
"MXMXMXMXMXMXMXMXMXMXMXMXMXMXMXMXMXMXMXMXMXMXMXMXMXMXMXMXMXMXMXMXMXMXMXMXMXMXMXMXMXMXMXMXMXMXMXMXMXMXMXMXMXMXMXMXMXMXMXMXMXMXMXMXMXMXMXX   O t.x.x.g.j.j.c.g.g.g.K.lXcXlX9X3X4X4X4X4X4X4X4X4X7X4X4X4X4X4X4X4X4X4X4X4X4X4X4X4X4X4X9XfXfXjXjXjXlXlXjXjXkX0X4X4X4X4X3X5X3X3X4X4X4X4X5XdXvXnXnXcXvXnXnXcXcXcX9X4X4X7X4X4X4X4X4X3X7X4X4X4X8X4X4XqXxXnXnXcXnXnXnXnXcXbXbXnXnXxX9X7X4X3X4X4X4X4X4X4X4X4X4X3X4X4X4X9XvXnXnXnXnXnXbXbXbXbXyX%X%X%X&X%X%X%X%X%X%X;X2XoX4XlXmXvXnXvXnXnXnXnXmXuX4X4X4X4X4X3XpXbXbXbXnXbXnXnXbXbXxXrX4X4X7X4X4X4X4X4X4X4X3X3X4XkXvXvXbXbXbXbXbXbXbXzXqX4X4X{.W.z.).4X4X4X4X4X4X4X4X4X7X].q.U b b b b [  XnXnXnXcXnXlX8X4X4X4X4X4X4X4X4X4X4X4X4X4X4X4X4X4X4X4X4X7X3X4X4X4X3X4X4X4X4X3X4X4X4X4X4X4X5XjXcXzX&Xg.j.j.g.j.i.k.j.j.k.;     2 n n b c k b k k c k b k b b b b b k b b b b k b b b b b b b b b b b b b b b c b b b b c b c b b b c v b b b b b b k b ",
"MXMXMXMXMXMXMXMXMXMXMXMXMXMXMXMXMXMXMXMXMXMXMXMXMXMXMXMXMXMXMXMXMXMXMXMXMXMXMXMXMXMXMXMXMXMXMXMXMXMXMXMXMXMXMXMXMXMXMXMXMXMXMXMXMXMXMXX   O y.x.g.g.x.j.j.g.g.g.J.lXcXxX9X4X4X4X4X4X4X4X4X4X4X4X4X4X4X4X4X4X4X4X4X4X4X3X4X4X4X4XuXmXmXmXnXnXvXnXmXmXmXuX4X4X4X4X4X4X4X4X4X4X2X4X4XpXnXnXvXnXnXnXcXnXnXxX9X7X4X3X4X4X4X4X4X4X4X4X4X7X4X4X7XqXxXnXcXnXnXnXnXvXnXbXcXnXnXlX9X4X4X4X4X4X4X4X4X4X4X4X4X4X4X4X4X9XxXvXnXnXnXbXbXnXbXbXiX4X4X4X5X4X4X4X4X4X4X4X5X4XyXvXnXnXcXnXnXnXnXnXmXyX4X4X4X4X5X5XpXnXbXbXbXbXbXbXnXcXxX9X4X4X4X4X4X4X4X4X5X5X3X3X4XdXbXvXvXvXbXbXnXnXcXlX7X4X#XR d I E.8X4X4X4X4X4X4X3X4XW.U k c b c Q X..XnXnXcXnXcXnXhX8X4X4X4X4X4X4X4X4X4X4X3X3X4X4X4X4X4X4X4X4X4X4X4X4X4X4X4X4X4X4X4X4X4X4X4X4X4X4XxXcXzX&Xg.j.j.g.j.g.x.g.x.h.;     @ _ n b k b b b b k b c b b b b b k b k k b b k c b b b b b b b b b b b b b b b b b b b b v c b c b b b c b b b b k k k ",
"MXMXMXMXMXMXMXMXMXMXMXMXMXMXMXMXMXMXMXMXMXMXMXMXMXMXMXMXMXMXMXMXMXMXMXMXMXMXMXMXMXMXMXMXMXMXMXMXMXMXMXMXMXMXMXMXMXMXMXMXMXMXMXMXMXMXMXX   O t.x.x.g.j.j.j.j.g.g.J.xXcXlX9X3X4X4X4X4X4X4X4X4X4X4X4X4X3X4X4X4X4X4X4X4X4X4X3X5X5X3XuXmXnXmXnXnXnXnXmXmXnX9X4X4X4X4X4X4X4X4X3X4X4X2X4XgXvXnXnXnXcXvXnXcXnXxX9X4X4X4X4X4X4X4X4X4X4X4X4X4X4X4X4XqXlXnXnXnXnXcXnXnXbXbXnXnXnXxX9X4X4X4X4X4X3X7X4X4X4X4X4X4X4X4X4X9XzXvXnXbXbXbXbXbXnXbXiX4X4X4X4X4X4X4X4X4X4X4X3X5XyXvXnXcXnXnXnXcXnXnXmXuX4X4X4X4X2X2XpXbXbXbXbXbXbXnXnXcXxX6X4X4X4X4X4X4X4X4X5X3X5X3X4XdXbXbXbXnXnXbXnXcXnXlX8X4X4Xv.2.{.4X4X4X4X4X4X4X4X3Xs.K k b c v X.!.tXcXnXnXnXnXcXnXlX8X3X4X4X4X4X4X4X4X<X-X4X4X4X4X4X4X4X4X4X4X4X4X4X4X4X4X4X4X4X4X4X7X3X4X4X4X4X5XjXcXxX&Xg.j.j.j.j.j.g.j.j.k.;     @ ' n b b c b b b b k b k b k c c b b b b b b c b b b k b b b b b b m b b b b b b b c b b b b b b b b b x c b b b c b k ",
"MXMXMXMXMXMXMXMXMXMXMXMXMXMXMXMXMXMXMXMXMXMXMXMXMXMXMXMXMXMXMXMXMXMXMXMXMXMXMXMXMXMXMXMXMXMXMXMXMXMXMXMXMXMXMXMXMXMXMXMXMXMXMXMXMXMXMXX   O t.x.j.j.j.c.g.j.g.g.F.lXcXxX9X4X4X4X3X4X4X4X4X3X4X4X4X4X4X4X4X3X4X4X4X4X4X4X4X5X4X4X9XnXnXnXnXvXnXnXnXcXcXdXiXyXpXiXuXuXuXuXyXpXuXuXpXjXbXbXnXnXnXnXbXnXnXxX9X4X4X4X4X4X4X3X4X4X3X4X4X4X4X4X4XqXlXnXcXcXnXnXnXbXnXnXnXnXnXxX7X4X4X4X4X4X4X4X4X3X3X7X4X3X4X4X4X9XzXmXcXbXnXbXnXnXnXbXiX4X4X4X4X4X4X4X4X4X4X4X3X3XyXvXnXcXnXcXnXnXnXmXmXuX4X4X4X4X4X4XdXnXvXbXbXbXbXbXnXbXxX7X4X4X4X4X4X3X4X4X3X5X3X5X4XdXvXbXbXbXnXbXbXbXnXlXqX4X4X4X4X7X4X4X3X4X7X4X4X5XE.V k c c ( 0.eXnXnXnXnXcXmXnXnXcXfX4X4X4X4X4X3X4X4X7X).T ).7X4X4X4X4X4X4X7X4X4X4X4X4X4X4X3X4X4X4X4X4X4X3X4X4X4X5XlXmXxX&Xg.j.j.j.j.c.j.x.j.k.;     @ MXQ n b b b k c b b b k b b k b k c b c b b b b b b b b b b k b b b b b b b b b b b b b b b b b b b b b b b b k k k k ",
"MXMXMXMXMXMXMXMXMXMXMXMXMXMXMXMXMXMXMXMXMXMXMXMXMXMXMXMXMXMXMXMXMXMXMXMXMXMXMXMXMXMXMXMXMXMXMXMXMXMXMXMXMXMXMXMXMXMXMXMXMXMXMXMXMXMXMXX   O t.c.j.j.j.j.c.g.g.g.F.xXcXlX9X3X4X4X7X4X4X4X4X4X4X4X4X4X4X4X4X4X4X4X4X4X4X4X4X5X4X4XuXnXnXcXnXcXnXnXnXnXcXmXvXcXxXvXvXmXcXxXmXvXcXmXcXnXnXnXbXbXcXnXbXvXnXvX9X7X4X4X4X4X4X4X7X4X4X4X4X4X4X4X4X9XxXmXnXnXnXnXbXbXcXnXcXnXnXxX9X4X4X4X4X4X4X4X4X4X4X4X7X4X4X4X4X9XxXmXbXbXbXbXnXnXnXvXiX4X4X4X4X4X4X4X4X4X4X4X5X3XyXzXnXnXnXcXnXnXmXmXvXuX4X4X4X4X4X4XpXvXvXnXnXbXnXbXnXbXxX6X4X4X4X4X4X4X4X3X3X3X3X5X3XdXmXmXbXbXbXbXbXbXnXlX8X4X4X4X4X4X4X4X4X4X3X4X4X#XY c b k X..XcXnXnXcXnXnXnXnXcXnXnXlX8X4X4X4X4X4X4X4X4X=X3.{.4X4X4X4X4X4X4X3X4X4X3X4X4X4X4X4X3X4X4X4X4X4X4X4X4X5X5XjXcXzX&Xg.g.c.j.j.j.j.g.j.k.;     % J n n b b b b b b k b b c b b b b k b b k b b k k c b k b b m b m b b b b b b c b b b b b b b b b c b b b b b b k b k ",
"MXMXMXMXMXMXMXMXMXMXMXMXMXMXMXMXMXMXMXMXMXMXMXMXMXMXMXMXMXMXMXMXMXMXMXMXMXMXMXMXMXMXMXMXMXMXMXMXMXMXMXMXMXMXMXMXMXMXMXMXMXMXMXMXMXMXMXX   O f.j.c.j.j.g.x.g.g.g.F.lXmXzX9X4X4X4X4X4X3X4X4X4X4X4X4X4X4X4X4X4X4X4X4X4X4X4X4X4X4X4XuXnXmXmXnXcXnXnXnXnXnXvXnXnXnXbXmXnXnXnXnXvXvXbXnXnXnXnXnXcXnXnXcXnXnXxX9X4X4X4X4X4X3X4X4X4X4X4X4X4X4X4X4X8XxXnXnXnXnXnXnXvXnXvXnXnXnXxX5X4X4X4X4X4X4X4X4X4X4X4X4X4X4X4X4X5XxXnXnXbXbXbXnXnXnXvXiX4X4X4X4X4X4X4X5X4X4X4X4X3X9XxXnXbXnXnXnXnXnXnXvXpX3X4X4X4X4X3XpXbXbXbXnXcXcXnXcXnXzX6X4X4X4X4X3X3X4X4X4X4X3X3X4XdXnXvXbXbXnXvXbXbXbXzX8X4X4X3X4X4X4X4X4X4X4X4X4XE.m b b |  XnXnXnXcXnXnXnXnXnXnXcXnXlX5X4X4X4X4X4X4X4X4X4X4X4X4X4X4X4X4X4X4X4X4X4X4X4X4X4X4X4X4X4X3X4X4X3X4X4X4X4X5XlXmXzXoXn.j.j.j.g.j.x.j.x.h.;     % ' n n b b m b b b c k b b k c k b b b b b c b j x b b b c b b b b b b b b c b b b b b b b v b b b b b b b b b c k c k ",
"MXMXMXMXMXMXMXMXMXMXMXMXMXMXMXMXMXMXMXMXMXMXMXMXMXMXMXMXMXMXMXMXMXMXMXMXMXMXMXMXMXMXMXMXMXMXMXMXMXMXMXMXMXMXMXMXMXMXMXMXMXMXMXMXMXMXMXX   O y.j.j.g.j.j.j.g.j.g.F.lXcXzX9X4X4X4X4X4X4X4X4X4X3X7X4X4X4X4X4X4X4X4X4X4X4X4X4X4X4X4X9XlXxXjXcXcXmXnXvXnXnXvXnXnXbXbXvXvXnXvXnXcXnXnXnXnXnXvXnXnXnXcXxXlXlXjX7X3X4X4X3X4X4X4X4X4X4X4X4X4X8X4X4XqXxXcXbXnXvXnXnXnXnXnXcXcXmXxX9X4X4X4X4X4X4X4X4X4X4X4X3X4X4X4X4XyXxXnXnXbXnXnXbXbXbXbXiX4X4X4X4X4X4X4X3X4X4X4X4X3XyXmXnXcXcXnXnXvXvXbXbXpX3X4X4X4X4X4XpXbXbXbXnXnXnXnXbXbXlXrX4X4X4X4X3X4X4X4X4X4X3X3X4XdXbXnXnXnXnXnXbXbXbXkX4X<X<X*X4X4X4X4X4X4X4X4X4Xs.c b T ].vXvXnXnXnXnXcXnXnXnXnXcXvXlX5X4X3X4X4X4X3X4X4X4X4X4X4X4X4X4X4X4X4X4X4X4X4X4X4X4X4X4X4X4X4X4X4X5X3X4X4X4XqXfXxXvXoXn.j.j.j.g.g.g.g.x.k.;     @ J n n b b b b b b b b b b b k x k k b b k b b k b b b b b b b b b b m b b b b v c b b b b c b b b b c b b b b c k k b ",
"MXMXMXMXMXMXMXMXMXMXMXMXMXMXMXMXMXMXMXMXMXMXMXMXMXMXMXMXMXMXMXMXMXMXMXMXMXMXMXMXMXMXMXMXMXMXMXMXMXMXMXMXMXMXMXMXMXMXMXMXMXMXMXMXMXMXMXX   O t.x.j.j.x.g.j.g.g.g.F.lXcXlX9X3X4X4X4X4X4X4X4X4X4X4X4X3X4X4X4X4X3X4X4X3X4X4X4X4X4X4X@XH.C.J.iXnXnXmXcXnXcXmXbXnXcXbXnXnXnXnXcXnXmXnXnXnXnXnXcXnXnXcX4XD.C.J.>X4X4X4X7X4X4X4X4X4X4X4X4X4X8X4X4X9XxXmXbXbXnXnXvXnXnXvXnXvXcXxX9X4X4X4X4X4X4X4X4X4X3X4X4X4X4X5X4X9XzXvXnXnXnXvXbXvXvXvXiX4X4X4X4X4X4X4X4X4X4X3X4X4X9XxXnXbXbXbXvXnXbXbXmXuX3X4X4X4X4X3XpXbXbXbXnXvXnXcXnXbXzX6X4X4X4X4X4X4X4X4X4X4X4X4X6XpXnXwX.XnXnXvXbXbXbXeXe.6.=.3.3X4X4X4X4X4X4X4X4X'.$.$.~.6XzXnXnXcXnXcXbXbXcXnXcXnXnXjX5X3X4X4X4X4X4X4X4X4X4X4X4X4X4X4X4X4X4X4X4X).-X4X4X4X3X4X4X4X4X4X4X4X3X5X8X4X5XlXvXvX&Xn.g.j.c.,.u.g.g.g.h.;     % C n b M b b b b b b b c k b b k b c k b b b k b c b b b b b b m b b b b c b b b b b b b b b b b b b b b b b b k c k k ",
"MXMXMXMXMXMXMXMXMXMXMXMXMXMXMXMXMXMXMXMXMXMXMXMXMXMXMXMXMXMXMXMXMXMXMXMXMXMXMXMXMXMXMXMXMXMXMXMXMXMXMXMXMXMXMXMXMXMXMXMXMXMXMXMXMXMXMXX   O t.x.c.g.g.j.c.g.g.j.J.lXcXxX9X3X4X4X4X4X4X4X4X4X4X4X4X4X4X4X4X4X4X7X4X4X4X4X4X4X4X4X+Xg.g.n.9XnXnXnXnXnXnXnXnXnXnXnXnXnXvXnXnXnXcXnXnXnXnXbXnXnXcXmX,Xg.g.M.$X4X4X4X4X4X4X4X3X4X4X4X4X4X4X4X4XqXxXmXnXnXnXnXnXnXnXcXvXcXcXxXyX4X4X4X4X4X4X4X4X4X4X4X4X4X4X4X4X5XxXmXnXnXnXnXbXbXbXvXuX4X4X4X4X4X4X4X4X4X4X4X3X4X9XcXnXbXnXnXvXbXbXmXxXrX3X4X4X3X5X4XpXbXbXvXnXnXnXmXnXbXzX6X4X4X4X4X4X4X4X4X4X4X4X6X6XdXvX XT.mXnXvXbXbXxXd.L 6.~.<X4X4X4X4X4X3X4X7X4X4X=X3X3X9XvXmXnXnXnXnXnXnXnXnXnXnXnXjX8X3X4X4X4X4X4X4X4X4X5X4X4X4X4X4X4X4X4X4X3X7.'.4X4X4X4X4X4X4X4X4X4X4X4X4X4X4X5XjXmXzXoXn.j.c.g.u.a.g.c.g.k.;     & C n n n n b b b b b b b b b b b b b b b c b b b k b b b b b m b b b b b b b b b b b b c b b b b b b b b b c b b k k b ",
"MXMXMXMXMXMXMXMXMXMXMXMXMXMXMXMXMXMXMXMXMXMXMXMXMXMXMXMXMXMXMXMXMXMXMXMXMXMXMXMXMXMXMXMXMXMXMXMXMXMXMXMXMXMXMXMXMXMXMXMXMXMXMXMXMXMXMXX   O y.x.g.g.c.j.c.g.g.g.F.lXmXzX9X4X4X4X4X3X4X4X4X4X4X4X4X4X4X4X4X3X4X4X4X4X4X4X4X4X4X4XOXn.n.n.9XnXnXnXmXmXnXnXnXnXnXcXnXnXmXnXnXnXmXnXbXbXmXmXcXnXvXcX>Xj.n.n.@X7X4X4X<X7X4X4X7X4X4X4X4X4X4X4X4X8XvXmXnXnXnXnXmXmXnXnXnXbXnXxXqX5X4X4X4X4X4X4X4X4X4X4X4X4X4X4X4XqXzXmXnXnXnXmXbXbXbXbXiX5X4X4X4X4X4X4X4X4X4X3X4X4X9XmXnXnXmXnXnXnXmXmXvXyX4X4X4X4X4X4XdXmXbXbXmXmXnXnXnXnXzX6X4X4X4X3X4X4X4X4X5X3X3X3X3XdXmXmXmXmXnXcXbXbXmXaX).%X5X4X4X4X4X4X3X4X4X3X4X3X4X4X4XyXvXmXnXmXmXmXnXnXnXnXmXcXnXjX5X4X4X4X4X4X4X4X4X4X}.*X4X4X4X4X4X4X4X5XE.7.3X4X4X4X4X4X4X4X4X4X4X4X3X4X4X4X4XlXxXvX&Xg.g.j.j.j.j.j.j.j.k.;     * M n n n b b b b b m b b b b k b b b b b b b b b b c b b b b b b b b b b b b c b b c b b b b b b v b b b b b b b k b k ",
"MXMXMXMXMXMXMXMXMXMXMXMXMXMXMXMXMXMXMXMXMXMXMXMXMXMXMXMXMXMXMXMXMXMXMXMXMXMXMXMXMXMXMXMXMXMXMXMXMXMXMXMXMXMXMXMXMXMXMXMXMXMXMXMXMXMXMXX   O t.x.x.j.j.j.j.g.g.g.F.lXcXzX9X4X4X4X4X4X4X4X3X4X4X4X4X4X4X7X4X4X4X4X4X4X4X4X4X4X4X4X$XD.C.S.$X5XqXqX4X8XqXqXqX5XqX5X5X9X8X8XqXqX8X8X9X6X8X8X8X5X8X4X+XC.S.S.>X4X4X4X4X4X4X4X4X4X4X4X4X4X8X4X4X4X4X8X7X7X8X9X8X8XqX5X9X6X5X5X4X4X3X4X4X4X4X4X4X4X4X4X4X4X4X4X4X3X5X8XqXqXqXqX6X6X6X6X3X3X3X5X4X4X4X4X4X4X4X4X4X4X3X8X9X9X8X8XqXqX8X8X5X3X4X4X4X4X4X4X4X9X5X6X8X8XqX8X5X9X5X3X4X4X4X4X4X4X4X4X3X5X3X3X3X5X5X4X8X8XqXqX6X6X4X4X4X4X4X4X4X4X4X4X4X4X4X4X4X4X4X3X4X2X4X5X4X8X8X8X7X7X5X9X8X8XqX5X3X3X4X4X4X4X3X4X4X4X~.7.(.4X4X4X4X4X4X*X7.~.4X4X4X3X4X4X4X4X4X3X4X4X5X4X4X4X5XlXmXzX&Xg.j.j.j.j.x.g.x.j.k.;     5 M n n n n n n b b b b b b b b b b b b k b c b b b k b b b b b b b b b b b b v b b b b b b b c b c b b b b b b k k b k ",
"MXMXMXMXMXMXMXMXMXMXMXMXMXMXMXMXMXMXMXMXMXMXMXMXMXMXMXMXMXMXMXMXMXMXMXMXMXMXMXMXMX! } MXMXMXMXMXMXMXMXMXMXMXMXMXMXMXMXMXMXMXMXMXMXMXMXX   O t.x.g.j.j.j.j.j.g.g.F.lXcXxX9X3X3X4X4X4X4X4X4X4X4X4X4X4X4X3X4X4X4X4X4X3X4X4X4X4X4X4X3X3X4X2XD.j.j.m.n.n.m.j.n.j.n.n.n.j.j.m.j.n.j.m.j.m.j.j.j.j.m.m.K.3X3X3X4X4X4X4X4X4X4X4X4X4X4X4X4X4X3X8X8X,XB.j.m.j.j.m.g.g.g.n.n.n.n.n.#X4X4X4X4X4X4X4X4X3X7X4X4X4X4X3X4X%XB.j.j.m.n.j.n.n.M.n.K.3X4X4X4X4X4X4X4X4X4X4X4X8X+Xm.j.m.j.j.j.m.j.j.n.oX4X4X4X4X3X3XK.n.n.n.j.m.m.n.n.n.M.%X6X3X4X4X4X4X4X4X5X4X4X3X4XH.n.n.n.j.g.n.M.n.j.Z.<X4X4X4X4X4X4X4X4X3X4X4X4X3X4X3X4X&Xm.j.j.m.m.j.j.m.j.m.g.n.n.Z.<X3X3X7X4X4X4X4X4X4X4X/.$.T.<X4X4X4X4X}.E.4X4X4X4X4X4X4X4X4X4X4X4X4X4X4X4X4X6XlXvXzX+Xi.j.j.j.c.g.g.j.j.h.;     & C n n n n b b M b b b b b b b b b k b b b k b b b b b b b b b b b b b b b b c b b b b b c b b b b b b b b b b k b k k ",
"b MXMXMXMXMXMXMXMXMXMXMXMXMXMXMXMXMXMXMXMXMXMXMXMXMXMXMXMXMXMXMXMXMXMXMXMXMXMXMX..! } ! } ! ! } ` MXMXMXMXMXMXMXMXMXMXMXMXMXMXMXMXMXMXX   O t.x.j.j.c.j.j.g.g.g.F.lXcXzX9X4X4X4X4X4X4X4X4X4X4X4X4X3X4X4X4X4X4X4X4X4X4X4X4X4X4X4X3X4X4X2XC.g.n.g.n.n.k.n.g.n.n.i.j.n.n.g.n.g.n.g.j.j.g.n.n.g.j.j.J.3X4X4X4X4X4X4X4X4X4X4X4X4X4X3X4X4X4X4X4X%XB.g.g.n.g.g.n.g.n.n.n.g.g.n.%X3X4X4X4X3X4X4X4X4X4X4X4X4X5X3X4X%Xm.n.j.g.n.g.j.g.n.g.OX3X4X4X4X4X4X4X4X4X4X4X4X8X+Xm.j.g.j.n.n.g.g.n.g.OX4X4X4X3X4X4XK.g.g.n.n.g.g.g.n.g.M.#X3X4X4X4X4X4X4X5X3X3X4X4X4XS.g.n.g.g.n.g.g.g.g.N.2X5X4X4X4X4X4X4X4X4X4X4X4X6X3X4X4X+Xj.n.j.k.j.g.j.g.j.g.n.g.n.V.%X4X4X4X4X4X4X4X4X4X5X].6.T.#X4X4X4X4X4X4X4X4X4X4X4X4X4X4X4X4X4X4X4X4X4X5X4X4XlXcXzX+X,.g.j.j.j.g.x.j.j.k.;     % J n n n n n n n b b b b b b b b b b c c b b b c b b b b b b b b b b b b b b b b c b b b b b b b b c b b b b b k k c k ",
"b F MXMXMXMXMXMXMXMXMXMXMXMXMXMXMXMXMXMXMXMXMXMXMXMXMXMXMXMXMXMXMXMXMXMXMXMXMXMX] ! ! ! ! ! ! ! ! MXMXMXMXMXMXMXMXMXMXMXMXMXMXMXMXMXMXX   O t.x.g.j.j.j.j.g.g.g.F.xXcXjX9X4X4X4X4X4X4X4X4X3X4X4X4X4X4X4X4X4X4X4X4X4X4X4X4X4X4X4X4X4X4X<XC.j.j.g.j.n.n.g.n.n.n.n.n.n.n.n.g.n.n.n.n.g.g.j.j.j.j.m.J.4X5X4X4X4X4X4X4X4X3X7X4X4X4X4X4X4X4X4X4X%XN.g.j.n.g.n.n.n.g.n.n.j.j.B.%X4X3X4X4X4X4X4X4X4X4X7X4X4X4X4X4X%XB.n.j.j.j.n.g.g.n.j.P.4X4X4X4X4X4X4X4X4X4X4X4X8X@Xj.n.n.n.n.n.g.j.j.j.U.4X4X4X4X4X4XP.m.k.n.n.n.n.n.n.g.B.%X4X4X4X4X4X4X4X4X4X7X4X4X4XF.j.j.n.g.n.n.n.i.n.B.<X4X3X4X4X4X4X4X4X4X4X4X4X4X4X4X4X+Xn.n.g.j.j.n.n.g.n.n.n.g.n.Z.2X4X4X4X4X3X4X4X7X4X3X7.e.~.<X4X4X4X4X4X4X4X4X3X4X4X4X4X4X4X4X4X4X4X4X5X5X3X5XjXmXzX&Xg.j.j.j.x.g.j.j.j.k.;     + MXG M n n n n n n n b b b b b b b b b b b b b b b b b b b b b b b b b b v c b b b c b b b b c b b b b b b b c k b k k ",
"MXMXMXMXMXMXMXMXMXMXMXMXMXMXMXMXMXMXMXMXMXMXMXMXMXMXMXMXMXMXMXMXMXMXMXMXMXMXMXMX} ! ! ! ! ! ! ! ! } MXMXMXMXMXMXMXMXMXMXMXMXMXMXMXMXMXX   O t.x.j.j.c.g.j.j.j.g.F.fXcXxX9X4X4X4X4X4X3X4X4X4X4X4X4X4X4X4X4X4X4X4X4X4X4X4X4X4X7X3X4X4X4X4X@X+X+X+X+X+X+X+X+X+X+X+X+X+X+X+XOX+X+X+X+X+X+X+X+X+X[.[.%X4X4X4X4X4X4X3X4X4X4X4X4X4X4X4X4X4X4X4X4X3X+X+X+X+X+X+X+X+X+X+X+X+X+X+X3X4X7X4X7X4X4X4X4X4X4X3X4X4X4X4X4X2XoXoX+X+X+X+X+X+X&X+X>X4X4X4X4X4X4X4X4X4X4X4X4X4X<X[.OX+X+X+X+X+X+X+X+X<X4X4X4X4X4X4X>XoX&XoX+X+X+X+XoXOX+X3X4X4X4X4X4X4X3X4X4X3X4X4X4X@X+X+X+X+X+X+X+X+X+X&X3X4X4X4X4X4X4X4X4X7X3X4X4X4X4X4X5X3X+X+X+X+X+X+X+XOX+X&XoXOX+X%X3X4X4X4X4X4X4X4X4X4X'.q.E.T ).5X4X4X4X4X4X4X4X4X4X4X4X4X4X4X4X4X4X4X4X4X5X4X5XjXmXxX+Xg.g.x.g.j.x.g.j.x.k.;     + MXMXMX_ n b n n n m b b b m b n b b b b b b b b b b b b m b m b b b b b c b b b b b b b b b b c b b b b b b k k k k b ",
"MXMXMXMXMXMXMXMXMXMXMXMXMXMXMXMXMXMXMXMXMXMXMXMXMXMXMXMXMXMXMXMXMXMXMXMXMXMXMXMX} ! ! ! } ! ! ! ! ! MXMXMXMXMXMXMXMXMXMXMXMXMXMXMXMXMXX   O t.x.g.g.c.j.j.j.g.g.D.xXcXxX9X4X4X4X4X4X4X4X4X4X4X4X4X4X4X4X4X3X4X4X4X3X4X4X4X4X4X4X4X4X4X7X5X5X5X4X4X4X3X4X6X4X4X4X3X3X4X4X3X4X4X7X4X4X4X8X5X5X7X4X4X4X5X4X4X4X4X4X4X4X4X4X4X4X4X3X4X4X4X4X4X4X4X3X6X4X3X3X4X7X6X4X3X3X4X4X3X4X4X4X3X4X4X4X4X4X4X4X4X4X4X4X4X4X5X4X7X4X4X4X4X4X4X6X4X4X4X4X4X4X4X4X4X4X4X4X4X4X7X4X3X3X4X4X4X4X4X7X4X4X4X4X4X4X4X4X4X5X4X4X4X4X4X4X3X4X6X4X4X4X4X4X4X4X4X4X4X4X4X4X4X4X4X7X7X5X4X4X3X6X4X4X4X4X4X4X4X4X3X4X4X4X4X4X4X4X4X4X4X4X4X4X4X7X4X7X4X4X4X4X4X4X4X4X4X4X4X4X4X4X4X4X4X4X<X<X4X#X<X5X4X4X4X4X4X3X4X4X4X4X4X4X4X4X4X4X4X4X4X4X3X4X5XjXxXzX&Xn.g.j.j.g.g.j.j.j.h.;     + MXMXMXMXMXM n b n n n n b b b b b b b m b b b M b b b b b b b m b b b b b b b b b b b v c b b b b b b b b c k k b k c ",
"MXMXMXMXMXMXMXMXMXMXMXMXMXMXMXMXMXMXMXMXMXMXMXMXMXMXMXMXMXMXMXMXMXMXMXMXMXMXMXMX! ! ! ! / ! ! ! ! ! ) MXMXMXMXMXMXMXMXMXMXMXMXMXMXMXMXX   O t.x.x.g.j.g.j.j.c.g.D.jXcXlX9X4X4X4X4X4X5X4X4X4X4X3X6X3X7X3X4X4X4X4X4X4X4X4X3X4X4X4X4X4X4X4X4X4X4X4X4X4X4X3X4X4X4X4X3X3X4X4X4X4X4X4X4X4X4X3X5X3X4X4X4X4X4X4X4X4X4X4X4X4X4X4X4X4X4X4X4X4X4X4X4X4X4X4X4X4X4X3X4X4X3X4X4X4X4X4X4X4X4X4X4X4X4X4X3X4X4X4X4X4X4X4X4X4X4X4X4X4X4X4X4X4X4X4X4X4X4X4X4X4X4X4X4X4X3X7X4X4X4X4X4X3X4X4X4X4X4X4X4X4X4X4X4X7X4X4X4X4X4X4X4X4X4X4X4X4X3X4X4X4X3X4X3X4X4X7X4X4X4X4X4X3X4X4X4X4X4X7X3X3X4X4X4X4X4X4X4X4X4X4X4X4X4X4X4X4X4X4X4X4X4X4X4X4X4X4X3X4X4X4X4X4X4X4X4X3X4X4X4X4X4X4X4X4X4X4X4X4X4X4X4X4X4X4X4X4X4X4X4X4X4X4X4X4X4X4X4X4X4X4X4X3X5XjXmXzX&Xg.j.j.j.j.j.c.j.j.k.;     + MXMXMXMXMXMXm n n b n n n b b m b b m b b b b b b b b b b b b b b b b b b b b b b b b c b b b b b b b b b k c k b k k ",
"MXMXMXMXMXMXMXMXMXMXMXMXMXMXMXMXMXMXMXMXMXMXMXMXMXMXMXMXMXMXMXMXMXMXMXMXMXMXMXMX} ! } ! / / } / ! ! } MXMXMXMXMXMXMXMXMXMXMXMXMXMXMXMXX   O t.x.g.x.g.j.g.g.c.j.D.xXmXxX9X3X3X5XqX9X9X9X5X9X6X3X=X2X3X4X4X4X4X4X4X4X4X4X4X4X4X4X4X4X4X4X4X4X4X4X4X4X4X4X4X4X7X4X3X4X4X4X4X4X4X4X4X4X4X4X4X3X4X4X4X4X4X4X4X4X4X4X4X4X4X3X4X4X4X4X4X4X7X4X4X4X<X4X4X4X4X4X4X4X4X4X4X4X4X4X4X4X4X4X4X4X4X4X4X4X4X4X3X4X4X4X4X4X4X4X4X4X4X4X4X4X4X4X4X3X4X4X4X4X4X4X3X4X4X4X4X4X3X4X4X4X4X4X4X4X4X4X4X4X4X4X4X7X4X4X4X4X4X4X4X4X4X3X4X4X4X4X4X4X4X4X4X4X4X3X4X4X4X4X4X4X4X4X4X4X4X4X4X4X4X4X4X4X4X4X4X7X4X4X4X4X4X4X4X4X3X3X4X4X4X3X4X4X4X4X4X4X4X4X4X4X4X4X4X4X4X4X4X7X3X4X4X4X4X4X).).5X4X4X4X4X4X4X4X4X4X4X4X4X4X8X8X9X9X6X9X6X4X2X2X3XlXvXxX&Xg.n.g.j.j.g.g.u.a.h.;     + MXMXMXMXMXMXG n b n n M n b b b b b b b b b b b b b b b b b M b b b b b b b c b c b b b b b b b b b b b c k b k k k k ",
"MXMXMXMXMXMXMXMXMXMXMXMXMXMXMXMXMXMXMXMXMXMXMXMXMXMXMXMXMXMXMXMXMXMXMXMXMXMXMXMX! / / ! } / ! ! ! ! ) MXMXMXMXMXMXMXMXMXMXMXMXMXMXMXMXX   O t.x.g.j.j.j.j.g.g.g.D.lXcXlX9X4X4X9XlXlXlXzXlXlXsX+XoX+X>X4X4X4X4X4X3X4X4X4X4X4X4X4X4X4X4X4X7X3X4X4X4X4X4X4X6X4X3X4X6X3X4X3X4X4X4X4X4X4X4X4X4X4X4X4X4X4X4X4X4X4X4X4X7X4X4X4X4X4X7X4X4X4X4X4X4X4X4X7X4X4X4X4X4X4X4X4X4X4X4X4X4X4X4X4X4X4X4X4X4X4X4X4X4X4X4X4X4X4X4X4X7X3X4X4X4X3X4X4X4X4X4X4X4X4X4X4X4X4X4X4X4X4X4X4X4X3X4X4X4X4X4X4X4X4X4X4X4X3X3X4X4X4X4X4X4X4X4X4X4X4X4X4X4X4X4X4X4X4X4X4X4X7X4X3X4X4X3X7X4X4X4X3X4X4X6X3X4X4X7X3X4X3X4X4X4X4X4X4X4X4X4X6X4X4X4X4X4X4X4X4X4X4X4X4X4X4X4X4X4X4X4X4X4X4X4X4X4X4X4X4X<X*X5X4X4X4X4X4X4X4X3X4X4X4X4X4XsXlXlXlXlXlXlX4XOXoX+XhXvXxX&Xg.g.j.j.c.g.g.a.I u.;     % MXMXMXMXMXMXb b n n b b b n n b b b b b b b b b m b m b b b b b b b b b b b b b v c b b b b b c b b b b k c k k k k k ",
"MXMXMXMXMXMXMXMXMXMXMXMXMXMXMXMXMXMXMXMXMXMXMXMXMXMXMXMXMXMXMXMXMXMXMXMXMXMXMXMX} / } / ! ! } / ! ! MXMXMXMXMXMXMXMXMXMXMXMXMXMXMXMXMXX   O y.x.c.j.j.c.j.g.g.g.H.lXmXzX9X4X5X9XxXxXvXvXxXvXdX+XoXU.%X4X4X3X4X4X4X4X4X4X3X7X4X4X4X4X4X4X4X4X4X4X4X4X4X4X3X4X4X4X4X4X4X4X4X4X4X3X4X4X4X4X4X4X4X4X4X4X4X4X4X4X4X4X4X4X4X4X4X4X3X4X4X4X4X4X4X4X4X4X4X4X4X4X4X3X7X4X3X6X4X4X4X4X4X4X4X4X4X4X4X4X4X4X4X4X4X4X4X4X4X4X4X4X4X4X4X4X7X4X4X4X4X4X4X4X4X3X4X4X3X4X4X3X4X4X4X4X4X4X4X4X4X4X4X4X4X4X4X4X4X4X4X4X4X4X4X4X4X4X4X4X4X4X4X4X4X4X4X4X4X4X4X4X4X4X4X4X4X4X4X4X4X4X4X4X3X4X4X4X4X4X4X3X4X4X4X3X4X4X4X4X4X4X4X4X4X4X4X3X4X4X3X7X4X4X3X4X4X4X4X4X4X4X4X4X4X4X4X4X7X4X4X4X4X4X4X4X4X4X3X4X4X4X4X4X4X4XgXmXxXxXvXvXvX4XoXP.+XdXvXzX+Xg.j.j.n.M.c.i.u.I 4.;     + MXMXMXMXMXm b b n b b b n n n m b b b b b m b b b b b b b b b b b b b b b b b b b b b b b b b b b b c k k b k k k k b ",
"MXMXMXMXMXMXMXMXMXMXMXMXMXMXMXMXMXMXMXMXMXMXMXMXMXMXMXMXMXMXMXMXMXMXMXMXMXMXMXMX} ! / / } / } / ! ^ MXMXMXMXMXMXMXMXMXMXMXMXMXMXMXMXMXX   O y.m.g.j.j.g.x.g.j.g.H.jXvXjXyX4X2XyXzXmXcXxXmXvXpX+XOXoX%X4X4X4X4X4X4X4X4X4X4X4X4X4X4X4X3X4X4X4X4X4X4X4X4X4X4X4X4X4X4X4X4X4X4X4X4X4X4X4X4X4X4X4X4X4X4X4X4X4X4X4X4X3X4X4X4X4X4X4X4X4X4X4X4X4X4X4X4X4X4X3X4X4X4X4X4X4X4X3X4X4X3X4X4X7X4X4X4X3X4X3X4X4X4X4X4X4X4X4X4X4X4X4X4X4X4X4X4X4X4X4X4X4X4X4X4X4X4X4X4X4X4X7X7X3X4X4X3X6X4X4X4X4X4X4X4X4X4X4X4X3X4X4X4X4X4X4X4X4X4X4X4X3X4X4X4X4X4X4X4X4X3X4X4X4X4X4X4X4X4X4X4X4X4X4X4X4X4X4X4X4X4X4X4X4X4X7X4X4X7X4X4X4X4X4X4X4X4X4X4X4X4X4X4X4X4X4X4X4X4X3X4X4X4X4X4X3X4X4X4X4X4X4X4X4X4X4X4X4X4X3X5X4X4X4X8X4XgXxXxXxXvXzXzX3XP.OX&XkXvXzX&Xg.g.j.g.M.*.R u.R @.;     + MXMXMXMXz c b b b G C m b n n n n n b b b b b b b b b b m n b b b b b b b b b b b b b b b b b b b b c b k k k b k k k ",
"MXMXMXMXMXMXMXMXMXMXMXMXMXMXMXMXMXMXMXMXMXMXMXMXMXMXMXMXMXMXMXMXMXMXMXMXMXMXMXMXMX} } ! ! ! ! ! ) MXMXMXMXMXMXMXMXMXMXMXMXMXMXMXMXMX6 X   O t.x.j.c.x.g.g.g.g.g.F.jXcXxX9X4X4XqXxXvXvXvXvXbXpXC.Z.Z.+X7X4X7X4X4X4X4X4X4X4X4X4X4X4X4X3X4X4X4X4X4X4X4X4X4X4X4X4X4X4X4X4X4X4X6X3X3X4X4X4X4X4X4X4X4X4X4X4X4X4X4X3X4X3X4X4X4X7X4X4X4X4X4X4X4X3X7X4X4X3X7X4X4X3X4X4X4X4X4X4X4X4X4X4X3X4X4X4X4X4X4X4X4X4X4X4X4X7X4X4X4X4X4X3X4X4X4X4X4X4X4X4X4X4X4X7X4X4X3X4X4X4X4X4X4X3X4X3X7X4X4X4X4X4X4X4X4X4X4X4X4X4X4X4X4X4X4X3X4X3X4X4X4X3X4X4X7X4X4X4X4X4X4X4X4X4X4X4X4X4X3X4X4X4X4X4X4X4X4X4X4X4X4X4X7X3X4X4X4X3X4X4X4X4X4X4X4X4X4X4X4X4X4X3X4X4X4X4X4X7X4X4X4X3X4X4X4X4X4X4X4X4X4X4X4X4X4X4X4X4X4X4X4X4X4X8X8XaXbXxXvXvXzXzX&XN.Z.S.pXvXbX&Xg.j.j.j.c.R j :.#.I =     + MXMXMXS j c k b MXMXMXMXb n n n b b b b b n b b b M n b b b b b b b b b b b b b b b b b b b c b b c k b k k c k k k k ",
"MXMXMXMXMXMXMXMXMXMXMXMXMXMXMXMXMXMXMXMXMXMXMXMXMXMXMXMXMXMXMXMXMXMXMXMXMXMXMXMXMXMXMX..} } } MXMXMXMXMXMXMXMXMXMXMXMXMXMXMXMXMX( ~ 7     O t.x.j.j.g.j.c.j.j.g.F.lXcXzX9X4X3X9XzXvXvXvXvXbX6Xg.i.g.I.3X4X3X4X4X4X7X4X4X4X4X7X3X4X4X4X4X4X4X4X4X4X4X3X4X7X4X4X4X4X4X4X4X4X4X4X4X4X4X4X4X4X4X4X4X4X4X4X4X4X4X4X4X4X4X4X4X3X4X3X4X4X4X4X4X4X4X4X4X4X4X4X4X4X4X4X4X4X4X4X4X4X4X4X4X4X3X4X4X4X4X4X4X4X4X4X4X3X4X4X4X4X4X4X4X4X4X3X4X4X4X4X4X4X3X4X4X4X4X4X4X3X4X4X4X4X4X4X4X4X4X4X4X4X4X4X4X4X4X4X4X4X4X4X4X4X4X4X4X4X4X4X4X4X4X4X4X4X3X4X4X7X4X4X4X4X4X4X4X4X7X4X4X4X4X4X4X7X3X4X4X4X4X4X4X4X4X4X3X4X4X4X4X4X3X4X4X4X4X7X4X4X4X4X4X4X4X4X4X4X4X4X4X4X4X4X4X3X4X4X4X4X4X4X4X4X4X4X3X3X6X4X4X4X4X4X4XpXvXvXvXvXvXzXI.i.i.N.pXbXvX&Xg.j.g.x.k.R x #.:.Z &     % MXMXMXz k j F MXMXMXMXMXF b n n n b m b M b b b b b b b b b b M b b b b n b b b b b b b b b b b b b k k k k k k b k k ",
"MXMXMXMXMXMXMXMXMXMXMXMXMXMXMXMXMXMXMXMXMXMXMXMXMXMXMXMXMXMXMXMXMXMXMXMXMXMXMXMXMXMXMXMXMXMXMXMXMXMXMXMXMXMXMXMXMXMXMXMXMXMX~ n n Q 7     O t.x.j.g.c.j.x.g.j.g.F.lXcXzX9X4X4X9XxXvXvXvXvXxXyXg.i.i.L.7X4X4X4X4X4X4X4X4X4X4X4X4X4X4X7X3X4X7X3X4X4X4X4X4X3X4X4X4X4X6X3X4X3X7X4X4X1X4X4X4X4X4X4X4X4X4X4X4X4X4X4X4X4X4X4X4X4X4X4X4X4X4X4X4X4X4X4X3X4X4X4X4X4X4X4X4X4X4X4X7X4X4X4X4X4X4X7X4X4X4X4X4X4X4X4X4X4X4X4X4X4X4X4X4X4X4X4X4X4X4X4X4X4X4X4X4X4X4X4X4X4X4X4X4X6X4X4X4X4X4X4X3X3X4X7X4X4X7X4X4X4X4X4X4X7X4X4X4X4X4X4X4X4X4X4X4X4X4X4X4X3X4X4X4X7X4X4X3X4X4X4X4X3X4X4X4X3X4X4X4X4X4X4X4X4X4X4X4X4X4X4X4X4X4X4X4X4X4X3X4X4X4X7X3X4X7X4X4X4X4X4X4X4X4X4X4X4X4X4X4X4X4X4X4X4X4X4X4X4X3X4X4X4X4X5X4XdXbXxXvXvXvXzX+Xi.i.n.pXxXvX&Xi.j.g.g.g.R x R u.I 3     , MXMXS j k B MXMXMXMXMXMXMXm b M n n n b b b b b b b b b n M b b b b b m b b n b b b b b b b b b k b k k k k k k k k k ",
"MXMXMXMXMXMXMXMXMXMXMXMXMXMXMXMXMXMXMXMXMXMXMXMXMXMXMXMXMXMXMXMXMXMXMXMXMXMXMXMXMXMXMXMXMXMXMXMXMXMXMXMXMXMXMXMXMXMXMX_ C M n Q n Q 7     O t.x.j.j.j.j.g.j.g.g.D.lXnXzX9X3X4X5XgXdXpXpXpXpX%XN.x.M._.7X4X4X4X3X4X3X4X4X4X4X4X4X4X4X4X4X4X4X4X4X4X4X4X4X4X4X4X3X4X3X4X4X4X4X4X4X4X4X4X4X4X4X4X4X4X4X3X4X7X4X4X4X4X4X4X3X3X4X4X4X4X4X4X3X4X4X4X4X4X4X4X4X4X4X4X7X4X4X4X3X4X4X4X4X4X4X4X4X4X4X3X7X4X4X3X4X4X4X4X4X4X4X4X4X4X4X4X4X4X4X4X3X4X4X4X4X4X4X4X4X4X4X4X3X3X4X4X4X4X4X4X4X4X4X4X4X4X3X4X4X4X4X3X4X4X4X4X4X4X4X4X4X4X4X3X4X4X4X4X4X4X4X4X4X4X3X4X4X4X4X4X4X6X3X4X4X4X4X4X4X4X4X4X3X4X4X4X4X3X4X4X4X4X4X4X4X4X4X4X4X4X4X4X4X4X3X4X4X3X4X4X4X4X4X4X4X4X4X4X4X4X4X4X4X4X4X4X4X4X4X4X4X4X5X5X4XpXkXkXkXpXpXyXI.c.M.V.pXvXzX+Xn.j.g.x.g.#.x #.g.#.s     + MXMXl j z MXMXMXMXMXMXMXMXb n n b b n b n b b M b b b b b b b b b b M b b b b b b b b b b b b b c k k k k k k b k k k ",
"MXMXMXMXMXMXMXMXMXMXMXMXMXMXMXMXMXMXMXMXMXMXMXMXMXMXMXMXMXK MXMXMXMXMXMXMXMXMXMXMXMXMXMXMXMXMXMXMX( ( ( C ( ( M M Q n n n n n n Q ! 8     O y.x.g.j.j.c.g.g.g.g.F.lXcXzX9X4X4X2XoXoXoXD.n.n.N.%X>X>X3X4X4X4X4X4X4X4X4X4X4X4X4X4X4X4X4X4X4X4X4X7X7X4X4X4X4X4X4X6X4X4X4X4X4X4X4X4X4X4X3X4X4X4X4X4X4X4X7X4X4X7X3X4X4X3X4X4X7X4X3X4X4X4X4X4X4X4X4X4X4X4X4X4X4X4X4X3X4X4X4X7X4X3X4X4X4X4X4X4X4X4X4X4X4X4X4X4X4X4X4X4X4X4X4X4X3X4X3X4X4X4X4X4X4X4X4X4X4X4X4X3X4X4X4X7X4X4X4X4X4X4X4X4X4X3X4X4X4X4X4X4X4X4X4X4X4X4X4X4X4X4X4X4X4X4X4X4X4X4X4X4X4X4X4X4X4X4X4X4X4X4X4X4X4X4X4X4X4X4X4X7X4X4X4X4X4X4X6X3X4X4X4X4X4X4X7X4X4X4X4X3X4X4X4X4X4X4X4X4X4X4X4X4X4X3X4X4X4X4X3X4X4X4X3X4X4X4X4X4X6X3X4X4X3X6X4X3X%X`._.P.N.n.i.I.=X%X3XkXbXxX&Xn.j.j.j.M.:.j I i.,.f #   + MXMXMXS MXMXMXMXMXMXMXMXMXb b n n n b n n n b b n b b M b b b b b M b b b m b v b b b b b b b b k k k b k k k k k k j ",
"MXMXMXMXMXMXMXMXMXMXMXMXMXMXMXMXMXMXMXMXMXMXMXMXMXMXMXMXMXK F MXMXMXMXMXMXMXMXMXMXMXMXMXMXMXMX) n Q n n n Q n Q Q n n Q Q n n n n Q 8     O t.x.x.j.j.j.c.j.j.g.D.jXmXlX9X3X4X2XoXoXU.Z.i.i.M.%X4X4X4X4X7X4X4X4X4X4X4X7X3X4X4X4X4X4X4X4X4X4X4X3X4X3X4X4X4X4X4X3X3X4X4X4X4X4X4X4X4X4X4X4X4X4X4X4X4X3X4X4X4X4X4X4X4X4X4X4X4X4X4X4X4X4X4X4X4X4X4X4X4X4X4X3X4X4X4X4X4X4X4X4X4X7X4X4X4X4X3X4X4X4X4X4X4X4X4X3X4X4X4X4X4X4X4X4X4X4X7X4X4X4X4X4X4X4X4X4X3X4X4X4X4X4X4X4X4X4X3X4X4X4X4X4X4X4X4X4X4X4X4X4X3X7X4X4X4X3X4X4X4X3X4X4X4X4X4X4X4X4X3X7X3X4X4X4X4X4X4X4X4X3X4X4X3X4X4X4X4X4X4X4X4X4X4X4X4X4X3X4X7X4X4X4X4X4X3X4X3X4X4X4X4X4X4X4X4X4X4X4X4X4X4X4X4X7X3X4X4X4X7X4X4X4X4X4X4X4X4X3X3X4X4X4X4X4X3X3X+XA._.I.n.i.i.OX5X3X6XzXxXxX;Xi.g.j.j.j.u.B A a.k.q o   + MXMXMXMXMXMXMXMXMXMXMXMXMXb n n b n n M n n b n b Q n n n n b n b b b n b b b b b b b b b b b b k k b k k b k k k k k ",
"MXMXMXMXMXMXMXMXMXMXMXMXMXMXMXMXMXMXMXMXMXMXMXMXMXMXMXMXMXMXK MXMXMXMXMXMXMXMXMXMXMXMXMXMX' ~ n n n n Q Q n Q n n Q Q n n Q Q n n M 9     O t.x.g.g.j.g.j.j.g.g.J.lXmXlXyX2X4X2XoXOXOXB.i.i.M.3X4X4X4X4X4X4X4X4X4X4X4X3X4X4X4X4X4X4X4X4X4X4X4X4X4X4X4X4X4X4X4X3X4X4X4X4X4X4X4X4X4X4X4X7X4X4X4X4X3X4X4X4X4X4X4X4X4X4X4X4X7X3X4X4X7X4X4X4X4X4X4X3X4X7X4X4X4X4X4X4X4X3X3X4X4X4X4X4X4X4X4X4X4X4X4X4X4X4X4X4X4X4X3X4X3X4X4X4X4X4X4X4X4X4X4X3X4X4X7X4X7X4X4X4X4X4X4X4X4X4X4X4X4X4X4X4X4X4X4X4X4X4X4X4X4X3X4X4X4X7X4X4X4X4X4X4X7X3X4X4X4X4X4X4X4X4X4X4X4X4X4X4X4X4X4X4X7X4X4X4X4X4X4X3X7X4X4X4X4X4X4X4X4X4X4X3X4X4X4X4X4X4X4X4X4X4X4X4X4X4X3X4X4X3X4X4X4X4X4X4X4X4X4X4X4X4X4X4X4X4X4X4X4X4X4X4X4X3X6X3X&X+X_.I.i.i.i.OX5X3X6XkXvXvX&Xn.j.j.g.x.i.R D u.k.;     + MXMXMXMXMXMXMXMXMXMXMXMXm b b b n n n n n n n n n n n n n b n M b b b b b n b b b b b c b b b k k k k k k k k k k k k ",
"MXMXMXMXMXMXMXMXMXMXMXMXMXMXMXMXMXMXMXMXMXMXMXMXMXF MXMXMXMXMXMXMXMXMXMXMXMXMXMXMXMXMXMXC n n Q Q n Q n n Q n Q n n Q n n Q n n Q Q 9     O t.x.j.c.j.j.c.j.g.g.H.lXxXlXyX3X4X3X#X%X%XP.J.I.I.3X4X4X4X4X4X4X4X4X3X4X4X4X4X4X4X4X4X4X4X3X4X4X4X4X4X4X4X4X4X4X4X6X4X4X7X3X4X4X4X4X4X4X4X3X4X4X4X4X4X4X4X4X4X4X4X4X4X4X4X4X4X4X4X4X3X4X4X4X4X4X4X4X4X4X4X4X4X4X4X4X4X4X4X4X4X4X4X4X4X4X4X4X3X7X4X3X4X4X4X4X4X7X4X4X7X4X4X4X4X4X4X4X4X4X4X4X4X4X3X4X4X4X4X4X4X4X4X4X4X4X4X4X4X4X7X3X4X4X4X7X3X4X4X4X4X4X4X4X4X4X4X4X4X4X4X4X4X4X4X4X4X4X4X4X4X4X7X3X4X4X4X4X4X4X4X4X4X4X4X4X4X4X4X4X3X4X4X4X4X4X4X4X4X4X4X4X4X4X4X4X4X4X4X7X4X4X4X4X4X4X4X4X4X7X4X4X4X4X4X4X4X4X4X4X4X}.<X4X4X7X4X4X4X4X4X4X4X4X3X3X%X%X#XP.I.S.S.;X3X3X6XkXxXzX&Xi.g.x.g.c.x.i.u.j.h.;     , MXMXMXMXMXMXMXMXMXMXMXA k b c b n n n n n n n n n n n n n n n n n b b b b b b b b b b b b b b b k c k k k k k k x k k ",
"MXMXMXMXMXMXMXMXMXMXMXMXMXMXMXMXMXMXMXMXMXMXMXMXMXb MXMXMXMXMXMXMXMXMXMXMXMXMXMXMXMXMXM n n n Q n Q n n Q n n Q n n Q n Q n n Q n Q 7 X   O y.j.j.j.g.j.g.g.g.g.D.jXmXlX9X2X4X4X4X4X3X5X5X3X5X3X3X3X4X4X3X4X3X3X6X3X3X4X3X4X4X3X4X4X3X3X4X3X3X3X3X3X4X4X3X4X3X3X4X4X3X4X4X3X4X4X3X4X3X3X4X4X3X6X3X4X3X6X3X4X4X4X3X6X3X3X3X4X3X4X4X4X4X3X4X3X4X4X4X3X6X3X3X3X6X3X3X3X3X7X3X3X3X4X4X3X4X4X3X4X3X6X3X6X4X3X3X4X4X3X4X4X4X3X3X4X3X3X4X4X3X3X4X4X3X3X3X6X3X3X4X4X3X3X3X7X3X3X4X4X4X3X3X3X7X4X3X4X3X4X3X6X3X3X3X4X4X4X3X4X3X4X3X3X3X3X3X3X7X4X3X4X3X4X3X3X3X3X3X3X4X3X4X4X3X3X5X3X3X6X3X3X3X3X3X3X3X4X3X6X4X3X4X4X4X3X3X6X3X4X4X4X3X3X3X3X4X3X4X4X3X3X4X4X3X3X4X3X7X3X4X<X3X4X3X3X4X4X3X4X3X6X3X6X3X3X6X3X3Xp.{.4X3X3X5X3X5XkXcXmX+Xg.j.j.j.j.g.j.j.j.k.;     + MXMXMXMXMXMXMXMXMXMXMXMXB F m b b n n n n n n n n n n n n n n n n b b b b b b b b b b b b b c k k k k k k k k k k k k ",
"MXMXMXMXMXMXMXMXMXMXMXMXMXMXMXMXMXMXMXMXMXMXMXMXMXF MXMXMXMXMXMXMXMXMXMXMXMXMXMXMXJ M n n Q Q n n n Q n n Q Q n Q n n Q Q n Q n n Q 9     O y.x.c.g.j.j.j.g.g.g.D.kXmXzXyX4X4X4X3X3X5X3X3X3X3X3X3X3X3X3X3X3X3X3X3X3X3X3X3X3X3X3X3X3X3X3X5X3X6X3X3X3X3X3X3X3X3X3X3X3X3X3X3X3X3X3X3X3X3X3X3X3X3X3X3X3X3X3X3X3X3X3X3X3X3X3X3X3X3X3X3X3X6X3X3X3X3X3X6X3X3X3X3X3X3X3X7X3X3X3X3X3X3X3X3X3X3X3X3X3X3X3X3X3X3X3X3X3X3X3X3X3X3X3X3X3X3X3X3X3X3X3X3X3X3X3X3X3X3X3X3X3X3X3X3X3X3X3X3X3X3X3X3X3X3X3X3X3X3X3X3X3X3X3X3X3X3X3X3X3X3X3X5X3X3X6X3X3X3X3X3X3X3X3X3X5X3X6X3X3X3X3X5X3X3X3X3X3X3X3X3X7X3X7X3X3X3X3X3X3X3X3X3X3X3X3X3X3X3X3X3X3X3X3X3X=X`.3X3X3X3X3X3X3X3X3X3X3X3X3X4X4X3X3X3X7X6X3X3X3X3X3X3X3X3X3X3X3X3X*X=X&X3X3X3X3X6XlXhX(.G.k.g.j.j.j.j.j.x.j.k.;     + MXMXMXMXMXMXMXMXMXMXMXMXMXMXMXMXF m b b n n n n Q C Q n n n n n n n b n b b M b b m b b b b c b k b k k k k k k j j k ",
"MXMXMXMXMXMXMXMXMXMXMXMXMXMXMXMXMXMXMXMXMXMXMXMXMXMXMXMXMXMXMXMXMXMXMXMXMXMXMXMXMXn n n n n n n Q n n Q n Q n n M Q n Q n Q n n Q Q 8 X   O t.x.g.x.x.j.g.g.n.g.H.jXzXlXyX4X4X4X5X5X5X5X5X6X6X6X6X6X6X6X6X6X6X6X6X6X6X6X4X6X6X6X6X6X6X6X6X6X6X6X6X6X6X6X6X6X6X6X6X6X6X6X6X6X6X4X6X6X6X6X6X6X6X6X4X6X4X6X6X6X6X6X6X6X6X6X6X6X6X6X6X6X6X6X6X6X6X4X6X6X6X6X6X6X6X6X6X6X6X6X6X6X6X6X6X6X6X6X4X6X6X6X6X6X6X6X6X6X4X6X6X6X6X6X6X6X6X6X6X6X6X6X6X6X6X6X6X6X6X6X6X6X6X6X6X6X6X6X6X6X6X6X6X6X6X6X6X6X6X6X6X6X6X6X4X6X6X6X6X6X6X6X6X6X6X6X6X6X6X7X6X6X6X6X6X6X6X6X6X6X6X4X6X6X6X6X6X6X6X6X6X6X6X6X6X6X6X6X6X6X6X6X6X6X4X6X6X6X6X6X6X6X6X6X6X6X=X6X6X6X6X6X6X6X6X6X6X6X6X6X6X6X7X<X3XW.q.s.=X6X6X6X6X6X6X6X6X6X6X6X3X~.3X6X4X5X9XkXtXT.C.j.j.j.g.j.j.c.g.j.h.;     , MXMXMXMXMXMXMXMXMXMXMXMXMXMXMXMXMXMXG m n n C [ MXMXMX( n n n n n n n b b b b b n b b b b b c k b k k k k k k k j k k ",
"MXMXMXMXMXMXMXMXMXMXMXMXMXMXMXMXMXMXMXMXMXMXMXMXMXMXMXMXMXMXMXMXMXMXMXMXMXMXMX' n Q n n Q n Q Q n Q Q n Q Q Q Q Q Q Q Q Q Q Q ^ Q ] q X   O t.x.x.g.g.j.n.g.g.g.D.qXuXpXfXjXlXlXkXkXkXkXkXkXkXkXlXkXkXkXkXlXkXkXkXlXkXkXlXkXkXkXkXlXkXkXkXkXkXkXkXkXkXlXlXkXkXkXkXlXkXkXkXkXkXlXlXkXkXkXkXkXkXkXlXkXkXlXkXkXkXkXkXkXkXlXkXkXkXkXkXkXkXkXkXkXkXlXkXkXkXkXkXkXkXkXkXkXkXlXlXkXkXkXkXkXlXkXlXkXkXkXkXkXkXkXkXlXlXkXkXkXkXkXkXlXkXlXlXkXkXkXlXkXkXlXlXkXkXkXlXkXkXlXkXlXkXkXkXkXkXlXkXkXkXlXlXkXkXkXkXkXkXlXlXkXkXkXzXkXkXkXkXkXkXkXkXkXkXzXlXkXkXkXkXkXkXkXlXkXkXlXkXkXkXkXkXkXkXkXkXkXkXkXlXkXkXkXkXkXkXkXkXkXkXlXkXkXkXkXkXkXkXlXkXkXlXkXkXkXkXkXkXkXkXkXlXkXkXlXkXlXkXhXrXq.9.Y  XkXkXkXkXkXkXkXkXkXkXkXkXkXdXkXjXkXkXsXsXsX[.j.j.j.c.j.j.g.x.j.k.;     + MXMXMXMXMXMXMXMXMXMXMXMXMXMXMXMXMXMXMXMX' MXMXMXMXMXMXMXQ n n n n n b M n b n b b m b b b b c k k k k k x k k k k k j ",
"MXMXMXMXMXMXMXMXMXMXMXMXMXMXMXMXMXMXMXMXMXMXMXMXMXMXMXMXMXMXMXMXMXMXMXMXMXMXG n n n n n n n Q n Q n n Q Q Q ! ! ) ` MXMXMXMXMXMXMXMXMXX   O y.x.g.g.g.g.n.n.n.j.D.8XuX0XfXmXxXxXvXvXcXcXvXvXvXvXcXvXvXvXvXvXvXvXbXvXxXxXmXxXvXxXvXxXmXxXbXbXvXvXvXvXvXcXxXbXxXbXvXvXvXvXvXvXvXvXxXmXxXxXbXvXvXvXxXvXvXcXxXbXvXvXbXvXmXxXxXxXxXmXbXvXxXxXxXmXvXvXvXvXmXxXbXvXvXvXvXvXvXvXvXbXvXvXbXvXxXmXvXxXvXvXbXvXvXvXxXmXxXvXbXvXvXvXvXvXvXvXbXbXvXvXvXvXvXvXxXvXvXvXvXvXvXvXxXmXxXxXbXbXvXvXxXxXvXvXvXvXbXxXbXvXvXvXxXcXmXxXcXxXcXvXbXvXvXvXvXvXvXvXvXvXvXbXbXbXmXxXvXvXcXcXxXvXrXaXbXvXvXvXvXvXvXvXxXbXxXbXbXbXvXvXvXvXvXcXbXvXvXvXvXvXvXvXbXbXvXvXxXmXxXvXbXbXvXvXvXvXvXvXxXvXvXvXxXzXlX XaXbXxXmXvXvXvXvXxXbXvXbXxXbXvXvXxXmXxXsXsXsXoXn.g.j.g.g.g.g.g.x.h.;     , MXMXMXMXMXMXMXMXMXMXMXMXMXMXMXMXMXMXMXMXMXMXMXMXMXMXMX_ n Q n n Q v n n b b b b b b n b b b k k k k k j k k j k k j k ",
"MXMXMXMXMXMXMXMXMXMXMXMXMXMXMXMXMXMXMXMXMXMXMXMXMXMXMXMXMXMXMXMXMXMXMXMXMXMXMX( n n n n n n n Q n Q n n W ! } MXMXMXMXMXMXMXMXMXMXMXMXX   O t.x.n.g.g.g.k.n.k.j.D.8XqX8XjXvXxXmXvXvXvXxXvXvXvXvXxXxXvXvXvXvXvXvXzXvXxXxXvXvXvXxXvXxXxXxXvXzXvXvXxXzXxXxXxXxXxXcXvXxXxXxXxXxXxXxXvXxXxXxXvXvXbXzXxXzXxXxXxXxXxXbXvXvXxXxXvXvXcXxXbXzXxXxXvXxXxXvXxXvXxXxXbXvXxXvXxXxXvXxXxXxXvXcXvXvXxXxXvXvXvXxXvXvXxXvXxXxXxXvXbXxXvXxXxXxXvXxXzXvXbXzXxXxXvXxXvXvXvXxXxXxXxXvXxXcXxXxXvXxXzXvXxXxXxXxXxXxXxXxXvXvXxXxXvXxXxXxXxXvXxXxXvXvXvXvXcXxXvXxXvXxXvXcXvXvXxXxXvXvXxXcXxXxXtXtXvXvXvXvXvXcXxXbXxXxXxXcXvXxXzXvXxXxXxXxXvXxXxXvXxXzXvXxXvXzXzXbXxXxXvXvXvXxXbXzXxXvXvXxXbXxXvXxXvXxXxXxXzXxXxXxXvXvXvXvXxXxXcXxXxXxXxXxXxXzXlXsXsXsX,Xk.g.j.g.n.j.j.g.M.k.;     - MXMXMXMXMXMXMXMXMXMXMXMXMXMXMXMXMXMXMXMXMXMXMXM M MX( Q n Q n n n n n n n M b b n b b b b b k b k k k k k k k k j k j ",
"MXMXMXMXMXMXMXMXMXMXMXMXMXMXMXMXMXMXMXMXMXMXMXMXMXMXMXMXMXMXMXMXMXMXMXMXMXMXMXMX[ M n n n n n n n n n M ( MXMXMXMXMXMXMXMXMXMXMXMXMXMXX   O t.c.n.n.n.n.n.H.P.P.K.D.D.C.H.F.F.H.F.F.F.F.F.F.S.J.F.F.F.F.F.F.A.J.J.J.F.D.F.F.F.F.F.F.D.F.F.F.S.J.F.F.F.F.J.F.S.F.F.F.F.D.F.F.F.F.J.F.F.F.D.D.J.J.F.F.F.F.J.F.J.F.S.F.F.D.J.D.F.F.J.F.D.F.J.F.D.F.F.F.F.F.F.F.S.J.F.F.F.F.F.F.J.J.S.J.F.F.J.F.F.F.F.F.J.J.F.F.F.F.F.F.J.J.F.F.S.G.F.D.J.J.F.F.F.F.F.D.J.F.F.F.F.F.J.J.F.F.F.D.J.J.F.F.F.F.J.J.J.F.J.H.F.D.J.F.F.F.J.J.F.F.F.F.S.J.F.F.F.F.F.F.J.J.S.J.F.F.J.F.J.J.J.J.J.F.F.J.J.J.J.F.F.F.J.F.S.F.F.F.J.J.F.D.F.F.F.F.F.S.F.F.S.G.D.D.J.J.F.F.F.F.F.D.S.J.F.F.F.J.J.D.J.F.F.F.F.F.J.F.F.F.F.F.S.J.F.F.F.F.J.F.J.F.J.F.F.K.F.K.K.K.P.L.B.n.j.g.g.j.h.;     - MXMXMXMXMXMXMXMXMXMXMXMXMXMXMXMXMXMXMXMXMXMXMXb b n n Q Q Q n n n n n n n n n n M b b b b b b k k c k k k j k j k k j ",
"MXMXMXMXMXMXMXMXMXMXMXMXMXMXMXMXMXMXMXMXMXMXMXMXMXMXMXMXMXMXMXMXMXMXMXMXMXMXMXMXMX| n n n n n M C C MXMXMXMXMXMXMXMXMXMXMXMXMXMXMXMXMXX   O t.M.k.g.g.m.m.4XsXuXY.y y a a y a a i i i i i i i i i i i i u i i i i i i i i i i u i i i i i u i i i i i i i i i i i i i i i u i i u i i i u i i i i i i i i i i i i i i i i i u i i i i i i i i u u i i i u i i i i i u i i i i i i i i u i i u i i i i i i i i i u i i i i i i i u i i i i i u i u i i i i i i i u i i i u i i i i i i i i i i i i i i i i i i u i i i i u i i i i i i u i i i i i i i i u i i u i i i i u i i i u i i i i i i i i u i i i i u i u i i u i u i i u i i i u i i u i u i i i u i i i i i u i i u i i i i i i i i i i i i i i i i i i i i i a y D.sXsX9XC.k.n.g.g.j.k.;     - MXMXMXMXMXMXMXMXMXMXMXMXMXMXMXMXMXMXMXMXMXMXMXb b b n n Q Q Q n n n n n n n b b b b b b b b k b k k k k k k k k j j j ",
"MXMXMXMXMXMXMXMXMXMXMXMXMXMXMXMXMXMXMXMXMXMXMXMXMXMXMXMXMXMXMXMXMXMXMXMXMXMXMXMXMXMXMXJ ' J MXMXMXMXMXMXMXMXMXMXMXMXMXMXMXMXMXMXMXMXMXX   O t.j.g.j.j.m.m.8XsXsXoXi i i i i i i i i i i i i i i i i i i i i i i i i i i i i i i i i i i i i i i i i i i i i i i i i i i i i i i i i i i i i i i i i i i i i i i i i i i i i i i i i i i i i i i i i i i i i i i i i i i i i i i i i i i i i i i i i i i i i i i i i i i i i i i i i i i i i i i i i i i i i i i i i i i i i i i i i i i i i i i i i i i i i i i i i i i i i i i i i i i i i i i i i i i i i i i i i i i i i i i i i i i i i i i i i i i i i i i i i i i i i i i i i i i i i i i i i i i i i i i i i i i i i i i i i i i i i i i i i i i i i i i i i i i a y C.sXsX0XC.n.n.n.n.n.k.;     - MXMXMXMXMXMXMXMXMXMXMXMXMXMXMXMXMXMXMXMXMXMXMXm c b b Q Q Q Q Q n n n n n n n n M b b b b b c k k k k j k k k j k j j ",
"MXMXMXMXMXMXMXMXMXMXMXMXMXMXMXMXMXMXMXMXMXMXMXMXMXMXMXMXMXMXMXMXMXMXMXMXMXMXMXMXMXMXMXMXMXMXMXMXMXMXMXMXMXMXMXMXMXMXMXMXMXMXMXMXMXMXMX.   O t.g.x.x.B.m.Z.2XuX0XP.i i i i p i i i i i i i i i i i i i p i i i i i i i i i i i i i i i i i i i i i i i i i i i i i i i i i i i i i i i i i i i i i i i i i i i i i i i i i i i i i i i i i i i i i i i i i i i i i i i i i i i i i i i i i i i i i i i i i i i i i i i i i i i i i i i i i i i i i i i i i i i i i i i i i i i i i i i i i i i i i i i i i i i i i i a i i i i i i i i i i i i i i i i i i i i i i i i i i i i i i i i i i i i i i i i i i i i i i i i i i i i i i i i i i i i i i i i i i i i i i i i i i i i i i i i i i i i i i i i i i i i i i i a i i i m.9XqX8XD.m.n.k.g.n.h.;     - MXMXMXMXMXMXMXMXMXMXMXMXMXMXMXMXMXMXMXMXMXMXMXM b b b J MXMX^ ! Q n n n n n n n b b b b b b k k k k k k k k j j j j j ",
"MXMXMXMXMXMXMXMXMXMXMXMXMXMXMXMXMXMXMXMXMXMXMXMXMXMXMXMXMXMXMXMXMXMXMXMXMXMXMXMXMXMXMXMXMXMXMXMXMXMXMXMXMXMXMXMXMXMXMXMXMXMXMXMXMXMXMX.   O y.m.j.K.7X3X2Xn.y.y.t.y i i i i i i i i i i i i a i i i i i i i i i i i i i i i i i i i i i i i i i i i i i i i i i i i i i i i i i i i i i i a i i i i i i i i i i i i i i i i i i i i i i i p i i i i i i i a i i i i i i i i i i i i i i i i i i i i i i i i i i i i i i i i i p i i i i i a i i i i i i i i i i i i i i i i i i i i i i i i i i i i i i i i i i i i i i a i i i i i i i i i i i i i i i i i i i i i i i i i i i i i p i i i i i i i i r i i i i i i i i i p i i i i i i i i a i i i i i i i i i i p i i i i i i i i i i i i i a i i i i i i i i i a i i i i p i.f.f.oX,X@XH.n.n.k.;     - MXMXMXMXMXMXMXMXMXMXMXMXMXMXMXMXMXMXMXMXMXMXMXV b b M MXMXMX` ! ! n n n n n n n b b b v c b b b k b k k k k k k j j j ",
"MXMXMXMXMXMXMXMXMXMXMXMXMXMXMXMXMXMXMXMXMXMXMXMXMXMXMXMXMXMXMXMXMXMXMXMXMXMXMXMXMXMXMXMXMXMXMXMXMXMXMXMXMXMXMXMXMXMXMXMXMXMXMXMXMXMXMX.   O y.k.k.L.sXsXyXy.a y i i i i i i i i i i i i i i i i i i i i i i i i i i i i i i i i i i i i i i i i i i i i i i i i i i i i i i i i i i i i i i i i i i i i i i i i i i i i i i i i i i i i i i i i i i i i i i i i i i i i i i i i i i i i i i i i i i i i i i i i i i i i i i i i i i i i i i i i i i i i i i i i i i i i i i i i i i i i i i i i i i i i i i i i i i i i i i i i i i i i i i i i i i i i i i i i i i i i i i i i i i i i i i i i i i i r i i i i i i i i i i i i i i i i i i i i i i i i i i i i i i i i i i i i i i i i i i i i i i i i i i i i i i i i i i t i y p @XuXqXoXh.j.k.;   X - MXMXMXMXMXMXMXMXMXMXMXMXMXMXV b MXMXMXMXMXMXMXm V F MXMXMXMXMXMX` n n n n n n n n n b b b b b k k k k x k k j j j j j ",
"MXMXMXMXMXMXMXMXMXMXMXMXMXMXMXMXMXMXMXMXMXMXMXMXMXMXMXMXMXMXMXMXMXMXMXMXMXMXMXMXMXMXMXMXMXMXMXMXMXMXMXMXMXMXMXMXMXMXm MXMXMXMXMXMXMXMXO   @ y.m.j.U.sXsX0Xf.i a i i i i i i i i i i i i i i i i i i i i i i i i i i i i i i i i i i i i i i i i p i i i i i i i i i i i i i i i i i i i i i i i i i i i i i i i i i i i i i i i i i i i i i i i i i i i i i i i i i i i i i i i i i i i i i i i i i i i i i i i i i i i i i i i i i i i i i i i i i i i i i i i i i i i i i i i i i i i i i i i i i i i i i i i i i i i i i i i i i i i i i i i i i i i i i i i i i i i i i i i i i i i i i i i i i i i i i i i i i i i i i i i i i i i i i i i i i i i i i i i i i i i i i i i i i i i i i i i i i i i i i i i i i i i i i i i a p oXuX0XY.j.j.h.>   . ; MXMXMXMXMXMXMXMXMXMXMXMXF b k m MXMXMXMXMXMXH K MXMXMXMXMXMXMXMXMXM n n n n n n n n b b m b b b k k k k k j k x j j j ",
"MXMXMXMXMXMXMXMXMXMXMXMXMXMXMXMXMXMXMXMXMXMXMXMXMXMXMXMXMXMXMXMXMXMXMXMXMXMXMXMXMXMXMXMXMXMXMXMXMXMXMXMXMXMXMXMXMXV k b MXMXMXMXMXMXMXMX- > y y y f.Y.oXK.t.a y i i i i i i i i i i i i i i i i i i i i i i i i i i i i i i i i i i i i i i i i i i i i i i i i i i i i i i i i i i i i i i i i i i i i i i i i i i i i i i i i i i i i i i i i i i i i i i i i i i i i i i i i i i i i i i i i i i i i i i i i i i i i i i i i i i i i i i i i i i i i i i i i i i i i i i i i i i i i i i i i i i i i i i i i i i i i i i i i i i i i i i i i i i i i i i i i i i i i i i i i i i i i i i i i i i i i i i i i i i i i i i i i i i i i i i i i i i i i i i i i i i i i i i i i i i i i i i i i i i i i i i i i i i i i i i i i y p B.K.H.f.y y y q , ; MXMXMXMXMXMXMXMXMXMXMXMXm b b V MXMXMXMXMXMXMXMXMXMXMXMXMXMXMXMXMXMXb n n n n n n n n n b b b b b k k k k k k j j j j j ",
"MXMXMXMXMXMXMXMXMXMXMXMXMXMXMXMXMXMXMXMXMXMXMXMXMXMXMXMXMXMXMXMXMXMXMXMXMXMXMXMXMXMXMXMXMXMXMXMXMXMXMXMXMXMXMXMXMXK m m MXMXMXMXMXMXMXMXMXMX@ X   > i a a a a i i i i i i i i i i i i i i i i i i i i i i i i i i i i i i i i i i i i i i i i i i i i i i i i i i i i i i i i i i i i i i i i i i i i i i i i i i i i i i i i i i i i i i i i i i i i i i i i i i i i i i i i i i i i i i i i i i i i i i i i i i i i i i i i i i i i i i i i i i i i i i i i i i i i i i i i i p i i i i i i i i i i i i i i i i i i i i i i i i i i i i i i i i i i i i i i i i i i i i i i i i i i i i i i i i i i i t @.4.i i i i i i i i i i i i i i i i i i i i i i i i i i i i i i i i i i i i i i i i i i i i i i i i i i i i i i i i i i i a a a e X X . MXMXMXMXMXMXMXMXMXMXMXMXMXm b b V MXMXMXMXMXMXMXMXMXMXMXMXMXMXMXMXMXMXMXM n n n n n n n n n n n b b b b b k k k k k k j j j d ",
"MXMXMXMXMXMXMXMXMXMXMXMXMXMXMXMXMXMXMXMXMXMXMXMXMXMXMXMXMXMXMXMXMXMXMXMXMXMXMXMXMXMXMXMXMXMXMXMXMXMXMXMXMXMXMXMXMXMXMXMXMXMXMXMXMXMXMXMXMXMXO     > i i y a i i i i i i i i i i i i i i i i i i i i i i i i i i i i i i i i i i i i i i i i i i i i i i i i i i i i i p i i i i i i i i i i i i i i i i i i i i i i i i i i i i i i i i i i i i i i i i i i i i i i i i i i i i i i i i i i i i i i i i i i i i i i i i i i i i i i i i i i i i i i i i i i i i i i i i i i i i i i i i i i i i i i i i i i i i i i i i i i i i i i i i i i i i i i i i i i i i i i i i i i i i i i i i i i i i i i i u t g @.i i i i i i i i i i i i i i i i i i i i i i i i i i i i i i i i i i i i i i i i i i i i i i i i i i i i i i i i i i i i i a e   X O MXMXMXMXMXMXMXMXMXMXMXM n n F MXMXMXMXMXMXMXMXMXMXMXMXMXMXMXMXMXMXMXMXb b b n n b n n n n n n n n b b k k k c k k j k j j j j ",
"MXMXMXMXMXMXMXMXMXMXMXMXMXMXMXMXMXMXMXMXMXMXMXMXMXMXMXMXMXMXMXMXMXMXMXMXMXMXMXMXMXMXMXMXMXMXMXMXMXMXMXMXMXMXMXMXMXMXMXMXMXMXMXMXMXMXMXMXMXMX, . . > y u u u u u y y y i u u u u u u u u u u u u u u u u u u u u u u u u u u u u u u u u u u u u u u u u u u u u i t u u u u u u u u u u u u u u u u u u u u u u u u u u u u u u i t u u u u u u u u u u u u u u u u u u u u u u u u u u u u u u u u u u u u u u u u u u u u u u u u u u u u u u u u u u u u u u u u u u u u u u u u u u u u u u i i i t u u u u u u u u u u u u u u u u u u u u u u u u u u u u u u u u u u u u u u u u u u u u u u u u u r t u u u u u u u u u u u u u u u u u u u u u u u u u i t u u u u u u u u u u u u u u u u u u u u u u u u u u u u u u u u u i u e . . , MXMXMXMXMXMXMXMXMXV n n M ' MXMXMXMXMXMXMXMXMXMXMXMXMXMXMXMXMXMXMXMXm b b b n b b n n n n n n n b n b b k b k k k k j j j j d ",
"MXMXMXMXMXMXMXMXMXMXMXMXMXMXMXMXMXMXMXMXMXMXMXMXMXMXMXMXMXMXMXMXMXMXMXMXMXMXMXMXMXMXMXMXMXMXMXMXMXMXMXMXMXMXMXMXMXMXMXMXMXMXMXMXMXMXMXMXMXMXMXMXMX> - - - - - - = = = = = = = = = = = = = = = = = = = = = = = = = = = = = = = = = = = = = = = = = = = = = = = = = = = = = = = = = = = = = = = = = = = = = = = = = = = = = = = = = = = = = = = = = = = = = = = = = = = = = = = = = = = = = = = = = = = = = = = = = = = = = = = = = = = = = = = = = = = = = = = = = = = = = = = = = = = = = = = = = = = = - - - - - - = = = = = = = = = = = = = = = = = = = = = = = = = = = = = = = = = = = = = = = = = = = = = = = = = = = = = = = = = = = = = = = = = = = = = = = = = = = = = = = = = = = = = = = = = = = = = = = = = = = = = = - - = = - > MXMXMXMXMXMXMXMXMXMXMXM b n V MXMXMXMXMXMXMXMXMXMXMXMXMXMXMXMXMXMXMXMXMXA b b b b b n n b n b n n n n n n n b k k k k k k k k j j j ",
"MXMXMXMXMXMXMXMXMXMXMXMXMXMXMXMXMXMXMXMXMXMXMXMXMXMXMXMXMXMXMXMXMXMXMXMXMXMXMXMXMXMXMXMXMXMXMXMXMXMXMXMXMXMXMXMXMXMXMXMXMXMXMXMXMXMXMXMXMXMXMXMXMXMXX                                                                                                                                                                                                                                                                                                                                                                                                                                                                                                                                                                                     , MXMXMXMXMXMXMXMXMXG n n M J MXMXMXMXMXMXMXMXMXMXMXMXMXMXMXMXMXMXMXMXMXMXk k b b n n n n n n n n n n n Q Q Q n n b k k k k x j j j j ",
"MXMXMXMXMXMXMXMXMXMXMXMXMXMXMXMXMXMXMXMXMXMXMXMXMXMXMXMXMXMXMXMXMXMXMXMXMXMXMXMXMXMXMXMXMXMXMXMXMXMXMXMXMXMXMXMXMXMXMXMXMXMXMXMXMXMXMXMXMXMXMXMXMXMX.                                                                                                                                                                                                                                                                                                                                                                                                                                                                                                                                                                                   . MXMXMXMXG J MXMXG M n m G MXMXMXMXMXMXMXMXMXMXMXMXMXMXMXMXMXMXMXMXMXMXMXB x k b n _ MXG V n n n Q M n M Q Q Q Q n b b b k k k k j j j ",
"MXMXMXMXMXMXMXMXMXMXMXMXMXMXMXMXMXMXMXMXMXMXMXMXMXMXMXMXMXMXMXMXMXMXMXMXMXMXMXMXMXMXMXMXMXMXMXMXMXMXMXMXMXMXMXMXMXMXMXMXMXMXMXMXMXMXMXMXMXMXMXMXMXMXMXMX: , + + + + + + + + + = - + + + + + + + + + + + + + + + + + + + + % + % 3 3 3 3 3 3 3 3 3 3 3 3 3 3 3 1 1 3 1 1 1 1 1 1 1 1 1 1 1 1 1 1 3 1 1 3 3 3 3 3 3 3 3 3 3 3 4 3 3 4 3 4 3 4 4 4 4 3 3 3 < % + & 1 < 1 $ + + + & 1 1 3 3 3 3 5 % % + + , & < 3 1 3 % + + + + % + + + + + + + + + + + + + + + + + + + + + + + + + + + + + + + + , % = % = % % + + + + + + + + + + + + + + + + + + + + + + + + + + + + + + + + + + + + + + + + + + + + + + + , + + + , + + + + + % - + , + % + + + + + + + + % - , + - + + + = - , - , @ + , + + + + + + + + + + + + + + + @ + O + O + + - MXMXMXMXMXM b M m n M J MXMXMXMXMXMXMXMXMXMXMXMXMXMXMXMXMXMXMXMXMXMXMXMXMXk k k b ' MXMXMXMXMXMXMXMXMXMXMXMXMX( ' M b b k k k k k j j j ",
"MXMXMXMXMXMXMXMXMXMXMXMXMXMXMXMXMXMXMXMXMXMXMXMXMXMXMXMXMXMXMXMXMXMXMXMXMXMXMXMXMXMXMXMXMXMXMXMXMXMXMXMXMXMXMXMXMXMXMXMXMXMXMXMXMXMXMXMXMXMXMXMXMXMXMXMXMXMXMXMXMXMXMXMXMXMXMXMXMXMXMXMXMXMXMXMXMXMXMXMXMXMXMXMXMXMXMXMXMXMXMXMXC n Q Q Q n n n n n n n n n b n n n b b b b b b m b b b b b b n b b n n n n n n Q Q Q Q W Q Q Q Q Q W Q Q Q ! / Q n n n C MXMXMXz k k MXMXMXMX( n n n n n n V MXMXMXMXMXMXm k k m H MXMXMXMXMXMXMXMXMXMXMXMXMXMXMXMXMXMXMXMXMXMXMXMXMXMXMXMXMXMXMXMXMXMXMXMXMXMXMXMXZ MXMXMXMXMXMXMXMXMXMXMXMXMXMXMXMXMXMXMXMXMXMXMXMXMXMXMXMXMXMXMXMXMXMXMXMXMXMXMXMXMXMXMXMXMXMXMXMXMXMXMXMXMXMXMXMXMXMXMXMXMXMXMXMXMXMXMXMXMXMXMXMXMXMXMXMXMXMXMXMXMXMXMXMXMXMXMXMXMXMXMXMXMXMXMXMXMXMXMXMXMXMXMXMXMXMXMXMXMXMXMXMXMXMXMXMXMXMXM n M G MXMXMXMXMXMXMXMXMXMXMXMXMXMXMXMXMXMXMXMXMXMXMXMXMXMXMXMXz k k J MXMXMXMXMXMXMXMXMXMXMXMXMXMXMXMXM b n b k k k k k j j ",
"MXMXMXMXMXMXMXMXMXMXMXMXMXMXMXMXMXMXMXMXMXMXMXMXMXMXMXMXMXMXMXMXMXMXMXMXMXMXMXMXMXMXMXMXMXMXMXMXMXMXMXMXMXMXMXMXMXMXMXMXMXMXMXMXMXMXMXMXMXMXMXMXMXMXMXMXMXMXMXMXMXMXMXMXMXMXMXMXMXMXMXMXMXMXMXMXMXMXMXMXMXMXMXMXMXMXMXMXMXMXMXMXC Q n Q Q Q Q n Q n n n n n n b b n n b b b b b n b b n b b n n n b n n n n n Q Q Q Q Q Q Q Q ! Q Q Q Q Q Q ! ! Q n n n ' MXMXMXMXz B MXMXMXC n n n n n n b n V MXMXMXMXMXF k k k k F MXMXMXMXMXMXMXMXMXMXMXMXMXMXMXMXMXMXMXMXMXMXMXMXMXMXMXMXMXMXMXMXMXMXMXMXMXMXl d N MXMXMXMXMXMXMXMXMXMXMXMXMXMXMXMXMXMXMXMXMXMXMXMXMXMXMXMXMXMXMXMXMXV b m V MXMXMXMXMXMXMXMXMXMXMXMXMXMXMXMXMXMXMXMXMXMXMXMXMXMXMXMXMXMXMXMXMXMXMXMXMXMXMXMXMXMXMXMXMXMXMXMXMXMXMXMXMXMXMXMXMXMXMXMXMXMXMXMXMXMXMXMXMXMXMXMXMXMXMXMXMXMXMXMXMXMXMXMXMXMXMXMXMXMXMXMXMXMXMXMXMXMXMXMXMXMXMXMXMXMXMXD MXMXMXMXz k z MXMXMXMXMXMXMXMXMXMXMXMXMXMXMXMXMXG n b b k k k j k j j ",
"MXMXMXMXMXMXMXMXMXMXMXMXMXMXMXMXMXMXMXMXMXMXMXMXMXMXMXMXMXMXMXMXMXMXMXMXMXMXMXMXMXMXMXMXMXMXMXMXMXMXMXMXMXMXMXMXMXMXMXMXMXMXMXMXMXMXMXMXMXMXMXMXMXMXMXMXMXMXMXMXMXMXMXMXMXMXMXMXMXMXMXMXMXMXMXMXMXMXMXMXMXMXMXMXMXMXMXG MXMXMXMX( n n Q n Q n Q n Q n n n n n n n b b m b b n b b b b b b m b b b n n n n n Q n Q Q Q Q Q Q Q Q Q ! ! Q Q Q Q n Q n n n MXMXMXMXMXMXMXMXMXC n n n b n n n n n n MXMXMXMXMXMXk b k b k H MXMXMXMXMXMXMXMXMXMXMXMXMXMXMXMXMXMXMXMXMXMXMXMXMXMXMXMXMXMXMXMXMXMXMXMXMXj j l MXMXMXMXMXMXMXMXMXMXMXMXMXMXMXMXMXMXMXMXMXMXMXMXMXMXMXMXMXMXMXMXMXb b b b V MXMXMXMXMXMXMXMXMXMXMXMXMXMXMXMXMXMXMXMXMXMXMXMXMXMXMXMXMXMXMXMXMXMXMXMXMXMXMXMXMXMXMXMXMXMXMXMXMXMXMXMXMXMXMXMXMXMXMXMXMXMXMXMXMXMXMXMXMXMXMXMXMXMXMXMXMXMXMXMXMXMXMXMXMXMXMXMXMXMXMXMXMXMXMXMXMXMXMXMXMXMXMXMXMXMXf MXMXMXMXMXz MXMXMXMXMXMXMXMXMXMXMXMXMXMXMXMXMXMXMXM b b k k k k k k j ",
"MXMXMXMXMXMXMXMXMXMXMXMXMXMXMXMXMXMXMXMXMXMXMXMXMXMXMXMXMXMXMXMXMXMXMXMXMXMXMXMXMXMXMXMXMXMXMXMXMXMXMXMXMXMXMXMXMXMXMXMXMXMXMXMXMXMXMXMXMXMXMXMXMXMXMXMXMXMXMXMXMXMXMXMXMXMXMXMXMXMXMXMXMXMXMXMXMXMXMXMXMXMXMXMXMXMX( n n G MX' M n Q n Q Q n Q n Q n n n n n b n n b b m b b b b n m b n b M n n n n n n n Q Q Q ! Q W Q Q Q Q Q Q ! Q Q ! Q n n n n n MXMXMXMXMXMXMXM n n n n n n n n v n n n G MXMXMXMXMXMXV m k k b A MXMXMXMXMXMXMXMXMXMXMXMXMXMXMXMXMXMXMXMXMXMXMXMXMXMXMXMXMXMXMXMXMXMXMXMXN j Z MXMXMXMXMXMXMXMXMXMXMXMXMXMXMXMXMXMXMXMXMXMXMXMXMXMXMXMXMXMXMXMXMXb b b b m MXMXMXMXMXMXMXMXMXMXMXMXMXS MXMXMXMXMXMXMXMXMXMXMXMXMXMXMXMXMXMXMXMXMXMXMXMXMXMXMXMXMXMXMXMXMXMXMXMXMXMXMXMXMXMXMXMXMXMXMXMXMXMXMXMXMXMXMXMXMXMXMXMXMXMXMXMXMXMXMXMXMXMXMXMXMXMXMXMXMXMXMXMXMXMXMXMXMXMXMXMXMXMXMXf l MXMXMXMXMXMXMXMXMXMXMXMXMXMXMXMXMXMXMXMXMXMXMXMXMXMXb k k b k k k j j ",
"MXMXMXMXMXMXMXMXMXMXMXMXMXMXMXMXMXMXMXMXMXMXMXMXMXMXMXMXMXMXMXMXMXMXMXMXMXMXMXMXMXMXMXMXMXMXMXMXMXMXMXMXMXMXMXMXMXMXMXMXMXMXMXMXMXMXMXMXMXMXMXMXMXMXMXMXMXMXMXMXMXMXMXMXMXMXMXMXMXMXMXMXMXMXMXMXMXMXMXMXMXMXMXMXMXC n n n n n n n Q Q ! Q n n Q Q n Q n Q n n n m b b b b b n b b b b b b b b b b n n n n Q n Q ! ! ! Q Q Q ! Q Q Q Q Q Q Q W Q Q n n Q MXMXMXMXMXMXMXQ Q n Q n n n n n n Q n n M MXMXMXMXMXMXMXMXV k b b B MXMXMXMXMXMXMXMXMXMXMXMXMXMXMXMXMXMXMXMXMXMXMXMXMXMXMXMXMXMXMXMXMXMXMXMXMXMXMXMXMXMXMXMXMXMXMXMXMXMXMXMXMXMXMXMXMXMXMXMXMXMXMXMXMXMXMXMXMXMXMXb b m b m MXMXMXMXMXMXMXMXMXMXMXMXA MXMXMXMXMXMXMXMXMXMXMXMXMXMXMXMXMXMXMXMXMXZ MXMXMXMXMXMXMXMXMXMXMXMXMXMXMXMXMXMXMXMXMXMXMXMXMXMXMXMXMXMXMXMXMXMXMXMXMXMXMXMXMXMXMXMXMXMXMXMXMXMXMXMXMXMXMXMXMXMXMXMXMXMXMXMXMXMXMXMXMXMXd D MXMXMXMXMXMXMXMXMXMXMXMXMXMXMXMXMXMXMXMXMXMXMXMXMXMXm b b k k k k k j ",
"MXMXMXMXMXMXMXMXMXMXMXMXMXMXMXMXMXMXMXMXMXMXMXMXMXMXMXMXMXMXMXMXMXMXMXMXMXMXMXMXMXMXMXMXMXMXMXMXMXMXMXMXMXMXMXMXMXMXMXMXMXMXMXMXMXMXMXMXMXMXMXMXMXMXMXMXMXMXMXMXMXMXMXMXMXMXMXMXMXMXMXMXMXMXMXMXMXMXMXMXMXMXMX_ M n n n n Q Q n n Q ! ! Q Q Q n n Q n Q n n n n n b b b b b b b b m b b b n b M n b n n n n Q Q ! ! ! Q ! Q Q Q Q Q Q Q Q Q Q n Q Q n Q MXMXMXMXMXMXMXM n Q Q n n n v n n n n n M MXMXMXMXMXMXMXMXMXH k k k m MXMXMXMXMXMXMXMXMXMXMXMXMXMXMXMXMXMXMXMXMXMXMXMXMXMXMXMXMXMXMXMXMXMXMXMXMXMXMXMXMXMXMXMXMXMXMXMXMXMXMXMXMXMXMXMXMXMXMXMXMXMXMXMXMXMXMXMXMXMXm b b b M MXMXMXMXMXMXMXMXMXMXMXMXS MXMXMXMXMXMXMXMXMXMXMXMXMXMXMXMXMXMXMXMXZ B MXMXMXMXMXMXMXMXMXMXMXMXMXMXMXMXMXMXMXMXMXMXMXMXMXMXMXMXMXMXMXMXMXMXMXMXMXMXMXMXMXMXMXMXMXMXMXMXMXMXMXMXMXMXMXMXMXMXMXMXMXMXMXMXMXMXMXMXMXMXZ MXMXMXMXMXMXMXMXMXMXMXMXMXMXMXMXMXMXMXMXMXMXMXMXMXMXMXm c k k b k k j k ",
"MXMXMXMXMXMXMXMXMXMXMXMXMXMXMXMXMXMXMXMXMXMXMXMXMXMXMXMXMXMXMXMXMXMXMXMXMXMXMXMXMXMXMXMXMXMXMXMXMXMXMXMXMXMXMXMXMXMXMXMXMXMXMXMXMXMXMXMXMXMXMXMXMXMXMXMXMXMXMXMXMXMXMXMXMXMXMXMXMXMXMXMXMXMXMXMXMXMXMXMXMXM M n n n n n n n n n n ! ! ! / n Q Q Q n Q n Q n n n b n m n b n b m b b n b b b b n b n n n n Q n Q ! ! ! Q Q Q Q ! Q Q Q ! Q Q Q Q n n Q n ( MXMXMXMXMXMX~ n Q n n n n n n n n n n n MXMXMXMXMXMXMXMXMXMXMXm b k k m MXMXMXMXMXMXMXMXMXMXMXMXMXMXMXMXMXMXMXMXMXMXMXMXMXMXMXMXMXMXMXMXMXMXMXMXMXMXMXMXMXMXMXMXMXMXMXMXMXMXMXMXMXMXMXMXMXMXMXMXMXMXMXMXMXMXMXMXMXm n n J MXMXMXMXMXMXMXMXMXMXMXMXMXMXMXMXMXMXMXMXMXMXMXMXMXMXMXMXMXMXMXMXMXz S MXMXMXMXMXMXMXMXMXMXMXMXMXMXMXMXMXMXMXMXMXMXMXMXMXMXMXMXMXMXMXMXMXMXMXMXMXMXMXMXMXMXMXMXMXMXMXMXMXMXMXMXMXMXMXMXMXMXMXMXMXMXMXMXMXMXMXMXMXMXMXMXMXMXMXMXMXMXMXMXMXMXMXMXMXMXMXMXMXMXMXMXMXMXMXMXMXMXm b b k k x k k j ",
"MXMXMXMXMXMXMXMXMXMXMXMXMXMXMXMXMXMXMXMXMXMXMXMXMXMXMXMXMXMXMXMXMXMXMXMXMXMXMXMXMXMXMXMXMXMXMXMXMXMXMXMXMXMXMXMXMXMXMXMXMXMXMXMXMXMXMXMXMXMXMXMXMXMXMXMXMXMXMXMXMXMXMXMXMXMXMXMXMXMXMXMXMXMXMXMXMXMXMXMXM n v n Q n n n n n n n Q Q ) ] ] ( Q n n Q n n n n n n n b b b n b b b b b b b n M b n n n n Q n Q Q ! ! ! Q Q Q Q Q Q ! Q Q Q Q Q Q Q Q Q Q n Q ( MXMXMXMXMX( n n Q n n n n n n n n Q Q MXMXMXMXMXMXMXMXMXMXMXMXF k k k k F MXMXMXMXMXMXMXMXMXMXMXMXMXMXMXMXMXMXMXMXMXMXMXMXMXMXMXMXMXMXMXMXMXMXMXMXMXMXMXMXMXMXMXMXMXMXMXMXMXMXMXMXMXMXMXMXMXMXMXMXMXMXMXMXMXMXMXJ n M MXMXMXMXMXMXMXMXMXMXMXMXMXMXMXMXMXMXMXMXMXMXMXMXMXMXMXMXMXMXMXMXMXMXz MXMXMXMXMXMXMXMXMXMXMXMXMXMXMXMXMXMXMXMXMXMXMXMXMXMXMXMXMXMXMXMXMXMXMXMXMXMXMXMXMXMXMXMXMXMXMXMXMXMXMXMXMXMXMXMXMXMXMXMXMXMXMXMXMXMXMXMXMXMXMXMXMXMXMXMXMXMXMXMXMXMXMXMXMXMXMXMXMXMXMXMXMXMXMXMXMXMXMXm b b c k k j k k ",
"MXMXMXMXMXMXMXMXMXMXMXMXMXMXMXMXMXMXMXMXMXMXMXMXMXMXMXMXMXMXMXMXMXMXMXMXMXMXMXMXMXMXMXMXMXMXMXMXMXMXMXMXMXMXMXMXMXMXMXMXMXMXMXMXMXMXMXMXMXMXMXMXMXMXMXMXMXMXMXMXMXMXMXMXMXMXMXMXMXMXMXMXMXMXMXMXMXMXMX_ n n n Q n n n n n Q n n n ) MXMXMXMXQ Q Q n Q n n n n n M n b m b b b n b n b n b b b n n n n n n n n ! ! Q Q Q ! Q Q Q Q Q Q ! ! Q n Q n Q n Q n M MXMXMXMXMX~ n Q n Q n n n n n n n n C MXMXMXMXMXMXMXMXMXMXMXMXMXH b b k k V MXMXMXMXMXMXMXMXMXMXMXMXMXMXMXMXMXMXMXMXMXMXMXMXMXMXMXMXMXMXMXMXMXMXMXMXMXMXMXMXMXMXMXMXMXMXMXMXMXMXMXMXMXMXMXMXMXMXMXMXMXMXMXMXMXMXMXH J MXMXMXMXMXMXMXMXMXMXMXMXMXMXMXMXMXMXMXMXMXMXMXMXMXMXMXMXMXMXMXMXMXB z MXMXMXMXMXMXMXMXMXMXMXMXMXMXMXMXMXMXMXMXMXMXMXMXMXMXMXMXMXMXMXMXMXMXMXMXMXMXMXMXMXMXMXMXMXMXMXMXMXMXMXMXMXMXMXMXMXMXMXMXMXMXMXMXMXMXMXMXMXMXMXMXMXMXMXMXMXMXMXMXMXMXMXMXMXMXMXMXZ MXMXMXMXMXMXMXMXMXMXb b b b k k k k j ",
"MXMXMXMXMXMXMXMXMXMXMXMXMXMXMXMXMXMXMXMXMXMXMXMXMXMXMXMXMXMXMXMXMXMXMXMXMXMXMXMXMXMXMXMXMXMXMXMXMXMXMXMXMXMXMXMXMXMXMXMXMXMXMXMXMXMXMXMXMXMXMXMXMXMXMXMXMXMXMXMXMXMXMXMXMXMXMXMXMXMXMXMXMXMXMXMXMXMX' n Q n n n n n n n n n n n M MXMXMXMXMXMXQ Q Q n Q Q n n n b n b b b b b b b m b n b b n n n n n n Q Q Q Q ! Q Q Q Q Q Q / Q Q Q Q Q Q Q Q Q n Q n Q M MXMXMXMXMXM n Q n n Q n n n Q n n n C MXMXMXMXMXMXMXMXMXMXMXMXMXMXMXb k k k V MXMXMXMXMXMXMXMXMXMXMXMXMXMXMXMXMXMXMXMXMXMXMXMXMXMXMXMXMXMXMXMXMXMXMXMXMXMXMXMXMXMXMXMXMXMXMXMXMXMXMXMXMXMXMXMXMXMXMXMXMXMXMXMXMXMXMXMXMXMXMXMXMXMXMXMXMXMXMXMXMXMXMXMXMXMXMXMXMXMXMXMXMXMXMXMXMXMXMXMXMXz A MXMXMXMXMXMXMXMXMXMXMXMXZ MXMXMXMXMXMXMXMXMXMXMXMXMXMXMXMXMXMXMXMXMXMXMXMXMXMXMXMXMXMXMXMXMXMXMXMXMXMXMXMXMXMXMXMXMXMXMXMXMXMXMXMXMXMXMXMXMXMXMXMXMXMXMXMXMXMXMXMXMXMXMXMXMXMXMXd MXMXMXMXMXMXMXMXMXV b b b b k b k k k ",
"MXMXMXMXMXMXMXMXMXMXMXMXMXMXMXMXMXMXMXMXMXMXMXMXMXMXMXMXMXMXMXMXMXMXMXMXMXMXMXMXMXMXMXMXMXMXMXMXMXMXMXMXMXMXMXMXMXMXMXMXMXMXMXMXMXMXMXMXMXMXMXMXMXMXMXMXMXMXMXMXMXMXMXMXMXMXMXMXMXMXMXMXMXMXMXMXMXMXM n n n n n n n n Q n n n n ( MXMXMXMXMXMXMXn Q Q Q n n n n n b n b n m b b b n b b n n n n n n n n Q n Q Q Q Q Q Q Q Q Q Q Q / Q Q Q Q Q Q Q Q Q Q n Q MXMXMXMXMXQ Q n Q n n n n Q n n n n ( MXMXMXMXMXMXMXMXMXMXMXMXMXMXMXMXk b b k z MXMXMXMXMXMXMXMXMXMXMXMXMXMXMXMXMXMXMXMXMXMXMXMXMXMXMXMXMXMXMXMXMXMXMXMXMXMXMXMXMXMXMXMXMXMXMXMXMXMXMXMXMXMXMXMXMXMXMXMXMXMXMXMXMXMXMXMXMXMXMXMXMXMXMXMXMXMXMXMXMXMXMXMXMXMXMXMXMXMXMXMXMXMXMXMXMXMXMXMXz MXMXMXMXMXMXMXMXMXMXMXMXZ Z MXMXMXMXMXMXMXMXMXMXMXMXMXMXMXMXMXMXMXMXMXMXMXMXMXMXMXMXMXMXMXMXMXMXMXMXMXMXMXMXMXMXMXMXMXMXMXMXMXMXMXMXMXMXMXMXMXMXMXMXMXMXMXMXMXMXMXMXMXMXMXMXMXMXMXN MXMXMXMXMXMXMXMXMXb k c b b b b k k k ",
"MXMXMXMXMXMXMXMXMXMXMXMXMXMXMXMXMXMXMXMXMXMXMXMXMXMXMXMXMXMXMXMXMXMXMXMXMXMXMXMXMXMXMXMXMXMXMXMXMXMXMXMXMXMXMXMXMXMXMXMXMXMXMXMXMXMXMXMXMXMXMXMXMXMXMXMXMXMXMXMXMXMXMXMXMXMXMXMXMXMXMXMXMXMXMXMXMXMXC n n n n n n n n n n n n n MXMXMXMXMXMXMXMXMX_ Q Q Q n n n b n n b b b b b n b b n n n n Q n n n Q Q Q Q Q Q Q Q Q Q Q Q Q Q Q Q Q Q Q Q Q Q Q Q Q Q Q MXMXMXMXMXMX( Q n Q n n n n n n n n MXMXMXMXMXMXMXMXMXMXMXMXMXMXMXMXMXF b k b k k MXMXMXMXMXMXMXMXMXMXMXMXMXMXMXMXMXMXMXMXMXMXMXMXMXMXMXMXMXMXMXMXMXMXMXMXMXMXMXMXMXMXMXMXMXMXMXMXMXMXMXMXMXMXMXMXMXMXMXMXMXMXMXMXMXMXMXMXMXMXMXMXMXMXMXMXMXMXMXMXMXMXMXMXMXMXMXMXMXMXMXMXMXMXMXMXMXMXMXz MXMXMXMXMXMXMXMXMXMXMXMXl MXMXMXMXMXMXMXMXMXMXMXMXMXMXMXMXMXMXMXMXMXMXMXMXMXMXMXMXMXMXMXMXMXMXMXMXMXMXMXMXMXMXMXMXMXMXMXMXMXMXMXMXMXMXMXMXMXMXMXMXMXMXMXMXMXMXMXMXMXMXMXMXMXMXMXMXMXMXMXMXMXMXMXMXMXV k b b b b c b k k k ",
"MXMXMXMXMXMXMXMXMXMXMXMXMXMXMXMXMXMXMXMXMXMXMXMXMXMXMXMXMXMXMXMXMXMXMXMXMXMXMXMXMXMXMXMXMXMXMXMXMXMXMXMXMXMXMXMXMXMXMXMXMXMXMXMXMXMXMXMXMXMXMXMXMXMXMXMXMXMXMXMXMXMXMXMXMXMXMXMXMXMXMXMXMXMXMXMXMXMXMX[ n n n n Q n n Q n n n ( MXMXMXMXMXMXMXMXMXMXMXQ Q n n n n b n n n n n n b n n n n n n n n n n Q Q Q ! ! ! Q Q n n Q Q Q Q Q Q Q Q Q n n Q n Q n n M MXMXMXMXMXMXMXM Q n Q Q n n n n n _ MXMXG M C MXMXMXMXMXMXMXMXMXMXMXMXMXB b b k k m MXMXMXMXMXMXMXMXMXMXMXMXMXMXMXMXMXMXMXMXMXMXMXMXMXMXMXMXMXMXMXMXMXMXMXMXMXMXMXMXMXMXMXMXMXMXMXMXMXMXMXMXMXMXMXMXMXMXMXMXMXMXMXMXMXMXMXMXMXMXMXMXMXMXMXMXMXMXMXMXMXMXMXMXMXMXMXMXMXMXMXMXMXMXMXMXMXB B MXMXMXMXMXMXMXMXMXMXMXMXZ MXMXMXMXMXMXMXMXMXMXMXMXMXMXMXMXMXMXMXMXMXMXMXMXMXMXMXMXMXMXMXMXMXMXMXMXMXMXMXMXMXMXMXMXMXMXMXMXMXMXMXMXMXMXMXMXMXMXMXMXMXMXMXMXMXMXMXMXMXMXMXMXMXMXMXMXMXMXMXMXMXMXMXMXMXB k b k b b b b k k k ",
"MXMXMXMXMXMXMXMXMXMXMXMXMXMXMXMXMXMXMXMXMXMXMXMXMXMXMXMXMXMXMXMXMXMXMXMXMXMXMXMXMXMXMXMXMXMXMXMXMXMXMXMXMXMXMXMXMXMXMXMXMXMXMXMXMXMXMXMXMXMXMXMXMXMXMXMXMXMXMXMXMXMXMXMXMXMXMXMXMXMXMXMXMXMXMXMXMXMXMXMX( n n n n n n n M _ MXMXMXMXMXMXMXMXMXMXMXMXMX( Q n n n n n n b b n n b n n n n n n n n n Q Q Q Q Q ! ! ! Q Q Q Q Q v Q Q Q Q Q Q Q Q Q n Q Q Q Q M MXMXMXMXMXMXMXM n n n Q Q n Q n ( MXMXMXn n n J MXMXMXMXMXMXMXMXMXMXMXMXMXb k k k k MXMXMXMXMXMXMXMXMXMXMXMXMXMXMXMXMXMXMXMXMXMXMXMXMXMXMXMXMXMXMXMXMXMXMXMXMXMXMXMXMXMXMXMXMXMXMXMXMXMXMXMXMXMXMXMXMXMXMXMXMXMXMXMXMXMXMXMXMXMXMXMXMXMXMXMXMXMXMXMXMXMXMXMXMXMXMXMXMXMXD MXMXMXMXMXMXB MXMXMXMXMXMXMXMXMXMXMXMXMXMXMXMXMXMXMXMXMXMXMXMXMXMXMXMXMXMXMXMXMXMXMXMXMXMXMXMXMXMXMXMXMXMXMXMXMXMXMXMXMXMXMXMXMXMXMXMXMXMXMXMXMXMXMXMXMXMXMXMXMXMXMXMXMXMXMXMXMXMXMXMXMXMXMXMXMXMXMXMXMXMXMXMXMXMXMXF k k b b k b b b b k ",
"MXMXMXMXMXMXMXMXMXMXMXMXMXMXMXMXMXMXMXMXMXMXMXMXMXMXMXMXMXMXMXMXMXMXMXMXMXMXMXMXMXMXMXMXMXMXMXMXMXMXMXMXMXMXMXMXMXMXMXMXMXMXMXMXMXMXMXMXMXMXMXMXMXMXMXMXMXMXMXMXMXMXMXMXMXMXMXMXMXMXMXMXMXMXMXMXMXMXMXMXn n Q Q n n n n MXMXMXMXMXMXMXMXMXMXMXMXMXMXMX' Q Q n n n n n n n n n n n n n n n n n n n Q Q Q Q Q ! ! Q Q Q Q n Q Q Q Q Q Q Q n Q Q n Q Q n Q Q Q MXMXMXMXMXMXMXMX( ~ Q n n Q M ( MXMXMXMXM b n V MXMXMXMXMXMXMXMXMXMXMXMXMXF c b b b m MXMXMXMXMXMXMXMXMXMXMXMXMXMXMXMXMXMXMXMXMXMXMXMXMXMXMXMXMXMXMXMXMXMXMXMXMXMXMXMXMXMXMXMXMXMXMXMXMXMXMXMXMXMXMXMXMXMXMXMXMXMXMXMXMXMXMXMXMXMXMXMXMXMXMXMXMXMXMXMXMXMXMXMXMXMXMXMXMXMXMXMXMXMXMXMXz MXMXMXMXMXMXMXMXMXMXMXMXMXMXMXMXMXMXMXMXMXMXMXMXMXMXMXMXMXMXMXMXMXMXMXMXMXMXMXMXMXMXMXMXMXMXMXMXMXMXMXMXMXMXMXMXMXMXMXMXMXMXMXMXMXMXMXMXMXMXMXMXMXMXMXMXMXMXMXMXMXMXMXMXMXMXMXMXMXMXMXMXMXMXMXMXMXMXMXMXb b k k b z k c k b ",
"MXMXMXMXMXMXMXMXMXMXMXMXMXMXMXMXMXMXMXMXMXMXMXMXMXMXMXMXMXMXMXMXMXMXMXMXMXMXMXMXMXMXMXMXMXMXMXMXMXMXMXMXMXMXMXMXMXMXMXMXMXMXMXMXMXMXMXMXMXMXMXMXMXMXMXMXMXMXMXMXMXMXMXMXMXMXMXMXMXMXMXMXMXMXMXMXMXMXMX' Q Q ! Q n n n M MXMXMXMXMXMXMXMXMXMXMXMXMXMXMXMX^ Q n n n n n n n n Q n n n n n n n n n n Q Q Q Q Q ! ! Q Q Q Q n Q Q Q Q n Q Q Q Q n Q n Q n Q Q ' MXMXMXMXMXMXMXMXMXMXMXMXMXMXMXMXMXMXMXMXG M n G MXMXMXMXMXMXMXMXMXMXMXMXMXMXm b k b b V MXMXMXMXMXMXMXMXMXMXMXMXMXMXMXMXMXMXMXMXMXMXMXMXMXMXMXMXMXMXMXMXMXMXMXMXMXMXMXMXMXMXMXMXMXMXMXMXMXMXMXMXMXMXMXMXMXMXMXMXMXMXMXMXMXMXMXMXMXMXMXMXMXMXMXMXMXMXMXMXMXMXMXMXMXMXMXMXMXMXMXMXMXMXB B MXMXMXMXMXMXMXMXMXMXMXMXMXMXMXMXMXMXMXMXMXMXMXMXMXMXMXMXMXMXMXMXMXMXMXMXMXMXMXMXMXMXMXMXMXMXMXMXMXMXMXMXMXMXMXMXMXMXMXMXMXMXMXMXMXMXMXMXMXMXMXMXMXMXMXMXMXMXMXMXMXMXMXMXMXMXMXMXMXMXMXMXMXMXMXMXMXMXMXMXb k k H MXMXMXV m k ",
"MXMXMXMXMXMXMXMXMXMXMXMXMXMXMXMXMXMXMXMXMXMXMXMXMXMXMXMXMXMXMXMXMXMXMXMXMXMXMXMXMXMXMXMXMXMXMXMXMXMXMXMXMXMXMXMXMXMXMXMXMXMXMXMXMXMXMXMXMXMXMXMXMXMXMXMXMXMXMXMXMXMXMXMXMXMXMXMXMXMXMXMXMXMXMXMXMXMXMXMX! ! Q n n n n ( MXMXMXMXMXMXMXMXMXMXMXMXMXMXMXMXMX~ Q n n n Q n n n n n n n n n n n n Q Q Q Q Q Q Q Q ! ! ! Q Q Q Q Q n Q Q n Q Q n Q Q Q Q n Q ( MXMXMXMXMXMXMXMXMXMXMXMXMXMXMXMXMXMXMXMXMXMXMXMXMXMXMXMXMXMXMXMXMXMXMXMXMXMXMXMXm b b b b G MXMXMXMXMXMXMXMXMXMXMXMXMXMXMXMXMXMXMXMXMXMXMXMXMXMXMXMXMXMXMXMXMXMXMXMXMXMXMXMXMXMXMXMXMXMXMXMXMXMXMXMXMXMXMXMXMXMXMXMXMXMXMXMXMXMXMXMXMXMXMXMXMXMXMXMXMXMXMXMXMXMXMXMXMXMXMXMXMXMXMXMXMXMXMXMXMXMXMXMXMXMXMXMXMXMXMXMXMXMXMXMXMXMXMXMXMXMXMXMXMXMXMXMXMXMXMXMXMXMXMXMXMXMXMXMXMXMXMXMXMXMXMXMXMXMXMXMXMXMXMXMXMXMXMXMXMXMXMXMXMXMXMXMXMXMXMXMXMXMXMXMXMXMXMXMXMXMXMXMXMXMXMXMXMXMXMXMXMXMXMXMXMXMXMXB m MXMXMXMXMXMXMXMX",
"MXMXMXMXMXMXMXMXMXMXMXMXMXMXMXMXMXMXMXMXMXMXMXMXMXMXMXMXMXMXMXMXMXMXMXMXMXMXMXMXMXMXMXMXMXMXMXMXMXMXMXMXMXMXMXMXMXMXMXMXMXMXMXMXMXMXMXMXMXMXMXMXMXMXMXMXMXMXMXMXMXMXMXMXMXMXMXMXMXMXMXMXMXMXMXMXMXMXMXMX) Q n n n n n C MXMXMXMXMXMXMXMXMXMXMXMXMXMXMXMXMXMX' M Q n n n n n n n n n n n n n n Q Q ^ ! Q Q Q ! } ! ! Q W n Q Q Q n Q Q Q Q Q Q n Q n Q Q MXMXMXMXMXMXMXMXMXMXMXMXMXMXMXMXMXMXMXMXMXMXMXMXMXMXMXMXMXMXMXMXMXMXMXMXMXMXMXMXMXMXm b b n m MXMXMXMXMXMXMXMXMXMXMXMXMXMXMXMXMXMXMXMXMXMXMXMXMXMXMXMXMXMXMXMXMXMXMXMXMXMXMXMXMXMXMXMXMXMXMXMXMXMXMXMXMXMXMXMXMXMXMXMXMXMXMXMXMXMXMXMXMXMXMXMXMXMXMXMXMXMXMXMXMXMXMXMXMXMXMXMXMXMXMXMXMXMXMXMXMXMXMXMXMXMXMXMXMXMXMXMXMXMXMXMXMXMXMXMXMXMXMXMXMXMXMXMXMXMXMXMXMXMXMXMXMXMXMXMXMXMXMXMXMXMXMXMXMXMXMXMXMXMXMXMXMXMXMXMXMXMXMXMXMXMXMXMXMXMXMXMXMXMXMXMXMXMXMXMXMXMXMXMXMXMXMXMXMXMXMXMXMXMXMXMXMXMXMXMXMXMXMXMXMXMXMXMXMX",
"MXMXMXMXMXMXMXMXMXMXMXMXMXMXMXMXMXMXMXMXMXMXMXMXMXMXMXMXMXMXMXMXMXMXMXMXMXMXMXMXMXMXMXMXMXMXMXMXMXMXMXMXMXMXMXMXMXMXMXMXMXMXMXMXMXMXMXMXMXMXMXMXMXMXMXMXMXMXMXMXMXMXMXMXMXMXMXMXMXMXMXMXMXMXMXMXMXMXMXMX' n n n M _ MXMXMXMXMXMXMXMXMXMXMXMXMXMXMXMXMXMXMXMXMX' n n n n Q n Q n Q n n Q Q n n Q ! MXMXMX] ' MXMXMXQ Q Q Q Q n Q Q Q Q n Q n Q Q Q Q Q ( MXMXMXMXMXMXMXMXMXMXMXMXMXMXMXMXMXMXMXMXMXMXMXMXMXMXMXMXMXMXMXMXMXMXMXMXMXMXMXMXMXMXMXm b b b m MXMXMXMXMXMXMXMXMXMXMXMXMXMXMXMXMXMXMXMXMXMXMXMXMXMXMXMXMXMXMXMXMXMXMXMXMXMXMXMXMXMXMXMXMXMXMXMXMXMXMXMXMXMXMXMXMXMXMXMXMXMXMXMXMXMXMXMXMXMXMXMXMXMXMXMXMXMXMXMXMXMXMXMXMXMXMXMXMXMXMXMXMXMXMXMXMXMXMXMXMXMXMXMXMXMXMXMXMXMXMXMXMXMXMXMXMXMXMXMXMXMXMXMXMXMXMXMXMXMXMXMXMXMXMXMXMXMXMXMXMXMXMXMXMXMXMXMXMXMXMXMXMXMXMXMXMXMXMXMXMXMXMXMXMXMXMXMXMXMXMXMXMXMXMXMXMXMXMXMXMXMXMXMXMXMXMXMXMXMXMXMXMXMXMXMXMXMXMXMXMXMXMXMX",
"MXMXMXMXMXMXMXMXMXMXMXMXMXMXMXMXMXMXMXMXMXMXMXMXMXMXMXMXMXMXMXMXMXMXMXMXMXMXMXMXMXMXMXMXMXMXMXMXMXMXMXMXMXMXMXMXMXMXMXD MXMXMXMXMXMXMXMXMXMXMXMXMXMXMXMXMXMXMXMXMXMXMXMXMXMXMXMXMXMXMXMXMXMXMXMXMXMXMXMXM b n M MXMXMXMXMXMXMXMXMXMXMXMXMXMXMXMXMXMXMXMXMXMXMXMX( n n Q n Q n n Q n n n n n n Q ) MXMXMXMXMXMXMXMXC Q Q n Q Q n Q Q Q n Q n Q Q Q n ( MXMXMXMXMXMXMXMXMXMXMXMXMXMXMXMXMXMXMXMXMXMXMXMXMXMXMXMXMXMXMXMXMXMXMXMXMXMXMXMXMXMXMXMXMXm b b b m MXMXMXMXMXMXMXMXMXMXMXMXMXMXMXMXMXMXMXMXMXMXMXMXMXMXMXMXMXMXMXMXMXMXMXMXMXMXMXMXMXMXMXMXMXMXMXMXMXMXMXMXMXMXMXMXMXMXMXMXMXMXMXMXMXMXMXMXMXMXMXMXMXMXMXMXMXMXMXMXMXMXMXMXMXMXMXMXMXMXMXMXMXMXMXMXMXMXMXMXMXMXMXMXMXMXMXMXMXMXMXMXMXMXMXMXMXMXMXMXMXMXMXMXMXMXMXMXMXMXMXMXMXMXMXMXMXMXMXMXMXMXMXMXMXMXMXMXMXMXMXMXMXMXMXMXMXMXMXMXMXMXMXMXMXMXMXMXMXMXMXMXMXMXMXMXMXMXMXMXMXMXMXMXMXMXMXMXMXMXMXMXMXMXMXMXMXMXMXMXMXMXMX",
"MXMXMXMXMXMXMXMXMXMXMXMXMXMXMXMXMXMXMXMXMXMXMXMXMXMXMXMXMXMXMXMXMXMXMXMXMXMXMXMXMXMXMXMXMXMXMXMXMXMXMXMXMXMXMXMXMXMXMXMXMXMXMXMXMXMXMXMXMXMXMXMXMXMXMXMXMXMXMXMXMXMXMXMXMXMXMXMXMXMXMXMXMXMXMXMXMXMXMXV n n m MXMXMXMXMXMXMXMXMXMXMXMXMXMXMXMXMXMXMXMXMXMXMXMXMXMX( n Q Q n n Q n n Q Q Q n Q Q MXMXMXMXMXMXMXMXMX( n Q n Q Q Q Q n Q Q Q Q n Q n ) MXMXMXMXMXMXMXMXMXMXMXMXMXMXMXMXMXMXMXMXMXMXMXMXMXMXMXMXMXMXMXMXMXMXMXMXMXMXMXMXMXMXMXMXMXMXG b b n b V MXMXMXMXMXMXMXMXMXMXMXMXMXMXMXMXMXMXMXMXMXMXMXMXMXMXMXMXMXMXMXMXMXMXMXMXMXMXMXMXMXMXMXMXMXMXMXMXMXMXMXMXMXMXMXMXMXMXMXMXMXMXMXMXMXMXMXMXMXMXMXMXMXMXMXMXMXMXMXMXMXMXMXMXMXMXMXMXMXMXMXMXMXMXMXMXMXMXMXMXMXMXMXMXMXMXMXMXMXMXMXMXMXMXMXMXMXMXMXMXMXMXMXMXMXMXMXMXMXMXMXMXMXMXMXMXMXMXMXMXMXMXMXMXMXMXMXMXMXMXMXMXMXMXMXMXMXMXMXMXMXMXMXf MXMXMXMXMXMXMXMXMXMXMXMXMXMXMXMXMXMXMXMXMXMXMXMXMXMXMXMXMXMXMXMXMXMXMXMXMXMX",
"MXMXMXMXMXMXMXMXMXMXMXMXMXMXMXMXMXMXMXMXMXMXMXMXMXMXMXMXMXMXMXMXMXMXMXMXMXMXMXMXMXMXMXMXMXMXMXMXMXMXMXMXMXMXMXMXMXMXMXMXMXMXMXMXMXMXMXMXMXMXMXMXMXMXMXMXMXMXMXMXMXMXMXMXMXMXMXMXMXMXMXMXMXMXMXMXMXMXMXM b M MXMXMXMXMXMXMXMXMXC M C MXMXMXMXMXMXMXMXMXMXMXMXMXMXMXMXM n n n Q n Q ~ ' ' Q M ! ! MXMXMXMXMXMXMXMXMXMX' C n Q Q n Q n Q Q Q n Q Q _ MXMXMXMXMXMXMXMXMXMXMXMXMXMXMXMXMXMXMXMXMXMXMXMXMXMXMXMXMXMXMXMXMXMXMXMXMXMXMXMXMXMXMXMXMXMXMXMXm b m n b J MXMXMXMXMXMXMXMXMXMXMXMXMXMXMXMXMXMXMXMXMXMXMXMXMXMXMXMXMXMXMXMXMXMXMXMXMXMXMXMXMXMXMXMXMXMXMXMXMXMXMXMXMXMXMXMXMXMXMXMXMXMXMXMXMXMXMXMXMXMXMXMXMXMXMXMXMXMXMXMXMXMXMXMXMXMXMXMXMXMXMXMXMXMXMXMXMXMXMXMXMXMXMXMXMXMXMXMXMXMXMXMXMXMXMXMXMXMXMXMXMXMXMXMXMXMXMXMXMXMXMXMXMXMXMXMXMXMXMXMXMXMXMXMXMXMXMXMXMXMXMXMXMXMXMXMXMXMXMXMXMXMXd MXMXMXMXMXMXMXMXMXMXMXMXMXMXMXMXMXMXMXMXMXMXMXMXMXMXMXMXMXMXMXMXMXMXMXMXMXk ",
"MXMXMXMXMXMXMXMXMXMXMXMXMXMXMXMXMXMXMXMXMXMXMXMXMXMXMXMXMXMXMXMXMXMXMXMXMXMXMXMXMXMXMXMXMXMXMXMXMXMXMXMXMXMXMXMXMXMXMXMXMXMXMXMXMXMXMXMXMXMXMXMXMXMXMXMXMXMXMXMXMXMXMXMXMXMXMXMXMXMXMXMXMXMXMXMXMXMXMXn M MXMXMXMXMXMXMXMXMXC n n n MXMXMXMXMXMXMXMXMXMXMXMXMXMXMXMX_ Q Q Q n Q Q MXMXMXQ n Q ^ MXMXMXMXMXMXMXMXMXMXMXMXQ n n Q W Q Q Q Q Q ( MXMXMXMXMXMXMXMXMXMXMXMXMXMXMXMXMXMXMXMXMXMXMXMXMXMXMXMXMXMXMXMXMXMXMXMXMXMXMXMXMXMXMXMXMXMXMXMXMXMXG b b b b b MXMXMXMXMXMXMXMXMXMXMXMXMXMXMXMXMXMXMXMXMXMXMXMXMXMXMXMXMXMXMXMXMXMXMXMXMXMXMXMXMXMXMXMXMXMXMXMXMXMXMXMXMXMXMXMXMXMXMXMXMXMXMXMXMXMXMXMXMXMXMXMXMXMXMXMXMXMXMXMXMXMXMXMXMXMXMXMXMXMXMXMXMXMXMXMXMXMXMXMXMXMXMXMXMXMXMXMXMXMXMXMXMXMXMXMXMXMXMXMXMXMXMXMXMXMXMXMXMXMXMXMXMXMXMXMXMXMXMXMXMXMXMXMXMXMXMXMXMXMXMXMXMXMXMXMXMXMXMXMXMXMXg MXMXMXMXMXMXMXMXMXMXMXMXMXMXMXMXMXMXMXMXMXMXMXMXMXMXMXMXMXMXMXMXMXMXMXMXl j ",
"MXMXMXMXMXMXMXMXMXMXMXMXMXMXMXMXMXMXMXMXMXMXMXMXMXMXMXMXMXMXMXMXMXMXMXMXMXMXMXMXMXMXMXMXMXMXMXMXMXMXMXMXMXMXMXMXMXMXMXMXMXMXMXMXMXMXMXMXMXMXMXMXMXMXMXMXMXMXMXMXMXMXMXMXMXMXMXMXMXMXMXMXMXMXMXMXMXMXMXMXMXMXMXMXMXMXMXMXMXMXM n n n V MXMXMXMXMXMXMXMXMXMXMXMXMXMXMXMXQ n n Q M MXMXMXMX( n Q MXMXMXMXMXMXMXMXMXMXMXMXMXMX_ _ ' ` ( ( ) Q ( MXMXMXMXMXMXMXMXMXMXMXMXMXMXMXMXMXMXMXMXMXMXMXMXMXMXMXMXMXMXMXMXMXMXMXMXMXMXMXMXMXMXMXMXMXMXMXMXMXMXMXMXb b b n b m MXMXMXMXMXMXMXMXMXMXMXMXMXMXMXMXMXMXMXMXMXMXMXMXMXMXMXMXMXMXMXMXMXMXMXMXMXMXMXMXMXMXMXMXMXMXMXMXMXMXMXMXMXMXMXMXMXMXMXMXMXMXMXMXMXMXMXMXMXMXMXMXMXMXMXMXMXMXMXMXMXMXMXMXMXMXMXMXMXMXMXMXMXMXMXMXMXMXMXMXMXMXMXMXMXMXMXMXMXMXMXMXMXMXMXMXMXMXMXMXMXMXMXMXMXMXMXMXMXMXMXMXMXMXMXMXMXMXMXMXMXMXMXMXMXMXMXMXMXMXMXMXMXMXMXMXMXMXMXMXMXMXMXMXMXMXMXMXMXMXMXMXMXMXMXMXMXMXMXMXMXMXMXMXMXMXMXMXMXMXMXMXMXMXMXMXMXMXl j ",
"MXMXMXMXMXMXMXMXMXMXMXMXMXMXMXMXMXMXMXMXMXMXMXMXMXMXMXMXMXMXMXMXMXMXMXMXMXMXMXMXMXMXMXMXMXMXMXMXMXMXMXMXMXMXMXMXMXMXMXMXMXMXMXMXMXMXMXMXMXMXMXMXMXMXMXMXMXMXMXMXMXMXMXMXMXMXMXMXMXMXMXMXMXMXMXMXMXMXMXMXMXMXMXMXMXMXMXMXMXMXn n b n n MXMXMXMXMXMXMXMXMXMXMXMXMXMXMXMX' Q Q ~ MXMXMXMXMXG n G MXMXMXMXMXMXMXMXMXMXMXMXMXMXMXMXMXMXMXMXMXMXMXMXMXMXMXMXMXMXMXMXMXMXMXMXMXMXMXMXMXMXMXMXMXMXMXMXMXMXMXMXMXMXMXMXMXMXMXMXMXMXMXMXMXMXMXMXMXMXMXMXMXMXMXH G m b b b V MXMXMXMXMXMXMXMXMXMXMXMXMXMXMXMXMXMXMXMXMXMXMXMXMXMXMXMXMXMXMXMXMXMXMXMXMXMXMXMXMXMXMXMXMXMXMXMXMXMXMXMXMXMXMXMXMXMXMXMXMXMXMXMXMXMXMXMXMXMXMXMXMXMXMXMXMXMXMXMXMXMXMXMXMXMXMXMXMXMXMXMXMXMXMXMXMXMXMXMXMXMXMXMXMXMXMXMXMXMXMXMXMXMXMXMXMXMXMXMXMXMXMXMXMXMXMXMXMXMXMXMXMXMXMXMXMXMXMXMXMXMXMXMXMXMXMXMXMXMXMXMXMXMXMXMXA A MXMXMXMXMXMXMXMXMXMXMXMXMXMXMXMXMXMXMXMXMXMXMXMXMXMXMXMXMXMXMXMXMXMXMXMXMXMXMXMXMX",
"MXMXMXMXMXMXMXMXMXMXMXMXMXMXMXMXMXMXMXMXMXMXMXMXMXMXMXMXMXMXMXMXMXMXMXMXMXMXMXMXMXMXMXMXMXMXMXMXMXMXMXMXMXMXMXMXMXMXMXMXMXMXMXMXMXMXMXMXMXMXMXMXMXMXMXMXMXMXMXMXMXMXMXMXMXMXMXMXMXMXMXMXMXMXMXMXMXMXMXMXMXMXMXMXMXMXMXMXMXMXM n n n n C MXMXMXMXMXMXMXMXMXMXMXMXMXMXMXMX{ ' MXMXMXMXMXMXMXMXMXMXMXMXMXMXMXMXMXMXMXMXMXMXMXMXMXMXMXMXMXMXMXMXMXMXMXMXMXMXMXMXMXMXMXMXMXMXMXMXMXMXMXMXMXMXMXMXMXMXMXMXMXMXMXMXMXMXMXMXMXMXMXMXMXMXMXMXMXMXMXMXMXMXMXMXMXMXMXm b k k A MXMXMXMXMXMXMXMXMXMXMXMXMXMXMXMXMXMXMXMXMXMXMXMXMXMXMXMXMXMXMXMXMXMXMXMXMXMXMXMXMXMXMXMXMXMXMXMXMXMXMXMXMXMXMXMXMXMXMXMXMXMXMXMXMXMXMXMXMXMXMXMXMXMXMXMXMXMXMXMXMXMXMXMXMXMXMXMXF F MXMXMXMXMXMXMXMXMXMXMXMXMXMXMXMXMXMXMXMXMXMXMXMXMXMXMXMXMXMXMXMXMXMXMXMXMXMXMXMXMXMXMXMXMXMXMXMXMXMXMXMXMXMXMXMXMXMXMXMXMXMXMXMXMXk k B MXMXMXMXMXMXMXMXMXMXMXMXMXMXl MXMXMXMXMXMXMXMXMXMXMXMXMXMXMXMXMXMXMXMXMXMXMXMXMX",
"MXMXMXMXMXMXMXMXMXMXMXMXMXMXMXMXMXMXMXMXMXMXMXMXMXMXMXB B MXMXMXMXMXMXMXMXMXMXMXMXMXMXMXMXMXMXMXMXMXMXMXMXMXMXMXMXMXMXMXMXMXMXMXMXMXMXMXMXMXMXMXMXMXMXMXMXMXMXMXMXMXMXMXMXMXMXMXMXMXMXMXMXMXMXMXMXMXMXMXMXMXMXMXMXMXMXMXMXMXJ n n n n M MXMXMXMXMXMXMXMXMXMXMXMXMXMXMXMXMXMXMXMXMXMXMXMXMXMXMXMXMXMXMXMXMXMXMXMXMXMXMXMXMXMXMXMXMXMXMXMXMXMXMXMXMXMXMXMXMXMXMXMXMXMXMXMXMXMXMXMXMXMXMXMXMXMXMXMXMXMXMXMXMXMXMXMXMXMXMXMXMXMXMXMXMXMXMXMXMXMXMXMXMXMXMXMXMXMXm b k k F MXMXMXMXMXMXMXMXMXMXMXMXMXMXMXMXMXMXMXMXMXMXMXMXMXMXMXMXMXMXMXMXMXMXMXMXMXMXMXMXMXMXMXMXMXMXMXMXMXMXMXMXMXMXMXMXMXMXMXMXMXMXMXMXMXMXMXMXMXMXMXMXMXMXMXMXMXMXMXMXMXMXMXMXMXMXMXz b m V MXMXMXMXMXMXMXMXMXMXMXMXMXMXMXMXMXMXMXMXMXMXMXMXMXMXMXMXMXMXMXMXMXMXMXMXMXMXMXMXMXMXMXMXMXMXMXMXMXMXMXMXMXMXMXMXMXMXMXMXMXMXz k j k S MXMXMXMXMXMXMXMXMXMXMXMXl N MXMXMXMXMXMXMXMXMXMXMXMXMXMXMXMXMXMXMXMXMXMXMXMXMX",
"MXMXMXMXMXMXMXMXMXMXMXMXMXMXMXMXMXMXMXMXMXMXMXMXMXMXK k j MXMXMXMXMXMXMXMXMXMXMXMXMXMXMXMXMXMXMXMXMXMXMXMXMXMXMXMXMXMXMXMXMXMXMXMXMXMXMXMXMXMXMXMXMXMXMXMXMXMXMXMXMXMXMXMXMXMXMXMXMXMXMXMXMXMXMXMXMXMXMXMXMXMXMXMXMXMXMXMXMXMXQ n n n n MXMXMXMXMXMXMXMXMXMXMXMXMXMXMXMXMXMXMXMXMXMXMXMXMXMXMXMXMXMXMXMXMXMXMXMXMXMXMXMXMXMXMXMXMXMXMXMXMXMXMXMXMXMXMXMXMXMXMXMXMXMXMXMXMXMXMXMXMXMXMXMXMXMXMXMXMXMXMXMXMXMXMXMXMXMXMXMXMXMXMXMXMXMXMXMXMXMXMXMXMXMXMXMXMXMXMXb k k k F MXMXMXMXMXMXMXMXMXMXMXMXMXMXMXMXMXMXMXMXMXMXMXMXMXMXMXMXMXMXMXMXMXMXMXMXMXMXMXMXMXMXMXMXMXMXMXMXMXMXMXMXMXMXMXMXMXMXMXMXMXMXMXMXMXMXMXMXMXMXMXMXMXMXMXMXMXMXMXMXMXMXMXMXMXMXMXV m k m MXMXMXMXMXMXMXMXMXMXMXMXMXMXMXMXMXMXMXMXMXMXMXMXMXMXMXMXMXMXMXMXMXMXMXMXMXMXMXMXMXMXMXMXMXMXMXMXMXMXMXMXMXMXMXMXMXMXMXMXMXk j k k B MXMXMXMXMXMXMXMXMXMXMXZ j I MXMXMXMXMXMXMXMXMXMXMXMXMXMXMXMXMXMXMXMXMXMXMXMXMX",
"MXMXMXMXMXMXMXMXMXMXMXMXMXMXMXMXMXMXMXMXMXMXMXMXMXMXB k k B MXMXMXMXMXMXMXMXMXMXMXMXMXMXMXMXMXMXMXMXMXMXMXMXMXMXMXMXMXMXMXMXMXMXMXMXMXMXMXMXMXMXMXMXMXMXMXMXMXMXMXMXMXMXMXMXMXMXMXMXMXMXMXMXMXMXMXMXMXMXMXMXMXMXMXMXMXMXMXMXMX~ n b n n MXMXMXMXMXMXMXMXMXMXMXMXMXMXMXMXMXMXMXMXMXMXMXMXMXMXMXMXMXMXMXMXMXMXMXMXMXMXMXZ j Z MXMXMXMXMXMXMXMXMXMXMXMXMXMXMXMXMXMXMXMXMXMXMXMXMXMXMXMXMXMXMXMXMXMXMXMXMXMXMXMXMXMXMXMXMXMXMXMXMXMXMXMXMXMXMXMXMXMXMXMXMXMXMXMXMXF k k k k MXMXMXMXMXMXMXMXMXMXMXMXMXMXMXMXMXMXMXMXMXMXMXMXMXMXMXMXMXMXMXMXMXMXMXMXMXMXMXMXMXMXMXMXMXMXMXMXMXMXMXMXMXMXMXMXMXMXMXMXMXMXMXMXMXMXMXMXMXMXMXMXMXMXMXMXMXMXMXMXMXMXMXMXMXMXMXMXMXMXMXMXMXMXMXMXMXMXMXMXMXMXMXMXMXMXMXMXMXMXMXMXMXMXMXMXMXMXMXMXMXMXMXMXMXMXMXMXMXMXMXMXMXMXMXMXMXMXMXMXMXMXMXMXMXMXMXMXMXMXMXMXk j k j B MXMXMXMXMXMXMXMXMXMXMXj N MXMXMXMXMXMXMXMXMXMXMXMXMXMXMXMXMXMXMXMXMXMXMXMXMXMX",
"MXMXMXMXMXMXMXMXMXMXMXMXMXMXMXMXMXMXMXMXMXMXMXMXMXMXB k k A MXMXMXMXMXMXMXMXMXMXMXMXMXMXMXMXMXMXMXMXMXMXMXMXMXMXMXMXMXMXMXMXMXMXMXMXMXMXMXMXMXMXMXMXMXMXMXMXMXMXMXMXMXMXMXMXMXMXMXMXMXMXMXMXMXMXMXMXMXMXMXMXMXMXMXMXMXMXMXMXMXQ b b b b B MXMXMXF z V MXMXMXMXMXMXMXMXMXMXMXMXMXMXMXMXMXMXMXMXMXMXMXMXMXMXMXMXMXMXMXl j j j MXMXMXMXMXMXMXMXMXMXMXMXMXMXMXMXMXMXMXMXMXMXMXMXMXMXMXMXMXMXMXMXMXMXMXMXMXMXMXMXMXMXMXMXMXMXMXMXMXMXMXMXMXMXMXMXMXMXMXMXMXMXMXMXMXMXz k k k z MXMXMXMXMXMXMXMXMXMXMXMXMXMXMXMXMXMXMXMXMXMXMXMXMXMXMXMXMXMXMXMXMXMXMXMXMXMXMXMXMXMXMXMXMXMXMXMXMXMXMXMXMXMXMXMXMXMXMXMXMXMXMXMXMXMXMXMXMXMXMXMXMXMXMXMXMXMXMXMXMXMXMXMXMXMXMXMXMXMXMXMXMXMXMXMXMXMXMXMXMXMXMXMXMXMXMXMXMXMXMXMXMXMXMXMXMXMXMXMXMXMXMXMXMXMXMXMXMXMXMXMXMXMXMXMXMXMXMXMXMXMXMXMXMXMXMXMXMXMXMXk k k j V MXMXMXMXMXMXMXMXMXMXl j MXMXMXMXMXMXMXMXMXMXMXMXMXMXMXMXMXMXMXMXMXMXMXMXMXMXMX",
"MXMXMXMXMXMXMXMXMXMXMXMXMXMXMXMXMXMXMXMXMXMXMXMXMXMXMXB B MXMXMXMXMXMXMXMXMXMXMXMXMXMXMXMXMXMXMXMXMXMXMXMXMXMXMXMXMXMXMXMXMXMXMXMXMXMXMXMXMXMXMXMXMXMXMXMXMXMXMXMXMXMXMXMXMXMXMXMXMXMXMXMXMXMXz B MXMXMXMXMXMXMXMXMXMXMXMXMXMXQ n b b b b M m b k b k MXMXMXMXMXMXMXMXMXMXMXMXMXMXMXMXMXMXMXMXMXMXMXMXMXMXMXMXMXMXMXj j x j A MXMXMXMXMXMXMXMXMXMXMXMXMXMXMXMXMXMXMXMXMXMXMXMXMXMXMXMXMXMXMXMXMXMXMXMXMXMXMXMXMXMXMXMXMXMXMXMXMXMXMXMXMXMXMXMXMXMXMXMXMXMXMXMXMXMXk k k k z MXMXMXMXMXMXMXMXMXMXMXMXMXMXMXMXMXMXMXMXMXMXMXMXMXMXMXMXMXMXMXMXMXMXMXMXMXMXMXMXMXMXMXMXMXMXMXMXMXMXMXMXMXMXMXMXMXMXMXMXMXMXMXMXMXMXMXMXMXMXMXMXMXMXMXMXMXMXMXMXMXMXMXMXMXMXMXMXMXMXMXMXMXMXMXMXMXMXMXMXMXMXMXMXMXMXMXMXMXMXMXMXMXMXMXMXMXMXMXMXMXMXMXMXMXMXMXMXMXMXMXMXMXMXMXMXMXMXMXMXMXMXMXMXMXMXMXMXMXMXj k k k S MXMXMXMXMXMXMXMXMXMXj D MXMXMXMXMXMXMXMXMXMXMXMXMXMXMXMXMXMXMXMXMXMXMXMXMXMXMX",
"MXMXMXMXMXMXMXMXMXMXMXMXMXMXMXMXMXMXMXMXMXMXMXMXMXMXMXMXMXMXMXMXMXMXMXMXMXMXMXMXMXMXMXMXMXMXMXMXMXMXMXMXMXMXMXMXMXMXMXMXMXMXMXMXMXMXMXMXMXMXMXMXMXMXMXMXMXMXMXMXMXMXMXMXMXMXMXMXMXMXMXMXMXMXMXz z MXMXMXMXMXMXMXMXMXMXMXMXMXMXM b c b b b b b c k b b MXMXMXMXMXMXMXMXMXMXMXMXMXMXMXMXMXMXMXMXMXMXMXMXMXMXMXMXMXMXS j j j j l MXMXMXMXMXMXMXMXMXMXMXMXMXMXMXMXMXMXMXMXMXMXMXMXMXMXMXMXMXMXMXMXMXMXMXMXMXMXMXMXMXMXMXMXMXMXMXMXMXMXMXMXMXMXMXMXMXMXMXMXMXMXMXMXMXMXF k k k k z MXMXMXMXMXMXMXMXMXMXMXMXMXMXMXMXMXMXMXMXMXMXMXMXMXMXMXMXMXMXMXMXMXMXMXMXMXMXMXMXMXMXMXMXMXMXMXMXMXMXMXMXMXMXMXMXMXMXMXMXMXMXMXMXMXMXMXMXMXMXMXMXMXMXMXMXMXMXMXMXMXMXMXMXMXMXMXMXMXMXMXS MXMXMXMXMXMXMXMXMXMXMXMXMXMXMXMXMXMXMXMXMXMXMXMXMXMXMXMXMXMXMXMXMXMXMXMXMXMXMXMXMXMXMXMXMXMXMXMXMXMXMXMXMXMXMXMXMXk k j z MXMXMXMXMXMXMXMXMXMXl j MXMXMXMXMXMXMXMXMXMXMXMXMXMXMXMXMXMXMXMXMXMXMXMXMXMXMXMX",
"MXMXMXMXMXMXMXMXMXMXMXMXMXMXMXMXMXMXMXMXMXMXMXMXMXMXMXMXMXMXMXMXMXMXMXMXMXMXMXMXMXMXMXMXMXMXMXMXMXMXMXMXMXMXMXMXMXMXMXMXMXMXMXMXMXMXMXMXMXMXMXMXMXMXMXMXMXMXMXMXMXMXMXMXMXMXMXMXMXMXMXMXMXMXMXH k MXMXMXMXMXMXMXMXMXMXMXMXMXMXn b b b b b b b b b n n MXMXMXMXMXMXMXMXMXMXMXMXMXMXMXMXMXMXMXMXMXMXMXMXMXMXMXMXMXMXS j j j j N MXMXMXMXMXMXMXMXMXMXMXMXMXMXMXMXMXMXMXMXMXMXMXMXMXMXMXMXMXMXMXMXMXMXMXMXMXMXMXMXMXMXMXMXMXMXMXMXMXMXMXMXMXMXMXMXMXMXMXMXMXMXMXMXMXMXMXV k k k k F MXMXMXMXMXMXMXMXMXMXMXMXMXMXMXMXMXMXMXMXMXMXMXMXMXMXMXMXMXMXMXMXMXMXMXMXMXMXMXMXMXMXMXMXMXMXMXMXMXMXMXMXMXMXMXMXMXMXMXMXMXMXMXMXMXMXMXMXMXMXMXMXMXMXMXMXMXMXMXMXMXMXMXMXMXMXMXMXMXMXMXMXMXMXMXMXMXMXMXMXMXMXMXMXMXMXMXMXMXMXMXMXMXMXMXMXMXMXMXMXMXMXMXMXg MXMXMXMXMXMXMXMXMXMXMXMXMXMXMXMXMXMXMXMXMXMXMXA j k H MXMXMXMXMXMXMXMXMXMXN D MXMXMXMXMXMXMXMXMXMXMXMXMXMXMXMXMXMXMXMXMXMXMXMXMXMXMXMX",
"MXMXMXMXMXMXMXMXMXMXMXMXMXMXMXMXMXMXMXMXMXMXMXMXMXMXMXMXMXMXMXMXMXMXMXMXMXMXMXMXMXMXMXMXMXMXMXMXMXMXMXMXMXMXMXMXMXMXMXMXMXMXMXMXMXMXMXMXMXMXMXMXMXMXMXMXMXMXMXMXMXMXMXMXMXMXMXMXMXMXMXMXMXMXMXMXH MXMXMXMXMXMXMXMXMXMXMXMXMXMXb b b c b b b b n n Q n MXMXMXMXMXMXMXMXMXMXMXMXMXMXMXMXMXMXMXMXMXMXMXMXMXMXMXMXMXMXA j j j j l MXMXMXMXMXMXMXMXMXMXMXMXMXMXMXMXMXMXMXMXMXMXMXMXMXMXMXMXMXMXMXMXMXMXMXMXMXMXMXMXMXMXMXMXMXMXMXMXMXMXMXMXMXMXMXMXMXMXMXMXMXMXMXMXMXMXMXMXA k k k V MXMXMXMXMXMXMXMXMXMXMXMXMXMXMXMXMXMXMXMXMXMXMXMXMXMXMXMXMXMXMXMXMXMXMXMXMXMXMXMXMXMXMXMXMXMXMXMXMXMXMXMXB A MXMXMXMXMXMXMXMXMXMXMXMXMXMXMXMXMXMXMXMXMXMXMXMXMXMXMXMXMXMXMXMXMXMXMXMXMXMXMXMXMXMXMXMXMXMXMXMXMXMXMXMXMXMXMXMXMXMXMXMXMXMXMXMXMXMXMXMXMXMXd f MXMXMXMXMXMXMXMXMXMXMXMXMXMXMXMXMXMXMXMXMXMXMXMXMXMXMXMXMXMXMXMXMXMXMXMXMXMXMXMXMXMXMXMXMXMXMXMXMXMXMXMXMXMXMXMXMXMXMXMXMXMXMXMXMXMX",
"MXMXMXMXMXMXMXMXMXMXMXMXMXMXMXMXMXMXMXMXMXMXMXMXMXMXMXMXMXMXMXMXMXMXMXMXMXMXMXMXMXMXMXMXMXMXMXMXMXMXMXMXMXMXMXMXMXMXMXMXMXMXMXMXMXMXMXMXMXMXMXMXMXMXMXMXMXMXMXMXMXMXMXMXMXMXMXMXMXMXMXMXMXMXMXMXMXMXMXMXMXMXMXMXMXMXMXMXMXMXJ b b b b b n n n ( Q M Q MXMXMXMXMXMXMXMXMXMXMXMXMXMXMXMXMXMXMXMXMXMXMXMXMXMXMXMXMXMXZ x j j j l MXMXMXMXMXMXMXMXMXMXMXMXMXMXMXMXMXMXMXMXMXMXMXMXMXMXMXMXMXMXMXMXMXMXMXMXMXMXMXMXMXMXMXMXMXMXMXMXMXMXMXMXMXMXMXMXMXMXMXMXMXMXMXMXMXMXMXMXMXB k k z MXMXMXMXMXMXMXMXMXMXMXMXMXMXMXMXMXMXMXMXMXMXMXMXMXMXMXMXMXMXMXMXMXMXMXMXMXMXMXMXMXMXMXMXMXMXMXMXMXMXMXMXD D MXMXMXMXMXMXMXMXMXMXMXMXMXMXMXMXMXMXMXMXMXMXMXMXMXMXMXMXMXMXMXMXMXMXMXMXMXMXMXMXMXMXMXMXMXMXMXMXMXMXMXMXMXMXMXMXMXMXMXMXMXMXMXMXMXMXMXMXMXMXd f MXMXMXMXMXMXMXMXMXMXMXMXMXMXMXMXMXMXMXMXMXMXMXMXMXMXMXMXMXMXMXMXMXMXMXMXMXMXMXMXMXMXMXMXMXMXMXMXMXMXMXMXMXMXMXMXMXMXMXMXMXMXMXMXMXMX",
"MXMXMXMXMXMXMXMXMXMXMXMXMXMXMXMXMXMXMXMXMXMXMXMXMXMXMXMXMXMXMXMXMXMXMXMXMXMXMXMXMXMXMXMXMXMXMXMXMXMXMXMXMXMXMXMXMXMXMXMXMXMXMXMXMXMXMXMXMXMXMXMXMXMXMXMXMXMXMXMXMXMXMXMXMXMXMXMXMXMXMXMXMXMXMXMXMXMXMXMXMXMXMXMXMXMXMXMXMXMXJ b b b b b n n ' MX~ Q M MXMXMXMXMXMXMXMXMXMXMXMXMXMXMXMXMXMXMXMXMXMXMXMXMXMXMXMXMXMXB j j j j l MXMXMXMXMXMXMXMXMXMXMXMXMXMXMXMXMXMXMXMXMXMXMXMXMXMXMXMXMXMXMXMXMXMXMXMXMXMXMXMXMXMXMXMXMXMXMXMXMXMXMXMXMXMXMXMXMXMXMXMXMXMXMXMXMXMXMXMXMXMXz m MXMXMXMXMXMXMXMXMXMXMXMXMXMXMXMXMXMXMXMXMXMXMXMXMXMXMXMXMXMXMXMXMXMXMXMXMXMXMXMXMXMXMXMXMXMXMXMXMXMXMXMXMXMXMXMXMXMXMXMXMXMXMXMXMXMXMXMXMXMXMXMXMXMXMXMXMXMXMXMXMXMXMXMXMXMXMXMXMXMXMXMXMXMXMXMXMXMXMXMXMXMXMXMXMXMXMXMXMXMXMXMXMXMXMXMXMXMXMXMXMXMXMXMXMXMXMXMXMXMXMXMXMXMXMXMXMXMXMXMXMXMXMXMXMXMXMXMXMXMXMXMXMXMXMXMXMXMXMXMXMXMXMXMXMXMXMXMXMXMXMXMXMXMXMXMXMXMXMXMXMXMXMXMXMXMXMXMXMXMXMXMXMX",
"MXMXMXMXMXMXMXMXMXMXMXMXMXMXMXMXMXMXMXMXMXMXMXMXMXMXMXMXMXMXMXMXMXMXMXMXMXMXMXMXMXMXMXMXMXMXMXMXMXMXMXMXMXMXMXMXMXMXMXMXMXMXMXMXMXMXMXMXMXMXMXMXMXMXMXMXMXMXMXMXMXMXMXMXMXMXMXMXMXMXMXMXMXMXMXMXMXMXMXMXMXMXMXMXMXMXMXMXMXMXMXm b b b b b G MXMXM n ( MXMXMXMXMXMXMXMXMXMXMXMXMXMXMXMXMXMXMXMXMXMXMXMXMXMXMXMXMXMXl k j j k MXMXMXMXMXMXMXMXMXMXMXMXMXMXMXMXMXMXMXMXMXMXMXMXMXMXMXMXMXMXMXMXMXMXMXMXMXMXMXMXMXMXMXMXMXMXMXMXMXMXMXMXMXMXMXMXMXMXMXMXMXMXMXMXMXMXMXMXMXMXMXMXMXMXMXMXMXMXMXMXMXMXMXMXMXMXMXMXMXMXMXMXMXMXMXMXMXMXMXMXMXMXMXMXMXMXMXMXMXMXMXMXMXMXMXMXMXMXMXMXMXMXMXMXMXMXMXMXMXMXMXMXMXMXMXMXMXMXMXMXMXMXMXMXMXMXMXMXMXMXMXMXMXMXMXMXMXMXMXMXMXMXMXMXMXMXMXMXMXMXMXMXMXMXMXMXMXMXMXMXMXMXMXMXMXMXMXMXMXMXMXMXMXMXMXMXMXMXMXMXMXMXMXMXMXMXMXMXMXMXMXMXMXMXMXMXMXMXMXMXMXMXMXMXMXMXMXMXMXMXMXMXMXMXMXMXMXMXMXMXMXMXMXMXMXMXMXMXMXMXMXMXMXMXMXMXMXMXMXMXMXMXMXMXMXMX",
"MXMXMXMXMXMXMXMXMXMXMXMXMXMXMXMXMXMXMXMXMXMXMXMXMXMXMXMXMXMXMXMXMXMXMXMXMXMXMXMXMXMXMXMXMXMXMXMXMXMXMXMXMXMXMXMXMXMXMXMXMXMXMXMXMXMXMXMXMXMXMXMXMXMXMXMXMXMXMXMXMXMXMXMXMXMXMXMXMXMXMXMXMXMXMXMXMXMXMXMXMXMXMXMXMXMXMXMXMXMXMXMXMXMXMXMXMXMXMXMXQ n MXMXMXMXMXMXMXMXMXMXMXMXMXMXMXMXMXMXMXMXMXMXMXMXMXMXMXMXMXMXMXk j k k A MXMXMXMXMXMXMXMXMXMXMXMXMXMXMXMXMXMXMXMXMXMXMXMXMXMXMXMXMXMXMXMXMXMXMXMXMXMXMXMXMXMXMXMXMXMXMXMXMXMXMXMXMXMXMXMXMXMXMXMXMXMXMXMXMXMXMXMXMXMXMXMXMXMXMXMXMXMXMXMXMXMXMXMXMXMXMXMXMXMXMXMXMXMXMXMXMXMXMXMXMXMXMXMXMXMXMXMXMXMXMXMXMXMXMXMXMXMXMXMXMXMXMXMXMXMXMXMXMXMXMXMXMXMXMXMXMXMXMXMXMXMXMXMXMXMXMXMXMXMXMXMXMXMXMXMXMXMXMXMXMXMXMXMXMXMXMXMXMXMXMXMXMXMXMXMXMXMXMXMXMXMXMXMXMXMXMXMXMXMXMXMXMXMXMXMXMXMXMXMXMXMXMXMXMXMXMXMXMXMXMXMXMXMXMXMXMXMXMXMXMXMXMXMXMXMXMXMXMXMXMXMXMXMXMXMXMXMXMXMXMXMXMXMXMXMXMXMXMXMXMXMXMXMXMXMXMXMXMXMXMXMXMXMXMXMX",
"MXMXMXMXMXMXMXMXMXMXMXMXMXMXMXMXMXMXMXMXMXMXMXMXMXMXMXMXMXMXMXMXMXMXMXMXMXMXMXMXMXMXMXMXMXMXMXMXMXMXMXMXMXMXMXMXMXMXMXMXMXMXMXMXMXMXMXMXMXMXMXMXMXMXMXMXMXMXMXMXMXMXMXMXMXMXMXMXMXMXMXMXMXMXMXMXMXMXMXMXMXMXMXMXMXMXMXMXMXMXMXMXMXMXMXMXMXMXMX' n ( MXMXMXMXMXMXMXMXMXMXMXMXMXMXMXMXMXMXMXMXMXMXMXMXMXMXMXMXMXMXMXj k j z MXMXMXMXMXMXMXMXMXMXMXMXMXMXMXMXMXMXMXMXMXMXMXMXMXMXMXMXMXMXMXMXMXMXMXMXMXMXMXMXMXMXMXMXMXMXMXMXMXMXMXMXMXMXMXMXMXMXMXMXMXMXMXMXMXMXMXMXMXMXMXMXMXMXMXMXMXMXMXMXMXMXMXMXMXMXMXMXMXMXMXMXMXMXMXMXMXMXMXMXMXMXMXMXMXMXMXMXMXMXMXMXMXMXMXMXMXMXMXMXMXMXMXMXMXMXMXMXMXMXMXMXMXMXMXMXMXMXMXMXMXMXMXMXMXMXMXMXMXMXMXMXMXMXMXMXMXMXMXMXMXMXMXMXMXMXMXMXMXMXMXMXMXMXMXMXMXMXMXMXMXMXMXMXMXMXMXMXMXMXMXMXMXMXMXMXMXMXMXMXMXMXMXMXMXMXMXMXMXMXMXMXMXMXMXMXMXMXMXMXMXMXMXMXMXMXMXMXMXMXMXMXMXMXMXMXMXMXMXMXMXMXMXMXMXMXMXMXMXMXMXMXMXMXMXMXMXMXMXMXMXMXMXMXMXMXMX",
"MXMXMXMXMXMXMXMXMXMXMXMXMXMXMXMXMXMXMXMXMXMXMXMXMXMXMXMXMXMXMXMXMXMXMXMXMXMXMXMXMXMXMXMXMXMXMXMXMXMXMXMXMXMXMXMXMXMXMXMXMXMXMXMXMXMXMXMXMXMXMXMXMXMXMXMXMXMXMXMXMXMXMXMXMXMXMXMXMXMXMXMXMXMXMXMXMXMXMXMXMXMXMXMXMXMXMXMXMXMXMXMXMXMXMXMXMXMXMX( n MXMXMXMXMXMXMXMXMXMXMXMXMXMXMXMXMXMXMXMXMXMXMXMXMXMXMXMXMXMXMXS k k j S MXMXMXMXMXMXMXMXMXMXMXMXMXMXMXMXMXMXMXMXMXMXMXMXMXB MXMXMXMXMXMXMXMXMXMXMXMXMXMXMXMXMXMXMXMXMXMXMXMXMXMXMXMXMXMXMXMXMXMXMXMXMXMXMXMXMXMXMXMXMXMXMXMXMXMXMXMXMXMXMXMXMXMXMXMXMXMXMXMXMXMXMXMXMXMXMXMXMXMXMXMXMXMXMXMXMXMXMXMXMXMXMXMXMXMXMXMXMXMXMXMXMXMXMXMXMXMXMXMXMXMXMXMXMXMXMXMXMXMXMXMXMXMXMXMXMXMXMXMXMXMXMXMXMXMXMXMXMXMXMXMXMXMXMXMXMXMXMXMXMXMXMXMXMXMXMXMXMXMXMXMXMXMXMXMXMXMXMXMXMXMXMXMXMXMXMXMXMXMXMXMXMXMXMXMXMXMXMXMXMXMXMXMXMXMXMXMXMXMXMXMXMXMXMXMXMXMXMXMXMXMXMXMXMXMXMXMXMXMXMXMXMXMXMXMXMXMXMXMXMXMXMXMXMXMXMXMXMXMXMXMXMXMXMXMXMX",
"MXMXMXMXMXMXMXMXMXMXMXMXMXMXMXMXMXMXMXMXMXMXMXMXMXMXMXMXMXMXMXMXMXMXMXMXMXMXMXMXMXMXMXMXMXMXMXMXMXMXMXMXMXMXMXMXMXMXMXMXMXMXMXMXMXMXMXMXMXMXMXMXMXMXMXMXMXMXMXMXMXMXMXMXMXMXMXMXMXMXMXMXMXMXMXMXMXMXMXMXMXMXMXMXMXMXMXMXMXMXMXMXMXMXMXMXMXMXMXn Q MXMXMXMXMXMXMXMXMXMXMXMXMXMXMXMXMXMXMXMXMXMXMXMXMXMXMXMXMXMXMXS z x z MXMXMXMXMXMXMXMXMXMXMXMXMXMXg MXMXMXMXMXMXMXMXMXMXMXMXMXMXMXMXMXMXMXMXMXMXMXMXMXMXMXMXMXMXMXMXMXMXMXMXMXMXMXMXMXMXMXMXMXMXMXMXMXMXMXMXMXMXMXMXMXMXMXMXMXMXMXMXMXMXMXMXMXMXMXMXMXMXMXMXMXMXf MXMXMXMXMXMXMXMXMXMXMXMXMXMXMXMXMXMXMXMXMXMXMXMXMXMXMXMXMXMXMXMXMXMXMXMXMXMXMXMXMXMXMXMXMXMXMXMXMXMXMXMXMXMXMXMXMXMXMXMXMXMXMXMXMXMXMXMXMXMXMXMXMXMXMXMXMXMXMXMXMXMXMXMXMXMXMXMXMXMXMXMXMXMXMXMXMXMXMXMXMXMXMXMXMXMXMXMXMXMXMXMXMXMXMXMXMXMXMXMXMXMXMXMXMXMXMXMXMXMXMXMXMXMXMXMXMXMXMXMXMXMXMXMXMXMXMXMXMXMXMXMXMXMXMXMXMXMXMXMXMXMXMXMXMXMXMXMXMXMXMXMXMXMX",
"MXMXMXMXMXMXMXMXMXMXMXMXMXMXMXMXMXMXMXMXMXMXMXMXMXMXMXMXMXMXMXMXMXMXMXMXMXMXMXMXMXMXMXMXMXMXMXMXMXMXMXMXMXMXMXMXMXMXMXMXMXMXMXMXMXMXMXMXMXMXMXMXMXMXMXMXMXMXMXMXMXMXMXMXMXMXMXMXMXMXMXMXMXMXMXMXMXMXMXMXMXMXMXMXMXMXMXMXMXMXMXMXMXMXMXMXMXMX_ Q _ MXMXMXMXMXMXMXMXMXMXMXMXMXMXMXMXMXMXMXMXMXMXMXMXMXMXMXMXMXMXMXMXB l H MXMXMXMXMXMXMXMXMXMXMXMXMXMXd MXMXMXMXMXMXMXMXMXMXMXMXMXMXMXMXMXMXMXMXMXMXMXMXMXMXMXMXMXMXMXMXMXMXMXMXMXMXMXMXMXMXMXMXMXMXMXMXMXMXMXMXMXMXMXMXMXMXMXMXMXMXMXMXMXMXMXMXMXMXMXMXMXMXMXMXMXMXf MXMXMXMXMXMXMXMXMXMXMXMXMXMXMXMXMXMXMXMXMXMXMXMXMXMXMXMXMXMXMXMXMXMXMXMXMXMXMXMXMXMXMXMXMXMXMXMXMXMXMXMXMXMXMXMXMXMXMXMXMXMXMXMXMXMXMXMXMXMXMXMXMXMXMXMXMXMXMXMXMXMXMXMXMXMXMXMXMXMXMXMXMXMXMXMXMXMXMXMXMXMXMXMXMXMXMXMXMXMXMXMXMXMXMXMXMXMXMXMXMXMXMXMXMXMXMXMXMXMXMXMXMXMXMXMXMXMXMXMXMXMXMXMXMXMXMXMXMXMXMXMXMXMXMXMXMXMXMXMXMXMXMXMXMXMXMXMXMXMXMXMXMXMX",
"MXMXMXMXMXMXMXMXMXMXMXMXMXMXMXMXMXMXMXMXMXMXMXMXMXMXMXMXMXMXMXMXMXMXMXMXMXMXMXMXMXMXMXMXMXMXMXMXMXMXMXMXMXMXMXMXMXMXMXMXMXMXMXMXMXMXMXMXMXMXMXMXMXMXMXMXMXMXMXMXMXMXMXMXMXMXMXMXMXMXMXMXMXMXMXMXMXMXMXMXMXMXMXMXMXMXMXMXMXMXMXMXMXMXMXMXMXMXM n MXMXMXMXMXMXMXMXMXMXMXMXMXMXMXMXMXMXMXMXMXMXMXMXMXMXMXMXMXMXMXMXMXMXMXMXMXMXMXMXMXMXMXMXMXMXMXMXMXf d MXMXMXMXMXMXMXMXMXMXMXMXMXMXMXMXMXMXMXMXMXMXMXMXMXMXMXMXMXMXMXMXMXMXMXMXMXMXMXMXMXMXMXMXMXMXMXMXMXMXMXMXMXMXMXMXMXMXMXMXMXMXMXMXMXMXMXMXMXMXMXMXMXMXMXMXMXMXMXMXMXMXMXMXMXMXMXMXMXMXMXMXMXMXMXMXMXMXMXMXMXMXMXMXMXMXMXMXMXMXMXMXMXMXMXMXMXMXMXMXMXMXMXMXMXMXMXMXMXMXMXMXMXMXMXMXMXMXMXMXMXMXMXMXMXMXMXMXMXMXMXMXMXMXMXMXMXMXMXMXMXMXMXMXMXMXMXMXMXMXMXMXMXMXMXMXMXMXMXMXMXMXMXMXMXMXMXMXMXMXMXMXMXMXMXMXMXMXMXMXMXMXMXMXMXMXMXMXMXMXMXMXMXMXMXMXMXMXMXMXMXMXMXMXMXMXMXMXMXMXMXMXMXMXMXMXMXMXMXMXMXMXMXMXMXMXMXMXMXMXMXMXMX",
"MXMXMXMXMXMXMXMXMXMXMXMXMXMXMXMXMXMXMXm MXMXMXMXMXMXMXMXMXMXMXMXMXMXMXMXMXMXMXMXMXMXMXMXMXMXMXMXMXMXMXMXMXMXMXMXMXMXMXMXMXMXMXMXMXMXMXMXMXMXMXMXMXMXMXMXMXMXMXMXMXMXMXMXMXMXMXMXMXMXMXMXMXMXMXMXMXMXMXMXMXMXMXMXMXMXMXMXMXMXMXMXMXMXMXMXMXMXn M MXMXMXMXMXMXMXMXMXMXMXMXMXMXMXMXMXMXMXMXMXMXMXMXMXMXMXMXMXMXMXMXMXMXMXMXMXMXMXMXMXMXMXMXMXMXMXMXMXMXMXMXMXMXMXMXMXMXMXMXMXMXMXMXMXMXMXMXMXMXMXMXMXMXMXMXMXMXMXMXMXMXMXMXMXMXMXMXMXMXMXMXMXMXMXMXMXMXMXMXMXMXMXMXMXMXMXMXMXMXMXMXMXMXMXMXMXMXMXMXMXMXMXMXMXMXMXMXMXMXMXMXMXMXMXMXMXMXMXMXMXMXMXMXMXMXMXMXMXMXMXMXMXMXMXMXMXMXMXMXMXMXMXMXMXMXMXMXMXMXMXMXMXMXMXMXMXMXMXMXMXMXMXMXMXMXMXMXMXMXMXMXMXMXMXMXMXMXMXMXMXMXMXMXMXMXMXMXMXMXMXMXMXMXMXMXMXMXMXMXMXMXMXMXMXMXMXMXMXMXMXMXMXMXMXMXMXMXMXMXMXMXMXMXMXMXMXMXMXMXMXMXMXMXMXMXMXMXMXMXMXMXMXMXMXMXMXMXMXMXMXMXMXMXMXMXMXMXMXMXMXMXMXMXMXMXMXMXMXMXMXMXMXMXMXMXMXMXMXMXMXMXMXMX",
"MXMXMXMXMXMXMXMXMXMXMXMXMXMXMXMXMXMXMXV M MXMXMXMXMXMXMXMXMXMXMXMXMXMXMXMXMXMXMXMXMXMXMXMXMXMXMXMXMXMXMXMXMXMXMXMXMXMXMXMXMXMXMXMXMXMXMXMXMXMXMXMXMXMXMXMXMXMXMXMXMXMXMXMXMXMXMXMXMXMXMXMXMXMXMXMXMXMXMXMXMXMXMXMXMXMXMXMXMXMXMXMXMXMXMXMXF n V MXMXMXMXMXMXMXMXMXMXMXMXMXMXMXMXMXMXMXMXMXMXMXMXMXMXMXMXMXMXMXMXMXMXMXMXMXMXMXMXMXMXMXMXMXMXMXMXMXMXMXMXMXMXMXMXMXMXMXMXMXMXMXMXMXMXMXMXMXMXMXMXMXMXMXMXMXMXMXMXMXMXMXMXMXMXMXMXMXMXMXMXMXMXMXMXMXMXMXMXMXMXMXMXMXMXMXMXMXMXMXMXMXMXMXMXMXMXMXMXMXMXMXMXMXMXMXMXMXMXMXMXMXMXMXMXMXMXMXMXMXMXMXMXMXMXMXMXMXMXMXMXMXMXMXMXMXMXMXMXMXMXMXMXMXMXMXMXMXMXMXMXMXMXMXMXMXMXMXMXMXMXMXMXMXMXMXMXMXMXMXMXMXMXMXMXMXMXMXMXMXMXMXMXMXMXMXMXMXMXMXMXMXMXMXMXMXMXMXMXMXMXMXMXMXMXMXMXMXMXMXMXMXMXMXMXMXMXMXMXMXMXMXMXMXMXMXMXMXMXMXMXMXMXMXMXMXMXMXMXMXMXMXMXMXMXMXMXMXMXMXMXMXMXMXMXMXMXMXMXMXMXMXMXMXMXMXMXMXMXMXMXMXMXMXMXMXMXMXMXMXMXMXMX",
"MXMXMXMXMXMXMXMXMXMXMXMXMXMXMXMXMXMXMXG b MXMXMXMXMXMXMXMXMXMXMXMXMXMXMXMXMXMXMXMXMXMXMXMXMXMXMXMXMXMXMXMXMXMXMXMXMXMXMXMXMXMXMXMXMXMXMXMXMXMXMXMXMXMXMXMXMXMXMXMXMXMXMXMXMXMXMXMXMXMXMXMXMXMXMXMXMXMXMXMXMXMXMXMXMXMXMXMXMXMXMXMXMXMXMXMXJ m MXMXMXMXMXMXMXMXMXMXMXMXMXMXMXMXMXMXMXMXMXMXMXMXMXMXMXMXMXMXMXMXMXMXMXMXMXMXMXMXMXMXMXMXMXMXMXMXMXMXMXMXMXMXMXMXMXMXMXMXMXMXMXMXMXMXMXMXMXMXMXMXMXMXMXMXMXMXMXMXMXMXMXMXMXMXMXMXMXMXMXMXMXMXMXMXMXMXMXMXMXMXMXMXMXMXMXMXMXMXMXMXMXMXMXMXMXMXMXMXMXMXMXMXMXMXMXMXMXMXMXMXMXMXMXMXMXMXMXMXMXMXMXMXMXMXMXMXMXMXMXMXMXMXMXMXMXMXMXMXMXMXMXMXMXMXMXMXMXMXMXMXMXMXMXMXMXMXMXMXMXMXMXMXMXMXMXMXMXMXMXMXMXMXMXMXMXMXMXMXMXMXMXMXMXMXMXMXMXMXMXMXMXMXMXMXMXMXMXMXMXMXMXMXMXMXMXMXMXMXMXMXMXMXMXMXMXMXMXMXMXMXMXMXMXMXMXMXMXMXMXMXMXMXMXMXMXMXMXMXMXMXMXMXMXMXMXMXMXMXMXMXMXMXMXMXMXMXMXMXMXMXMXMXMXMXMXMXMXMXMXMXMXMXMXMXMXMXMXMXMXMXMXMXMX",
"MXMXMXMXMXMXMXMXMXMXMXMXMXMXMXMXMXMXMXMXn V MXMXMXMXMXMXMXMXMXMXMXMXMXMXMXMXMXMXMXMXMXMXMXMXMXMXMXMXMXMXMXMXMXMXMXMXMXMXMXMXMXMXMXMXMXMXMXMXMXMXMXMXMXMXMXMXMXMXMXMXMXMXMXMXMXMXMXMXMXMXMXMXMXMXMXMXMXMXMXMXMXMXMXMXMXMXMXMXMXMXMXMXMXMXMXMXMXMXMXMXMXMXMXMXMXMXMXMXMXMXMXMXMXMXMXMXMXMXMXMXMXMXMXMXMXMXMXMXMXMXMXMXMXMXMXMXMXMXMXMXMXMXMXMXMXMXMXMXMXMXMXMXMXMXMXMXMXMXMXMXMXMXMXMXMXMXMXMXMXMXMXMXMXMXMXMXMXMXMXMXMXMXMXMXMXMXMXMXMXMXMXMXMXMXMXMXMXMXMXMXMXMXMXMXMXMXMXMXMXMXMXMXMXMXMXMXMXMXMXMXMXMXMXMXMXMXMXMXMXMXMXMXMXMXMXMXMXMXMXMXMXMXMXMXMXMXMXMXMXMXMXMXMXMXMXMXMXMXMXMXMXMXMXMXMXMXMXMXMXMXMXMXMXMXMXMXMXMXMXMXMXMXMXMXMXMXMXMXMXMXMXMXMXMXMXMXMXMXMXMXMXMXMXMXMXMXMXMXMXMXMXMXMXMXMXMXMXMXMXMXMXMXMXMXMXMXMXMXMXMXMXMXMXMXMXMXMXMXMXMXMXMXMXMXMXMXMXMXMXMXMXMXMXMXMXMXMXMXMXMXMXMXMXMXMXMXMXMXMXMXMXMXMXMXMXMXMXMXMXMXMXMXMXMXMXMXMXMXMXMXMXMXMXMXMXMXMXMXMXMXMXMX",
"MXMXMXMXMXMXMXMXMXMXMXMXMXMXMXMXMXMXMXMXV M MXMXMXMXMXMXMXMXMXMXMXMXMXMXMXMXMXMXMXMXMXMXMXMXMXMXMXMXMXMXMXMXMXMXMXMXMXMXMXMXMXMXMXMXMXMXMXMXMXMXMXMXMXMXMXMXMXMXMXMXMXMXMXMXMXMXMXMXMXMXMXMXMXMXMXMXMXMXMXz k MXMXMXMXMXMXMXMXMXMXMXMXMXMXMXMXMXMXMXMXMXMXMXMXMXMXMXMXMXMXMXMXMXMXMXMXMXMXMXMXMXMXMXMXMXMXMXMXMXMXMXMXMXMXMXMXMXMXMXMXMXMXMXMXMXMXMXMXMXMXMXMXMXMXMXMXMXMXMXMXMXMXMXMXMXMXMXMXMXMXMXMXMXMXMXMXMXMXMXMXMXMXMXMXMXMXMXMXMXMXMXMXMXMXMXMXMXMXMXMXMXMXMXMXMXMXMXMXMXMXMXMXMXMXMXMXMXMXMXMXMXMXMXMXMXMXMXMXMXMXMXMXMXMXMXMXMXMXMXMXMXMXMXMXMXMXMXMXMXMXMXMXMXMXMXMXMXMXMXMXMXMXMXMXMXMXMXMXMXMXMXMXMXMXMXMXMXMXMXMXMXMXMXMXMXMXMXMXMXMXMXMXMXMXMXMXMXMXMXMXMXMXMXMXMXMXMXMXMXMXMXMXMXMXMXMXMXMXMXMXMXMXMXMXMXMXMXMXMXMXMXMXMXMXMXMXMXMXMXMXMXMXMXMXMXMXMXMXMXMXMXMXMXMXMXMXMXMXMXMXMXMXMXMXMXMXMXMXMXMXMXMXMXMXMXMXMXMXMXMXMXMXMXMXMXMXMXMXMXMXMXMXMXMXMXMXMXMXMXMXMX",
"MXMXMXMXMXMXMXMXMXMXMXMXMXMXMXMXMXMXMXMXK b V MXMXMXMXMXMXMXMXMXMXMXMXMXMXMXMXMXMXMXMXMXMXMXMXMXMXMXMXMXMXMXMXMXMXMXMXMXMXMXMXMXMXMXMXH k V MXMXMXMXMXMXMXMXMXMXMXMXMXMXMXMXMXMXMXMXMXMXMXMXMXMXMXMXMXMXMXB z MXMXMXMXMXMXMXMXMXMXMXMXMXMXMXMXMXMXMXMXMXMXMXMXMXMXMXMXMXMXMXMXMXMXMXMXMXMXMXMXMXMXMXMXMXMXMXMXMXMXMXMXMXMXMXMXMXMXMXMXMXMXMXMXMXMXMXMXMXMXMXMXMXMXMXMXMXMXMXMXMXMXMXMXMXMXMXMXMXMXMXMXMXMXMXMXMXMXMXMXMXMXMXMXMXMXMXMXMXMXMXMXMXMXMXMXMXMXMXMXMXMXMXMXMXMXMXMXMXMXMXMXMXMXMXMXMXMXMXMXMXMXMXMXMXMXMXMXMXMXMXMXMXMXMXMXMXMXMXMXMXMXMXMXMXMXMXMXMXMXMXMXMXMXMXMXMXMXMXMXMXMXMXMXMXMXMXMXMXMXMXMXMXMXMXMXMXMXMXMXMXMXMXMXMXMXMXMXMXMXMXMXMXMXMXMXMXMXMXMXMXMXMXMXMXMXMXMXMXMXMXMXMXMXMXMXMXMXMXMXMXMXMXMXMXMXMXMXMXMXMXMXMXMXMXMXMXMXMXMXMXMXMXMXMXMXMXMXMXMXMXMXMXMXMXMXMXMXMXMXMXMXMXMXMXMXMXMXMXMXMXMXMXMXMXMXMXMXMXMXMXMXMXMXMXMXMXMXMXMXMXMXMXMXMXMXMXMXMXMXMX",
"MXMXMXMXMXMXMXMXMXMXMXMXMXMXMXMXMXMXMXMXG b M MXMXMXMXMXMXMXMXMXMXMXMXMXMXMXMXMXMXMXMXMXMXMXMXMXMXMXMXMXMXMXMXMXMXMXMXMXMXMXMXMXMXMXMXMXk z MXMXMXMXMXMXMXMXMXMXMXMXMXMXMXMXMXMXMXMXMXMXMXMXMXMXMXMXMXMXMXMXMXMXMXMXMXMXMXMXMXMXMXMXMXMXMXMXMXMXMXMXMXMXMXMXMXMXMXMXMXMXMXMXMXMXMXMXMXMXMXMXMXMXMXMXMXMXMXMXMXMXMXMXMXMXMXMXMXMXMXMXMXMXMXMXMXMXMXMXMXMXMXMXMXMXMXMXMXMXMXMXMXMXMXMXMXMXMXMXMXMXMXMXMXMXMXMXMXMXMXMXMXMXMXMXMXMXMXMXMXMXMXMXMXMXMXMXMXMXMXMXMXMXMXMXMXMXMXMXMXMXMXMXMXMXMXMXMXMXMXMXMXMXMXMXMXMXMXMXMXMXMXMXMXMXMXMXMXMXMXMXMXMXMXMXMXMXMXMXMXMXMXMXMXMXMXMXMXMXMXMXMXMXMXMXMXMXMXMXMXMXMXMXMXMXMXMXMXMXMXMXMXMXMXMXMXMXMXMXMXMXMXMXMXMXMXMXMXMXMXMXMXMXMXMXMXMXMXMXMXMXMXMXMXMXMXMXMXMXMXMXMXMXMXMXMXMXMXMXMXMXMXMXMXMXMXMXMXMXMXMXMXMXMXMXMXMXMXMXMXMXMXMXMXMXMXMXMXMXMXMXMXMXMXMXMXMXMXMXMXMXMXMXMXMXMXMXMXMXMXMXMXMXMXMXMXMXMXMXMXMXMXMXMXMXMXMXMXMXMXMXMXd ",
"MXMXMXMXMXMXMXMXMXMXMXMXMXMXMXMXMXMXMXMXM b b MXMXMXMXMXMXMXMXMXMXMXMXMXMXMXMXMXMXMXMXMXMXMXMXMXMXMXMXMXMXMXMXMXMXMXMXMXMXMXMXMXMXMXMXMXH H MXMXMXMXMXMXMXMXMXMXMXMXMXMXMXMXMXMXMXMXMXMXMXMXMXMXMXMXMXMXMXMXMXMXMXMXMXMXMXMXMXMXMXMXMXMXMXMXMXMXMXMXMXMXMXMXMXMXMXMXMXMXMXMXMXMXMXMXMXMXMXMXMXMXMXMXMXMXMXMXMXMXMXMXMXMXMXMXMXMXMXMXMXMXMXMXMXMXMXMXMXMXMXMXMXMXMXMXMXMXMXMXMXMXMXMXMXMXMXMXMXMXMXMXMXMXMXMXMXMXMXMXMXMXMXMXMXMXMXMXMXMXMXMXMXMXMXMXMXMXMXMXMXMXMXMXMXMXMXMXMXMXMXMXMXMXMXMXMXMXMXMXMXMXMXMXMXMXMXMXMXMXMXMXMXMXMXMXMXMXMXMXMXMXMXMXMXMXMXMXMXMXMXMXMXMXMXMXMXMXMXMXMXMXMXMXMXMXMXMXMXMXMXMXMXMXMXMXMXMXMXMXMXMXMXMXMXMXMXMXMXMXMXMXMXMXMXMXMXMXMXMXMXMXMXMXMXMXMXMXMXMXMXMXMXMXMXMXMXMXMXMXMXMXMXMXMXMXMXMXMXMXMXMXMXMXMXMXMXMXMXMXMXMXMXMXMXMXMXMXMXMXMXMXMXMXMXMXMXMXMXMXMXMXMXMXMXMXMXMXMXMXMXMXMXMXMXMXMXMXMXMXMXMXMXMXMXMXMXMXMXMXMXMXMXMXMXMXMXMXMXMXMXs ",
"MXMXMXMXMXMXMXMXMXMXMXMXMXMXMXMXMX_ M n M V n m MXMXMXMXMXMXMXMXMXMXMXMXMXMXMXMXMXMXMXMXMXMXMXMXMXMXMXMXMXMXMXMXMXMXMXMXMXMXMXMXMXMXMXMXMXMXMXMXMXMXMXMXMXMXMXMXMXMXMXMXMXMXMXMXMXMXMXMXMXMXMXMXMXMXMXMXMXMXMXMXMXMXMXMXMXMXMXMXMXMXMXMXMXMXMXMXMXMXMXMXMXMXMXMXMXMXMXMXMXMXMXMXMXMXMXMXMXMXMXMXMXMXMXMXMXMXMXMXMXMXMXMXMXMXMXMXMXMXMXMXMXMXMXMXMXMXMXMXMXMXMXMXMXMXMXMXMXMXMXMXMXMXMXMXMXMXMXMXMXMXMXMXMXMXMXMXMXMXMXMXMXMXMXMXMXMXMXMXMXMXMXMXMXMXMXMXMXMXMXMXMXMXMXMXMXMXMXMXMXMXMXMXMXMXMXMXMXMXMXMXMXMXMXMXMXMXMXMXMXMXMXMXMXMXMXMXMXMXMXMXMXMXMXMXMXMXMXMXMXMXMXMXMXMXMXMXMXMXMXMXMXMXMXMXMXMXMXMXMXMXMXMXMXMXMXMXMXMXMXMXMXMXMXMXMXMXMXMXMXMXMXMXMXMXMXMXMXMXMXMXMXMXMXMXMXMXMXMXMXMXMXMXMXMXMXMXMXMXMXMXMXMXMXMXMXMXMXMXMXMXMXMXMXMXMXMXMXMXMXMXMXMXMXMXMXMXMXMXMXMXMXMXMXMXMXMXMXMXMXMXMXMXMXMXMXMXMXMXMXMXMXMXMXMXMXMXMXMXMXMXMXMXMXMXMXMXMXMXMXMXMXMXMXMXMXMXMXMXMXf ",
"MXMXMXMXMXMXMXMXMXMXMXMXMXMXMX' Q n n ' MXMXL m MXMXMXMXMXMXMXMXMXMXMXMXMXMXMXMXMXMXMXMXMXMXMXMXMXMXMXMXMXMXMXMXMXMXMXMXMXMXMXMXMXMXMXMXMXMXMXMXMXMXMXMXMXMXMXMXMXMXMXMXMXMXMXMXMXMXMXMXMXMXMXMXMXMXMXMXMXMXMXMXMXMXMXMXMXMXMXMXMXMXMXMXMXMXMXMXMXMXMXMXMXMXMXMXMXMXMXMXMXMXMXMXMXMXMXMXMXMXMXMXMXMXMXMXMXMXMXMXMXMXMXMXMXMXMXMXMXMXMXMXMXMXMXMXMXMXMXMXMXMXMXMXMXMXMXMXMXMXMXMXMXMXMXMXMXMXMXMXMXMXMXMXMXMXMXMXMXMXMXMXMXMXMXMXMXMXMXMXMXMXMXMXMXMXMXMXMXMXMXMXMXMXMXMXMXMXMXMXMXMXMXMXMXMXMXMXMXMXMXMXMXMXMXMXMXMXMXMXMXMXMXMXMXMXMXMXMXMXMXMXMXMXMXMXMXMXMXMXMXMXMXMXMXMXMXMXMXMXMXMXMXMXMXMXMXMXMXMXMXMXMXMXMXMXMXMXMXMXMXMXMXMXMXMXMXMXMXMXMXMXMXMXMXMXMXMXMXMXMXMXMXMXMXMXMXMXMXMXMXMXMXMXMXMXMXMXMXMXMXMXMXMXMXMXMXMXMXMXMXMXMXMXMXMXMXMXMXMXMXMXMXMXMXMXMXMXMXMXMXMXMXMXMXMXMXMXMXMXMXMXMXMXMXMXMXMXMXMXMXMXMXMXMXMXMXMXMXMXMXMXMXMXMXMXMXMXMXMXMXMXMXMXMXMXMXMXMXMXMXMX",
"MXMXMXMXMXMXMXMXMXMXMXMXMXMXV n n ~ MXMXMXMXMXMXMXMXMXMXMXMXMXMXMXMXMXMXMXMXMXMXMXMXMXMXMXMXMXF V MXMXMXMXMXMXMXMXMXMXMXMXMXMXMXMXMXMXMXMXMXMXMXMXMXMXMXMXMXMXMXMXMXMXMXMXMXMXMXMXMXMXMXMXMXMXMXMXMXMXMXMXMXMXMXMXMXMXMXMXMXMXMXMXMXMXMXMXMXMXMXMXMXMXMXMXMXMXMXMXMXMXMXMXMXMXMXMXMXMXMXMXMXMXMXMXMXMXMXMXMXMXMXMXMXMXMXMXMXMXMXMXMXMXMXMXMXMXMXMXMXMXMXMXMXMXMXMXMXMXMXMXMXMXMXMXMXMXMXMXMXMXMXMXMXMXMXMXMXMXMXMXMXMXMXMXMXMXMXMXMXMXMXMXMXMXMXMXMXMXMXMXMXMXMXMXMXMXMXMXMXMXMXMXMXMXMXMXMXMXMXMXMXMXMXMXMXMXMXMXMXMXMXMXMXMXMXMXMXMXMXMXMXMXMXMXMXMXMXMXMXMXMXMXMXMXMXMXMXMXMXMXMXMXMXMXMXMXMXMXMXMXMXMXMXMXMXMXMXMXMXMXMXMXMXMXMXMXMXMXMXMXMXMXMXMXMXMXMXMXMXMXMXMXMXMXMXMXMXMXMXMXMXMXMXMXMXMXMXMXMXMXMXMXMXMXMXMXMXMXMXMXMXMXMXMXMXMXMXMXMXMXMXMXMXMXMXMXMXMXMXMXMXMXMXMXMXMXMXMXMXMXMXMXMXMXMXMXMXMXMXMXMXMXMXMXMXMXMXMXMXMXMXMXMXMXMXMXMXMXMXMXMXMXMXf MXMXMXMXMXMXMXMXMX",
"MXMXMXMXMXMXMXMXMXMXMXMXMXV n V J MXMXMXMXMXMXMXMXMXMXMXMXMXMXMXMXMXMXMXMXMXMXMXMXMXMXMXMXMXM n V MXMXMXMXMXMXMXMXMXMXMXMXMXMXMXMXMXMXMXMXMXMXMXMXMXMXMXMXMXMXMXMXMXMXMXMXMXMXMXMXMXMXMXMXMXMXMXMXMXMXMXMXMXMXMXMXMXMXMXMXMXMXMXMXMXMXMXMXMXMXMXMXMXMXMXMXMXMXMXMXMXMXMXMXMXMXMXMXMXMXMXMXMXMXMXMXMXMXMXMXMXMXMXMXMXMXMXMXMXMXMXMXMXMXMXMXMXMXMXMXMXMXMXMXMXMXMXMXMXMXMXMXMXMXMXMXMXMXMXMXMXMXMXMXMXMXMXMXMXMXMXMXMXMXMXMXMXMXMXMXMXMXMXMXMXMXMXMXMXMXMXMXMXMXMXMXMXMXMXMXMXMXMXMXMXMXMXMXMXMXMXMXMXMXMXMXMXMXMXMXMXMXMXMXMXMXMXMXMXMXMXMXMXMXMXMXMXMXMXMXMXMXMXMXMXMXMXMXMXMXMXMXMXMXMXMXMXl MXMXMXMXMXMXMXMXMXMXMXMXMXMXMXMXMXMXMXMXMXMXMXMXMXMXMXMXMXMXMXMXMXMXMXMXMXMXMXMXMXMXMXMXMXMXMXMXMXMXMXMXMXMXMXMXMXMXMXMXMXMXMXMXMXMXMXMXMXMXMXMXMXMXMXMXMXMXMXMXMXMXMXMXMXMXMXMXMXMXMXMXMXMXMXMXMXMXMXMXMXMXMXMXMXMXMXMXMXMXMXMXMXMXMXMXMXMXMXMXMXMXMXMXMXMXMXMXMXMXMXMXMXMXMXMXMX",
"MXMXMXMXMXMXMXMXMXMXMXMXMXMXMXMXMXMXm k MXMXMXMXMXMXMXMXMXMXMXMXMXMXMXMXMXMXMXMXMXMXMXMXV n n m MXMXMXMXMXMXMXMXMXMXMXMXMXMXMXMXMXMXMXMXMXMXMXMXMXMXMXMXMXMXMXMXMXMXMXMXMXMXMXMXMXMXMXMXMXMXMXMXMXMXMXMXMXMXMXMXMXMXMXMXMXMXMXMXMXMXMXMXMXMXMXMXMXMXMXMXMXMXMXMXMXMXMXMXMXMXMXMXMXMXMXMXMXMXMXMXMXMXMXMXMXMXMXMXMXMXMXMXMXMXMXMXMXMXMXMXMXMXMXMXMXMXMXMXMXMXMXMXMXMXMXMXMXMXMXMXMXMXMXMXMXMXMXMXMXMXMXMXMXMXMXMXMXMXMXMXMXMXMXMXMXMXMXMXMXMXMXMXMXMXMXMXMXMXMXMXMXMXMXMXMXMXMXMXMXMXMXMXMXMXMXMXMXMXMXMXMXMXMXMXMXMXMXMXMXMXMXMXMXMXMXMXMXMXMXMXMXMXMXMXMXMXMXMXMXMXMXMXMXMXMXMXMXMXMXMXMXj z MXMXMXMXMXMXMXMXMXMXMXMXMXMXMXMXMXMXMXMXMXMXMXMXMXMXMXMXMXMXMXMXMXMXMXMXMXMXMXMXMXMXMXMXMXMXMXMXMXMXMXMXMXMXMXMXMXMXMXMXMXMXMXMXMXMXMXMXMXMXMXMXMXMXMXMXMXMXMXMXMXMXMXMXMXMXMXMXMXMXMXMXMXMXMXMXMXMXMXMXMXMXMXMXMXMXMXMXMXMXMXMXMXMXMXMXMXMXMXMXMXMXMXMXMXMXMXMXMXMXMXMXMXMXMXMXMX",
"MXMXMXMXMXMXMXMXMXMXMXMXMXMXMXMXMXMXk k b MXMXMXMXMXMXMXMXMXMXMXMXMXMXMXMXMXMXMXMXMXJ b n n V MXMXMXMXMXMXMXMXMXMXMXMXMXMXMXMXMXMXMXMXMXMXMXMXMXMXMXMXMXMXMXMXMXMXMXMXMXMXMXMXMXMXMXMXMXMXMXMXMXMXMXMXMXMXMXMXMXMXMXMXMXMXMXMXMXMXMXMXMXMXMXMXMXMXMXMXMXMXMXMXMXMXMXMXMXMXMXMXMXMXMXMXMXMXMXMXMXMXMXMXMXMXMXMXMXMXMXMXMXMXMXMXMXMXMXMXMXMXMXMXMXMXMXMXMXMXMXMXMXMXMXMXMXMXMXMXMXMXMXMXMXMXMXMXMXMXMXMXMXMXMXMXMXMXMXMXMXMXMXMXMXMXMXMXMXMXMXMXMXMXMXMXMXMXMXMXMXMXMXMXMXMXMXMXMXMXMXMXMXMXMXMXMXMXMXMXMXMXMXMXMXMXMXMXMXMXMXMXMXMXMXMXMXMXMXMXMXMXMXMXMXMXMXMXMXMXMXMXMXMXMXMXMXMXMXMXMXl k D MXMXMXMXMXMXMXMXMXMXMXMXMXMXMXMXMXMXMXMXMXMXMXMXMXMXMXMXMXMXMXMXMXMXMXMXMXMXMXMXMXMXMXMXMXMXMXMXMXMXMXMXMXMXMXMXMXMXMXMXMXMXMXMXMXMXMXMXMXMXMXMXMXMXMXMXMXMXMXMXMXMXMXMXMXMXMXMXMXMXMXMXMXMXMXMXMXMXMXMXMXMXMXMXMXMXMXMXMXMXMXMXMXMXMXMXMXMXMXMXMXMXMXMXMXMXMXMXMXMXMXMXMXMXMXMXMX",
"MXMXMXMXMXMXMXMXMXMXMXMXMXMXMXMXMXMXV k k MXMXMXMXMXMXMXMXMXMXMXMXMXMXMXMXMXMXMXMXM b n m G MXMXMXMXMXMXMXMXMXMXMXMXMXMXMXMXMXMXMXMXMXMXMXMXMXMXMXMXMXMXMXMXMXMXMXMXMXMXMXMXMXMXMXMXMXMXMXMXMXMXMXMXMXMXMXMXMXMXMXMXMXMXMXMXMXMXMXMXMXMXMXA MXMXMXMXMXMXMXMXMXMXMXMXMXMXMXMXMXMXMXMXMXMXMXMXMXMXMXMXMXMXMXMXMXMXMXMXMXMXMXMXMXMXMXMXMXMXMXMXMXMXMXMXMXMXMXMXMXMXMXMXMXMXMXMXMXMXMXMXMXMXMXMXMXMXMXMXMXMXMXMXMXMXMXMXMXMXMXMXMXMXMXMXMXMXMXMXMXMXMXMXMXMXMXMXMXMXMXMXMXMXMXMXMXMXMXMXMXMXMXMXMXMXMXMXMXMXMXMXMXMXMXMXMXMXMXMXMXMXMXMXMXMXMXMXMXMXMXMXMXMXMXMXMXMXMXMXMXMXMXMXMXMXMXMXMXl j S MXMXMXMXMXMXMXMXMXMXMXMXMXMXMXMXMXMXMXMXMXMXMXMXMXMXMXMXMXMXMXMXMXMXMXMXMXMXMXMXMXMXMXMXMXMXMXMXMXMXMXMXMXMXMXMXMXMXMXMXMXMXMXMXMXMXMXMXMXMXMXMXMXMXMXMXMXMXMXMXMXMXMXMXMXMXMXMXMXMXMXMXMXMXMXMXMXMXMXMXMXMXMXMXMXMXMXMXMXMXMXMXMXMXMXMXMXMXMXMXMXMXMXMXMXMXMXMXMXMXMXMXMXMXMXMXMXMX",
"MXMXMXMXMXMXMXMXMXMXMXMXMXMXMXMXMXMXMXV V MXMXMXMXMXMXMXMXMXMXMXMXMXMXMXMXMXMXV b b m G MXMXMXMXMXMXMXMXMXMXMXMXMXMXMXMXMXMXMXMXMXMXMXMXMXMXMXMXMXMXMXMXMXMXMXMXMXMXMXMXMXMXMXMXMXMXMXMXMXMXMXMXMXMXMXMXMXMXMXMXMXMXMXMXMXMXMXMXMXMXMXMXMXMXMXMXMXMXMXMXMXMXMXMXMXMXMXMXMXMXMXMXMXMXMXMXMXMXMXMXMXMXMXMXMXMXMXMXMXMXMXMXMXMXMXMXMXMXMXMXMXMXMXMXMXMXMXMXMXMXMXMXMXMXMXMXMXMXMXMXMXMXMXMXMXMXMXMXMXMXMXMXMXMXMXMXMXMXMXMXMXMXMXMXMXMXMXMXMXMXMXMXMXMXMXMXMXMXMXMXMXMXMXMXMXMXMXMXMXMXMXMXMXMXMXMXMXMXMXMXMXMXMXMXMXMXMXMXMXMXMXMXMXMXMXMXMXMXMXMXMXMXMXMXMXMXMXMXMXMXMXMXMXMXMXMXMXMXMXZ D MXMXMXMXMXMXMXMXMXMXMXMXMXMXMXMXMXMXMXMXMXMXMXMXMXMXMXMXMXMXMXMXMXMXMXMXMXMXMXMXMXMXMXMXMXMXMXMXMXMXMXMXMXMXMXMXMXMXMXMXMXMXMXMXMXMXMXMXMXMXMXMXMXMXMXMXMXMXMXMXMXMXMXMXMXMXMXMXMXMXMXMXMXMXMXMXMXMXMXMXMXMXMXMXMXMXMXMXMXMXMXMXMXMXMXMXMXMXMXMXMXMXMXMXMXMXMXMXMXMXMXMXMXMXMXMXMXMXMX",
"MXMXMXMXMXMXMXMXMXMXMXMXMXMXMXMXMXMXMXMXMXMXMXMXMXMXMXMXMXMXMXMXMXMXMXMXMXMXK b m J MXMXMXMXMXMXMXMXMXMXMXMXMXMXMXMXMXMXMXMXMXMXMXMXMXMXMXMXMXMXMXMXMXMXMXMXMXMXMXMXMXMXMXMXMXMXMXMXMXMXMXMXMXMXMXMXMXMXMXMXMXMXMXMXMXMXMXMXMXMXMXMXMXMXMXMXMXMXMXMXMXMXMXMXMXMXMXMXMXMXMXMXMXMXMXMXMXMXMXMXMXMXMXMXMXMXMXMXMXMXMXMXMXMXMXMXMXMXMXMXMXMXMXMXMXMXMXMXMXMXMXMXMXMXMXMXMXMXMXMXMXMXMXMXMXMXMXMXMXMXMXMXMXMXMXMXMXMXMXMXMXMXMXMXMXMXMXMXMXMXMXMXMXMXMXMXMXMXMXMXMXMXMXMXMXMXMXMXMXMXMXMXMXMXMXMXMXMXMXMXMXMXMXMXMXMXMXMXMXMXMXMXMXMXMXMXMXMXMXMXMXMXMXMXMXMXMXMXMXMXMXMXMXMXMXMXMXMXMXMXMXMXMXMXMXMXMXMXMXMXMXMXMXMXMXMXMXMXMXMXMXMXMXMXMXMXMXMXMXMXMXMXMXMXMXMXMXMXMXMXMXMXMXMXMXMXMXMXMXMXMXMXMXMXMXMXMXMXMXMXMXMXMXMXMXMXMXMXMXMXMXMXMXMXMXMXMXMXMXMXMXMXMXMXMXMXMXMXMXMXMXMXMXMXMXMXMXMXMXMXMXMXMXMXMXMXMXMXMXMXMXMXMXMXMXMXMXMXMXMXMXMXMXMXMXMXMXMXMXMXMXMXMXMXMXMXMXMXMXMXMXMX",
"MXMXMXMXMXMXMXMXMXMXMXMXMXMXMXMXMXMXMXMXMXMXMXMXMXMXMXMXMXMXMXMXMXMXMXMXMXMXMXMXMXMXMXMXMXMXMXMXMXMXMXMXMXMXMXMXMXMXMXMXMXMXMXMXMXMXMXMXMXMXMXMXMXMXMXMXMXMXMXMXMXMXMXMXMXMXMXMXMXMXMXMXMXMXMXMXMXMXMXMXMXMXMXMXMXMXMXMXMXMXMXMXMXMXMXMXMXMXMXMXMXMXMXMXMXMXMXMXMXMXMXMXMXMXMXMXMXMXMXMXMXMXMXMXMXMXMXMXMXMXMXMXMXMXMXMXMXMXMXMXMXMXMXMXMXMXMXMXMXMXMXMXMXMXMXMXMXMXMXMXMXMXMXMXMXMXMXMXMXMXMXMXMXMXMXMXMXMXMXMXMXMXMXMXMXMXMXMXMXMXMXMXMXMXMXMXMXMXMXMXMXMXMXMXMXMXMXMXMXMXMXMXMXMXMXMXMXMXMXMXMXMXMXMXMXMXMXMXMXMXMXMXMXMXMXMXMXMXMXMXMXMXMXMXMXMXMXMXMXMXMXMXMXMXMXMXMXMXMXMXMXMXMXMXMXMXMXMXMXMXMXMXMXMXMXMXMXMXMXMXMXMXMXMXMXMXMXMXMXMXMXMXMXMXMXMXMXMXMXMXMXMXMXMXMXMXMXMXMXMXMXMXMXMXMXMXMXMXMXMXMXMXMXMXMXMXMXMXMXMXMXMXMXMXMXMXMXMXMXMXMXMXMXMXMXMXMXMXMXMXMXMXMXMXMXMXMXMXMXMXMXMXMXMXMXMXMXMXMXMXMXMXMXMXMXMXMXMXMXMXMXMXMXMXMXMXMXMXMXMXMXMXMXMXMXMXMXMXMXMXMXMXMXMX",
"MXMXMXMXMXMXMXMXMXMXMXMXMXMXMXMXMXMXMXMXMXMXMXMXMXMXMXMXMXMXMXMXMXMXMXMXMXMXMXMXMXMXMXMXMXMXMXMXMXMXMXMXMXMXMXMXMXMXMXMXMXMXMXMXMXMXMXMXMXMXMXMXMXMXMXMXMXMXMXMXMXMXMXMXMXMXMXMXMXMXMXMXMXMXMXMXMXMXMXMXMXMXMXMXMXMXMXMXMXMXMXMXMXMXMXMXMXMXMXMXMXMXMXMXMXMXMXMXMXMXMXMXMXMXMXMXMXMXMXMXMXMXMXMXMXMXMXMXMXMXMXMXMXMXMXMXMXMXMXMXMXMXMXMXMXMXMXMXMXMXMXMXMXMXMXMXMXMXMXMXMXMXMXMXMXMXMXMXMXMXMXMXMXMXMXMXMXMXMXMXMXMXMXMXMXMXMXMXMXMXMXMXMXMXMXMXMXMXMXMXMXMXMXMXMXMXMXMXMXMXMXMXMXMXMXMXMXMXMXMXMXMXMXMXMXMXMXMXMXMXMXMXMXMXMXMXMXMXMXMXMXMXMXMXMXMXMXMXMXMXMXMXMXMXMXMXMXMXMXMXMXMXMXMXMXMXMXMXMXMXMXMXMXMXMXMXMXMXMXMXMXMXMXMXMXMXMXMXMXMXMXMXMXMXMXMXMXMXMXMXMXMXMXMXMXMXMXMXMXMXMXMXMXMXMXMXMXMXMXMXMXMXMXMXMXMXMXMXMXMXMXMXMXMXMXMXMXMXMXMXMXMXMXMXMXMXMXMXMXMXMXMXMXMXMXMXMXMXMXMXMXMXMXMXMXMXMXMXMXMXMXMXMXMXMXMXMXMXMXMXMXMXMXMXMXMXMXMXMXMXMXMXMXMXMXMXMXMXMXMXMXMXMXMX",
"MXMXMXMXMXMXMXMXMXMXMXMXMXMXMXMXMXMXMXMXMXMXMXMXMXMXMXMXMXMXMXMXMXMXMXMXMXMXMXMXMXMXMXMXMXMXMXMXMXMXMXMXMXMXMXMXMXMXMXMXMXMXMXMXMXMXMXMXMXMXMXMXMXMXMXMXMXMXMXMXMXMXMXMXMXMXMXMXMXMXMXMXMXMXMXMXMXMXMXMXMXMXMXMXMXMXMXMXMXMXMXMXMXMXMXMXMXMXMXMXMXMXMXMXMXMXMXMXMXMXMXMXMXMXMXMXMXMXMXMXMXMXMXMXMXMXMXMXMXMXMXMXMXMXMXMXMXMXMXMXMXMXMXMXMXMXMXMXMXMXMXMXMXMXMXMXMXMXMXMXMXMXMXMXMXMXMXMXMXMXMXMXMXMXMXMXMXMXMXMXMXMXMXMXMXMXMXMXMXMXMXMXMXMXMXMXMXMXMXMXMXMXMXMXMXMXMXMXMXMXMXMXMXMXMXMXMXMXMXMXMXMXMXMXMXMXMXMXMXMXMXMXMXMXMXMXMXMXMXMXMXMXMXMXMXMXMXMXMXMXMXMXMXMXMXMXMXMXMXMXMXMXMXMXMXMXMXMXMXMXMXMXMXMXMXMXMXMXMXMXMXMXMXMXMXMXMXMXMXMXMXMXMXMXMXMXMXMXMXMXMXMXMXMXMXMXMXMXMXMXMXMXMXMXMXMXMXMXMXMXMXMXMXMXMXMXMXMXMXMXMXMXMXMXMXMXMXMXMXMXMXMXMXMXMXMXMXMXMXMXMXMXMXMXMXMXMXMXMXMXMXMXMXMXMXMXMXMXMXMXMXMXMXMXMXMXMXMXN Z MXMXMXMXMXMXMXMXMXMXMXMXMXMXMXMXMXMXMXMXMXMXMXMX",
"MXMXMXMXMXMXMXMXMXMXMXMXMXA MXMXMXMXMXMXMXMXMXMXMXMXMXMXMXMXMXMXMXMXMXMXMXMXMXMXMXMXMXMXMXMXMXMXMXMXMXMXMXMXMXMXMXMXMXMXMXMXMXMXMXMXMXMXMXMXMXMXMXMXMXMXMXMXMXMXMXMXMXMXMXMXMXMXMXMXMXMXMXMXMXMXMXMXMXMXMXMXMXMXMXMXMXMXMXMXMXMXMXMXMXMXMXMXMXMXMXMXMXz k MXMXMXMXMXMXMXMXMXMXMXMXMXMXMXMXMXMXMXMXMXMXMXMXMXMXMXMXMXMXMXMXMXMXMXMXMXMXMXMXMXMXMXMXMXMXMXMXMXMXMXMXMXMXMXMXMXMXMXMXMXMXMXMXMXMXMXMXMXMXMXMXMXMXMXMXMXMXMXMXMXMXMXMXMXMXMXMXMXMXMXMXMXMXMXMXMXMXMXMXMXMXMXMXMXMXMXMXMXMXMXMXMXMXMXMXMXMXMXMXMXMXMXMXMXMXMXMXMXMXMXMXMXMXMXMXMXMXMXMXMXMXMXMXMXMXMXMXMXMXMXMXMXMXMXMXMXMXMXMXMXMXMXMXMXMXMXMXMXMXMXMXMXMXMXMXMXMXMXMXMXMXMXMXMXMXMXMXMXMXMXMXMXMXMXMXMXMXMXMXMXMXMXMXMXMXMXMXMXMXMXMXMXMXMXMXMXMXMXMXMXMXMXMXMXMXMXMXMXMXMXMXMXMXMXMXMXMXMXMXMXMXMXMXMXMXMXMXMXMXMXMXMXMXMXMXMXMXMXMXMXMXMXMXMXMXMXMXMXMXMXMXZ d j Z MXMXMXMXMXMXMXMXMXMXMXMXMXMXMXMXMXMXMXMXMXMXMX",
"MXMXMXMXMXMXMXMXMXMXMXMXMXA A MXMXMXMXMXMXMXMXMXMXMXMXMXMXMXMXMXMXMXMXMXMXMXMXMXMXMXMXMXMXMXMXMXMXMXMXMXMXMXMXMXMXMXMXMXMXMXMXMXMXMXMXMXMXMXMXMXMXMXMXMXMXMXMXMXMXMXMXMXMXMXMXMXMXMXMXMXMXMXMXMXMXMXMXMXMXMXMXMXMXMXMXMXMXMXMXMXMXMXMXMXMXMXMXMXMXMXMXk k B MXMXMXMXMXMXMXMXMXMXMXMXMXMXMXMXMXMXMXMXMXMXMXMXMXMXMXMXMXMXMXMXMXMXMXMXMXMXMXMXMXMXMXMXMXMXMXMXMXMXMXMXMXMXMXMXMXMXMXMXMXMXMXMXMXMXMXMXMXMXMXMXMXMXMXMXMXMXMXMXMXMXMXMXMXMXMXMXMXMXMXMXMXMXMXMXMXMXMXMXMXMXMXMXMXMXMXMXMXMXMXMXMXMXMXMXMXMXMXMXMXMXMXMXMXMXMXMXMXMXMXMXMXMXMXMXMXMXMXMXMXMXMXMXMXMXMXMXMXMXMXMXMXMXMXMXMXMXMXMXMXMXMXMXMXMXMXMXMXMXMXMXMXMXMXMXMXMXMXMXMXMXMXMXMXMXMXMXMXMXMXMXMXMXMXMXMXMXMXMXMXMXMXMXMXMXMXMXMXMXMXMXMXMXMXMXMXMXMXMXMXMXMXMXMXMXMXMXMXMXMXMXMXMXMXMXMXMXMXMXMXMXMXMXMXMXMXMXMXMXMXMXMXMXMXMXMXMXMXMXMXMXMXMXMXMXMXMXMXMXMXN d j Z MXMXH MXMXMXMXMXMXMXMXMXMXMXMXMXMXMXMXMXMXMXMX",
"MXMXMXMXMXMXMXMXMXMXMXMXMXMXMXMXMXMXMXMXMXMXMXMXMXMXMXMXMXMXMXMXMXMXMXMXMXMXMXMXMXMXMXMXMXMXMXMXMXMXMXMXMXMXMXMXMXMXMXMXMXMXMXMXMXMXMXMXMXMXMXMXMXMXMXMXMXMXMXMXMXMXMXMXMXMXMXMXMXMXMXMXMXMXMXMXMXMXMXMXMXMXMXMXMXMXMXMXMXMXMXMXMXMXMXMXMXMXMXMXMXMXG k k k MXMXMXMXMXMXMXMXMXMXMXMXMXMXMXMXMXMXMXMXMXMXMXMXMXMXMXMXMXMXMXMXMXMXMXMXMXMXMXMXMXMXMXMXMXMXMXMXMXMXMXMXMXMXMXMXMXMXMXMXMXMXMXMXMXMXMXMXMXMXMXMXMXMXMXMXMXMXMXMXMXMXMXMXMXMXMXMXMXMXMXMXMXMXMXMXMXMXMXMXMXMXMXMXMXMXMXMXMXMXMXMXMXMXMXMXMXMXMXMXMXMXMXMXMXMXMXMXMXMXMXMXMXMXMXMXMXMXMXMXMXMXMXMXMXMXMXMXMXMXMXMXMXMXMXMXMXMXMXMXMXMXMXMXMXMXMXMXMXMXMXMXMXMXMXMXMXMXMXMXMXMXMXMXMXMXMXMXMXMXMXMXMXMXMXMXMXMXMXMXMXMXMXMXMXMXMXMXMXMXMXMXMXMXMXMXMXMXMXMXMXMXMXMXMXMXMXMXMXMXMXMXMXMXMXMXMXMXMXMXMXMXMXMXMXMXMXMXMXMXMXMXMXMXMXMXMXMXMXMXMXMXMXMXMXMXMXMXMXMXMXMXj j D MXA K MXMXMXMXMXMXMXMXMXMXMXMXMXMXMXMXMXMXMXMX",
"MXMXMXMXMXMXMXMXMXMXMXMXMXMXMXMXMXMXMXMXMXMXMXMXMXMXMXMXMXMXMXMXMXMXMXMXMXMXMXMXMXMXMXMXMXMXMXMXMXMXMXMXMXMXMXMXMXMXMXMXMXMXMXMXMXMXMXMXMXMXMXMXMXMXMXMXMXMXMXMXMXMXMXMXMXMXMXMXMXMXMXMXMXMXMXMXMXMXMXMXMXMXMXMXMXMXMXMXMXMXMXMXMXMXMXMXMXMXMXMXMXMXB k k z MXMXMXF MXMXMXMXMXMXMXMXMXMXMXMXMXMXMXMXMXMXMXMXMXMXMXMXMXMXMXMXMXMXMXMXMXMXMXMXMXMXMXMXMXMXMXMXMXMXMXMXMXMXMXMXMXMXMXMXMXMXMXMXMXMXMXMXMXMXMXMXMXMXMXMXMXMXMXMXMXMXMXMXMXMXMXMXMXMXMXMXMXMXMXMXMXMXMXMXMXMXMXMXMXMXMXMXMXMXMXMXMXMXMXMXMXMXMXMXMXMXMXMXMXMXMXMXMXMXMXMXMXMXMXMXMXMXMXMXMXMXMXMXMXMXMXMXMXMXMXMXMXMXMXMXMXMXMXMXMXMXMXMXMXMXMXMXMXMXMXMXMXMXMXMXMXMXMXMXMXMXMXMXMXMXMXMXMXMXMXMXMXMXMXMXMXMXMXMXMXMXMXMXMXMXMXMXMXMXMXMXMXMXMXMXMXMXMXMXMXMXMXMXMXMXMXMXMXMXMXMXMXMXMXMXMXMXMXMXMXMXMXMXMXMXMXMXMXMXMXMXMXMXMXMXMXMXMXMXMXMXMXMXMXMXMXMXMXMXMXMXN D MXMXMXMXMXMXMXMXMXMXMXMXMXMXMXMXMXMXMXMXMXMXMXMX",
"MXMXMXMXMXMXMXMXMXMXMXMXMXMXMXMXMXMXMXMXMXMXMXMXMXMXMXMXMXMXMXMXMXMXMXMXMXMXMXMXMXMXMXMXMXMXMXMXMXMXMXMXMXMXMXMXMXMXMXMXMXMXMXMXMXMXMXMXMXMXMXMXMXMXMXMXMXMXMXMXMXMXMXMXMXMXMXMXMXMXMXMXMXMXMXMXMXMXMXMXMXMXMXMXMXMXMXMXMXMXMXMXMXMXMXMXMXMXMXMXMXMXz k k z MXMXMXMXMXMXMXMXMXMXMXMXMXMXMXMXMXMXMXMXMXMXMXMXMXMXMXMXMXMXMXMXMXMXMXMXMXMXMXMXMXMXMXMXMXMXMXMXMXMXMXMXMXMXMXMXMXMXMXMXMXMXMXMXMXMXMXMXMXMXMXMXMXMXMXMXMXMXMXMXMXMXMXMXMXMXMXMXMXMXMXMXMXMXMXMXMXMXMXMXMXMXMXMXMXMXMXMXMXMXMXMXMXMXMXMXMXMXMXMXMXMXMXMXMXMXMXMXMXMXMXMXMXMXMXMXMXMXMXMXMXMXMXMXMXMXMXMXMXMXMXMXMXMXMXMXMXMXMXMXMXMXMXMXMXMXMXMXMXMXMXMXMXMXMXMXMXMXMXMXMXMXMXMXMXMXMXMXMXMXMXMXMXMXMXMXMXMXMXMXMXMXMXMXMXMXMXMXMXMXMXMXMXMXMXMXMXMXMXMXMXMXMXMXMXMXMXMXMXMXMXMXMXMXMXMXMXMXMXMXMXMXMXMXMXMXMXMXMXMXMXMXMXMXMXMXMXMXMXMXMXMXMXMXMXMXMXMXMXMXMXMXMXMXMXMXMXMXMXMXMXMXMXMXMXMXMXMXMXMXMXMXMXMXMXMXMXMX",
"MXMXMXMXMXMXMXMXMXMXMXMXMXMXMXMXMXMXMXMXMXMXMXMXMXMXMXMXMXMXMXMXMXMXMXMXMXMXMXMXMXMXMXMXMXMXMXMXMXMXMXMXMXMXMXMXMXMXMXMXMXMXMXMXMXMXMXMXMXMXMXMXMXMXMXMXMXMXMXMXMXMXMXMXMXMXMXMXMXMXMXMXMXMXMXMXMXMXMXMXMXMXMXMXMXMXMXMXMXMXMXMXMXMXMXMXMXMXMXMXMXB k k k z MXMXMXMXMXMXMXMXMXMXMXMXMXMXMXMXMXMXMXMXMXMXMXMXMXMXMXMXMXMXMXMXMXMXMXMXMXMXMXMXMXMXMXMXMXMXMXMXMXMXMXMXMXMXMXMXMXMXMXMXMXMXMXMXMXMXMXMXMXMXMXMXMXMXMXMXMXMXMXMXMXMXMXMXMXMXMXMXMXMXMXMXMXMXMXMXMXMXMXMXMXMXMXMXMXMXMXMXMXMXMXMXMXMXMXMXMXMXMXMXMXMXMXMXMXMXMXMXMXMXMXMXMXMXMXMXMXMXMXMXMXMXMXMXMXMXMXMXMXMXMXMXMXMXMXMXMXMXMXMXMXMXMXMXMXMXMXMXMXMXMXMXMXMXMXMXMXMXMXMXMXMXMXMXMXMXMXMXMXMXMXMXMXMXMXMXMXMXMXMXMXMXMXMXMXMXMXMXMXMXMXMXMXMXMXMXMXMXMXMXMXMXMXMXMXMXMXMXMXMXMXMXMXMXMXMXMXMXMXMXMXMXMXMXMXMXMXMXMXMXMXMXMXMXMXMXMXMXMXMXMXMXMXMXMXMXMXMXMXMXMXMXMXMXMXMXMXMXMXMXMXMXMXMXMXMXMXMXMXMXMXMXMXMXMXMXMXMX",
"MXMXMXMXMXMXMXMXMXMXMXMXMXMXMXMXMXMXMXMXMXMXMXMXMXMXMXMXMXMXMXMXMXMXMXMXMXMXMXMXMXMXMXMXMXMXMXMXMXMXMXMXMXMXMXMXMXMXMXMXMXMXMXMXMXMXMXMXMXMXMXMXMXMXMXMXMXMXMXMXMXMXMXMXMXMXMXMXMXMXMXMXMXMXMXMXMXMXMXMXMXMXMXMXMXMXMXMXMXMXMXMXMXMXMXMXMXMXMXMXMXz k j k B MXMXMXMXMXMXMXMXMXMXMXMXMXMXMXMXMXMXMXMXMXMXMXMXMXZ l MXMXMXMXMXMXMXMXMXMXMXMXMXMXMXMXMXMXMXMXMXMXMXMXMXMXMXMXMXMXMXMXMXMXMXMXMXMXMXMXMXMXMXMXMXMXMXMXMXMXMXMXMXMXMXMXMXH MXMXMXMXMXMXMXMXMXMXMXMXMXMXMXMXMXMXMXMXMXMXMXMXMXMXMXMXMXMXMXMXMXMXMXMXMXMXMXMXMXMXMXMXMXMXMXMXMXMXMXMXMXMXMXMXMXMXMXMXMXMXMXMXMXMXMXMXMXMXMXMXMXMXMXMXMXMXMXMXMXMXMXMXMXMXMXMXMXMXMXMXMXMXMXMXMXMXMXMXMXMXMXMXMXMXMXMXMXMXMXMXMXMXMXMXMXMXMXMXMXMXMXMXMXMXMXMXMXMXMXMXMXMXMXMXMXMXMXMXMXMXMXMXMXMXMXMXMXMXMXMXMXMXMXMXMXMXMXMXMXMXMXMXMXMXMXMXMXMXMXMXMXMXMXMXMXMXMXMXMXMXMXMXMXMXMXMXMXMXMXMXMXMXMXMXMXMXMXMXMXMXMXMXMXMXMXMXMXMXMXMXMX",
"MXMXMXMXMXMXMXMXMXMXMXMXMXMXMXMXMXMXMXMXMXMXMXMXMXMXMXMXMXMXMXMXMXMXMXMXMXMXMXMXMXMXMXMXMXMXMXMXMXMXMXMXMXMXMXMXMXMXMXMXMXMXMXMXMXMXMXMXMXMXMXMXMXMXMXMXMXMXMXMXMXMXMXMXMXMXMXMXMXMXMXMXMXMXMXMXMXMXMXMXMXMXMXMXMXMXMXMXMXMXMXMXMXMXMXMXMXMXMXMXMXz k k k MXMXMXMXMXMXMXMXMXMXMXMXMXMXMXMXMXMXMXMXMXMXMXMXMXMXMXZ MXMXMXMXMXMXMXMXMXMXMXMXMXMXMXMXMXMXMXMXMXMXMXMXMXMXMXMXA MXMXMXMXMXMXMXMXMXMXMXMXMXMXMXMXMXMXMXMXMXMXMXMXMXMXMXMXMXMXMXMXMXMXMXMXMXMXMXMXMXMXMXMXMXMXMXMXMXMXMXMXMXMXMXMXMXMXMXMXMXMXMXMXMXMXMXMXMXMXMXMXMXMXMXMXMXMXMXMXMXMXMXMXMXMXMXMXMXMXMXMXMXMXMXMXMXMXMXMXMXMXMXMXMXMXMXMXMXMXMXMXMXMXMXMXMXMXMXMXMXMXMXMXMXMXMXMXMXMXMXMXMXMXMXMXMXMXMXMXMXMXMXMXMXMXMXMXMXMXMXMXMXMXMXMXMXMXMXMXMXMXMXMXMXMXMXMXMXMXMXMXMXMXMXMXMXMXMXMXMXMXMXMXMXMXMXMXMXMXMXMXMXMXMXMXMXMXMXMXMXMXMXMXMXMXMXMXMXMXMXMXMXMXMXMXMXMXMXMXMXMXMXMXMXMXMXMXMXMXMXMXMXMXMXMXMXMXMXMXMXMX",
"MXMXMXMXMXMXMXMXMXMXMXMXMXMXMXMXMXMXMXMXMXMXMXMXMXMXMXMXMXMXMXMXMXMXMXMXMXMXMXMXMXMXMXMXMXMXMXMXMXMXMXMXMXMXMXMXMXMXMXMXMXMXMXMXMXMXMXMXMXMXMXMXMXMXMXMXMXMXMXMXMXMXMXMXMXMXMXMXMXMXMXMXMXMXMXMXMXMXMXMXMXMXMXMXMXMXMXMXMXMXMXMXMXMXMXMXMXMXMXMXMXz k k A MXMXMXMXMXMXMXMXMXMXMXMXMXMXMXMXMXMXMXMXMXMXMXMXMXMXMXMXMXMXMXMXMXMXMXMXMXMXMXMXMXMXMXMXMXMXMXMXMXMXMXMXMXMXMXV k z MXMXMXMXMXMXMXMXMXMXMXMXMXMXMXMXMXMXMXMXMXMXMXMXMXMXMXMXMXMXMXMXMXMXMXMXMXMXMXMXMXMXMXMXMXMXMXMXMXMXMXMXMXMXMXMXMXMXMXMXMXMXMXMXMXMXMXMXMXMXMXMXMXMXMXMXMXMXMXMXMXMXMXMXMXMXMXMXMXMXMXMXMXMXMXMXMXMXMXMXMXMXMXMXMXMXMXMXMXMXMXMXMXMXMXMXMXMXMXMXMXMXMXMXMXMXMXMXMXMXMXMXMXMXMXMXMXMXMXMXMXMXMXMXMXMXMXMXMXMXMXMXMXMXMXMXMXMXMXMXMXMXMXMXMXMXMXMXMXMXMXMXMXMXMXMXMXMXMXMXMXMXMXMXMXMXMXMXMXMXMXMXMXMXMXMXMXMXMXMXMXMXMXMXMXMXMXMXMXMXMXMXMXMXMXMXMXMXMXMXMXMXMXMXMXMXMXMXMXMXMXMXMXMXMXMXMXMXMXMXMX",
"MXMXMXMXMXMXMXMXMXMXMXMXMXMXMXMXMXMXMXMXMXMXMXMXMXMXMXMXMXMXMXMXMXMXMXMXMXMXMXMXMXMXMXMXMXMXMXMXMXMXMXMXMXMXMXMXMXMXMXMXMXMXMXMXMXMXMXMXMXMXMXMXMXMXMXMXMXMXMXMXMXMXMXMXMXMXMXMXMXMXMXMXMXMXMXMXMXMXMXMXMXMXMXMXMXMXMXMXMXMXMXMXMXMXMXMXMXMXMXMXMXz k z MXMXMXMXMXMXMXMXMXMXMXMXMXMXMXMXMXMXMXMXMXMXMXMXMXMXMXMXMXMXMXMXMXMXMXMXMXMXMXMXMXMXMXMXMXMXMXMXMXMXMXMXMXMXMXMXA k z MXMXMXMXMXMXMXMXMXMXMXMXMXMXMXMXMXMXMXMXMXMXMXMXMXMXMXMXMXMXMXMXMXMXMXMXMXMXMXMXMXMXMXMXMXMXMXMXMXMXMXMXMXMXMXMXMXMXMXMXMXMXMXMXMXMXMXMXMXMXMXMXMXMXMXMXMXMXMXMXMXMXMXMXMXMXMXMXMXMXMXMXMXMXMXMXMXMXMXMXg MXMXMXMXMXMXMXMXMXMXMXMXMXMXMXMXMXMXMXMXMXMXMXMXMXMXMXMXMXMXMXMXMXMXMXMXMXMXMXMXMXMXMXMXMXMXMXMXMXMXMXMXMXMXMXMXMXMXMXMXMXMXMXMXMXMXMXMXMXMXMXMXMXMXMXMXMXMXMXMXMXMXMXMXMXMXMXMXMXMXMXMXMXMXMXMXMXMXMXMXMXMXMXMXMXMXMXMXMXMXMXMXMXMXMXMXMXMXMXMXMXMXMXMXMXMXMXMXMXMXMXMXMXMXMXMXMXMXMXMX",
"MXMXMXMXMXMXMXMXMXMXMXMXMXMXMXMXMXMXMXMXMXMXMXMXMXMXMXMXMXMXMXMXMXMXMXMXMXMXMXMXMXMXMXMXMXMXMXMXMXMXMXMXMXMXMXMXMXMXMXMXMXMXMXMXMXMXMXMXMXMXMXMXMXMXMXMXMXMXMXMXMXMXMXMXMXMXMXMXMXMXMXMXMXMXMXMXMXMXMXMXMXMXMXMXMXMXMXMXMXMXMXMXMXMXMXMXMXMXMXMXMXS z MXMXMXMXMXMXMXMXMXMXMXMXMXMXMXMXMXMXMXMXMXMXMXMXMXMXMXMXMXMXMXMXMXMXMXMXMXMXMXMXMXMXMXMXMXMXMXMXMXMXMXMXMXMXMXMXMXMXMXMXMXMXMXMXMXMXMXMXMXMXMXMXMXMXMXMXMXMXMXMXMXMXMXMXMXMXMXMXMXMXMXMXMXMXMXMXMXMXMXMXMXMXMXMXMXMXMXMXMXMXMXMXMXMXMXMXMXMXMXMXMXMXMXMXMXMXMXMXMXMXMXMXMXMXMXMXMXMXMXMXMXMXMXMXMXMXMXMXMXMXMXMXMXMXMXMXMXMXMXd d MXMXMXMXMXMXMXMXMXMXMXMXMXMXMXMXMXMXMXMXMXMXMXMXMXMXMXMXMXMXMXMXMXMXMXMXMXMXMXMXMXMXMXMXMXMXMXMXMXMXMXMXMXMXMXMXMXMXMXMXMXMXMXMXMXMXMXMXMXMXMXMXMXMXMXMXMXMXMXMXMXMXMXMXMXMXMXMXMXMXMXMXMXMXMXMXMXMXMXMXMXMXMXMXMXMXMXMXMXMXMXMXMXMXMXMXMXMXMXMXMXMXMXMXMXMXMXMXMXMXMXMXMXMXMXMXMXMXMXMX",
"MXMXMXMXMXMXMXMXMXMXMXMXMXMXMXMXMXMXMXMXMXMXMXMXMXMXMXMXMXMXMXMXMXMXMXMXMXMXMXMXMXMXMXMXMXMXMXMXMXMXMXMXMXMXMXMXMXMXMXMXMXMXMXMXMXMXMXMXMXMXMXMXMXMXMXMXMXMXMXMXMXMXMXMXMXMXMXMXMXMXMXMXMXMXMXMXMXMXMXMXMXMXMXMXMXMXMXMXMXMXMXMXMXMXMXMXMXMXMXMXMXMXMXMXMXMXMXMXMXMXMXMXMXMXMXMXMXMXMXMXMXMXMXMXMXMXMXMXMXMXMXMXMXMXMXMXMXMXMXMXMXMXMXMXMXMXMXMXMXMXMXMXMXMXMXMXMXMXMXMXMXMXMXMXMXMXMXMXMXMXMXMXMXMXMXMXMXMXMXMXMXMXMXMXMXMXMXMXMXMXMXMXMXMXMXMXMXMXMXMXMXMXMXMXMXMXMXMXMXMXMXMXMXMXMXMXMXMXMXMXMXMXMXMXMXMXMXMXMXMXMXMXMXMXMXMXMXMXMXMXMXMXMXMXMXMXMXMXMXMXMXMXMXMXMXMXMXMXMXMXMXMXd d MXMXMXMXMXMXMXMXMXMXMXMXMXMXMXMXMXMXMXMXMXMXMXMXMXMXMXMXMXMXMXMXMXMXMXMXMXMXMXMXMXMXMXMXMXMXMXMXMXMXMXMXMXMXMXMXMXMXMXMXMXMXMXMXMXMXMXMXMXMXMXMXMXMXMXMXMXMXMXMXMXMXMXMXMXMXMXMXMXMXMXMXMXMXMXMXMXMXMXMXMXMXMXMXMXMXMXMXMXMXMXMXMXMXMXMXMXMXMXMXMXMXMXMXMXMXMXMXMXMXMXMXMXMXMXMXMXMXMXMX",
"MXMXMXMXMXMXMXMXMXMXMXMXMXMXMXMXMXMXMXMXMXMXMXMXMXMXMXMXMXMXMXMXMXMXMXMXMXMXMXMXMXMXMXMXMXMXMXMXMXMXMXMXMXMXMXMXMXMXMXMXMXMXMXMXMXMXMXMXMXMXMXMXMXMXMXMXMXMXMXMXMXMXMXMXMXMXMXMXMXMXMXMXMXMXMXMXMXMXMXMXMXMXMXMXMXMXMXMXMXMXMXMXMXMXMXMXMXMXMXMXMXMXMXMXMXMXMXMXMXMXMXMXMXMXMXMXMXMXMXMXMXMXMXMXMXMXMXMXMXMXMXMXMXMXMXMXMXMXMXMXMXMXMXMXMXMXMXMXMXMXMXMXMXMXMXMXMXMXMXMXMXMXMXMXMXMXj MXMXMXMXMXMXMXMXMXMXMXMXMXMXMXMXMXMXMXMXMXMXMXMXMXMXMXMXMXMXMXMXMXMXMXMXMXMXMXMXMXMXMXMXMXMXMXMXMXMXMXMXMXMXMXMXMXMXMXMXMXMXMXMXMXMXMXMXMXMXMXMXMXMXMXMXMXMXMXMXMXMXMXMXMXMXMXMXMXMXMXMXMXMXMXg g MXMXMXMXMXMXMXMXMXMXMXMXMXMXMXMXMXMXMXMXMXMXMXMXMXMXMXMXMXMXMXMXMXMXMXMXMXMXMXMXMXMXMXMXMXMXMXMXMXMXMXMXMXMXMXMXMXMXMXMXMXMXMXMXMXMXMXMXMXMXMXMXMXMXMXMXMXMXMXMXMXMXMXMXMXMXMXMXMXMXMXMXMXMXMXMXMXMXMXMXMXMXMXMXMXMXMXMXMXMXMXMXMXMXMXMXMXMXMXMXMXMXMXMXMXMXMXMXMXMXMXMXMXMXMXMXMXMXMXMX",
"MXMXMXMXMXMXMXMXMXMXMXMXMXMXMXMXMXMXMXMXMXMXMXMXMXMXMXMXMXMXMXMXMXMXMXMXMXMXMXMXMXMXMXMXMXMXMXMXMXMXMXMXMXMXMXMXMXMXMXMXMXMXMXMXMXMXMXMXMXMXMXMXMXMXMXMXMXMXMXMXMXMXMXMXMXMXMXMXMXMXMXMXMXMXMXMXMXMXMXMXMXMXMXMXMXMXMXMXMXMXMXMXMXMXMXMXMXMXMXMXMXMXMXMXMXMXMXMXMXMXMXMXMXMXMXMXMXMXMXMXMXMXMXMXMXMXMXMXMXMXMXMXMXMXMXMXMXMXMXMXMXMXMXMXMXMXMXMXMXMXMXMXMXMXMXMXMXMXMXMXMXMXMXMXMXMXZ MXMXMXMXMXMXMXMXMXMXMXMXMXMXMXMXMXMXMXMXMXMXMXMXMXMXMXMXMXMXMXMXMXMXMXMXMXMXMXMXMXMXMXMXMXMXMXMXMXMXMXMXMXMXMXMXMXMXMXMXMXMXMXMXMXMXMXMXMXMXMXMXMXMXMXMXMXMXMXMXMXMXMXMXMXMXMXMXMXMXMXMXMXMXMXMXMXMXMXMXMXMXMXMXMXMXMXMXMXMXMXMXMXMXMXMXMXMXMXMXMXMXMXMXMXMXMXMXMXMXMXMXMXMXMXMXMXMXMXMXMXMXMXMXMXMXMXMXMXMXMXMXMXMXMXMXMXMXMXMXMXMXMXMXMXMXMXMXMXMXMXMXMXMXMXMXMXMXMXMXMXMXMXMXMXMXMXMXMXMXMXMXMXMXMXMXMXMXMXMXMXMXMXMXMXMXMXMXMXMXMXMXMXMXMXMXMXMXMXMXMXMXMXMXMXMXMXMXMXMXMXMXMXMXMXMXMX",
"MXMXMXMXMXMXMXMXMXMXMXMXMXMXMXMXMXMXMXMXMXMXMXMXMXMXMXMXMXMXMXMXMXMXMXMXMXMXMXMXMXMXMXMXMXMXMXMXMXMXMXMXMXMXMXMXMXMXMXMXMXMXMXMXMXMXMXMXMXMXMXMXMXMXMXMXMXMXMXMXMXMXMXMXMXMXMXMXMXMXMXMXMXMXMXMXMXMXMXMXMXMXMXMXMXMXMXMXMXMXMXMXMXMXMXMXMXMXMXMXMXMXMXMXMXMXMXMXMXMXMXMXMXMXMXMXMXMXMXMXMXMXMXMXMXMXMXMXMXMXMXMXMXMXMXMXMXMXMXMXMXMXMXMXMXMXMXMXMXMXMXMXMXMXMXMXMXMXMXMXMXMXMXMXMXMXMXMXMXMXMXMXMXMXMXMXMXMXMXMXMXMXMXMXMXMXMXMXMXMXMXMXMXMXMXMXMXMXMXMXMXMXMXMXMXMXMXMXMXMXMXMXMXMXMXMXMXMXMXMXMXMXMXMXMXMXMXMXMXMXMXMXMXMXMXMXMXMXMXMXMXMXMXMXMXMXMXMXMXMXMXMXMXMXMXMXMXMXMXMXMXMXMXMXMXMXMXMXMXMXMXMXMXMXMXMXMXMXMXMXMXMXMXMXMXMXMXMXMXMXMXMXMXMXMXMXMXMXMXMXMXMXMXMXMXMXMXMXMXMXMXMXMXMXMXMXMXMXMXMXMXMXMXMXMXMXMXMXMXMXMXMXMXMXMXMXMXMXMXMXMXMXMXMXMXMXMXMXMXMXMXMXMXMXMXMXMXMXMXMXMXMXMXMXMXMXMXMXMXMXMXMXMXMXMXMXMXMXMXMXMXMXMXMXMXMXMXMXMXMXMXMXMXMXMXMXMXMXMXMXMXMXMXMX"
};
