/* XPM */
static char *Fire1[] = {
/* columns rows colors chars-per-pixel */
"101 98 99 2 ",
"   c black",
".  c #070707",
"X  c #0B0B0B",
"o  c #170F07",
"O  c #0B1707",
"+  c #171F07",
"@  c #1F170B",
"#  c #131313",
"$  c #1B1B1B",
"%  c #2F1B0B",
"&  c #13230B",
"*  c #17330F",
"=  c #2B230F",
"-  c #232B0F",
";  c #372313",
":  c #332B13",
">  c #3F2F17",
",  c #3F2B1B",
"<  c #2F371F",
"1  c #232323",
"2  c #2F2F2F",
"3  c #373F27",
"4  c #373737",
"5  c gray23",
"6  c #432F1B",
"7  c #43331B",
"8  c #4B371B",
"9  c #533F1F",
"0  c #473323",
"q  c #4F3B23",
"w  c #4F3B2B",
"e  c #533F2F",
"r  c #1F4317",
"t  c #3F472B",
"y  c #2F6323",
"u  c #5F4323",
"i  c #5B472B",
"p  c #474F33",
"a  c #574333",
"s  c #53573B",
"d  c #6B4727",
"f  c #774F2B",
"g  c #7F532F",
"h  c #675333",
"j  c #67533F",
"k  c #775F3F",
"l  c #434343",
"z  c #4B4B4B",
"x  c gray34",
"c  c #5B5B5B",
"v  c #5B6347",
"b  c #676B4F",
"n  c #6F7357",
"m  c gray39",
"M  c gray42",
"N  c #7B7F63",
"B  c #777777",
"V  c gray50",
"C  c #874307",
"Z  c #9B5B13",
"A  c #875733",
"S  c #8F5F37",
"D  c #9B633B",
"F  c #A36B3F",
"G  c #FF7F1B",
"H  c #836B4B",
"J  c #8F7753",
"K  c #AB6F43",
"L  c #B37347",
"P  c #BF7B4B",
"I  c #9B7F6B",
"U  c #CB7F4F",
"Y  c #9F876F",
"T  c #A78F77",
"R  c #AF977F",
"E  c #CF8353",
"W  c #D78B5B",
"Q  c #FF9F43",
"!  c #FFA35B",
"~  c #DF9363",
"^  c #E79B6B",
"/  c #EFA373",
"(  c #F7AB7B",
")  c #FFB37B",
"_  c #FFFF73",
"`  c #B79F87",
"'  c #BFA78F",
"]  c gray70",
"[  c gray75",
"{  c #FFB383",
"}  c #FFBB93",
"|  c #FFFF8F",
" . c #FFFFB3",
".. c gray78",
"X. c #CBCBCB",
"o. c gray86",
"O. c #FFFFD7",
"+. c white",
"@. c None",
/* pixels */
"@.@.@.@.@.@.@.@.@.@.@.@.@.@.@.@.@.@.@.@.@.Q ) ! ! G G G @.@.@.@.@.@.@.@.@.@.@.@.@.@.@.@.@.@.@.@.@.@.@.@.@.@.@.@.@.@.@.@.@.@.@.@.@.@.@.@.@.@.@.@.@.@.@.@.@.@.@.@.@.@.@.@.@.@.@.@.@.@.@.@.@.@.@.@.@.@.@.@.@.",
"@.@.@.@.@.@.@.@.@.G Q Q Q @.@.@.@.G @.G Q _ |  . .| Q ! G G @.@.@.@.@.@.@.@.@.@.@.@.@.@.@.@.@.@.@.@.@.@.@.@.@.@.@.@.@.@.@.@.@.@.@.@.@.@.@.@.@.@.@.@.@.@.@.@.@.@.@.@.@.@.@.@.@.@.@.@.@.@.@.@.@.@.@.@.@.@.@.",
"@.@.@.@.@.@.@.@.G ! _ _ _ ! ! @.) Q Q Q _  .O.O.O. .) ! | Q G @.@.@.@.@.@.@.@.@.@.@.@.@.@.@.@.@.@.@.@.@.@.@.@.@.@.@.@.@.@.@.@.@.@.@.@.@.@.@.@.@.@.@.@.@.@.@.@.@.@.@.@.@.@.@.@.@.@.@.@.@.@.@.@.@.@.@.@.@.@.",
"@.@.@.@.@.@.@.@.G _  .O.O. . . . .| _ _ | +.+.+.+.O.| _ | | Q @.@.@.@.@.@.@.@.@.@.@.@.@.@.@.@.@.@.@.@.@.@.@.@.@.@.@.@.@.@.@.@.@.@.@.@.@.@.@.@.@.@.@.@.@.@.@.@.@.@.@.@.@.@.@.@.@.@.@.@.@.@.@.@.@.@.@.@.@.@.",
"@.@.@.@.@.@.@.@.@._ O.+.+.+.+.+.+.+. . .O.+.+.+.+.O.| _ | | Q G @.@.@.@.@.@.@.@.@.@.@.@.@.@.@.@.@.@.@.@.@.@.@.@.@.@.@.@.@.@.@.@.@.@.@.@.@.@.@.@.@.@.@.@.@.@.@.@.@.@.@.@.@.@.@.@.@.@.@.@.@.@.@.@.@.@.@.@.@.",
"@.@.@.@.@.@.@.G G ) O.O.+.+.+.+.+.+.O.O.O.+.1 +.+.+.O.O.| | | Q @.@.@.@.@.@.@.@.@.@.@.@.@.@.@.@.@.@.@.@.@.@.@.@.@.@.@.@.@.@.@.@.@.@.@.@.@.@.@.@.@.@.@.@.@.@.@.@.@.@.@.@.@.@.@.@.@.@.@.@.@.@.@.@.@.@.@.@.@.",
"@.@.@.@.@.@.@.G G ! | O.+.+.+.+.+.+.+.+.+.+.2 +.+.+.+.+.O.| | Q @.@.@.@.@.@.@.@.@.@.@.@.@.@.@.@.@.@.@.@.@.@.@.@.@.@.@.@.@.@.@.@.@.@.@.@.@.@.@.@.@.@.@.@.@.@.@.@.@.@.@.@.@.@.@.@.@.@.@.@.@.@.@.@.@.@.@.@.@.",
"@.@.@.@.@.@.@.G G @.! | O.+.+.+.+.+.+.+.+.t < +.+.+.+.+.+.| | Q G @.@.@.@.@.@.@.@.@.@.@.@.@.@.@.@.@.@.@.@.@.@.@.@.@.@.@.@.@.@.@.@.@.@.@.@.@.@.@.@.@.@.@.@.@.@.@.@.@.@.@.@.@.@.@.@.@.@.@.@.@.@.@.@.@.@.@.@.",
"@.@.@.@.@.Q @.G ) ! ) _ O.+.+.+.+.+.+.+.+.p 2 < t 3 < +.+.O.| | Q G @.@.@.@.@.@.@.@.@.@.@.@.@.@.@.@.@.@.@.@.@.@.@.@.@.@.@.@.@.@.@.@.@.@.@.@.@.@.@.@.@.@.@.@.@.@.@.@.@.@.@.@.@.@.@.@.@.@.@.@.@.@.@.@.@.@.@.",
"@.@.@.@.! _ | | | | | | O.+.+.+.+.3 < 3 < 3 < < < < < : 1 - O.O._ ! G @.@.@.@.@.@.@.@.@.@.@.@.@.@.@.@.@.@.@.@.@.@.@.@.@.@.@.@.@.@.@.@.@.@.@.@.@.@.@.@.@.@.@.@.@.@.@.@.@.@.@.@.@.@.@.@.@.@.@.@.@.@.@.@.@.@.",
"@.G Q Q _  .O.O. .O.O. .+.+.+.+.3 < < < : < , < , < < < 3 3 < 1  ._ Q Q G @.@.@.@.@.@.@.@.@.@.@.@.@.@.@.@.@.@.@.@.@.@.@.@.@.@.@.@.@.@.@.@.@.@.@.@.@.@.@.@.@.@.@.@.@.@.@.@.@.@.@.@.@.@.@.@.@.@.@.@.@.@.@.@.",
"G ! _ _ O.O.+.+.+.+.+.+.+.+.+.< 3 t < : < < < < 3 3 0 0 3 , , < : < _ _ ! G @.@.@.@.@.@.@.@.@.@.@.@.@.@.@.@.@.@.@.@.@.@.@.@.@.@.@.@.@.@.@.@.@.@.@.@.@.@.@.@.@.@.@.@.@.@.@.@.@.@.@.@.@.@.@.@.@.@.@.@.@.@.@.",
"G ! _ | O.+.+.+.+.+.+.+.+.+.- : < 3 e t < < : < 7 3 3 < < < < : - - : - - G @.@.@.@.@.@.@.@.@.@.@.@.@.@.@.@.@.@.@.@.@.@.@.@.@.@.@.@.@.@.@.@.@.@.@.@.@.@.@.@.@.@.@.@.@.@.@.@.@.@.@.@.@.@.@.@.@.@.@.@.@.@.@.",
"@.) _ | O.+.+.+.+.+.+.+.+.+.@ : : < 3 t t 0 < < < > - = < : < < < < < : 1 - < @.@.@.@.@.@.@.@.@.@.@.@.@.@.@.@.@.@.@.@.@.@.@.@.@.@.@.@.@.@.@.@.@.@.@.@.@.@.@.@.@.@.@.@.@.@.@.@.@.@.@.@.@.@.@.@.@.@.@.@.@.@.",
"@.@.! _ | O.+.+.+.+.+.+.+.+.O # = 1 < : < < 0 t : - - = < < 3 0 < < < < : < 1 < 4 @.@.@.@.@.@.@.@.@.@.@.@.@.@.@.@.@.@.@.@.@.@.@.@.@.@.@.@.@.@.@.@.@.@.@.@.@.@.@.@.@.@.@.@.@.@.@.@.@.@.@.@.@.@.@.@.@.@.@.@.",
"@.@.G Q _ |  .+.+.+.+.+.+.+.o O O @ - 1 : : < t l : 1 : < : 3 t z x v x v x v c z 1 @.@.@.@.@.@.@.@.@.@.@.@.@.@.@.@.@.@.@.@.@.@.@.@.@.@.@.@.@.@.@.@.@.@.@.@.@.@.@.@.@.@.@.@.@.@.@.@.@.@.@.@.@.@.@.@.@.@.@.",
"@.@.G G ) _ | O.+.+.+.+.+.+.o O o O # @ - < : 3 3 - : < : < 2 2 b V N B N M M M 3 $ 1 @.@.@.@.@.@.@.@.@.@.@.@.@.@.@.@.@.@.@.@.@.@.@.@.@.@.@.@.@.@.@.@.@.@.@.@.@.@.@.@.@.@.@.@.@.@.@.@.@.@.@.@.@.@.@.@.@.@.",
"@.@.@.G Q _ | O.O.+.+.+.+.+.# O o o O o # @ - 3 < < : : < < 1 1 v M z 5 5 t 2 4 $ 1 1 $ @.@.@.@.@.@.@.@.@.@.@.@.@.@.@.@.@.@.@.@.@.@.@.@.@.@.@.@.@.@.@.@.@.@.@.@.@.@.@.@.@.@.@.@.@.@.@.@.@.@.@.@.@.@.@.@.@.",
"@.@.@.@.@._ |  .O.+.+.+.+.+.@ o O O o O o O o @ < < < : < 1 - 1 l -           . $ : < - < < 2 < < < @.@.@.@.@.@.@.@.@.@.@.@.@.@.@.@.@.@.@.@.@.@.@.@.@.@.@.@.@.@.@.@.@.@.@.@.@.@.@.@.@.@.@.@.@.@.@.@.@.@.@.",
"@.@.@.@.! _ | O.+.+.+.+.+.+.O O o o o X O o X O @ = < 3 - $ 1 1 : < i s t = - < t p p p t t 3 3 3 < 3 3 @.@.@.@.@.@.@.3 1 @.@.@.@.@.@.@.@.@.@.@.@.@.@.@.@.@.@.@.@.@.@.@.@.@.@.@.@.@.@.@.@.@.@.@.@.@.@.@.@.",
"@.@.@.G Q ) _ |  .O.+.+.+.+.. . O O o O o O X o # O 1 3 1 1 1 @ h J H k i : < < 3 3 0 3 0 3 0 t e p t w t t < : l @.@.< 2 = @.@.@.@.@.@.@.@.@.@.@.@.@.@.@.@.@.@.@.@.@.@.@.@.@.@.@.@.@.@.@.@.@.@.@.@.@.@.@.",
"@.@.@.@.G G Q _ _  .O.O.O.+.O = $ o O o O o O O o O @ 2 < < $ p J J J y : < < 3 , < 3 t 3 3 t t 3 t t t 3 : z - $ o < 3 t 1 # @.@.@.@.@.@.@.@.@.@.@.@.@.@.@.@.@.@.@.@.@.@.@.@.@.@.@.@.@.@.@.@.@.@.@.@.@.@.",
"@.@.@.@.@.@.@.@.Q _ |  .O.+.$ o - 1 o O o O o X O o # < 2 2 3 J J J h < < 3 w < 3 < 3 3 < < < 7 t 3 3 0 3 - p < 1 # = 4 l 3 $ @.@.@.@.@.@.@.@.@.@.@.@.@.@.@.@.@.@.@.@.@.@.@.@.@.@.@.@.@.@.@.@.@.@.@.@.@.@.",
"@.@.@.@.@.@.@.@.@._  .O.+.+.# o O @ : - O o O O o O O 1 2 < 3 H J v - < , t 3 < , 3 < < < < : p p t t p 3 @ t 5 z t : t t 4 5 @.@.@.@.@.@.@.@.@.@.@.@.@.@.@.@.@.@.@.@.@.@.@.@.@.@.@.@.@.@.@.@.@.@.@.@.@.@.",
"@.@.@.@.@.@.@.@.) | O.O.+.+.+.1 - O @ 1 < @ O o X X X - 1 < 3 k H r @ < < < < 3 < < < : < : p t : < p j 3 + < < 2 t w 4 2 $ @ 1 @.@.@.@.@.@.@.@.@.@.@.@.@.@.@.@.@.@.@.@.@.@.@.@.@.@.@.@.@.@.@.@.@.@.@.@.@.",
"@.@.@.@.@.@.@.! _ O.+.+.+.+.+.2 p : + o @ 1 - o . O X $ 3 1 < s k - O o @ < , < < < 3 s 3 t 3 : < 3 p < 3 3 < < 1 : 3 < 3 < < < 2 < @.@.@.@.@.@.@.@.@.@.@.@.@.@.@.@.@.@.@.@.@.@.@.@.@.@.@.@.@.@.@.@.@.@.@.",
"@.@.@.@.@.@.G ) | O.+.+.+.+.+.< s M p - O @ - < @ . O $ 2 < < p s @ o O O @ 1 < 3 : s 3 : < < < < p 3 : < 3 e s v s l p p l l p l l 2 @.@.@.@.@.@.@.@.@.@.@.@.@.@.@.@.@.@.@.@.@.@.@.@.@.@.@.@.@.@.@.@.@.@.",
"@.@.@.@.@.G Q _ | O.O.O.O.O. .1 s N I N < X # = < # O $ 3 3 3 < 8 + O X o # @ < 3 3 3 : < : : < 7 p 7 < < < s x x l 5 4 5 4 3 2 2 3 2 2 @.@.@.@.@.@.@.@.@.@.@.@.@.@.@.@.@.@.@.@.@.@.@.@.@.@.@.@.@.@.@.@.@.",
"@.@.@.@.@.@.Q ) ) _ _ | | _ ) + b Y O.] R s O o @ - $ o 3 a p : - @ O o O # O @ @ = : < < : 1 : < t < < 7 l z 2 - $ $ + # # # # $ # # $ 1 @.@.@.@.@.@.@.@.@.@.@.@.@.@.@.@.@.@.@.@.@.@.@.@.@.@.@.@.@.@.@.@.",
"@.@.@.@.@.@.G ) Q @.) _ ) ! @.$ & v ] ' T ] t - X o @ - - < < 7 < @ O o o # o O # + $ = : < < : < < < < l p 1 $ X .       .       X $ # # $ @.@.@.@.@.@.@.@.@.@.@.@.@.@.@.@.@.@.@.@.@.@.@.@.@.@.@.@.@.@.@.",
"@.@.@.@.@.G G G ! @.G G @.@.@.$ @ . r Y T [ N ` + O X @ $ - @ < $ . O o O o O o O o @ + $ - : < , < : t 3 1 @ . . o - 1 1 < 4 4 4 1 . # # X # @.@.@.@.@.@.@.@.@.@.@.@.@.@.@.@.@.@.@.@.@.@.@.@.@.@.@.@.@.@.",
"@.@.@.@.@.@.@.@.@.@.@.@.@.@.@.@.@.1   * N ' k ..n 5 O O # @ 1 + . + @ O O # o O X O o O o @ - : < : < 2 $ #   o < 1 z z v m n b M N 5 . # X X # @.@.@.@.@.@.@.@.@.@.@.@.@.@.@.@.@.@.@.@.@.@.@.@.@.@.@.@.@.",
"@.@.@.@.@.@.@.@.@.@.@.@.@.@.@.@.@.@.1 o . p v X. .Y < . O X + = $ @ < : $ O o o X o # o O o o & = < 1 @ # . @ 3 $ 2 p x x v c x v m n 5 . X . . @.@.@.@.@.@.@.@.@.@.@.@.@.@.@.@.@.@.@.@.@.@.@.@.@.@.@.@.@.",
"@.@.@.@.@.@.@.@.@.@.@.@.@.@.@.@.@.@.@.- $   + T o.O.n . X X O # o O o - : 1 O O X O o O X O o # @ - $ # o O z 1 # l c v z z s l 5 l x s 1 . X . X @.@.@.@.@.@.@.@.@.@.@.@.@.@.@.@.@.@.@.@.@.@.@.@.@.@.@.@.",
"@.@.@.@.@.@.@.@.@.@.@.@.@.@.@.@.@.@.@.@.@.1 O O s [ Y . - o O o O o O o O 3 b @ O . o O o O O o O $ # #   4 n 1 $ p z l p 5 5 z z 3 z l < X . . . @.@.@.@.@.@.@.@.@.@.@.@.@.@.@.@.@.@.@.@.@.@.@.@.@.@.@.@.",
"@.@.@.@.@.@.@.@.@.@.@.@.@.@.@.@.@.@.@.@.@.@.1 @   : s X p < o o # O o o o 3 v : < 1 O X O o o O o $ @ # . p l $ @ 1 1 1 $ $ $ 1 < 1 l 4 1 o . . . @.@.@.@.@.@.@.@.@.@.@.@.@.@.@.@.@.@.@.@.@.@.@.@.@.@.@.@.",
"@.@.@.@.@.@.@.@.@.@.@.@.@.@.@.@.@.@.@.s 1 o O 1 - . . O t s t < o # o O O @ < $ @ z N < . O o o # @ # $ + 1 o X # # # @ # $ # $ # $ 2 < 1 o . . . @.@.@.@.@.@.@.@.@.@.@.@.@.@.@.@.@.@.@.@.@.@.@.@.@.@.@.@.",
"@.@.@.@.@.@.@.@.@.@.@.@.@.@.@.@.@.@.@.< 3 2 1 $ o - o   1 p v n p + o # o : b + + # l N l @ O O o # O $ @ $ # X X # # $ $ $ $ $ $ $ $ 1 1 o . . . @.@.@.@.@.@.@.@.@.@.@.@.@.@.@.@.@.@.@.@.@.@.@.@.@.@.@.@.",
"@.@.@.@.@.@.@.@.@.@.@.@.@.@.@.@.@.@.@.1 4 3 < @ O X - $ . o 3 n b t < + # - Y @ o X . $ n m 1 . O # # - 1 + @ # X # $ $ $ $ $ $ $ $ # $ 1 o . . . @.@.@.@.@.@.@.@.@.@.@.@.@.@.@.@.@.@.@.@.@.@.@.@.@.@.@.@.",
"@.@.@.@.@.@.@.@.@.@.@.@.@.@.@.@.@.@.@.: - < 3 4 # o X @ 1 O . 2 v p c p = & n - O X X X # 4 v l O # @ 1 = @ # X X # # & 1 $ $ # $ $ # $ 1 o . . . @.@.@.@.@.@.@.@.@.@.@.@.@.@.@.@.@.@.@.@.@.@.@.@.@.@.@.@.",
"@.@.@.@.@.@.@.@.@.@.@.@.@.@.@.@.@.@.@.1 1 = 2 3 < # O . . = @   @ 3 s v v < N @ o X X X . . $ v V O # 1 1 @ # X X # $ $ $ $ $ $ $ $ # $ - X . . . @.@.@.@.@.@.@.@.@.@.@.@.@.@.@.@.@.@.@.@.@.@.@.@.@.@.@.@.",
"@.@.@.@.@.@.@.@.@.@.@.@.@.@.@.@.@.@.@.< 1 - 2 $ < 1 .       # $ X . : s b t R < X . . X O X . X s $ # 1 = # O X o # # & $ $ $ $ $ # # $ $ @ X . . @.@.@.@.@.@.@.@.@.@.@.@.@.@.@.@.@.@.@.@.@.@.@.@.@.@.@.@.",
"@.@.@.@.@.@.@.@.@.@.@.@.@.@.@.@.@.@.@.: 1 - 1 @ $ 1 .       . X # # . @ 4 3 v < O O   o X X X . . X O $ 1 @ # # # # # # $ $ $ $ + # # # $ o . . . @.@.@.@.@.@.@.@.@.@.@.@.@.@.@.@.@.@.@.@.@.@.@.@.@.@.@.@.",
"@.@.@.@.@.@.@.@.@.@.@.@.@.@.@.@.@.@.@.< $ $ @ # o   . .   . . . . X # @ O o - 1 o X . X X X X . . X # $ : @ $ X # # # $ $ $ $ # $ $ # # $ o X . . @.@.@.@.@.@.@.@.@.@.@.@.@.@.@.@.@.@.@.@.@.@.@.@.@.@.@.@.",
"@.@.@.@.@.@.@.@.@.@.@.@.@.@.@.@.@.@.@.- $ - # O X   X > > > u u u @ @ o $ o @ $ O X . . . X . X . X # $ 1 @ # O o $ & # + # & # $ $ @ # $ # .   . @.@.@.@.@.@.@.@.@.@.@.@.@.@.@.@.@.@.@.@.@.@.@.@.@.@.@.@.",
"@.@.@.@.@.@.@.@.@.@.@.@.@.@.@.@.@.@.@.< $ $ # X X 8 u u D F U P F S u u . + $ o   O   . . . . X . O @ $ : # @ o O $ # # # # # $ O # # $ $ @ . . . @.@.@.@.@.@.@.@.@.@.@.@.@.@.@.@.@.@.@.@.@.@.@.@.@.@.@.@.",
"@.@.@.@.@.@.@.@.@.@.@.@.@.@.@.@.@.@.@.< @ @ X . > u g L U U U U E U F A 8 X O 1 o . . .   . . . . . $ $ 1 = # X O # $ # # # # # # # # # # @ . . . @.@.@.@.@.@.@.@.@.@.@.@.@.@.@.@.@.@.@.@.@.@.@.@.@.@.@.@.",
"@.@.@.@.@.@.@.@.@.@.@.@.@.@.@.@.@.@.@.1 $ # X o > D F F U E E E E E E K A 8 . O $ @ . . . .   . . . + $ 1 @ # # o $ & # # $ # o # # # # # @   . . @.@.@.@.@.@.@.@.@.@.@.@.@.@.@.@.@.@.@.@.@.@.@.@.@.@.@.@.",
"@.@.@.@.@.@.@.@.@.@.@.@.@.@.@.@.@.@.@.- $ + X   > D S K F U U U U U U P F F 8 X . O . . X . . .   . # & : $ o O O $ $ $ # # # # # # + # # @ . . . @.@.@.@.@.@.@.@.@.@.@.@.@.@.@.@.@.@.@.@.@.@.@.@.@.@.@.@.",
"@.@.@.@.@.@.@.@.@.@.@.@.@.@.@.@.@.@.@.1 @ O X   d S g A K K U U P U U U E K A X X . o . . .   . . . @ $ 1 @ # @ # # 1 $ # # $ O X X X O # X X . . @.@.@.@.@.@.@.@.@.@.@.@.@.@.@.@.@.@.@.@.@.@.@.@.@.@.@.@.",
"@.@.@.@.@.@.@.@.@.@.@.@.@.@.@.@.@.@.@.1 # o . > d A A Z F L U P U U E E E U F 8 O . X O . . . . . . # # < $ + # $ @ # $ @ + @ # o # o # X o # # . @.@.@.@.@.@.@.@.@.@.@.@.@.@.@.@.@.@.@.@.@.@.@.@.@.@.@.@.",
"@.@.@.@.@.@.@.@.@.@.@.@.@.@.@.@.@.@.@.$ + # . > d A u 9 A F K U U U U U W W W F 7 . X # o O   . .   # $ z l 1 1 < 2 3 3 2 2 < 4 < 1 1 1 $ $ # . . @.@.@.@.@.@.@.@.@.@.@.@.@.@.@.@.@.@.@.@.@.@.@.@.@.@.@.@.",
"@.@.@.@.@.@.@.@.@.@.@.@.@.@.@.@.@.@.@.+ $ o . > d d 8 u A F K L K U U W ~ ! ^ W S 8 . O O o O . . O # # t z p l l l l l l t 2 4 2 1 $ # O X . . . @.@.@.@.@.@.@.@.@.@.@.@.@.@.@.@.@.@.@.@.@.@.@.@.@.@.@.@.",
"@.@.@.@.@.@.@.@.@.@.@.@.@.@.@.@.@.@.@.o X O X > d u u u A D F F U U ~ ! ( ( ( ^ P u   X X o X o . O # $ $ 1 1 1 $ $ $ # # # # X O X . .     ; @.@.@.@.@.@.@.@.@.@.@.@.@.@.@.@.@.@.@.@.@.@.@.@.@.@.@.@.@.@.",
"@.@.@.@.@.@.@.@.@.@.@.@.@.@.@.@.@.@.@.# X . ; ; d d u 8 A D K K L U ~ ( ( } } { ^ P 8 . X O X O o X X X X . . . . .                         = ; @.@.@.@.@.@.@.@.@.@.@.@.@.@.@.@.@.@.@.@.@.@.@.@.@.@.@.@.@.",
"@.@.@.@.@.@.@.@.@.@.@.@.@.@.@.@.@.@.@.X X X > d d u 8 u f Z F F K U / } } } } ( / W F o . X X X O o X O .                                   ; : ; @.@.@.@.@.@.@.@.@.@.@.@.@.@.@.@.@.@.@.@.@.@.@.@.@.@.@.@.",
"@.@.@.@.@.@.@.@.@.@.@.@.@.@.@.@.@.@.@.$ . . > d u u 8 u f A K F F U ! } } ( ( / ^ W P L . . . . O X O X                                     = 8 8 @.@.@.@.@.@.@.@.@.@.@.@.@.@.@.@.@.@.@.@.@.@.@.@.@.@.@.@.",
"@.@.@.@.@.@.@.@.@.@.@.@.@.@.@.@.@.@.@.- # . > d u 8 9 8 f S F K K E ~ / } ( ( / ! ~ W U A     . . X X O                                     = 8 8 % @.@.@.@.@.@.@.@.@.@.@.@.@.@.@.@.@.@.@.@.@.@.@.@.@.@.@.",
"@.@.@.@.@.@.@.@.@.@.@.@.@.@.@.@.@.@.@.$ @ o ; d u u 8 % u d D D D P E ~ } } ( / ^ ~ ~ E U S       . . X                                     . > > @ @.@.@.@.@.@.@.@.@.@.@.@.@.@.@.@.@.@.@.@.@.@.@.@.@.@.@.",
"@.@.@.@.@.@.@.@.@.@.@.@.@.@.@.@.@.@.@.$ $ # o > d u > > u f Z F D F P E / } ( ! ^ ~ ~ ~ W U L .                                               o % % @ @.@.@.@.@.@.@.@.@.@.@.@.@.@.@.@.@.@.@.@.@.@.@.@.@.@.",
"@.@.@.@.@.@.@.@.@.@.@.@.@.@.@.@.@.@.@.# + # o > > % > % 6 9 d A D D D U ~ ( ^ ~ W W W W W E E L @                             . .   . .         @ % = @.@.@.@.@.@.@.@.@.@.@.@.@.@.@.@.@.@.@.@.@.@.@.@.@.@.",
"@.@.@.@.@.@.@.@.@.@.@.@.@.@.@.@.@.@.@.# # @ $ o > > % > = q f g D D D P U ^ ~ E E E U U U E U P P u             # 1 1 1 $ $ @ $ # X . . .       @ ; = ; @.@.@.@.@.@.@.@.@.@.@.@.@.@.@.@.@.@.@.@.@.@.@.@.@.",
"@.@.@.@.@.@.@.@.@.@.@.@.@.@.@.@.@.@.@.$ # # # @   > > > ; q 9 d g Z D K P ! ~ U U P U P U U L P P P S u           . X X .   .                   % 8 8 ; @.@.@.@.@.@.@.@.@.@.@.@.@.@.@.@.@.@.@.@.@.@.@.@.@.",
"@.@.@.@.@.@.@.@.@.@.@.@.@.@.@.@.@.@.@.$ @ O X X X X X . 8 q 9 d A A A D F W W U L P U K L P L F F F P P A u . . .                           . @ 6 d 9 : ; @.@.@.@.@.@.@.@.@.@.@.@.@.@.@.@.@.@.@.@.@.@.@.@.",
"@.@.@.@.@.@.@.@.@.@.@.@.@.@.@.@.@.@.@.X # # X X . . o o o o ; d f S S D F U U U L L D U P U W W U L F F K L A S u u             .     . . o % > d d 8 8 ; @.@.@.@.@.@.@.@.@.@.@.@.@.@.@.@.@.@.@.@.@.@.@.@.",
"@.@.@.@.@.@.@.@.@.@.@.@.@.@.@.@.@.@.@.. O o X X > o o @ @ o : 9 f g A A D E E U L L U U W ~ ~ ~ ~ W U F F L L L L L S S g A S S g u 8 6 8 u u d d 8 9 9 9 @.@.@.@.@.@.@.@.@.@.@.@.@.@.@.@.@.@.@.@.@.@.@.@.",
"@.@.@.@.@.@.@.@.@.@.@.@.@.@.@.@.@.@.@.@.X . X > 8 > ; : @ o ; q d f f A D P U L D U U W W ~ ~ ~ ~ E U K K D D D F F F D F D A g A A f g f f f f 8 9 8 9 8 ; @.@.@.@.@.@.@.@.@.@.@.@.@.@.@.@.@.@.@.@.@.@.@.",
"@.@.@.@.@.@.@.@.@.@.@.@.@.@.@.@.@.@.@.@.@.  . > 8 7 8 ; @ o @ 9 9 d d f Z F F L F P U ~ ~ ^ ! ^ ! ~ U U U F D U U L D F F F S A g A f f d d 8 9 9 8 f 8 9 ; @.@.@.@.@.@.@.@.@.@.@.@.@.@.@.@.@.@.@.@.@.@.@.",
"@.@.@.@.@.@.@.@.@.@.@.@.@.@.@.@.@.@.@.@.@.@.. > 8 8 > ; @ o : > 8 u u f f A g g D D U ~ U U L K F A S Z D D D D D Z D D D D g D F g A u u d d d f d f d 9 ; @.@.@.@.@.@.@.@.@.@.@.@.@.@.@.@.@.@.@.@.@.@.@.",
"@.@.@.@.@.@.@.@.@.@.@.@.@.@.@.@.@.@.@.@.@.@.@.; 7 > ; @ @ o @ > > 8 6 9 d f f g g A K K D A g L L L U U U A Z S K E W ~ U U F F A D F D f d f f A S A f d 9 ; @.@.@.@.@.@.@.@.@.@.@.@.@.@.@.@.@.@.@.@.@.@.",
"@.@.@.@.@.@.@.@.@.@.@.@.@.@.@.@.@.@.@.@.@.@.@.: ; ; @ @ @ o o @ ; > > 6 u u d d u > 8 8 u u D U U U D D D K F U W ~ U U L L L L F F g g F D A S D D S A d 8 > ; @.@.@.@.@.@.@.@.@.@.@.@.@.@.@.@.@.@.@.@.@.",
"@.@.@.@.@.@.@.@.@.@.@.@.@.@.@.@.@.@.@.@.@.@.@.@.; o O @ @ o   o @ ; ; ; 8 8 8 u > 8 ; % u F U D D g g A S E U P U D A A Z D D D D K F K f A D D F D K Z S 8 8 ; @.@.@.@.@.@.@.@.@.@.@.@.@.@.@.@.@.@.@.@.@.",
"@.@.@.@.@.@.@.@.@.@.@.@.@.@.@.@.@.@.@.@.@.@.@.@.    @ o o o .   @ = = ; > 8 9 8 ; ; > f D g d f u Z U U L F K Z A f A D D D K D D D D F A f A D F K F L A 8 > ; @.@.@.@.@.@.@.@.@.@.@.@.@.@.@.@.@.@.@.@.@.",
"@.@.@.@.@.@.@.@.@.@.@.@.@.@.@.@.@.@.@.@.@.@.@.@.  . @ o o o .   @ = = = ; ; > ; ; > > f D g u u D U P U L F K A S K U ! / ~ ! ~ W U U K Z g g D F F A D K u > ; @.@.@.@.@.@.@.@.@.@.@.@.@.@.@.@.@.@.@.@.@.",
"@.@.@.@.@.@.@.@.@.@.@.@.@.@.@.@.@.@.@.@.@.@.@.@.@.@.o o o o   . o @ @ = = ; ; ; u > 8 g f u u K F U F F Z F F U / ! E U F A d S D U ~ W U F f A A Z S A D u > : @ @.@.@.@.@.@.@.@.@.@.@.@.@.@.@.@.@.@.@.@.",
"@.@.@.@.@.@.@.@.@.@.@.@.@.@.@.@.@.@.@.@.@.@.@.@.@.@.@.o o o . .       o @ @ : > ; u 8 % u A A D D D A A D D D d f f g f S A S D D A g f g D U P D g A d 8 u 8 @ @ @.@.@.@.@.@.@.@.@.@.@.@.@.@.@.@.@.@.@.@.",
"@.@.@.@.@.@.@.@.@.@.@.@.@.@.@.@.@.@.@.@.@.@.@.@.@.@.@.@.@..   . . . . o . @ ; > ; o > d d A Z g f d F F f A A S W / W U U U ~ ( ( ~ U D g g D D D D D g g 8 8 @ @ @.@.@.@.@.@.@.@.@.@.@.@.@.@.@.@.@.@.@.@.",
"@.@.@.@.@.@.@.@.@.@.@.@.@.@.@.@.@.@.@.@.@.@.@.@.@.@.@.@.@.. .   .       o @ > ; o ; d A f u q u D D f u D W ! W S g f f f D D U ~ ( ( W W U L L D D A A K A 8 > @ @ @.@.@.@.@.@.@.@.@.@.@.@.@.@.@.@.@.@.@.",
"@.@.@.@.@.@.@.@.@.@.@.@.@.@.@.@.@.@.@.@.@.@.@.@.@.@.@.@.@..   .   . . .   @ =   ; u f 9 ; 9 A A f u D D D S A f u 8 u F W E ~ ( ( W U D A A A Z A g u g A K F A g 9 @ @.@.@.@.@.@.@.@.@.@.@.@.@.@.@.@.@.@.",
"@.@.@.@.@.@.@.@.@.@.@.@.@.@.@.@.@.@.@.@.@.@.@.@.@.@.@.@.@.  .   . .   .   .   @ 8 u 8 @ 9 u u A D A f g f 8 8 u f P ~ E U D D g u u 8 8 9 8 g S F F K U E F S f u 8 ; 9 @ @.@.@.@.@.@.@.@.@.@.@.@.@.@.@.@.",
"@.@.@.@.@.@.@.@.@.@.@.@.@.@.@.@.@.@.@.@.@.@.@.@.@.@.@.@.@..   .   . .   .   @ @ 8 8 ; > u u g A Z f u u 8 g D P U D D D d u u d A F U ~ ! / W U U P L L K Z f u u 8 ; 8 9 @ @.@.@.@.@.@.@.@.@.@.@.@.@.@.@.",
"@.@.@.@.@.@.@.@.@.@.@.@.@.@.@.@.@.@.@.@.@.@.@.@.@.@.@.@.@.@..   .   . . . . @ @ 8 7 ; > u A D S d u u D P P P U Z d u d u u d A F U W / / W U F D D g f f g f d d > ; = = @ @.@.@.@.@.@.@.@.@.@.@.@.@.@.@.",
"@.@.@.@.@.@.@.@.@.@.@.@.@.@.@.@.@.@.@.@.@.@.@.@.@.@.@.@.@.@.@.@.  . .   .   o : ; : % 8 g K S f u f D P D D D g d u ; g A F U W ^ ! ~ U D S f f g f 8 8 6 8 6 ; ; ; ; @ @ @ @ @.@.@.@.@.@.@.@.@.@.@.@.@.@.",
"@.@.@.@.@.@.@.@.@.@.@.@.@.@.@.@.@.@.@.@.@.@.@.@.@.@.@.@.@.@.@.@.. .   .   .   @ @   > u D L D u D P P D g u u > > f S F U / ! ~ U F g u 9 8 9 8 f f g f A D D f f u u 8 > @ @ @.@.@.@.@.@.@.@.@.@.@.@.@.@.",
"@.@.@.@.@.@.@.@.@.@.@.@.@.@.@.@.@.@.@.@.@.@.@.@.@.@.@.@.@.@.@.@..   .   .   . .   @ 8 d P U D D U P Z A u ; > f A D P U U D A 8 ; 8 D F F D K A A Z K A U ~ U D D F D g u @ @ @.@.@.@.@.@.@.@.@.@.@.@.@.@.",
"@.@.@.@.@.@.@.@.@.@.@.@.@.@.@.@.@.@.@.@.@.@.@.@.@.@.@.@.@.@.@.@.. .   .   .   . . @ 8 d D U U U Z u u ; u g F P E U U D d ; ; 9 A D D L U W U K K F K f P E E F D S D L f u > @.@.@.@.@.@.@.@.@.@.@.@.@.@.",
"@.@.@.@.@.@.@.@.@.@.@.@.@.@.@.@.@.@.@.@.@.@.@.@.@.@.@.@.@.@.@.@.@.  .   .   . .   @ > d D L K S 0 ; , f F P P U U D f 8 ; 8 u D D D P L W ! W W F F K f P W P D D A P P A P u @.@.@.@.@.@.@.@.@.@.@.@.@.@.",
"@.@.@.@.@.@.@.@.@.@.@.@.@.@.@.@.@.@.@.@.@.@.@.@.@.@.@.@.@.@.@.@.@.@.@..   . .   . @ 8 d f D g 6 > u d K E P L D f 9 % ; 8 u d A F F D P ~ U E U U P D D E K K D F D ! D D ^ D u 8 @.@.@.@.@.@.@.@.@.@.@.@.",
"@.@.@.@.@.@.@.@.@.@.@.@.@.@.@.@.@.@.@.@.@.@.@.@.@.@.@.@.@.@.@.@.@.@.@.@.@.o   .   @ 8 d f A d ; d K K E K A g C 9 % ; 8 u d g K U Z D U ~ E ^ W L L D P ! A F Z S F W U U D F g u 8 @.@.@.@.@.@.@.@.@.@.@.",
"@.@.@.@.@.@.@.@.@.@.@.@.@.@.@.@.@.@.@.@.@.@.@.@.@.@.@.@.@.@.@.@.@.@.@.@.@.X .   . @ 8 d f 9 ; 9 F L W K g d f 8 % # 8 u d g D P L D D U W ~ ! ~ P D U P U g A W W K E D U U U K d f u @.@.@.@.@.@.@.@.@.@.",
"@.@.@.@.@.@.@.@.@.@.@.@.@.@.@.@.@.@.@.@.@.@.@.@.@.@.@.@.@.@.@.@.@.@.@.@.@.@.  . .   > 9 8 ; ; d U F K g 9 8 > = # > 8 u d g D D L A D L W W ~ W U U U ^ W D K ^ ^ W ^ ! ^ W U ~ P F g u @.@.@.@.@.@.@.@.@.",
"@.@.@.@.@.@.@.@.@.@.@.@.@.@.@.@.@.@.@.@.@.@.@.@.@.@.@.@.@.@.@.@.@.@.@.@.@.@..   .   @ ; % ; > F D A Z 8 9 % % # # 6 u u u g g D D g A D ^ W ~ U ! U E ^ ^ F U { { W W ^ ~ U ~ ~ ~ U W D d u @.@.@.@.@.@.@.",
"@.@.@.@.@.@.@.@.@.@.@.@.@.@.@.@.@.@.@.@.@.@.@.@.@.@.@.@.@.@.@.@.@.@.@.@.@.@.@..   .   @ @ @ 9 A A d d , ;   . # = > d u u g f g L D D U ~ ! ^ W E W E W ~ K E } } W ~ ~ L U ^ W U W E E D g u @.@.@.@.@.@.",
"@.@.@.@.@.@.@.@.@.@.@.@.@.@.@.@.@.@.@.@.@.@.@.@.@.@.@.@.@.@.@.@.@.@.@.@.@.@.@.@.. . . @ @ @ d A d u u > % .   # = > u d u d d A L D D U E W / E L L ~ ( W ^ ^ ^ L W ~ E ~ W U ! ~ K L U U F A u u @.@.@.@.",
"@.@.@.@.@.@.@.@.@.@.@.@.@.@.@.@.@.@.@.@.@.@.@.@.@.@.@.@.@.@.@.@.@.@.@.@.@.@.@.@.@.@.@.. @ % 8 u u 8 8 > o . = o % 8 u d d d d f F D Z U W W ~ K L L ^ ^ ! W W K D L U ! L W / W ~ ~ W U L U L A g u @.@.@.",
"@.@.@.@.@.@.@.@.@.@.@.@.@.@.@.@.@.@.@.@.@.@.@.@.@.@.@.@.@.@.@.@.@.@.@.@.@.@.@.@.@.@.@.@.. @ > 8 8 > > = o   = o o > d f d d d A F A D L W ^ W U D K ~ ^ / E U g U U U / W ~ ^ ^ W W ~ P U U K L A D u @.@.",
"@.@.@.@.@.@.@.@.@.@.@.@.@.@.@.@.@.@.@.@.@.@.@.@.@.@.@.@.@.@.@.@.@.@.@.@.@.@.@.@.@.@.@.@.@.= ; > 8 > > @ o = = @ o o 9 f f d d g D D D L P W ~ U D F W ~ W L U D g F U ~ ^ ~ ~ ~ ~ ! ^ ~ ~ W ~ F ~ D D S @.",
"@.@.@.@.@.@.@.@.@.@.@.@.@.@.@.@.@.@.@.@.@.@.@.@.@.@.@.@.@.@.@.@.@.@.@.@.@.@.@.@.@.@.@.@.@.  = ; 8 > > @ o o = @ @ o @ 9 d d 8 g f F K D U W ~ F g D W ~ K W U { S L ~ ! ~ U ~ ! ^ W E L ! U U E ~ K L g S "
};
