/* XPM */
static char *Idle[] = {
/* columns rows colors chars-per-pixel */
"87 93 93 2 ",
"   c black",
".  c #070707",
"X  c #0B0B0B",
"o  c #170F07",
"O  c #0B1707",
"+  c #171F07",
"@  c #1F170B",
"#  c #131313",
"$  c #1B1B1B",
"%  c #2F1B0B",
"&  c #13230B",
"*  c #17330F",
"=  c #2B230F",
"-  c #232B0F",
";  c #372313",
":  c #332B13",
">  c #3F2F17",
",  c #3F2B1B",
"<  c #2F371F",
"1  c #232323",
"2  c #2F2F2F",
"3  c #373F27",
"4  c #373737",
"5  c gray23",
"6  c #432F1B",
"7  c #43331B",
"8  c #4B371B",
"9  c #533F1F",
"0  c #473323",
"q  c #4F3B23",
"w  c #4F3B2B",
"e  c #533F2F",
"r  c #1F4317",
"t  c #3F472B",
"y  c #2F6323",
"u  c #5F4323",
"i  c #5B472B",
"p  c #474F33",
"a  c #574333",
"s  c #53573B",
"d  c #6B4727",
"f  c #774F2B",
"g  c #7F532F",
"h  c #675333",
"j  c #67533F",
"k  c #775F3F",
"l  c #434343",
"z  c #4B4B4B",
"x  c gray34",
"c  c #5B5B5B",
"v  c #5B6347",
"b  c #676B4F",
"n  c #6F7357",
"m  c gray39",
"M  c gray42",
"N  c #7B7F63",
"B  c #777777",
"V  c gray50",
"C  c #874307",
"Z  c #9B5B13",
"A  c #875733",
"S  c #8F5F37",
"D  c #9B633B",
"F  c #A36B3F",
"G  c #836B4B",
"H  c #8F7753",
"J  c #AB6F43",
"K  c #B37347",
"L  c #BF7B4B",
"P  c #9B7F6B",
"I  c #CB7F4F",
"U  c #9F876F",
"Y  c #A78F77",
"T  c #AF977F",
"R  c #CF8353",
"E  c #D78B5B",
"W  c #FFA35B",
"Q  c #DF9363",
"!  c #E79B6B",
"~  c #EFA373",
"^  c #F7AB7B",
"/  c #B79F87",
"(  c #BFA78F",
")  c gray70",
"_  c gray75",
"`  c #FFB383",
"'  c #FFBB93",
"]  c #FFFFB3",
"[  c gray78",
"{  c #CBCBCB",
"}  c gray86",
"|  c #FFFFD7",
" . c None",
/* pixels */
" . . . . . . . .1  . . . . . . . . . . . . . . . . . . . . . . . . . . . . . . . . . . . . . . . . . . . . . . . . . . . . . . . . . . . . . . . . . . . . . . . . . . . . . .",
" . . . . . . . .2  . . . . . . . . . . . . . . . . . . . . . . . . . . . . . . . . . . . . . . . . . . . . . . . . . . . . . . . . . . . . . . . . . . . . . . . . . . . . . .",
" . . . . . . .t <  . . . . . . . . . . . . . . . . . . . . . . . . . . . . . . . . . . . . . . . . . . . . . . . . . . . . . . . . . . . . . . . . . . . . . . . . . . . . . .",
" . . . . . . .p 2 < t 3 <  . . . . . . . . . . . . . . . . . . . . . . . . . . . . . . . . . . . . . . . . . . . . . . . . . . . . . . . . . . . . . . . . . . . . . . . . . .",
" . . .3 < 3 < 3 < < < < < : 1 -  . . . . . . . . . . . . . . . . . . . . . . . . . . . . . . . . . . . . . . . . . . . . . . . . . . . . . . . . . . . . . . . . . . . . . . .",
" . .3 < < < : < , < , < < < 3 3 < 1  . . . . . . . . . . . . . . . . . . . . . . . . . . . . . . . . . . . . . . . . . . . . . . . . . . . . . . . . . . . . . . . . . . . . .",
" .< 3 t < : < < < < 3 3 0 0 3 , , < : <  . . . . . . . . . . . . . . . . . . . . . . . . . . . . . . . . . . . . . . . . . . . . . . . . . . . . . . . . . . . . . . . . . . .",
"- : < 3 e t < < : < 7 3 3 < < < < : - - : - -  . . . . . . . . . . . . . . . . . . . . . . . . . . . . . . . . . . . . . . . . . . . . . . . . . . . . . . . . . . . . . . . .",
"@ : : < 3 t t 0 < < < > - = < : < < < < < : 1 - <  . . . . . . . . . . . . . . . . . . . . . . . . . . . . . . . . . . . . . . . . . . . . . . . . . . . . . . . . . . . . . .",
"O # = 1 < : < < 0 t : - - = < < 3 0 < < < < : < 1 < 4  . . . . . . . . . . . . . . . . . . . . . . . . . . . . . . . . . . . . . . . . . . . . . . . . . . . . . . . . . . . .",
"o O O @ - 1 : : < t l : 1 : < : 3 t z x v x v x v c z 1  . . . . . . . . . . . . . . . . . . . . . . . . . . . . . . . . . . . . . . . . . . . . . . . . . . . . . . . . . . .",
"o O o O # @ - < : 3 3 - : < : < 2 2 b V N B N M M M 3 $ 1  . . . . . . . . . . . . . . . . . . . . . . . . . . . . . . . . . . . . . . . . . . . . . . . . . . . . . . . . . .",
"# O o o O o # @ - 3 < < : : < < 1 1 v M z 5 5 t 2 4 $ 1 1 $  . . . . . . . . . . . . . . . . . . . . . . . . . . . . . . . . . . . . . . . . . . . . . . . . . . . . . . . . .",
"@ o O O o O o O o @ < < < : < 1 - 1 l -           . $ : < - < < 2 < < <  . . . . . . . . . . . . . . . . . . . . . . . . . . . . . . . . . . . . . . . . . . . . . . . . . . .",
"O O o o o X O o X O @ = < 3 - $ 1 1 : < i s t = - < t p p p t t 3 3 3 < 3 3  . . . . . . .3 1  . . . . . . . . . . . . . . . . . . . . . . . . . . . . . . . . . . . . . . . .",
". . O O o O o O X o # O 1 3 1 1 1 @ h H G k i : < < 3 3 0 3 0 3 0 t e p t w t t < : l  . .< 2 =  . . . . . . . . . . . . . . . . . . . . . . . . . . . . . . . . . . . . . . .",
"O = $ o O o O o O O o O @ 2 < < $ p H H H y : < < 3 , < 3 t 3 3 t t 3 t t t 3 : z - $ o < 3 t 1 #  . . . . . . . . . . . . . . . . . . . . . . . . . . . . . . . . . . . . . .",
"$ o - 1 o O o O o X O o # < 2 2 3 H H H h < < 3 w < 3 < 3 3 < < < 7 t 3 3 0 3 - p < 1 # = 4 l 3 $  . . . . . . . . . . . . . . . . . . . . . . . . . . . . . . . . . . . . . .",
"# o O @ : - O o O O o O O 1 2 < 3 G H v - < , t 3 < , 3 < < < < : p p t t p 3 @ t 5 z t : t t 4 5  . . . . . . . . . . . . . . . . . . . . . . . . . . . . . . . . . . . . . .",
" .1 - O @ 1 < @ O o X X X - 1 < 3 k G r @ < < < < 3 < < < : < : p t : < p j 3 + < < 2 t w 4 2 $ @ 1  . . . . . . . . . . . . . . . . . . . . . . . . . . . . . . . . . . . . .",
" .2 p : + o @ 1 - o . O X $ 3 1 < s k - O o @ < , < < < 3 s 3 t 3 : < 3 p < 3 3 < < 1 : 3 < 3 < < < 2 <  . . . . . . . . . . . . . . . . . . . . . . . . . . . . . . . . . . .",
" .< s M p - O @ - < @ . O $ 2 < < p s @ o O O @ 1 < 3 : s 3 : < < < < p 3 : < 3 e s v s l p p l l p l l 2  . . . . . . . . . . . . . . . . . . . . . . . . . . . . . . . . . .",
" .1 s N P N < X # = < # O $ 3 3 3 < 8 + O X o # @ < 3 3 3 : < : : < 7 p 7 < < < s x x l 5 4 5 4 3 2 2 3 2 2  . . . . . . . . . . . . . . . . . . . . . . . . . . . . . . . . .",
" .+ b U | ) T s O o @ - $ o 3 a p : - @ O o O # O @ @ = : < < : 1 : < t < < 7 l z 2 - $ $ + # # # # $ # # $ 1  . . . . . . . . . . . . . . . . . . . . . . . . . . . . . . . .",
" .$ & v ) ( Y ) t - X o @ - - < < 7 < @ O o o # o O # + $ = : < < : < < < < l p 1 $ X .       .       X $ # # $  . . . . . . . . . . . . . . . . . . . . . . . . . . . . . . .",
" .$ @ . r U Y _ N / + O X @ $ - @ < $ . O o O o O o O o @ + $ - : < , < : t 3 1 @ . . o - 1 1 < 4 4 4 1 . # # X #  . . . . . . . . . . . . . . . . . . . . . . . . . . . . . .",
" . . .1   * N ( k [ n 5 O O # @ 1 + . + @ O O # o O X O o O o @ - : < : < 2 $ #   o < 1 z z v m n b M N 5 . # X X #  . . . . . . . . . . . . . . . . . . . . . . . . . . . . .",
" . . . .1 o . p v { ] U < . O X + = $ @ < : $ O o o X o # o O o o & = < 1 @ # . @ 3 $ 2 p x x v c x v m n 5 . X . .  . . . . . . . . . . . . . . . . . . . . . . . . . . . . .",
" . . . . .- $   + Y } | n . X X O # o O o - : 1 O O X O o O X O o # @ - $ # o O z 1 # l c v z z s l 5 l x s 1 . X . X  . . . . . . . . . . . . . . . . . . . . . . . . . . . .",
" . . . . . . .1 O O s _ U . - o O o O o O o O 3 b @ O . o O o O O o O $ # #   4 n 1 $ p z l p 5 5 z z 3 z l < X . . .  . . . . . . . . . . . . . . . . . . . . . . . . . . . .",
" . . . . . . . .1 @   : s X p < o o # O o o o 3 v : < 1 O X O o o O o $ @ # . p l $ @ 1 1 1 $ $ $ 1 < 1 l 4 1 o . . .  . . . . . . . . . . . . . . . . . . . . . . . . . . . .",
" . . . . .s 1 o O 1 - . . O t s t < o # o O O @ < $ @ z N < . O o o # @ # $ + 1 o X # # # @ # $ # $ # $ 2 < 1 o . . .  . . . . . . . . . . . . . . . . . . . . . . . . . . . .",
" . . . . .< 3 2 1 $ o - o   1 p v n p + o # o : b + + # l N l @ O O o # O $ @ $ # X X # # $ $ $ $ $ $ $ $ 1 1 o . . .  . . . . . . . . . . . . . . . . . . . . . . . . . . . .",
" . . . . .1 4 3 < @ O X - $ . o 3 n b t < + # - U @ o X . $ n m 1 . O # # - 1 + @ # X # $ $ $ $ $ $ $ $ # $ 1 o . . .  . . . . . . . . . . . . . . . . . . . . . . . . . . . .",
" . . . . .: - < 3 4 # o X @ 1 O . 2 v p c p = & n - O X X X # 4 v l O # @ 1 = @ # X X # # & 1 $ $ # $ $ # $ 1 o . . .  . . . . . . . . . . . . . . . . . . . . . . . . . . . .",
" . . . . .1 1 = 2 3 < # O . . = @   @ 3 s v v < N @ o X X X . . $ v V O # 1 1 @ # X X # $ $ $ $ $ $ $ $ # $ - X . . .  . . . . . . . . . . . . . . . . . . . . . . . . . . . .",
" . . . . .< 1 - 2 $ < 1 .       # $ X . : s b t T < X . . X O X . X s $ # 1 = # O X o # # & $ $ $ $ $ # # $ $ @ X . .  . . . . . . . . . . . . . . . . . . . . . . . . . . . .",
" . . . . .: 1 - 1 @ $ 1 .       . X # # . @ 4 3 v < O O   o X X X . . X O $ 1 @ # # # # # # $ $ $ $ + # # # $ o . . .  . . . . . . . . . . . . . . . . . . . . . . . . . . . .",
" . . . . .< $ $ @ # o   . .   . . . . X # @ O o - 1 o X . X X X X . . X # $ : @ $ X # # # $ $ $ $ # $ $ # # $ o X . .  . . . . . . . . . . . . . . . . . . . . . . . . . . . .",
" . . . . .- $ - # O X   X > > > u u u @ @ o $ o @ $ O X . . . X . X . X # $ 1 @ # O o $ & # + # & # $ $ @ # $ # .   .  . . . . . . . . . . . . . . . . . . . . . . . . . . . .",
" . . . . .< $ $ # X X 8 u u D F I L F S u u . + $ o   O   . . . . X . O @ $ : # @ o O $ # # # # # $ O # # $ $ @ . . .  . . . . . . . . . . . . . . . . . . . . . . . . . . . .",
" . . . . .< @ @ X . > u g K I I I I R I F A 8 X O 1 o . . .   . . . . . $ $ 1 = # X O # $ # # # # # # # # # # @ . . .  . . . . . . . . . . . . . . . . . . . . . . . . . . . .",
" . . . . .1 $ # X o > D F F I R R R R R R J A 8 . O $ @ . . . .   . . . + $ 1 @ # # o $ & # # $ # o # # # # # @   . .  . . . . . . . . . . . . . . . . . . . . . . . . . . . .",
" . . . . .- $ + X   > D S J F I I I I I I L F F 8 X . O . . X . . .   . # & : $ o O O $ $ $ # # # # # # + # # @ . . .  . . . . . . . . . . . . . . . . . . . . . . . . . . . .",
" . . . . .1 @ O X   d S g A J J I I L I I I R J A X X . o . . .   . . . @ $ 1 @ # @ # # 1 $ # # $ O X X X O # X X . .  . . . . . . . . . . . . . . . . . . . . . . . . . . . .",
" . . . . .1 # o . > d A A Z F K I L I I R R R I F 8 O . X O . . . . . . # # < $ + # $ @ # $ @ + @ # o # o # X o # # .  . . . . . . . . . . . . . . . . . . . . . . . . . . . .",
" . . . . .$ + # . > d A u 9 A F J I I I I I E E E F 7 . X # o O   . .   # $ z l 1 1 < 2 3 3 2 2 < 4 < 1 1 1 $ $ # . .  . . . . . . . . . . . . . . . . . . . . . . . . . . . .",
" . . . . .+ $ o . > d d 8 u A F J K J I I E Q W ! E S 8 . O O o O . . O # # t z p l l l l l l t 2 4 2 1 $ # O X . . .  . . . . . . . . . . . . . . . . . . . . . . . . . . . .",
" . . . . .o X O X > d u u u A D F F I I Q W ^ ^ ^ ! L u   X X o X o . O # $ $ 1 1 1 $ $ $ # # # # X O X . .     ;  . . . . . . . . . . . . . . . . . . . . . . . . . . . . . .",
" . . . . .# X . ; ; d d u 8 A D J J K I Q ^ ^ ' ' ` ! L 8 . X O X O o X X X X . . . . .                         = ;  . . . . . . . . . . . . . . . . . . . . . . . . . . . . .",
" . . . . .X X X > d d u 8 u f Z F F J I ~ ' ' ' ' ^ ~ E F o . X X X O o X O .                                   ; : ;  . . . . . . . . . . . . . . . . . . . . . . . . . . . .",
" . . . . .$ . . > d u u 8 u f A J F F I W ' ' ^ ^ ~ ! E L K . . . . O X O X                                     = 8 8  . . . . . . . . . . . . . . . . . . . . . . . . . . . .",
" . . . . .- # . > d u 8 9 8 f S F J J R Q ~ ' ^ ^ ~ W Q E I A     . . X X O                                     = 8 8 %  . . . . . . . . . . . . . . . . . . . . . . . . . . .",
" . . . . .$ @ o ; d u u 8 % u d D D D L R Q ' ' ^ ~ ! Q Q R I S       . . X                                     . > > @  . . . . . . . . . . . . . . . . . . . . . . . . . . .",
" . . . . .$ $ # o > d u > > u f Z F D F L R ~ ' ^ W ! Q Q Q E I K .                                               o % % @  . . . . . . . . . . . . . . . . . . . . . . . . . .",
" . . . . .# + # o > > % > % 6 9 d A D D D I Q ^ ! Q E E E E E R R K @                             . .   . .         @ % =  . . . . . . . . . . . . . . . . . . . . . . . . . .",
" . . . . .# # @ $ o > > % > = q f g D D D L I ! Q R R R I I I R I L L u             # 1 1 1 $ $ @ $ # X . . .       @ ; = ;  . . . . . . . . . . . . . . . . . . . . . . . . .",
" . . . . .$ # # # @   > > > ; q 9 d g Z D J L W Q I I L I L I I K L L L S u           . X X .   .                   % 8 8 ;  . . . . . . . . . . . . . . . . . . . . . . . . .",
" . . . . .$ @ O X X X X X . 8 q 9 d A A A D F E E I K L I J K L K F F F L L A u . . .                           . @ 6 d 9 : ;  . . . . . . . . . . . . . . . . . . . . . . . .",
" . . . . .X # # X X . . o o o o ; d f S S D F I I I K K D I L I E E I K F F J K A S u u             .     . . o % > d d 8 8 ;  . . . . . . . . . . . . . . . . . . . . . . . .",
" . . . . .. O o X X > o o @ @ o : 9 f g A A D R R I K K I I E Q Q Q Q E I F F K K K K K S S g A S S g u 8 6 8 u u d d 8 9 9 9  . . . . . . . . . . . . . . . . . . . . . . . .",
" . . . . . .X . X > 8 > ; : @ o ; q d f f A D L I K D I I E E Q Q Q Q R I J J D D D F F F D F D A g A A f g f f f f 8 9 8 9 8 ;  . . . . . . . . . . . . . . . . . . . . . . .",
" . . . . . . .  . > 8 7 8 ; @ o @ 9 9 d d f Z F F K F L I Q Q ! W ! W Q I I I F D I I K D F F F S A g A f f d d 8 9 9 8 f 8 9 ;  . . . . . . . . . . . . . . . . . . . . . . .",
" . . . . . . . .. > 8 8 > ; @ o : > 8 u u f f A g g D D I Q I I K J F A S Z D D D D D Z D D D D g D F g A u u d d d f d f d 9 ;  . . . . . . . . . . . . . . . . . . . . . . .",
" . . . . . . . . .; 7 > ; @ @ o @ > > 8 6 9 d f f g g A J J D A g K K K I I I A Z S J R E Q I I F F A D F D f d f f A S A f d 9 ;  . . . . . . . . . . . . . . . . . . . . . .",
" . . . . . . . . .: ; ; @ @ @ o o @ ; > > 6 u u d d u > 8 8 u u D I I I D D D J F I E Q I I K K K K F F g g F D A S D D S A d 8 > ;  . . . . . . . . . . . . . . . . . . . . .",
" . . . . . . . . . .; o O @ @ o   o @ ; ; ; 8 8 8 u > 8 ; % u F I D D g g A S R I L I D A A Z D D D D J F J f A D D F D J Z S 8 8 ;  . . . . . . . . . . . . . . . . . . . . .",
" . . . . . . . . . .    @ o o o .   @ = = ; > 8 9 8 ; ; > f D g d f u Z I I K F J Z A f A D D D J D D D D F A f A D F J F K A 8 > ;  . . . . . . . . . . . . . . . . . . . . .",
" . . . . . . . . . .  . @ o o o .   @ = = = ; ; > ; ; > > f D g u u D I L I K F J A S J I W ~ Q W Q E I I J Z g g D F F A D J u > ;  . . . . . . . . . . . . . . . . . . . . .",
" . . . . . . . . . . . .o o o o   . o @ @ = = ; ; ; u > 8 g f u u J F I F F Z F F I ~ W R I F A d S D I Q E I F f A A Z S A D u > : @  . . . . . . . . . . . . . . . . . . . .",
" . . . . . . . . . . . . .o o o . .       o @ @ : > ; u 8 % u A A D D D A A D D D d f f g f S A S D D A g f g D I L D g A d 8 u 8 @ @  . . . . . . . . . . . . . . . . . . . .",
" . . . . . . . . . . . . . . ..   . . . . o . @ ; > ; o > d d A Z g f d F F f A A S E ~ E I I I Q ^ ^ Q I D g g D D D D D g g 8 8 @ @  . . . . . . . . . . . . . . . . . . . .",
" . . . . . . . . . . . . . . .. .   .       o @ > ; o ; d A f u q u D D f u D E W E S g f f f D D I Q ^ ^ E E I K K D D A A J A 8 > @ @  . . . . . . . . . . . . . . . . . . .",
" . . . . . . . . . . . . . . ..   .   . . .   @ =   ; u f 9 ; 9 A A f u D D D S A f u 8 u F E R Q ^ ^ E I D A A A Z A g u g A J F A g 9 @  . . . . . . . . . . . . . . . . . .",
" . . . . . . . . . . . . . . .  .   . .   .   .   @ 8 u 8 @ 9 u u A D A f g f 8 8 u f L Q R I D D g u u 8 8 9 8 g S F F J I R F S f u 8 ; 9 @  . . . . . . . . . . . . . . . .",
" . . . . . . . . . . . . . . ..   .   . .   .   @ @ 8 8 ; > u u g A Z f u u 8 g D L I D D D d u u d A F I Q W ~ E I I L K K J Z f u u 8 ; 8 9 @  . . . . . . . . . . . . . . .",
" . . . . . . . . . . . . . . . ..   .   . . . . @ @ 8 7 ; > u A D S d u u D L L L I Z d u d u u d A F I E ~ ~ E I F D D g f f g f d d > ; = = @  . . . . . . . . . . . . . . .",
" . . . . . . . . . . . . . . . . . .  . .   .   o : ; : % 8 g J S f u f D L D D D g d u ; g A F I E ! W Q I D S f f g f 8 8 6 8 6 ; ; ; ; @ @ @ @  . . . . . . . . . . . . . .",
" . . . . . . . . . . . . . . . . . .. .   .   .   @ @   > u D K D u D L L D g u u > > f S F I ~ W Q I F g u 9 8 9 8 f f g f A D D f f u u 8 > @ @  . . . . . . . . . . . . . .",
" . . . . . . . . . . . . . . . . . ..   .   .   . .   @ 8 d L I D D I L Z A u ; > f A D L I I D A 8 ; 8 D F F D J A A Z J A I Q I D D F D g u @ @  . . . . . . . . . . . . . .",
" . . . . . . . . . . . . . . . . . .. .   .   .   . . @ 8 d D I I I Z u u ; u g F L R I I D d ; ; 9 A D D K I E I J J F J f L R R F D S D K f u >  . . . . . . . . . . . . . .",
" . . . . . . . . . . . . . . . . . . .  .   .   . .   @ > d D K J S 0 ; , f F L L I I D f 8 ; 8 u D D D L K E W E E F F J f L E L D D A L L A L u  . . . . . . . . . . . . . .",
" . . . . . . . . . . . . . . . . . . . . ..   . .   . @ 8 d f D g 6 > u d J R L K D f 9 % ; 8 u d A F F D L Q I R I I L D D R J J D F D W D D ! D u 8  . . . . . . . . . . . .",
" . . . . . . . . . . . . . . . . . . . . . . .o   .   @ 8 d f A d ; d J J R J A g C 9 % ; 8 u d g J I Z D I Q R ! E K K D L W A F Z S F E I I D F g u 8  . . . . . . . . . . .",
" . . . . . . . . . . . . . . . . . . . . . . .X .   . @ 8 d f 9 ; 9 F K E J g d f 8 % # 8 u d g D L K D D I E Q W Q L D I L I g A E E J R D I I I J d f u  . . . . . . . . . .",
" . . . . . . . . . . . . . . . . . . . . . . . .  . .   > 9 8 ; ; d I F J g 9 8 > = # > 8 u d g D D K A D K E E Q E I I I ! E D J ! ! E ! W ! E I Q L F g u  . . . . . . . . .",
" . . . . . . . . . . . . . . . . . . . . . . . ..   .   @ ; % ; > F D A Z 8 9 % % # # 6 u u u g g D D g A D ! E Q I W I R ! ! F I ` ` E E ! Q I Q Q Q I E D d u  . . . . . . .",
" . . . . . . . . . . . . . . . . . . . . . . . . ..   .   @ @ @ 9 A A d d , ;   . # = > d u u g f g K D D I Q W ! E R E R E Q J R ' ' E Q Q K I ! E I E R R D g u  . . . . . .",
" . . . . . . . . . . . . . . . . . . . . . . . . . .. . . @ @ @ d A d u u > % .   # = > u d u d d A K D D I R E ~ R K K Q ^ E ! ! ! K E Q R Q E I W Q J K I I F A u u  . . . .",
" . . . . . . . . . . . . . . . . . . . . . . . . . . . . .. @ % 8 u u 8 8 > o . = o % 8 u d d d d f F D Z I E E Q J K K ! ! W E E J D K I W K E ~ E Q Q E I K I K A g u  . . .",
" . . . . . . . . . . . . . . . . . . . . . . . . . . . . . .. @ > 8 8 > > = o   = o o > d f d d d A F A D K E ! E I D J Q ! ~ R I g I I I ~ E Q ! ! E E Q L I I J K A D u  . .",
" . . . . . . . . . . . . . . . . . . . . . . . . . . . . . . .= ; > 8 > > @ o = = @ o o 9 f f d d g D D D K L E Q I D F E Q E K I D g F I Q ! Q Q Q Q W ! Q Q E Q F Q D D S  .",
" . . . . . . . . . . . . . . . . . . . . . . . . . . . . . . .  = ; 8 > > @ o o = @ @ o @ 9 d d 8 g f F J D I E Q F g D E Q J E I ` S K Q W Q I Q W ! E R K W I I R Q J K g S "
};
