/* XPM */
static char *Recoil4[] = {
/* columns rows colors chars-per-pixel */
"87 93 91 1 ",
"  c black",
". c #070707",
"X c #0B0B0B",
"o c #170F07",
"O c #0B1707",
"+ c #171F07",
"@ c #1F170B",
"# c #131313",
"$ c #1B1B1B",
"% c #2F1B0B",
"& c #13230B",
"* c #2B230F",
"= c #232B0F",
"- c #372313",
"; c #332B13",
": c #3F2F17",
"> c #3F2B1B",
", c #2F371F",
"< c #232323",
"1 c #2F2F2F",
"2 c #373F27",
"3 c #373737",
"4 c gray23",
"5 c #432F1B",
"6 c #43331B",
"7 c #4B371B",
"8 c #533F1F",
"9 c #473323",
"0 c #4F3B23",
"q c #4F3B2B",
"w c #533F2F",
"e c #1F4317",
"r c #3F472B",
"t c #2F6323",
"y c #5F4323",
"u c #5B472B",
"i c #474F33",
"p c #574333",
"a c #53573B",
"s c #6B4727",
"d c #774F2B",
"f c #7F532F",
"g c #675333",
"h c #67533F",
"j c #775F3F",
"k c #434343",
"l c #4B4B4B",
"z c gray34",
"x c #5B5B5B",
"c c #5B6347",
"v c #676B4F",
"b c #6F7357",
"n c gray39",
"m c gray42",
"M c #7B7F63",
"N c #777777",
"B c #874307",
"V c #9B5B13",
"C c #875733",
"Z c #8F5F37",
"A c #9B633B",
"S c #A36B3F",
"D c #836B4B",
"F c #8F7753",
"G c #AB6F43",
"H c #B37347",
"J c #BF7B4B",
"K c #937B63",
"L c #CB7F4F",
"P c #9F876F",
"I c #A78F77",
"U c #AF977F",
"Y c #CF8353",
"T c #D78B5B",
"R c #FFA35B",
"E c #DF9363",
"W c #E79B6B",
"Q c #EFA373",
"! c #F7AB7B",
"~ c #8B8B8B",
"^ c #B79F87",
"/ c #BFA78F",
"( c gray67",
") c gray75",
"_ c #FFB383",
"` c #FFBB93",
"' c #CBCBCB",
"] c LightGray",
"[ c gray86",
"{ c #FFFFD7",
"} c None",
/* pixels */
"}}}}}}}}}}}}}}}}}}}}}}}}}}}}}}}}}}}}}}}}}}}}}}}}}}}}}}}}}}}}}}}}}}}}}}}}}}}}}}}}}}}}}}}",
"}}}}}}}}}}}}}}}}}}}}}}}}}}}}}}}}}}}}}}}}}}}}}}}}}}}}}}}}}}}}}}}}}}}}}}}}}}}}}}}}}}}}}}}",
"}}}}}}}}}}}}}}}}}}}}}}}}}}}}}}}}}}}}}}}}}}}}}}}}}}}}}}}}}}}}}}}}}}}}}}}}}}}}}}}}}}}}}}}",
"}}}}}}}}}}}}}}}}}}}}}}}}}}}}}}}}}}}}}}}}}}}}}}}}}}}}}}}}}}}}}}}}}}}}}}}}}}}}}}}}}}}}}}}",
"}}}.Oo.}}}}}}}<}}}}}}}}}}}}}}}}}}}}}}}}}}}}}}}}}}}}}}}}}}}}}}}}}}}}}}}}}}}}}}}}}}}}}}}}",
"}}7gur6;=@}}}},1}}}}}}}}}}}}}}}}}}}}}}}}}}}}}}}}}}}}}}}}}}}}}}}}}}}}}}}}}}}}}}}}}}}}}}}",
"}7DDvjgir6;;}}r$}}}}}}}}}}}}}}}}}}}}}}}}}}}}}}}}}}}}}}}}}}}}}}}}}}}}}}}}}}}}}}}}}}}}}}}",
";DFFFDDjgai2,ri,222,}}}}}}}}}}}}}}}}}}}}}}}}}}}}}}}}}}}}}}}}}}}}}}}}}}}}}}}}}}}}}}}}}}}",
"rjFFFFFFFc2,2,,,,,,;,<}}}}}}}}}}}}}}}}}}}}}}}}}}}}}}}}}}}}}}}}}}}}}}}}}}}}}}}}}}}}}}}}}",
",gvFFFFFj,,,;,>,,>,,,2,,2}}}}}}}}}}}}}}}}}}}}}}}}}}}}}}}}}}}}}}}}}}}}}}}}}}}}}}}}}}}}}}",
"}rgjFFFj,r2;,,,,222926:,>,,}}}}}}}}}}}}}}}}}}}}}}}}}}}}}}}}}}}}}}}}}}}}}}}}}}}}}}}}}}}}",
"};rjDFFe=,rk2;,;,92,:,,;;=*=$}}}}}}}}}}}}}}}}}}}}}}}}}}}}}}}}}}}}}}}}}}}}}}}}}}}}}}}}}}",
"}+,rgvy=;,;rri6,,,;==,,,,,,,;;=1}}}}}}}}}}}}}}}}}}}}}}}}}}}}}}}}}}}}}}}}}}}}}}}}}}}}}}}",
"}}=:tgrO@*,;;,2r2;<=;,,26,,,,,<,13}}}}}}}}}}}}}}}}}}}}}}}}}}}}}}}}}}}}}}}}}}}}}}}}}}}}}",
"}}}+=6;XO+$<,;;9r2=;,;,r4aczaclax2$}}}}}}}}}}}}}}}}}}}}}}}}}}}}}}}}}}}}}}}}}}}}}}}}}}}}",
"}}}}}+=oOoo+$;,,r,;,;,,1kMNMNNMmn<<$}}}}}}}}}}}}}}}}}}}}}}}}}}}}}}}}}}}}}}}}}}}}}}}}}}}",
"}}6r%O@OoO#oo+@;2;=,;,,$2nbli4442$<$$}}}}}}}}}}}}}}}}}}}}}}}}}}}}}}}}}}}}}}}}}}}}}}}}}}",
"}}DDjw;XOooOO#O@<22;,,$<1lX     O<;,=,2<,,}}}}}}}}}}}}}}}}}}}}}}}}}}}}}}}}}}}}}}}}}}}}}",
"},DFFFiXoOoOoooOo+*2,$<<<@    .<6riirr222,22}}}}}}}}1$}}}}}}}}}}}}}}}}}}}}}}}}}}}}}}}}}",
"}}rDFFa OXoOXOXXOo#2<*<=O    =,,,r22r92rriqrrrr;1}}2,,@}}}}}}}}}}}}}}}}}}}}}}}}}}}}}}}}",
"}}OiDFgO=#XoOoOooOo<,<1@    ;,;,2,9222rqrrrrq,23+#},r1$o}}}}}}}}}}}}}}}}}}}}}}}}}}}}}}}",
"}}};tDaX@=$OXOoOXOo$112o   ;,,r26,29,,2,222r2;,i<$#;kr<#}}}}}}}}}}}}}}}}}}}}}}}}}}}}}}}",
"}}}}.;roO@=;+oOOOoO@,,3o  @,,2q2,22,,,;,aqrri;=l2l;,r244}}}}}}}}}}}}}}}}}}}}}}}}}}}}}}}",
"}.    @+<oo$,$Ooo.X#<<1@ .==,;,,9,,,,,,i2,2ga=@212i94<$$,}}}}}}}}}}}}}}}}}}}}}}}}}}}}}}",
"}<     Xa,+oo=,@O.OO,1,$ O@o@<,,,,;rp,w,;,ii,2,,<*2,,,,<,<}}}}}}}}}}}}}}}}}}}}}}}}}}}}}",
"}}<.   oaav,+#@<*O.o<21<  oOOo*<,2,a,,,,,6i,;22aaakiakii4i41}}}}}}}}}}}}}}}}}}}}}}}}}}}",
"}}}=o  <kc~bioO=,=XX,21,  +oXO#;2292,*,:,2i;,,9czxk444433421}}}}}}}}}}}}}}}}}}}}}}}}}}}",
"}}}}<=.=rK/{UM*o#$=o<iiw.XoOO@#o$*,;,,;,;rr,:2kk,<<$@&###$#$<$}}}}}}}}}}}}}}}}}}}}}}}}}",
"}}}}}$<. aI{M/M=oo+=@*,,:=Xoo#+Ooo+<;;,;,;,,,a4<#X.. .X..X#$#$<}}}}}}}}}}}}}}}}}}}}}}}}",
"}}}}}}}<+ &v^(^IaOX#=<**2#O#OO#oOOo+@==,,,;,k1$o.<,<r4rO   ##X#$}}}}}}}}}}}}}}}}}}}}}}}",
"}}}}}}}}=< .c/P~^aoOo#=<O @OXoooOo#oO@$;;;;2,##O#$<<lk4@    X#XX#}}}}}}}}}}}}}}}}}}}}}}",
"}}}}}a<o#$;O 2cM])a@XOo$=$=,=oOOoXO+XOo+=<,<##.##$$$124@     #X.X}}}}}}}}}}}}}}}}}}}}}}",
"}}}}};2r<$O$= Oa'{/,.XOooOo@,,@.OXooOXo#@=*$o.@$$$$$$<2@      X..}}}}}}}}}}}}}}}}}}}}}}",
"}}}}}<12,@oX@<X.,^[2O@XoOoo+o@a2OXOOoOOOo#$#oO<$$$$$$$3@      ...}}}}}}}}}}}}}}}}}}}}}}",
"}}}}}<=,,k$OXO<@ Oc2$i+Oo#OoOoca<=o.oOooo#+$o#$$$$$&$<2@      ...}}}}}}}}}}}}}}}}}}}}}}",
"}}}}};<<2,,$...$=. o@ar1@OooO+,,@=miOXoOo&#$@$$$$#$$$<1@      ...}}}}}}}}}}}}}}}}}}}}}}",
"}}}}},=$1$,<.   o$# .rivc*Oo@orroo2Nc$XOX@##$&$$$$$##$1*      ...}}}}}}}}}}}}}}}}}}}}}}",
"}}}}},<=<@$$.   ..o$o.$ama,oOocvOo.#lM4OXoO+<$$$$$&$#$<*      ...}}}}}}}}}}}}}}}}}}}}}}",
"}}}}}<$$+#O XX..X.X.#$@@icic,oicOoXX#3az@.@$=$$&$#$$$#<;      ...}}}}}}}}}}}}}}}}}}}}}}",
"}}}}};$@##X .:::yyy@@O#@#2ivcricoXXX..#2~2X#<@##$##$@$,;    . ...}}}}}}}}}}}}}}}}}}}}}}",
"}}}}},$$+.X7yyASLJSZyy.o$o$abhcMoOX.XX..2zO$<$O##&##$$<;. ..  ...}}}}}}}}}}}}}}}}}}}}}}",
"}}}}},$@X.:yfHLLLLYLSC7XX=@oracb+o..OXXX..#o,$######$$<;.   . ...}}}}}}}}}}}}}}}}}}}}}}",
"}}}}}<$+Xo:ASSLYYYYYLGC7.X## @$;$O.XXXX...##<@#$####+$<;. ... ...}}}}}}}}}}}}}}}}}}}}}}",
"}}}}}=$oX :AZGSLLLLLLJSS7XXO. .,#o...XX.o.o#<<##@O###$<>. .  . ..}}}}}}}}}}}}}}}}}}}}}}",
"}}}}}=#OX sZfCGGLLJLLLYGCXX.o. ..OX ....X #+<$@#$#oo#=$;O ... ...}}}}}}}}}}}}}}}}}}}}}}",
"}}}}}<#o.:sCCVSHLJLLYYYLS7X.XO.   . ....X.O@<$#OoXO... . . ... ..}}}}}}}}}}}}}}}}}}}}}}",
"}}}}}$@#.:sCy8CSGLLLLLTTTS7.X#oX  .O.. ...o$<            ....  ..}}}}}}}}}}}}}}}}}}}}}}",
"}}}}}o&#.:ss7yCSGHGLLTERWTC7.OO#o  .X.. . O#=           .... . ..}}}}}}}}}}}}}}}}}}}}}}",
"}}}}}#XOX:syyyCASSLLER!!!WJy XXOXOX ..... o#$.      .   .....  . }}}}}}}}}}}}}}}}}}}}}}",
"}}}}}oo.--ssy7CAGGHLE!!``_WJ7.XXoOooO. .. X+$.   ..........X..X$X}}}}}}}}}}}}}}}}}}}}}}",
"}}}}}O.X:ssy7ydVSSGLQ````!RTSo.OXXXOXO.....#<$Oo&<<,<$+$$@#@$##X.}}}}}}}}}}}}}}}}}}}}}}",
"}}}}}$X.:syy7ydCGSSLR``!!QWTJH....OoXo  ..O#<ckkkikr42<<<$###XXX.}}}}}}}}}}}}}}}}}}}}}}",
"}}}}}$o.:sy787dZSGGYEQ`!!QWETLC  ..XXO    ##$<,11<<<$##X.... . }}}}}}}}}}}}}}}}}}}}}}}}",
"}}}}}$&o-syy7%ysAAAJYE``!QREEYLZ    .X     X###XXXX..    ooo}}}}}}}}}}}}}}}}}}}}}}}}}}}",
"}}}}}@$#o:sy::ydVSASJYQ`!QWEEETLH .                      o**@}}}}}}}}}}}}}}}}}}}}}}}}}}",
"}}}}}#@#o::%:%58sCAAALE!WETTTTTYYH@             .......   @%*}}}}}}}}}}}}}}}}}}}}}}}}}}",
"}}}}}$O#$o::%:*0dfAAAJLWEYYYLLLYYJJy      #<<<$$@##X..    @-*-}}}}}}}}}}}}}}}}}}}}}}}}}",
"}}}}}$#O@# :::-08sfVAGJRELLJLJLLHJJJZy     ..X...         %77-}}}}}}}}}}}}}}}}}}}}}}}}}",
"}}}}}$@#XXXXX.708sCCCASTTLHJLGHJHSSSJJCy...             .@5s8;-}}}}}}}}}}}}}}}}}}}}}}}}",
"}}}}}X#oXX..oooo-sdZZASLLLHHALJLTTLHSSGHCCyy      .  ..o%:ss77-}}}}}}}}}}}}}}}}}}}}}}}}",
"}}}}}}O#XX:oo@@o;8dfCCAYYLHHLLYEEEETLSSHHHHHZZCfAZfy757yyss7888}}}}}}}}}}}}}}}}}}}}}}}}",
"}}}}}}X.X:7:-;@o-0sddCAJLHALLTTEEEEYLGGAAASSSAAACfCCdfdddd78787-}}}}}}}}}}}}}}}}}}}}}}}",
"}}}}}}} .:767-@o@88ssdVSSHSJLEEWRWRELLLSALLHSAGGZffCddss7887d78-}}}}}}}}}}}}}}}}}}}}}}}",
"}}}}}}}}.:77:-@o;:7yyddCffAALEYLHGSCZVAAAAAVAAAAfASCfyysssdsds8-}}}}}}}}}}}}}}}}}}}}}}}",
"}}}}}}}}}-6:-@@o@::758sddffCGSACfHHHLLLCVZGYTELJSGfASAdsddCZCds8-}}}}}}}}}}}}}}}}}}}}}}",
"}}}}}}}}};--@@@oo@-::5yyssy:77yyALLLAAAGSLTELLHHHHGSffSACZAAZCs7:-}}}}}}}}}}}}}}}}}}}}}",
"}}}}}}}}}}-oO@@o o@---777y:7-%ySLAAffCZYLJLACCVAAAAGSGdCAASAGVZ77-}}}}}}}}}}}}}}}}}}}}}",
"}}}}}}}}}}  @ooo. @**-:787--:dAfsdyVLLHSGVCdCAAAGAAAASCdCASGSHC7:-}}}}}}}}}}}}}}}}}}}}}",
"}}}}}}}}}} .@ooo. @***--:--::dAfyyALJLHSGCZGLRQERETLLGVffASSCAGy:-}}}}}}}}}}}}}}}}}}}}}",
"}}}}}}}}}}}}oooo .o@@**---y:7fdyyGSLSSVSSLQRYLSCsZALETLSdCCVZCAy:;@}}}}}}}}}}}}}}}}}}}}",
"}}}}}}}}}}}}}ooo..   o@@;:-y7%yCCAAACCAAAsdddfCZZAACfdfALJAfCs7y7@@}}}}}}}}}}}}}}}}}}}}",
"}}}}}}}}}}}}}}}. ....o.@-:-o:ssCVfdsSSdCCZTQTLLLT!!ELAffAAAAAff77@@}}}}}}}}}}}}}}}}}}}}",
"}}}}}}}}}}}}}}}.. .   o@:-o-sCdy0yAAdyATRTZfdddAALE!!TTLHHAACCGC7:@@}}}}}}}}}}}}}}}}}}}",
"}}}}}}}}}}}}}}}. . ... @* -yd8-8CCdyAAAZCdy7ySTYE!!TLACCCVCfyfCGSCf8@}}}}}}}}}}}}}}}}}}",
"}}}}}}}}}}}}}}} . .. . . @7y7@8yyCACdfd77ydJEYLAAfyy7787fZSSGLYSZdy7-8@}}}}}}}}}}}}}}}}",
"}}}}}}}}}}}}}}}. . .. . @@77-:yyfCVdyy7fAJLAAAsyysCSLERQTLLJHHGVdyy7-78@}}}}}}}}}}}}}}}",
"}}}}}}}}}}}}}}}}. . ....@@76-:yCAZsyyAJJJLVsysyysCSLTQQTLSAAfddfdss:-**@}}}}}}}}}}}}}}}",
"}}}}}}}}}}}}}}}}}} .. . o;-;%7fGZdydAJAAAfsy-fCSLTWRELAZddfd77575----@@@@}}}}}}}}}}}}}}",
"}}}}}}}}}}}}}}}}}}.. . . @@ :yAHAyAJJAfyy::dZSLQRELSfy8787ddfdCAAddyy7:@@}}}}}}}}}}}}}}",
"}}}}}}}}}}}}}}}}}}. . . .. @7sJLAALJVCy-:dCAJLLAC7-7ASSAGCCVGCLELAASAfy@@}}}}}}}}}}}}}}",
"}}}}}}}}}}}}}}}}}}.. . . ..@7sALLLVyy-yfSJYLLAs--8CAAHLTLGGSGdJYYSAZAHdy:}}}}}}}}}}}}}}",
"}}}}}}}}}}}}}}}}}}} . . .. @:sAHGZ9->dSJJLLAd7-7yAAAJHTRTTSSGdJTJAACJJCJy}}}}}}}}}}}}}}",
"}}}}}}}}}}}}}}}}}}}}}. .. .@7sdAf5:ysGYJHAd8%-7ysCSSAJELYLLJAAYGGASARAAWAy7}}}}}}}}}}}}",
"}}}}}}}}}}}}}}}}}}}}}}}o . @7sdCs-sGGYGCfB8%-7ysfGLVALEYWTHHAJRCSVZSTLLASfy7}}}}}}}}}}}",
"}}}}}}}}}}}}}}}}}}}}}}}X. .@7sd8-8SHTGfsd7%#7ysfAJHAALTEREJALJLfCTTGYALLLGsdy}}}}}}}}}}",
"}}}}}}}}}}}}}}}}}}}}}}}} .. :87--sLSGf87:*#:7ysfAAHCAHTTETLLLWTAGWWTWRWTLEJSfy}}}}}}}}}",
"}}}}}}}}}}}}}}}}}}}}}}}}. . @-%-:SACV78%%##5yyyffAAfCAWTELRLYWWSL__TTWELEEELTAsy}}}}}}}",
"}}}}}}}}}}}}}}}}}}}}}}}}}. . @@@8CCss>- .#*:syyfdfHAALERWTYTYTEGY``TEEHLWTLTYYAfy}}}}}}",
"}}}}}}}}}}}}}}}}}}}}}}}}}}...@@@sCsyy:%. #*:ysyssCHAALYTQYHHE!TWWWHTEYETLREGHLLSCyy}}}}",
"}}}}}}}}}}}}}}}}}}}}}}}}}}}}}.@%7yy77:o.*o%7yssssdSAVLTTEGHHWWRTTGAHLRHTQTEETLHLHCfy}}}",
"}}}}}}}}}}}}}}}}}}}}}}}}}}}}}}.@:77::*o *oo:sdsssCSCAHTWTLAGEWQYLfLLLQTEWWTTEJLLGHCAy}}",
"}}}}}}}}}}}}}}}}}}}}}}}}}}}}}}}*-:7::@o**@oo8ddssfAAAHJTELASTETHLAfSLEWEEEERWEETESEAAZ}",
"}}}}}}}}}}}}}}}}}}}}}}}}}}}}}}} *-7::@oo*@@o@8ss7fdSGALTESfATEGTL_ZHERELERWTYHRLLYEGHfZ"
};
