/* XPM */
static char *Recoil1[] = {
/* columns rows colors chars-per-pixel */
"87 93 95 2 ",
"   c black",
".  c #070707",
"X  c #0B0B0B",
"o  c #170F07",
"O  c #0B1707",
"+  c #171F07",
"@  c #1F170B",
"#  c #131313",
"$  c #1B1B1B",
"%  c #2F1B0B",
"&  c #13230B",
"*  c #17330F",
"=  c #2B230F",
"-  c #232B0F",
";  c #372313",
":  c #332B13",
">  c #3F2F17",
",  c #3F2B1B",
"<  c #2F371F",
"1  c #232323",
"2  c #2F2F2F",
"3  c #373F27",
"4  c #373737",
"5  c gray23",
"6  c #432F1B",
"7  c #43331B",
"8  c #4B371B",
"9  c #533F1F",
"0  c #473323",
"q  c #4F3B23",
"w  c #4F3B2B",
"e  c #533F2F",
"r  c #3F472B",
"t  c #2F6323",
"y  c #5F4323",
"u  c #5B472B",
"i  c #474F33",
"p  c #574333",
"a  c #53573B",
"s  c #6B4727",
"d  c #774F2B",
"f  c #7F532F",
"g  c #675333",
"h  c #67533F",
"j  c #775F3F",
"k  c #434343",
"l  c #4B4B4B",
"z  c gray34",
"x  c #5B5B5B",
"c  c #5B6347",
"v  c #676B4F",
"b  c #6F7357",
"n  c gray39",
"m  c gray42",
"M  c #7B7F63",
"N  c #777777",
"B  c gray50",
"V  c #874307",
"C  c #9B5B13",
"Z  c #875733",
"A  c #8F5F37",
"S  c #9B633B",
"D  c #A36B3F",
"F  c #836B4B",
"G  c #8F7753",
"H  c #AB6F43",
"J  c #B37347",
"K  c #BF7B4B",
"L  c #937B63",
"P  c #CB7F4F",
"I  c #9F876F",
"U  c #A78F77",
"Y  c #AF977F",
"T  c #CF8353",
"R  c #D78B5B",
"E  c #FFA35B",
"W  c #DF9363",
"Q  c #E79B6B",
"!  c #EFA373",
"~  c #F7AB7B",
"^  c #838383",
"/  c #8B8B8B",
"(  c #9F9F9F",
")  c #B79F87",
"_  c #BFA78F",
"`  c gray70",
"'  c gray75",
"]  c #FFB383",
"[  c #FFBB93",
"{  c #FFD7BB",
"}  c gray78",
"|  c LightGray",
" . c #FFFFD7",
".. c white",
"X. c None",
/* pixels */
"X.X.X.X.X.X.X.X.X.X.X.X.X.X.X.X.X.X.X.X.X.X.X.X.X.X.X.X.X.X.X.X.X.X.X.X.X.X.X.X.X.X.X.X.X.X.X.X.X.X.X.X.X.X.X.X.X.X.X.X.X.X.X.X.X.X.X.X.X.X.X.X.X.X.X.X.X.X.X.X.X.X.X.X.X.X.X.",
"X.X.X.X.X.X.X.X.X.1 X.X.X.X.X.X.X.X.X.X.X.X.X.X.X.X.X.X.X.X.X.X.X.X.X.X.X.X.X.X.X.X.X.X.X.X.X.X.X.X.X.X.X.X.X.X.X.X.X.X.X.X.X.X.X.X.X.X.X.X.X.X.X.X.X.X.X.X.X.X.X.X.X.X.X.X.X.",
"X.X.X.X.X.X.X.X.X.< 2 X.X.X.X.X.X.X.X.X.X.X.X.X.X.X.X.X.X.X.X.X.X.X.X.X.X.X.X.X.X.X.X.X.X.X.X.X.X.X.X.X.X.X.X.X.X.X.X.X.X.X.X.X.X.X.X.X.X.X.X.X.X.X.X.X.X.X.X.X.X.X.X.X.X.X.X.",
"X.X.X.X.X.X.X.X.X.r 1 X.X.X.X.X.X.X.X.X.X.X.X.X.X.X.X.X.X.X.X.X.X.X.X.X.X.X.X.X.X.X.X.X.X.X.X.X.X.X.X.X.X.X.X.X.X.X.X.X.X.X.X.X.X.X.X.X.X.X.X.X.X.X.X.X.X.X.X.X.X.X.X.X.X.X.X.",
"X.X.X.    < 1 X.r i 2 3 3 3 < X.X.X.X.X.X.X.X.X.X.X.X.X.X.X.X.X.X.X.X.X.X.X.X.X.X.X.X.X.X.X.X.X.X.X.X.X.X.X.X.X.X.X.X.X.X.X.X.X.X.X.X.X.X.X.X.X.X.X.X.X.X.X.X.X.X.X.X.X.X.X.X.",
"X.X.: 9 a 3 < < 3 < < < < : < : 1 X.X.X.X.X.X.X.X.X.X.X.X.X.X.X.X.X.X.X.X.X.X.X.X.X.X.X.X.X.X.X.X.X.X.X.X.X.X.X.X.X.X.X.X.X.X.X.X.X.X.X.X.X.X.X.X.X.X.X.X.X.X.X.X.X.X.X.X.X.X.",
"X.: F v < < < < : < < 7 < < < < 3 < < 2 X.X.X.X.X.X.X.X.X.X.X.X.X.X.X.X.X.X.X.X.X.X.X.X.X.X.X.X.X.X.X.X.X.X.X.X.X.X.X.X.X.X.X.X.X.X.X.X.X.X.X.X.X.X.X.X.X.X.X.X.X.X.X.X.X.X.X.",
"X.F F < r 3 : < < < , < 3 0 7 0 < 7 < > < < X.X.X.X.X.X.X.X.X.X.X.X.X.X.X.X.X.X.X.X.X.X.X.X.X.X.X.X.X.X.X.X.X.X.X.X.X.X.X.X.X.X.X.X.X.X.X.X.X.X.X.X.X.X.X.X.X.X.X.X.X.X.X.X.X.",
"r j < - < r i 3 : < < < 3 3 < < < < : - = - : - X.X.X.X.X.X.X.X.X.X.X.X.X.X.X.X.X.X.X.X.X.X.X.X.X.X.X.X.X.X.X.X.X.X.X.X.X.X.X.X.X.X.X.X.X.X.X.X.X.X.X.X.X.X.X.X.X.X.X.X.X.X.X.",
"8 i @ < : : r r i 7 < < > < - : : < < < < < < 1 : - < X.X.X.X.X.X.X.X.X.X.X.X.X.X.X.X.X.X.X.X.X.X.X.X.X.X.X.X.X.X.X.X.X.X.X.X.X.X.X.X.X.X.X.X.X.X.X.X.X.X.X.X.X.X.X.X.X.X.X.X.",
"X.< O @ - < 1 : < < r 0 : $ - : < < 3 7 < < < < 1 < 1 2 4 X.X.X.X.X.X.X.X.X.X.X.X.X.X.X.X.X.X.X.X.X.X.X.X.X.X.X.X.X.X.X.X.X.X.X.X.X.X.X.X.X.X.X.X.X.X.X.X.X.X.X.X.X.X.X.X.X.X.",
"X.= O O o $ = < : : 3 r 3 - : < : < r 5 c z c c c z z v 5 $ X.X.X.X.X.X.X.X.X.X.X.X.X.X.X.X.X.X.X.X.X.X.X.X.X.X.X.X.X.X.X.X.X.X.X.X.X.X.X.X.X.X.X.X.X.X.X.X.X.X.X.X.X.X.X.X.X.",
"X.@ o O o O # @ : < : r < - < : < < 2 r m B N M m b N n 1 1 $ X.X.X.X.X.X.X.X.X.X.X.X.X.X.X.X.X.X.X.X.X.X.X.X.X.X.X.X.X.X.X.X.X.X.X.X.X.X.X.X.X.X.X.X.X.X.X.X.X.X.X.X.X.X.X.X.",
"X.X.o O # o O # + @ 1 3 < < : : < < 1 2 b v l k k 4 3 2 $ 1 1 $ X.X.X.X.X.X.X.X.X.X.X.X.X.X.X.X.X.X.X.X.X.X.X.X.X.X.X.X.X.X.X.X.X.X.X.X.X.X.X.X.X.X.X.X.X.X.X.X.X.X.X.X.X.X.X.",
"X.X.o O o o O o O o + = < < : < < $ 1 1 k .           O = < < - < 3 1 < < X.X.X.X.X.X.X.X.X.X.X.X.X.X.X.X.X.X.X.X.X.X.X.X.X.X.X.X.X.X.X.X.X.X.X.X.X.X.X.X.X.X.X.X.X.X.X.X.X.X.",
"X.X.o o o O o X o O X o @ = 3 < $ $ 1 - : 9 g a 7 + < 3 r i i r r 3 3 3 3 3 3 3 X.X.X.X.X.X.X.2 $ X.X.X.X.X.X.X.X.X.X.X.X.X.X.X.X.X.X.X.X.X.X.X.X.X.X.X.X.X.X.X.X.X.X.X.X.X.X.",
"X.X.  O o O o O O o O o O # 3 < 1 - 1 : F G F v r : < < 0 3 0 3 3 0 r r i w r r r r : < l X.3 < < @ X.X.X.X.X.X.X.X.X.X.X.X.X.X.X.X.X.X.X.X.X.X.X.X.X.X.X.X.X.X.X.X.X.X.X.X.X.",
"X.X.o - @ X O o O o O O o o $ 2 1 2 & j G G F > : < < 3 < 3 r 0 3 3 r r 3 r 0 r : 3 r $ # @ < r 3 1 X X.X.X.X.X.X.X.X.X.X.X.X.X.X.X.X.X.X.X.X.X.X.X.X.X.X.X.X.X.X.X.X.X.X.X.X.",
"X.X.# @ 1 - O X o X O X o O @ 2 < 3 i G G F r < < r 0 < 7 < 3 3 < 3 , 3 r 3 r 3 < : l - 1 o < k r < $ X.X.X.X.X.X.X.X.X.X.X.X.X.X.X.X.X.X.X.X.X.X.X.X.X.X.X.X.X.X.X.X.X.X.X.X.",
"X.X.# O O = 1 @ O O o X O o # < 2 2 u G b t : < 3 0 3 < 3 < < < < : < a r r r a = - a 4 z < < r 4 4 4 X.X.X.X.X.X.X.X.X.X.X.X.X.X.X.X.X.X.X.X.X.X.X.X.X.X.X.X.X.X.X.X.X.X.X.X.",
"X.X.o < @ O @ : - o O o X O # 1 1 < r F g + - < : < < 3 < < : < < < i 3 : 3 a a : & 2 < 2 p 0 4 1 $ $ 2 X.X.X.X.X.X.X.X.X.X.X.X.X.X.X.X.X.X.X.X.X.X.X.X.X.X.X.X.X.X.X.X.X.X.X.",
"X.X.X l < = O # = < @ O . X O 1 < 1 r g i o o @ = < < , < < k i , i < : < e r < 3 < < 1 - 7 < 3 < < < < < X.X.X.X.X.X.X.X.X.X.X.X.X.X.X.X.X.X.X.X.X.X.X.X.X.X.X.X.X.X.X.X.X.X.",
"X.X.o i a b 3 @ O # : < o O O 1 3 1 3 u 3 o O O # @ 1 < 3 < a < < < , < 3 i < < 7 3 a a c k i i k i i k k 5 2 X.X.X.X.X.X.X.X.X.X.X.X.X.X.X.X.X.X.X.X.X.X.X.X.X.X.X.X.X.X.X.X.",
"X.. 1 i h / M c o O - 1 - X X < 3 2 3 > : O o X o + = 3 3 0 3 : : : < < 3 i : < < 3 l z z k 5 5 5 5 2 2 4 < 2 2 X.X.X.X.X.X.X.X.X.X.X.X.X.X.X.X.X.X.X.X.X.X.X.X.X.X.X.X.X.X.X.",
"X.1 @ < M _ ..Y I < . @ @ - @ @ i i r - $ O o O # # o @ - : < < < : : : 3 r < > 3 l k < 1 $ & # + o # # $ # $ $ 1 X.X.X.X.X.X.X.X.X.X.X.X.X.X.X.X.X.X.X.X.X.X.X.X.X.X.X.X.X.X.",
"X.@ $ . 3 M | I ` I < + # + $ - = < 7 < < o O o # + # O o + = - : < < : < < < 3 k r 1 # .   .   X X # # . # $ # # 1 X.X.X.X.X.X.X.X.X.X.X.X.X.X.X.X.X.X.X.X.X.X.X.X.X.X.X.X.X.",
"X.X.X.- . O a Y ) _ I v O X o $ 1 $ = < o . o O O o O o O # + @ $ - < < < : > 5 < $ o . 4 i l c x v v N k . . $ X # # X.X.X.X.X.X.X.X.X.X.X.X.X.X.X.X.X.X.X.X.X.X.X.X.X.X.X.X.",
"X.X.X.X.1 o   i ( U M _ c - X O o - - o . - + X o O o O o o O o + + : < : < < 2 # o . < k x c z v l l b M k   . # X X # X.X.X.X.X.X.X.X.X.X.X.X.X.X.X.X.X.X.X.X.X.X.X.X.X.X.X.",
"X.X.X.X.X.- $   * a M  .} c = . X O $ - @ - < - + X o O X o # O o o # - = < 1 + # . # l v z l l l k k k x c <   X X . X X.X.X.X.X.X.X.X.X.X.X.X.X.X.X.X.X.X.X.X.X.X.X.X.X.X.X.",
"X.X.X.X.X.X.X.1 O   r _  .' < . o X o # O o @ = < - O X O O o O X O O @ $ - $ # X @ $ i k k i 5 r k a 4 c l 5 .   X . . X.X.X.X.X.X.X.X.X.X.X.X.X.X.X.X.X.X.X.X.X.X.X.X.X.X.X.",
"X.X.X.X.X.X.X.X.- $   - M { e O @ X o O o o O @ o a i o O X o O o O o o + $ # O o $ $ 1 1 $ $ $ $ 1 2 1 k k 3 o   . . . X.X.X.X.X.X.X.X.X.X.X.X.X.X.X.X.X.X.X.X.X.X.X.X.X.X.X.",
"X.X.X.X.X.a 1 o o - 1 . . a 3 @ a - O o O O o O o c i 1 = $ . o O o O O # @ # # o X X # # $ # # # $ # $ 3 4 2 o   . . . X.X.X.X.X.X.X.X.X.X.X.X.X.X.X.X.X.X.X.X.X.X.X.X.X.X.X.",
"X.X.X.X.X.< 3 3 1 $ O = +   O # a i 3 = o # o o O : < @ - M c # X o o o @ # $ $ O X # # # $ $ $ $ $ $ $ $ 1 < o   . . . X.X.X.X.X.X.X.X.X.X.X.X.X.X.X.X.X.X.X.X.X.X.X.X.X.X.X.",
"X.X.X.X.X.= 4 3 < @ X X $ $ . . r i v v < o O + o i i o O 1 b b 1 O O O # # # - # # X # $ $ $ $ $ $ $ $ $ $ 2 o   . . . X.X.X.X.X.X.X.X.X.X.X.X.X.X.X.X.X.X.X.X.X.X.X.X.X.X.X.",
"X.X.X.X.X.1 1 < < 5 & o O + 1 o . @ a m c < $ @ o a b O o . . 5 M l o . o # + 1 $ o X # + $ $ $ $ # $ $ $ $ 2 o   . . . X.X.X.X.X.X.X.X.X.X.X.X.X.X.X.X.X.X.X.X.X.X.X.X.X.X.X.",
"X.X.X.X.X.: - = 2 4 < @ . . . - -   # 3 c i v < + r c o O X X X 1 k v 1 . + # 1 @ X X # $ $ $ $ $ $ $ $ $ 1 < o   . . . X.X.X.X.X.X.X.X.X.X.X.X.X.X.X.X.X.X.X.X.X.X.X.X.X.X.X.",
"X.X.X.X.X.< 1 - 2 $ 1 1 .       # $ X . 1 r a v i i v o o X X X . X 1 ^ a X $ 1 # X # # # & $ 1 $ $ $ # @ $ 1 @   . . . X.X.X.X.X.X.X.X.X.X.X.X.X.X.X.X.X.X.X.X.X.X.X.X.X.X.X.",
"X.X.X.X.X.< 1 1 1 @ - 1 .       . . # @ X X 0 v c c L o O X . X X . . - l O @ 1 @ X # # # # $ $ $ $ O $ # # 1 @ . . . . X.X.X.X.X.X.X.X.X.X.X.X.X.X.X.X.X.X.X.X.X.X.X.X.X.X.X.",
"X.X.X.X.X.< $ $ + # #   . .   . . . . X # @ # = k i v & o . . o X X X .   o X 1 $ X # & # $ & $ # $ $ $ $ # 1 =   . . . X.X.X.X.X.X.X.X.X.X.X.X.X.X.X.X.X.X.X.X.X.X.X.X.X.X.X.",
"X.X.X.X.X.1 @ - # o X   . > > > y y y @ @ O @ # . @ - $ o . . X X X . . . # # 1 @ O o $ # # $ # & # # $ $ $ 1 @ . . . . X.X.X.X.X.X.X.X.X.X.X.X.X.X.X.X.X.X.X.X.X.X.X.X.X.X.X.",
"X.X.X.X.X.< $ $ # X X 8 y y S D P K D A y y . o - o 1 + O . . . . X . X . O # 1 $ o # $ # @ # # # $ # # @ $ 1 =     . . X.X.X.X.X.X.X.X.X.X.X.X.X.X.X.X.X.X.X.X.X.X.X.X.X.X.X.",
"X.X.X.X.X.< $ + X . > y f J P P P P T P D Z 8 X X 1 @ . X X   . . . . X   # + 1 @ X O # $ # # # # + # # # $ $ = .   . . X.X.X.X.X.X.X.X.X.X.X.X.X.X.X.X.X.X.X.X.X.X.X.X.X.X.X.",
"X.X.X.X.X.1 @ # X o > S D D P T T T T T T H Z 8 . O @ #   . . . . . . . . o $ 1 $ # O @ $ # # @ # # # # $ # $ = .   . . X.X.X.X.X.X.X.X.X.X.X.X.X.X.X.X.X.X.X.X.X.X.X.X.X.X.X.",
"X.X.X.X.X.- $ o X   > S A H D P P P P P P K D D 8 X X O . . . . .   . . . O # - # o o $ $ $ # # # o # # + $ $ = .   . . X.X.X.X.X.X.X.X.X.X.X.X.X.X.X.X.X.X.X.X.X.X.X.X.X.X.X.",
"X.X.X.X.X.1 + # X   s A f Z H H P P K P P P T H Z X X X o     X . .   .   X # $ $ + # # 1 $ $ # $ # O # # @ # $ .   . . X.X.X.X.X.X.X.X.X.X.X.X.X.X.X.X.X.X.X.X.X.X.X.X.X.X.X.",
"X.X.X.X.X.- # o . > s Z Z C D J P K P P T T T P D 8 . . X O .   . . . .   o & $ $ $ + # # @ + # + o X X . X . X     X . X.X.X.X.X.X.X.X.X.X.X.X.X.X.X.X.X.X.X.X.X.X.X.X.X.X.X.",
"X.X.X.X.X.$ $ o . > s Z y 9 Z D H P P P P P R R R D 8 . X # o O . . . . . X # $ @ O O . . . X . . . X o O X O X X X $ X X.X.X.X.X.X.X.X.X.X.X.X.X.X.X.X.X.X.X.X.X.X.X.X.X.X.X.",
"X.X.X.X.X.# + # . > s s 8 y Z D H J H P P R W E Q R A 8 . O O # o . . . . . # < 1 # @ $ < < 2 3 < 1 < 2 1 $ $ $ # # X . X.X.X.X.X.X.X.X.X.X.X.X.X.X.X.X.X.X.X.X.X.X.X.X.X.X.X.",
"X.X.X.X.X.# X O X > s y y y Z S D D P P W E ~ ~ ~ Q K y   X X O O o . . . O # $ l l i k k k k k 5 3 2 2 1 $ @ # X X . . X.X.X.X.X.X.X.X.X.X.X.X.X.X.X.X.X.X.X.X.X.X.X.X.X.X.X.",
"X.X.X.X.X.o o . ; ; s s y 8 Z S H H J P W ~ ~ [ ] [ W K 8 . X X X O O O X o $ $ 1 1 1 1 - $ $ @ # # # X O . .   . o X.X.X.X.X.X.X.X.X.X.X.X.X.X.X.X.X.X.X.X.X.X.X.X.X.X.X.X.X.",
"X.X.X.X.X.X . X > s s y 8 y d C D D H P ! [ [ [ [ ~ E R D o . X X o X o X X X o X X X . . . .                   = ; ; X.X.X.X.X.X.X.X.X.X.X.X.X.X.X.X.X.X.X.X.X.X.X.X.X.X.X.X.",
"X.X.X.X.X.$ X . > s y y 8 y d Z H D D P E [ [ ~ ~ ! Q R K J . . . . O X O O                                     ; 8 8 X.X.X.X.X.X.X.X.X.X.X.X.X.X.X.X.X.X.X.X.X.X.X.X.X.X.X.X.",
"X.X.X.X.X.- o . > s y 8 9 8 d A D H H T W ! [ ~ ~ ! Q W R P Z     . . X X o                                     = 8 8 % X.X.X.X.X.X.X.X.X.X.X.X.X.X.X.X.X.X.X.X.X.X.X.X.X.X.X.",
"X.X.X.X.X.$ # o ; s y y 8 % y s S S S K T W [ [ ~ ! E W W R P A       . . X                                     . ; > @ X.X.X.X.X.X.X.X.X.X.X.X.X.X.X.X.X.X.X.X.X.X.X.X.X.X.X.",
"X.X.X.X.X.$ - # o > s y > > y d C D S D K T ! [ ~ ! Q W W W R P J                                                 o = % @ X.X.X.X.X.X.X.X.X.X.X.X.X.X.X.X.X.X.X.X.X.X.X.X.X.X.",
"X.X.X.X.X.@ # # o > > % > % 6 9 s Z S S S P W ~ Q W R R R R R T T J @                             . . . . .         @ % = X.X.X.X.X.X.X.X.X.X.X.X.X.X.X.X.X.X.X.X.X.X.X.X.X.X.",
"X.X.X.X.X.$ o # $ o > > % > = q d f S S S K P Q W T T T P P P T T K K y             # 1 1 1 $ $ @ $ O o . . .       @ ; = ; X.X.X.X.X.X.X.X.X.X.X.X.X.X.X.X.X.X.X.X.X.X.X.X.X.",
"X.X.X.X.X.$ # + # @   > > > ; q 9 s f C S H K E W P P K P K P P J K K K A y           . X X . . .                   % 8 8 ; X.X.X.X.X.X.X.X.X.X.X.X.X.X.X.X.X.X.X.X.X.X.X.X.X.",
"X.X.X.X.X.# @ # X X X X X . 8 q 9 s Z Z Z S D R R P J K P H J K J H D D K K Z y   . .                           . @ 6 s 9 : ; X.X.X.X.X.X.X.X.X.X.X.X.X.X.X.X.X.X.X.X.X.X.X.X.",
"X.X.X.X.X.O # # X X . . o o o o ; s d A A S D P P P J J S P K P T R P J D D H J A Z y y             .     . . o % > s s 8 8 ; X.X.X.X.X.X.X.X.X.X.X.X.X.X.X.X.X.X.X.X.X.X.X.X.",
"X.X.X.X.X.  X o X . > o o @ @ o : 9 d f Z Z S T T P J J P P T W W W W R P D D J J J J J A A f Z A A f y 8 6 8 y y s s 8 9 9 9 X.X.X.X.X.X.X.X.X.X.X.X.X.X.X.X.X.X.X.X.X.X.X.X.",
"X.X.X.X.X.X.X . X > 8 > ; : @ o ; q s d d Z S K P J S P P R R W W W W T P H H S S S D D D S D S Z f Z Z d f d d d d 8 9 8 9 8 ; X.X.X.X.X.X.X.X.X.X.X.X.X.X.X.X.X.X.X.X.X.X.X.",
"X.X.X.X.X.X.X.  . > 8 7 8 ; @ o @ 9 9 s s d C D D J D K P W W Q E Q E W P P P S S P P J S D D D A Z f Z d d s s 9 8 9 8 d 8 9 ; X.X.X.X.X.X.X.X.X.X.X.X.X.X.X.X.X.X.X.X.X.X.X.",
"X.X.X.X.X.X.X.X.. > 8 8 > ; @ o : > 8 y y d d Z f f S S P W T P J H D Z A C S S D S S C S S S S f S D f Z y y s s s d s d s 9 ; X.X.X.X.X.X.X.X.X.X.X.X.X.X.X.X.X.X.X.X.X.X.X.",
"X.X.X.X.X.X.X.X.X.; 7 > ; @ @ o @ > > 8 6 9 s d d f f Z H D S Z f J J J P P P C A C H T R W P P D D Z S D S d s s f Z A Z d s 9 ; X.X.X.X.X.X.X.X.X.X.X.X.X.X.X.X.X.X.X.X.X.X.",
"X.X.X.X.X.X.X.X.X.: ; ; @ @ @ o o @ ; > > 6 y y s s y > 8 8 y y S P P P S S S H D P R W P P J J J J D D f f D S A A S S A Z s 8 > ; X.X.X.X.X.X.X.X.X.X.X.X.X.X.X.X.X.X.X.X.X.",
"X.X.X.X.X.X.X.X.X.X.; o O @ @ o   o @ ; ; ; 8 8 8 y > 8 ; % y D P S S f f Z A P P K P S Z Z C S S S S H D H d Z S S D S H C A 8 8 ; X.X.X.X.X.X.X.X.X.X.X.X.X.X.X.X.X.X.X.X.X.",
"X.X.X.X.X.X.X.X.X.X.    @ o o o .   @ = = ; > 8 9 8 ; ; > d S f s d y C P P J H H Z Z d Z S S S H S S S S D Z d Z S D H D J Z 8 > ; X.X.X.X.X.X.X.X.X.X.X.X.X.X.X.X.X.X.X.X.X.",
"X.X.X.X.X.X.X.X.X.X.  . @ o o o .   @ = = = ; ; > ; ; > > d S f y y S P K P H D H A C H P E ! W E W R P P H C d f S D D Z S H y > ; X.X.X.X.X.X.X.X.X.X.X.X.X.X.X.X.X.X.X.X.X.",
"X.X.X.X.X.X.X.X.X.X.X.X.o o o o   . o @ @ = = ; ; ; y > 8 f d y y H D P D D C D D P ! ! R P D Z s A S P W R P H d Z Z C A Z S y > : @ X.X.X.X.X.X.X.X.X.X.X.X.X.X.X.X.X.X.X.X.",
"X.X.X.X.X.X.X.X.X.X.X.X.X.o o o . .       o @ @ : > ; y 8 % y Z Z S S S Z Z S S S s d d d d A Z A S S Z f d f S P K S f Z s 8 y 8 @ @ X.X.X.X.X.X.X.X.X.X.X.X.X.X.X.X.X.X.X.X.",
"X.X.X.X.X.X.X.X.X.X.X.X.X.X.X..   . . . . o . @ ; > ; o > s s Z C f d s D D d Z Z A R E R P P P W ~ ~ W P S f f S S S S S f f 8 8 @ @ X.X.X.X.X.X.X.X.X.X.X.X.X.X.X.X.X.X.X.X.",
"X.X.X.X.X.X.X.X.X.X.X.X.X.X.X.. .   .       o @ > ; o ; s Z d y q y S S d y S R E R A d d d d S S P W ~ ~ R R P J J S S Z Z H Z 8 > @ @ X.X.X.X.X.X.X.X.X.X.X.X.X.X.X.X.X.X.X.",
"X.X.X.X.X.X.X.X.X.X.X.X.X.X.X..   .   . . .   @ =   ; y d 9 ; 9 Z Z d y S S S A Z d y 8 y D R T W ~ ~ R P S Z Z Z C Z f y f Z H D Z f 9 @ X.X.X.X.X.X.X.X.X.X.X.X.X.X.X.X.X.X.",
"X.X.X.X.X.X.X.X.X.X.X.X.X.X.X.  .   . .   .   .   @ 8 y 8 @ 9 y y Z S Z d d f 8 8 y d P W T P S S f y y 8 8 9 8 f A D D H P T D A d y 8 ; 9 @ X.X.X.X.X.X.X.X.X.X.X.X.X.X.X.X.",
"X.X.X.X.X.X.X.X.X.X.X.X.X.X.X..   .   . .   .   @ @ 8 8 ; > y y f Z C d y y 6 f S K P S S S s y y s Z D P W E ! R P P K J J H C d y y 8 ; 8 9 @ X.X.X.X.X.X.X.X.X.X.X.X.X.X.X.",
"X.X.X.X.X.X.X.X.X.X.X.X.X.X.X.X..   .   . . . . @ @ 8 7 ; > y Z S A s y y S K K K P S s y s y y s Z D P R ! ! R P D S S f d d f d s s > ; = = @ X.X.X.X.X.X.X.X.X.X.X.X.X.X.X.",
"X.X.X.X.X.X.X.X.X.X.X.X.X.X.X.X.X.X.  . .   .   o : ; : % 8 f H A d y d S K S S S f s y > d Z D P R Q E W P S A d d f d 8 8 6 8 6 ; ; ; ; @ @ @ @ X.X.X.X.X.X.X.X.X.X.X.X.X.X.",
"X.X.X.X.X.X.X.X.X.X.X.X.X.X.X.X.X.X.. .   .   .   @ @   > y S J S y S K K S f y y > ; d Z H P ! E W P D f y 9 8 9 8 d d f d Z S S d d y y 8 > @ @ X.X.X.X.X.X.X.X.X.X.X.X.X.X.",
"X.X.X.X.X.X.X.X.X.X.X.X.X.X.X.X.X.X..   .   .   . .   @ 8 s K P S S P K C Z y ; > d A S K P P S Z 8 ; 8 S D D S H Z Z C H Z P W P S S D S f y @ @ X.X.X.X.X.X.X.X.X.X.X.X.X.X.",
"X.X.X.X.X.X.X.X.X.X.X.X.X.X.X.X.X.X.. .   .   .   . . @ 8 s S P P P C y y ; y f D K P P P S s ; ; 9 Z S S J P R P H H D H d K T T D S A S J d y > X.X.X.X.X.X.X.X.X.X.X.X.X.X.",
"X.X.X.X.X.X.X.X.X.X.X.X.X.X.X.X.X.X.X.  .   .   . .   @ > s S J H A 0 ; , d D K K P P S d 8 ; 8 y S S S K J R E R R D D H d K R K S S Z K K Z K y X.X.X.X.X.X.X.X.X.X.X.X.X.X.",
"X.X.X.X.X.X.X.X.X.X.X.X.X.X.X.X.X.X.X.X.X..   . .   . @ 8 s d S f 6 > y s H T K J S d 9 % ; 8 y s Z D D S K W P T P P K S S T H H S D S E S S Q S y 8 X.X.X.X.X.X.X.X.X.X.X.X.",
"X.X.X.X.X.X.X.X.X.X.X.X.X.X.X.X.X.X.X.X.X.X.X.o   .   @ 8 s d Z s ; s H H T H Z f V 9 % ; 8 y s f H P C S P W T Q R J J S K E Z D C A D R P P S D f y 8 X.X.X.X.X.X.X.X.X.X.X.",
"X.X.X.X.X.X.X.X.X.X.X.X.X.X.X.X.X.X.X.X.X.X.X.X .   . @ 8 s d 9 ; 9 D J R H f s d 8 % # 8 y s f S K J S S P R W E W K S P K P f Z R R H T S P P P H s d y X.X.X.X.X.X.X.X.X.X.",
"X.X.X.X.X.X.X.X.X.X.X.X.X.X.X.X.X.X.X.X.X.X.X.X.  . .   > 9 8 ; ; s P D H f 9 8 > = # > 8 y s f S S J Z S J R R W R P P P Q R S H Q Q R Q E Q R P W K D f y X.X.X.X.X.X.X.X.X.",
"X.X.X.X.X.X.X.X.X.X.X.X.X.X.X.X.X.X.X.X.X.X.X.X..   .   @ ; % ; > D S Z C 8 9 % % # # 6 y y y f f S S f Z S Q R W P E P T Q Q D P ] ] R R Q W P W W W P R S s y X.X.X.X.X.X.X.",
"X.X.X.X.X.X.X.X.X.X.X.X.X.X.X.X.X.X.X.X.X.X.X.X.X..   .   @ @ @ 9 Z Z s s , ;   . # = > s y y f d f J S S P W E Q R T R T R W H T [ [ R W W J P Q R P R T T S f y X.X.X.X.X.X.",
"X.X.X.X.X.X.X.X.X.X.X.X.X.X.X.X.X.X.X.X.X.X.X.X.X.X.. . . @ @ @ s Z s y y > % .   # = > y s y s s Z J S S P T R ! T J J W ~ R Q Q Q J R W T W R P E W H J P P D Z y y X.X.X.X.",
"X.X.X.X.X.X.X.X.X.X.X.X.X.X.X.X.X.X.X.X.X.X.X.X.X.X.X.X.X.. @ % 8 y y 8 8 > o . = o % 8 y s s s s d D S C P R R W H J J Q Q E R R H S J P E J R ! R W W R P J P J Z f y X.X.X.",
"X.X.X.X.X.X.X.X.X.X.X.X.X.X.X.X.X.X.X.X.X.X.X.X.X.X.X.X.X.X.. @ > 8 8 > > = o   = o o > s d s s s Z D Z S J R Q R P S H W Q ! T P f P P P ! R W Q Q R R W K P P H J Z S y X.X.",
"X.X.X.X.X.X.X.X.X.X.X.X.X.X.X.X.X.X.X.X.X.X.X.X.X.X.X.X.X.X.X.= ; > 8 > > @ o = = @ o o 9 d d s s f S S S J K R W P S D R W R J P S f D P W Q W W W W E Q W W R W D W S S A X.",
"X.X.X.X.X.X.X.X.X.X.X.X.X.X.X.X.X.X.X.X.X.X.X.X.X.X.X.X.X.X.X.  = ; 8 > > @ o o = @ @ o @ 9 s s 8 f d D H S P R W D f S R W H R P ] A J W E W P W E Q R T J E P P T W H J f A "
};
