/* XPM */
static char *Recoil3[] = {
/* columns rows colors chars-per-pixel */
"87 93 90 1 ",
"  c black",
". c #070707",
"X c #0B0B0B",
"o c #170F07",
"O c #0B1707",
"+ c #171F07",
"@ c #1F170B",
"# c #131313",
"$ c #1B1B1B",
"% c #2F1B0B",
"& c #13230B",
"* c #2B230F",
"= c #232B0F",
"- c #372313",
"; c #332B13",
": c #3F2F17",
"> c #3F2B1B",
", c #2F371F",
"< c #232323",
"1 c #2F2F2F",
"2 c #373F27",
"3 c #373737",
"4 c gray23",
"5 c #432F1B",
"6 c #43331B",
"7 c #4B371B",
"8 c #533F1F",
"9 c #473323",
"0 c #4F3B23",
"q c #4F3B2B",
"w c #533F2F",
"e c #1F4317",
"r c #3F472B",
"t c #5F4323",
"y c #5B472B",
"u c #474F33",
"i c #574333",
"p c #53573B",
"a c #6B4727",
"s c #774F2B",
"d c #7F532F",
"f c #675333",
"g c #67533F",
"h c #775F3F",
"j c #434343",
"k c #4B4B4B",
"l c gray34",
"z c #5B5B5B",
"x c #5B6347",
"c c #676B4F",
"v c #6F7357",
"b c gray39",
"n c gray42",
"m c #7B7F63",
"M c #777777",
"N c #874307",
"B c #9B5B13",
"V c #875733",
"C c #8F5F37",
"Z c #9B633B",
"A c #A36B3F",
"S c #836B4B",
"D c #8F7753",
"F c #AB6F43",
"G c #B37347",
"H c #BF7B4B",
"J c #9B7F6B",
"K c #CB7F4F",
"L c #A78F77",
"P c #AF977F",
"I c #CF8353",
"U c #D78B5B",
"Y c #FFA35B",
"T c #DF9363",
"R c #E79B6B",
"E c #EFA373",
"W c #F7AB7B",
"Q c #838383",
"! c #939393",
"~ c #BFA78F",
"^ c gray70",
"/ c gray75",
"( c #FFB383",
") c #FFBB93",
"_ c #FFCFB3",
"` c #CBCBCB",
"' c LightGray",
"] c #FFDBC7",
"[ c #FFFFD7",
"{ c None",
/* pixels */
"{{{{{{{{{{{{{{{{{{{{{{{{{{{{{{{{{{{{{{{{{{{{{{{{{{{{{{{{{{{{{{{{{{{{{{{{{{{{{{{{{{{{{{{",
"{{{{{{{{{{{{{{{{{{{{{{{{{{{{{{{{{{{{{{{{{{{{{{{{{{{{{{{{{{{{{{{{{{{{{{{{{{{{{{{{{{{{{{{",
"{{{{{{{{{{{{{{{{{{{{{{{{{{{{{{{{{{{{{{{{{{{{{{{{{{{{{{{{{{{{{{{{{{{{{{{{{{{{{{{{{{{{{{{",
"{{{{{{{{{{{{{<{{{{{{{{{{{{{{{{{{{{{{{{{{{{{{{{{{{{{{{{{{{{{{{{{{{{{{{{{{{{{{{{{{{{{{{{{",
"{{{...o{{{{{{1{{{{{{{{{{{{{{{{{{{{{{{{{{{{{{{{{{{{{{{{{{{{{{{{{{{{{{{{{{{{{{{{{{{{{{{{{",
"{{6yyr:**{{{u<{{{{{{{{{{{{{{{{{{{{{{{{{{{{{{{{{{{{{{{{{{{{{{{{{{{{{{{{{{{{{{{{{{{{{{{{{",
"{6Svhffuu2,2u,2r2,{{{{{{{{{{{{{{{{{{{{{{{{{{{{{{{{{{{{{{{{{{{{{{{{{{{{{{{{{{{{{{{{{{{{{",
"{SDDDDvhr,9,2,,;,;,<={{{{{{{{{{{{{{{{{{{{{{{{{{{{{{{{{{{{{{{{{{{{{{{{{{{{{{{{{{{{{{{{{{",
"rhDDDDDr,,,;,,,,,,,,2,<{{{{{{{{{{{{{{{{{{{{{{{{{{{{{{{{{{{{{{{{{{{{{{{{{{{{{{{{{{{{{{{{",
",fcDDDr22,;,,,>29269,:,,,{{{{{{{{{{{{{{{{{{{{{{{{{{{{{{{{{{{{{{{{{{{{{{{{{{{{{{{{{{{{{{",
"{rfSDr=;2ir,,;,222,,,,;**;=={{{{{{{{{{{{{{{{{{{{{{{{{{{{{{{{{{{{{{{{{{{{{{{{{{{{{{{{{{{",
"{;uhc==,,2rq2,:,;=*,;,,,,,,;<,{{{{{{{{{{{{{{{{{{{{{{{{{{{{{{{{{{{{{{{{{{{{{{{{{{{{{{{{{",
"{=;ufO@@;,;,62r;=*=,,29,,,,;<,13{{{{{{{{{{{{{{{{{{{{{{{{{{{{{{{{{{{{{{{{{{{{{{{{{{{{{{{",
"{{=:roOO$=<;,,r4=,;,;2rkpxkxxkxj<{{{{{{{{{{{{{{{{{{{{{{{{{{{{{{{{{{{{{{{{{{{{{{{{{{{{{{",
"{{{==OoOo@$*;;22;=,;,11cmMMmnmn2$<{{{{{{{{{{{{{{{{{{{{{{{{{{{{{{{{{{{{{{{{{{{{{{{{{{{{{",
"{{{{{oOo#Oo+$=2,;,;,,<<xnxjj433$$<${{{{{{{{{{{{{{{{{{{{{{{{{{{{{{{{{{{{{{{{{{{{{{{{{{{{",
"{{:2*oOoOoOoo@*,2,;,<=<k$ .   .=<,=,,1;,,{{{{{{{{{{{{{{{{{{{{{{{{{{{{{{{{{{{{{{{{{{{{{{",
"{{DSfoOoooXOOXO@*,2$$<<,:,o  @,ruurrr222222{{{{{{{2<{{{{{{{{{{{{{{{{{{{{{{{{{{{{{{{{{{{",
"{,SDS..oOOOooOooO<2<=<=y,  @,,,2r92r22ruqrrrr,<p{2,,${{{{{{{{{{{{{{{{{{{{{{{{{{{{{{{{{{",
"{{uSDO=$OooOOXOoO@1<1=7u  @,,,2:,2r29rrrrrq,,u*$o,3r<o{{{{{{{{{{{{{{{{{{{{{{{{{{{{{{{{{",
"{{Oph&@=*OXoOoXo#+,11,f@ +2,2r,,92,,2,6r222,*j<<o=rj,${{{{{{{{{{{{{{{{{{{{{{{{{{{{{{{{{",
"{{{;u$Oo$;=XoOOXOo<,122 .,,629,2,,1,,,uwrru2@urk2<rr44{{{{{{{{{{{{{{{{{{{{{{{{{{{{{{{{{",
"{{{{O*$=O@<=@OoOXO<<<2@ *=;,,,2,,,;,;wr,,pg,@,11uq31$$<{{{{{{{{{{{{{{{{{{{{{{{{{{{{{{{{",
"{    .2r<oO@,*O.XO<2<2. +X@$,,;,,2p,r2;,ru22,,,*;2,2,,,,{{{{{{{{{{{{{{{{{{{{{{{{{{{{{{{",
"{<   X2pvr=o#=,@.O$211  oOOo@<,2;p2;,,,,u9;,2ipkpjuuju4j41{{{{{{{{{{{{{{{{{{{{{{{{{{{{{",
"{@<. <2pQmc+X@;,oO$2,2. +oXOO*,r,r,,;,,,u2,:,plxjr444323211{{{{{{{{{{{{{{{{{{{{{{{{{{{{",
"{{{$O$@mL[^LrOO$=@@riu= #oOo#o#*;;,,;;;,w,>,uk1<<$$@###$$#<<{{{{{{{{{{{{{{{{{{{{{{{{{{{",
"{{{{<@ ,m`~P~2@oO$=$,,,>+Oo#+oOo+<=;,,,;,,,uj<$X.  .OX..X$##${{{{{{{{{{{{{{{{{{{{{{{{{{",
"{{{{{=< O8P!/mLOoO@<=*,<.oOoOoOOo@@$*,,,;,r3<@.<r4r4kp3  X##X${{{{{{{{{{{{{{{{{{{{{{{{{",
"{{{{{{{<O eL~c/h,XOO$<+ ++XO#oXoOoOo+*;,;,2$#.=34jk3xkjo  .#XX#{{{{{{{{{{{{{{{{{{{{{{{{",
"{{{{{{{{=< Oxx_`m;.Xo+*$@,=@oOoOo#oOo@$*,<$o.#$#$$<<jj4@   XX..{{{{{{{{{{{{{{{{{{{{{{{{",
"{{{{{p<o#=<O =~['x.OXO#oo@;,$OXXOoOoOO@+<@#OX@#$#$$#24r@    XX.X{{{{{{{{{{{{{{{{{{{{{{{",
"{{{{{,22<$O*$ Ov]m.@OoOoOOoo2p+XOoOXoo#o$&#o#$$$$$$<$<3@     ...{{{{{{{{{{{{{{{{{{{{{{{",
"{{{{{<32,@XX$=. 2xOu<OoOoO#Orc;=$.oOOOoO@##O$$<$$$$$$$3@     ...{{{{{{{{{{{{{{{{{{{{{{{",
"{{{{{<*,24$oOo<@ Xo4u2=o#ooo$,=$xv$XooO@#$@##&$$$#$#$<2@     ...{{{{{{{{{{{{{{{{{{{{{{{",
"{{{{{;$*1,,@...==. ,ugb2@X+O;p@o$cm,XOo##O$$$$$$$$$$$<1@     X..{{{{{{{{{{{{{{{{{{{{{{{",
"{{{{{,<=3$,<.   #@# #2vc2=oo,J&#..1mz#.O##<$+#=$$$+$#$1*     ...{{{{{{{{{{{{{{{{{{{{{{{",
"{{{{{,<=<@$$.   ..#@X.1xuxr@=v+oXXX<jx2 #@=<##$$$$##$#<*    ....{{{{{{{{{{{{{{{{{{{{{{{",
"{{{{{;$$+## X....X..#@+<rgcp,m@OXXX.O<nv.#<$#$$#$&$$$#1;. .  ...{{{{{{{{{{{{{{{{{{{{{{{",
"{{{{{<$@#oX .:::ttt@@O@@o2cvrL=oX.XX..#c$#<<##+#$##$@$,* .  .X..{{{{{{{{{{{{{{{{{{{{{{{",
"{{{{{,$$#.X7ttZAKHACtt.O$o=pum,X..oXXX..Oo=<######&#$$<;. .  ...{{{{{{{{{{{{{{{{{{{{{{{",
"{{{{{,$+X.:tdGKKKIIKAV7XX<@.@==o..XXXX.XX#$<###+####$$<;.. .....{{{{{{{{{{{{{{{{{{{{{{{",
"{{{{{=$@Xo:ZAAKIIIIIIFV7.X+# <<#O...X.X.X#=<$@#$####@#<;.  . ...{{{{{{{{{{{{{{{{{{{{{{{",
"{{{{{<@#X :ZCFAKKKKKKHAA7XXX  ..X.....X.X#$<$$##@O#@#$<,X .. ...{{{{{{{{{{{{{{{{{{{{{{{",
"{{{{{<#OX aCdVFFKKHKKKIFVXXOo.  . ......O#=<<$@#$#X#+$**X .. ...{{{{{{{{{{{{{{{{{{{{{{{",
"{{{{{=#o.:aVVBAGKHKKIIIKA7..XO.  X.......$$$o&oOoXO....O....  ..{{{{{{{{{{{{{{{{{{{{{{{",
"{{{{{$$#.:aVt8VAFKKKKKUUUA7..#oX  X.. . .+$O            ...  ...{{{{{{{{{{{{{{{{{{{{{{{",
"{{{{{#+o.:aa7tVAFGFKKUTYRUV7.OO@O  .. ...@$o     .. ......   ...{{{{{{{{{{{{{{{{{{{{{{{",
"{{{{{#XOX:atttVZAAKKTYWWWRHt XXoo#.......#@#   ........O.XX..#X.{{{{{{{{{{{{{{{{{{{{{{{",
"{{{{{oo.--aat7VZFFGKTWW))(RH7.XOXOoO.... &$<@O@<,,,<$=$$@#$$##X.{{{{{{{{{{{{{{{{{{{{{{{",
"{{{{{O.X:aat7tsBAAFKE))))WYUAo.XXoXoXO..O#$jxjjujjj42<<$$##XXX..{{{{{{{{{{{{{{{{{{{{{{{",
"{{{{{$X.:att7tsVFAAKY))WWERUHG....OOXo  X#$<<<1<<$$@##XX...  {{{{{{{{{{{{{{{{{{{{{{{{{{",
"{{{{{=#.:at787sCAFFITE)WWERTUKV  ..XXO   .#OXoX.X..     o@:*{{{{{{{{{{{{{{{{{{{{{{{{{{{",
"{{{{{$@o-att7%taZZZHIT))WEYTTIKC    .X                  o::@{{{{{{{{{{{{{{{{{{{{{{{{{{{",
"{{{{{@$#o:at::tsBAZAHIE)WERTTTUKG .                      o%%@{{{{{{{{{{{{{{{{{{{{{{{{{{",
"{{{{{#+#o::%:%58aVZZZKTWRTUUUUUIIG@             ......    @**{{{{{{{{{{{{{{{{{{{{{{{{{{",
"{{{{{$##$o::%:*0sdZZZHKRTIIIKKKIIHHt      #<<<$$@##X...   @-*-{{{{{{{{{{{{{{{{{{{{{{{{{",
"{{{{{$#o@# :::-08adBZFHYTKKHKHKKGHHHCt     ..X.. .        %77-{{{{{{{{{{{{{{{{{{{{{{{{{",
"{{{{{$+#XXXXX.708aVVVZAUUKGHKFGHGAAAHHVt. .             .@5a8;-{{{{{{{{{{{{{{{{{{{{{{{{",
"{{{{{X##OX..oooo-asCCZAKKKGGZKHKUUKGAAFGVCtt      .  ..o%:aa77-{{{{{{{{{{{{{{{{{{{{{{{{",
"{{{{{{OXXX:oo@@o;8sdVVZIIKGGKKITTTTUKAAGGGGGCCVdZCdt757ttaa7888{{{{{{{{{{{{{{{{{{{{{{{{",
"{{{{{{X.X:7:-;@o-0assVZHKGZKKUUTTTTIKFFZZZAAAZZZVdVVsdssss78787-{{{{{{{{{{{{{{{{{{{{{{{",
"{{{{{{{ .:767-@o@88aasBAAGAHKTTRYRYTKKKAZKKGAZFFCddVssaa8787s78-{{{{{{{{{{{{{{{{{{{{{{{",
"{{{{{{{{.:77:-@o;:7ttssVddZZKTIKGFAVCBZZZZZBZZZZdZAVdttaaasasa8-{{{{{{{{{{{{{{{{{{{{{{{",
"{{{{{{{{{-6:-@@o@::758assddVFAZVdGGGKKKVBCFIUTKHAFdZAZsaadVCVsa8-{{{{{{{{{{{{{{{{{{{{{{",
"{{{{{{{{{;--@@@oo@-::5ttaat:77ttZKKKZZZFAKUTKKGGGGFAddAZCCZZCVa7:-{{{{{{{{{{{{{{{{{{{{{",
"{{{{{{{{{{-oO@@o o@---777t:7-%tAKZZddVCIKHKZVVBZZZZFAFsVZZAZFBC77-{{{{{{{{{{{{{{{{{{{{{",
"{{{{{{{{{{  @ooo. @**-:787--:sZdastBKKGAFBVsVZZZFZZZZAVsVZAFAGV7:-{{{{{{{{{{{{{{{{{{{{{",
"{{{{{{{{{{ .@ooo. @***--:--::sZdttZKHKGAFVCFKYETYTUKKFBsdZAAVZFt:-{{{{{{{{{{{{{{{{{{{{{",
"{{{{{{{{{{{{oooo .o@@**---t:7dsttFAKAABAAKEYIKAVaCZKTUKFsVVBCVZt:;@{{{{{{{{{{{{{{{{{{{{",
"{{{{{{{{{{{{{ooo..   o@@;:-t7%tVVZZZVVZZZasssdVCCZZVdsdZKHZdVa7t7@@{{{{{{{{{{{{{{{{{{{{",
"{{{{{{{{{{{{{{{. ....o.@-:-o:aaVBdsaAAsVVCUEUKKKUWWTKZddZZZZZdd77@@{{{{{{{{{{{{{{{{{{{{",
"{{{{{{{{{{{{{{{.. .   o@:-o-aVst0tZZstZUYUCdsssZZKTWWUUKGGZZVVFV7:@@{{{{{{{{{{{{{{{{{{{",
"{{{{{{{{{{{{{{{. . ... @* -ts8-8VVstZZZCVst7tAUITWWUKZVVVBVdtdVFAVd8@{{{{{{{{{{{{{{{{{{",
"{{{{{{{{{{{{{{{ . .. . . @7t7@8ttVZVsds77tsHTIKZZdtt7787dCAAFKIACst7-8@{{{{{{{{{{{{{{{{",
"{{{{{{{{{{{{{{{. . .. . @@77-:ttdVBstt7dZHKZZZattaVAKTYEUKKHGGFBstt7-78@{{{{{{{{{{{{{{{",
"{{{{{{{{{{{{{{{{. . ....@@76-:tVZCattZHHHKBatattaVAKUEEUKAZZdssdsaa:-**@{{{{{{{{{{{{{{{",
"{{{{{{{{{{{{{{{{{{ .. . o;-;%7dFCstsZHZZZdat-dVAKURYTKZCssds77575----@@@@{{{{{{{{{{{{{{",
"{{{{{{{{{{{{{{{{{{.. . . @@ :tZGZtZHHZdtt::sCAKEYTKAdt8787ssdsVZZsstt7:@@{{{{{{{{{{{{{{",
"{{{{{{{{{{{{{{{{{{. . . .. @7aHKZZKHBVt-:sVZHKKZV7-7ZAAZFVVBFVKTKZZAZdt@@{{{{{{{{{{{{{{",
"{{{{{{{{{{{{{{{{{{.. . . ..@7aZKKKBtt-tdAHIKKZa--8VZZGKUKFFAFsHIIAZCZGst:{{{{{{{{{{{{{{",
"{{{{{{{{{{{{{{{{{{{ . . .. @:aZGFC9->sAHHKKZs7-7tZZZHGUYUUAAFsHUHZZVHHVHt{{{{{{{{{{{{{{",
"{{{{{{{{{{{{{{{{{{{{{. .. .@7asZd5:taFIHGZs8%-7taVAAZHTKIKKHZZIFFZAZYZZRZt7{{{{{{{{{{{{",
"{{{{{{{{{{{{{{{{{{{{{{{o . @7asVa-aFFIFVdN8%-7tadFKBZKTIRUGGZHYVABCAUKKZAdt7{{{{{{{{{{{",
"{{{{{{{{{{{{{{{{{{{{{{{X. .@7as8-8AGUFdas7%#7tadZHGZZKUTYTHZKHKdVUUFIZKKKFast{{{{{{{{{{",
"{{{{{{{{{{{{{{{{{{{{{{{{ .. :87--aKAFd87:*#:7tadZZGVZGUUTUKKKRUZFRRURYRUKTHAdt{{{{{{{{{",
"{{{{{{{{{{{{{{{{{{{{{{{{. . @-%-:AZVB78%%##5tttddZZdVZRUTKYKIRRAK((UURTKTTTKUZat{{{{{{{",
"{{{{{{{{{{{{{{{{{{{{{{{{{. . @@@8VVaa>- .#*:attdsdGZZKTYRUIUIUTFI))UTTGKRUKUIIZdt{{{{{{",
"{{{{{{{{{{{{{{{{{{{{{{{{{{...@@@aVatt:%. #*:tataaVGZZKIUEIGGTWURRRGUTITUKYTFGKKAVtt{{{{",
"{{{{{{{{{{{{{{{{{{{{{{{{{{{{{.@%7tt77:o.*o%7taaaasAZBKUUTFGGRRYUUFZGKYGUEUTTUKGKGVdt{{{",
"{{{{{{{{{{{{{{{{{{{{{{{{{{{{{{.@:77::*o *oo:asaaaVAVZGURUKZFTREIKdKKKEUTRRUUTHKKFGVZt{{",
"{{{{{{{{{{{{{{{{{{{{{{{{{{{{{{{*-:7::@o**@oo8ssaadZZZGHUTKZAUTUGKZdAKTRTTTTYRTTUTATZZC{",
"{{{{{{{{{{{{{{{{{{{{{{{{{{{{{{{ *-7::@oo*@@o@8aa7dsAFZKUTAdZUTFUK(CGTYTKTYRUIGYKKITFGdC"
};
