/* XPM */
static char *Recoil2[] = {
/* columns rows colors chars-per-pixel */
"87 93 90 1 ",
"  c black",
". c #070707",
"X c #0B0B0B",
"o c #170F07",
"O c #0B1707",
"+ c #171F07",
"@ c #1F170B",
"# c #131313",
"$ c #1B1B1B",
"% c #2F1B0B",
"& c #13230B",
"* c #2B230F",
"= c #232B0F",
"- c #372313",
"; c #332B13",
": c #3F2F17",
"> c #3F2B1B",
", c #2F371F",
"< c #232323",
"1 c #2F2F2F",
"2 c #373F27",
"3 c #373737",
"4 c gray23",
"5 c #432F1B",
"6 c #43331B",
"7 c #4B371B",
"8 c #533F1F",
"9 c #473323",
"0 c #4F3B23",
"q c #4F3B2B",
"w c #533F2F",
"e c #3F472B",
"r c #2F6323",
"t c #5F4323",
"y c #5B472B",
"u c #474F33",
"i c #574333",
"p c #53573B",
"a c #6B4727",
"s c #774F2B",
"d c #7F532F",
"f c #675333",
"g c #775F3F",
"h c #434343",
"j c #4B4B4B",
"k c gray34",
"l c #5B5B5B",
"z c #5B6347",
"x c #676B4F",
"c c #6F7357",
"v c gray39",
"b c gray42",
"n c #7B7F63",
"m c #777777",
"M c #874307",
"N c #9B5B13",
"B c #875733",
"V c #8F5F37",
"C c #9B633B",
"Z c #A36B3F",
"A c #836B4B",
"S c #8F7753",
"D c #AB6F43",
"F c #B37347",
"G c #BF7B4B",
"H c #937B63",
"J c #CB7F4F",
"K c #9F8363",
"L c #9F876F",
"P c #A78F77",
"I c #AF977F",
"U c #CF8353",
"Y c #D78B5B",
"T c #FFA35B",
"R c #DF9363",
"E c #E79B6B",
"W c #EFA373",
"Q c #F7AB7B",
"! c #838383",
"~ c #939393",
"^ c #BFA78F",
"/ c gray70",
"( c #FFB383",
") c #FFBB93",
"_ c #FFFFB3",
"` c LightGray",
"' c gray86",
"] c #FFE3D3",
"[ c #FFFFD7",
"{ c None",
/* pixels */
"{{{{{{{{{{{{{{{{{{{{{{{{{{{{{{{{{{{{{{{{{{{{{{{{{{{{{{{{{{{{{{{{{{{{{{{{{{{{{{{{{{{{{{{",
"{{{{{{{{{{{{{{{{{{{{{{{{{{{{{{{{{{{{{{{{{{{{{{{{{{{{{{{{{{{{{{{{{{{{{{{{{{{{{{{{{{{{{{{",
"{{{{{{{{{{{<{{{{{{{{{{{{{{{{{{{{{{{{{{{{{{{{{{{{{{{{{{{{{{{{{{{{{{{{{{{{{{{{{{{{{{{{{{{",
"{{{{{{{{{{{1{{{{{{{{{{{{{{{{{{{{{{{{{{{{{{{{{{{{{{{{{{{{{{{{{{{{{{{{{{{{{{{{{{{{{{{{{{{",
"{{{  ..{{{{2<{{{{{{{{{{{{{{{{{{{{{{{{{{{{{{{{{{{{{{{{{{{{{{{{{{{{{{{{{{{{{{{{{{{{{{{{{{",
"{{:uy7e;,{ue1e2,{{{{{{{{{{{{{{{{{{{{{{{{{{{{{{{{{{{{{{{{{{{{{{{{{{{{{{{{{{{{{{{{{{{{{{{",
"{:AAggu2,22,,,,,;,<{{{{{{{{{{{{{{{{{{{{{{{{{{{{{{{{{{{{{{{{{{{{{{{{{{{{{{{{{{{{{{{{{{{{",
"{ASSSp,,,;,,,,,>,,,,;{{{{{{{{{{{{{{{{{{{{{{{{{{{{{{{{{{{{{{{{{{{{{{{{{{{{{{{{{{{{{{{{{{",
"egSSp,e,;,,>,922626,,,,{{{{{{{{{{{{{{{{{{{{{{{{{{{{{{{{{{{{{{{{{{{{{{{{{{{{{{{{{{{{{{{{",
",zSf=;,uu,,,,,92,,,;;*=<*={{{{{{{{{{{{{{{{{{{{{{{{{{{{{{{{{{{{{{{{{{{{{{{{{{{{{{{{{{{{{",
"{8g,=,;,eqe>,,,;=;;,,,,,,;=<<{{{{{{{{{{{{{{{{{{{{{{{{{{{{{{{{{{{{{{{{{{{{{{{{{{{{{{{{{{",
"{,p=o@<,;,,2e:*==,,,26,,,,<,,13{{{{{{{{{{{{{{{{{{{{{{{{{{{{{{{{{{{{{{{{{{{{{{{{{{{{{{{{",
"{@6=OO@$=;;,eu,;<;,,ehpkzzzjkz<${{{{{{{{{{{{{{{{{{{{{{{{{{{{{{{{{{{{{{{{{{{{{{{{{{{{{{{",
"{{=@oOOo$*,;;e<=;,;2,jmnmmnbnj$<${{{{{{{{{{{{{{{{{{{{{{{{{{{{{{{{{{{{{{{{{{{{{{{{{{{{{{",
"{{{@Oo#OoO@*,2;;,;,<$hcvu4424<$<$${{{{{{{{{{{{{{{{{{{{{{{{{{{{{{{{{{{{{{{{{{{{{{{{{{{{{",
"{{{.oOooOoOO@,2,;,<<<e3 .    +<,;,,2<,,{{{{{{{{{{{{{{{{{{{{{{{{{{{{{{{{{{{{{{{{{{{{{{{{",
"{{;@OoOoXOoXOo@,2;$=<<;yp8;+,2uuuee222,22{{{{{{{3<@{{{{{{{{{{{{{{{{{{{{{{{{{{{{{{{{{{{{",
"{{S; XOoOoOXo#O@2<<<=8SAgu,,,,e2222eewuqeee2*e{{,2<#{{{{{{{{{{{{{{{{{{{{{{{{{{{{{{{{{{{",
"{,S;$=oXOoOoOOoo<,,<=SAg7,;,92>2e929eeeee2;u,$#*24,@{{{{{{{{{{{{{{{{{{{{{{{{{{{{{{{{{{{",
"{{p,O@,+XOoOoX#O<112fSAr,,2e2,,22,,2,e22e2;24$@$2u3<#{{{{{{{{{{{{{{{{{{{{{{{{{{{{{{{{{{",
"{{+;#O@=;OXOOXoO<,1,fxf,,,9e,62,,,,;eieeew=,juj=2e4e3{{{{{{{{{{{{{{{{{{{{{{{{{{{{{{{{{{",
"{{{,@<Oo$,@OoO.X=<<,pf6@;,,,,2,,;,;eu,;upu@*,19u93$$<{{{{{{{{{{{{{{{{{{{{{{{{{{{{{{{{{{",
"{{{{$p;@O@=,+X.X+1,172=OO@;,>,,,je2e;,2u022,,<=9,2,,,,<{{{{{{{{{{{{{{{{{{{{{{{{{{{{{{{{",
"{  .@pxp,o#@,*.Oo1,1,*+ooO#*,2,qu;,,,,ee;,6eppjuhuhuhhu3{{{{{{{{{{{{{{{{{{{{{{{{{{{{{{{",
"{< #<pc!c2O#=,@XO2,2,+@OOX##<2,e,,*,>,ee,,,uklk4e44313311{{{{{{{{{{{{{{{{{{{{{{{{{{{{{{",
"{@$o#pK`]Pcoo@==o,uu2.#ooo+Oo*=;,,,*,;e2,>ej4,<$$+#o##$#$<{{{{{{{{{{{{{{{{{{{{{{{{{{{{{",
"{{{=.OzI_S/z=oO@<@;,6,=XOO##oX+$=;;,,;,:,eh1$X. ..Oo#OX#$#${{{{{{{{{{{{{{{{{{{{{{{{{{{{",
"{{{{<+ +n~^L^,XX+$=@,,.Ooo#OOOoo@@=;,,,;24<@O@4uhehkcj. ##X#{{{{{{{{{{{{{{{{{{{{{{{{{{{",
"{{{{{<$.On^c/HuOXo#<@.O=XOoooOoO+o+$;,;,2<#X$jkjjhuhlx3  #XX#{{{{{{{{{{{{{{{{{{{{{{{{{{",
"{{{{{{{<O up^'^eoXO#==$;=*OOOoO#oOo+@*=,<#Xouhu3ehj2jj4X  #..X{{{{{{{{{{{{{{{{{{{{{{{{{",
"{{{{{{{{<= Oc_[POXoOo#oO<;<ooXOoOoXO##*$#o.$<$$#$$<<jhe@  .X.X{{{{{{{{{{{{{{{{{{{{{{{{{",
"{{{{{p<oO*<O 2//O@#XoOooo+=z,O.OoOOooO$#+oX##$$##$#$243@   ...{{{{{{{{{{{{{{{{{{{{{{{{{",
"{{{{{,22<$O*# +x@2eoOoOOoo=c,<*XXoOo+o&$#o#O$$$$$$<$$<2@   ...{{{{{{{{{{{{{{{{{{{{{{{{{",
"{{{{{<32,+XX$=..X<z2,@o#OX@,=@2n2.OoOo$#$#X#$$$$$$$$$<1@   ...{{{{{{{{{{{{{{{{{{{{{{{{{",
"{{{{{,*,,4$oOo<+ @uhcp@Oo#+z;+ohmp@XOo@O$=O#+$$$$#$$@<1@   ...{{{{{{{{{{{{{{{{{{{{{{{{{",
"{{{{{*<=12,#...=$ X;zxu,@+oneoX $ln1..##$<X##$$$$$$$$<,@   ...{{{{{{{{{{{{{{{{{{{{{{{{{",
"{{{{{,<$2$<<O   @$O <pppp;Ox2oOXX#3zpoO@$*###+$=$$$#$$1*   ...{{{{{{{{{{{{{{{{{{{{{{{{{",
"{{{{{,<*<@=$.   ..#@Xo1uzx,ceoXXX..#e~$O$<####$$$#+###<*.  ...{{{{{{{{{{{{{{{{{{{{{{{{{",
"{{{{{,$$### X.....X.#@#*pceLpXOXXXX..h2o$,o##$$$#$$$$$<*.  ...{{{{{{{{{{{{{{{{{{{{{{{{{",
"{{{{{=$=#oX .:::ttt@@O@#@euzpOX XoXX...##<O$#+##$+#$$$<* . ...{{{{{{{{{{{{{{{{{{{{{{{{{",
"{{{{{,$$oXX7ttCZJGZVtt.+$.o=;#o.XXXX.X.#@<#####O#$##&<<;.  ...{{{{{{{{{{{{{{{{{{{{{{{{{",
"{{{{{,@@O.:tdFJJJJUJZB7XO<@X,oO...XX.X.#@<O#$#######$+<*.. ...{{{{{{{{{{{{{{{{{{{{{{{{{",
"{{{{{<$#Xo:CZZJUUUUUUDB7.X+# .o. ...X..&#<o$$##$#O#o$$$;.. ...{{{{{{{{{{{{{{{{{{{{{{{{{",
"{{{{{=$oX :CVDZJJJJJJGZZ7XXX. .........#$<O#$$##@##+#$<;.. ...{{{{{{{{{{{{{{{{{{{{{{{{{",
"{{{{{<+#X aVdBDDJJGJJJUDBXXOX. .... ...+@<o$<$@#$oX##@$*X.  ..{{{{{{{{{{{{{{{{{{{{{{{{{",
"{{{{{=#o.:aBBNZFJGJJUUUJZ7..Xo. ...... ##=$O#+#o+XO..X.O..  ..{{{{{{{{{{{{{{{{{{{{{{{{{",
"{{{{{$$#.:aBt8BZDJJJJJYYYZ7..#O. ..... +@$X     ..  .....  .X {{{{{{{{{{{{{{{{{{{{{{{{{",
"{{{{{#+o.:aa7tBZDFDJJYRTEYB7.Oo#O..... ##$   .......O.XXX..##.{{{{{{{{{{{{{{{{{{{{{{{{{",
"{{{{{#XOX:atttBCZZJJRTQQQEGt XXOXOX... O#,$@#=,,1,<<<<$@$$##X.{{{{{{{{{{{{{{{{{{{{{{{{{",
"{{{{{oo.--aat7BCDDFJRQQ))(EG7..oXoOoO.X##1kuhhhhhh21,<$$#OXX..{{{{{{{{{{{{{{{{{{{{{{{{{",
"{{{{{O.X:aat7tsNZZDJW))))QTYZo..OXXOXXOo$$<<<<=<$$###X.....{{{{{{{{{{{{{{{{{{{{{{{{{{{{",
"{{{{{$X.:att7tsBDZZJT))QQWEYGF....OoXO  XoXOX... .      @77{{{{{{{{{{{{{{{{{{{{{{{{{{{{",
"{{{{{$o.:at787sVZDDURW)QQWERYJB  ..XXX                  *77%{{{{{{{{{{{{{{{{{{{{{{{{{{{",
"{{{{{$$o-att7%taCCCGUR))QWTRRYJV   ..O                  .:-@{{{{{{{{{{{{{{{{{{{{{{{{{{{",
"{{{{{+$oo:at::tsNZCZGUW)QWERRRYJF                        o%*@{{{{{{{{{{{{{{{{{{{{{{{{{{",
"{{{{{$@#o::%:%58aBCCCJRQERYYYYYUUF@              .....    @%*{{{{{{{{{{{{{{{{{{{{{{{{{{",
"{{{{{#O$$o::%:*0sdCCCGJERUUUJJJUUGGt      #<<<$$@$OX...   @-*-{{{{{{{{{{{{{{{{{{{{{{{{{",
"{{{{{$#O@# :::-08adNCDGTRJJGJGJJFGGGVt     ..X...         %77-{{{{{{{{{{{{{{{{{{{{{{{{{",
"{{{{{$@#XXXXX.708aBBBCZYYJFGJDFGFDZZGGBt...             .@5a8;-{{{{{{{{{{{{{{{{{{{{{{{{",
"{{{{{O##XX..oooo-asVVCZJJJFFCJGJUYJFZZDFBVtt      .  ..o%:aa77-{{{{{{{{{{{{{{{{{{{{{{{{",
"{{{{{{XOXX:oo@@o;8sdBBCUUJFFJJURRRRYJZZFFFFFVVdBVVdt757ttaa7888{{{{{{{{{{{{{{{{{{{{{{{{",
"{{{{{{X.X:7:-;@o-0assBCGJFCJJYYRRRRUJDDCCCZZZCZCBdBBsdssss78787-{{{{{{{{{{{{{{{{{{{{{{{",
"{{{{{{{ .:767-@o@88aasNZZFZGJRRETETRJJJZCJJFCZZZVBdBssaa8787s78-{{{{{{{{{{{{{{{{{{{{{{{",
"{{{{{{{{.:77:-@o;:7ttssBddCCJRUJFDZBVNCCCCCNCCCCdCZdBttaaasasa8-{{{{{{{{{{{{{{{{{{{{{{{",
"{{{{{{{{{-6:-@@o@::758assddBDZCBdFFFJJJBNVDUYRJJZZBCZCsaadBVBsa8-{{{{{{{{{{{{{{{{{{{{{{",
"{{{{{{{{{;--@@@oo@-::5ttaat:77ttCJJJCCCDZJYRJJFFFFZZddZCVVCCVBa7:-{{{{{{{{{{{{{{{{{{{{{",
"{{{{{{{{{{-oO@@o o@---777t:7-%tZJCCddBVUJGJCBBNCCCCDZDsBCCZCDNV77-{{{{{{{{{{{{{{{{{{{{{",
"{{{{{{{{{{  @ooo. @**-:787--:sCdastNJJFZDNBsBCCCDCCCCZBsBCZDZFB7:-{{{{{{{{{{{{{{{{{{{{{",
"{{{{{{{{{{ .@ooo. @***--:--::sCdttCJGJFZDBVDJTWRTRYJJDNsdCZZBCDt:-{{{{{{{{{{{{{{{{{{{{{",
"{{{{{{{{{{{{oooo .o@@**---t:7dsttDZJZZNZZJWTUJZBaVCJRYJDsBBNVBCt:;@{{{{{{{{{{{{{{{{{{{{",
"{{{{{{{{{{{{{ooo..   o@@;:-t7%tBBCCCBBCCCassdsVBVCCBdsdCJGCdBa7t7@@{{{{{{{{{{{{{{{{{{{{",
"{{{{{{{{{{{{{{{. ....o.@-:-o:aaBNdsaZZsBBVYWYJJJRQQRJCddCCCCCdd77@@{{{{{{{{{{{{{{{{{{{{",
"{{{{{{{{{{{{{{{.. .   o@:-o-aBst0tCCstCYTYVdsssCCJRQQYYJFFCCBBDB7:@@{{{{{{{{{{{{{{{{{{{",
"{{{{{{{{{{{{{{{. . ... @* -ts8-8BBstCCCVBst7tZYURQQYJCBBBNBdtdBDZBd8@{{{{{{{{{{{{{{{{{{",
"{{{{{{{{{{{{{{{ . .. . . @7t7@8ttBCBsds77tsGRUJCCdtt7787dVZZDJUZVst7-8@{{{{{{{{{{{{{{{{",
"{{{{{{{{{{{{{{{. . .. . @@77-:ttdBNstt7dCGJCCCattaBZJRTWYJJGFFDNstt7-78@{{{{{{{{{{{{{{{",
"{{{{{{{{{{{{{{{{. . ....@@76-:tBCVattCGGGJNatattaBZJYWWYJZCCdssdsaa:-**@{{{{{{{{{{{{{{{",
"{{{{{{{{{{{{{{{{{{ .. . o;-;%7dDVstsCGCCCdat-dBZJYETRJCVssds77575----@@@@{{{{{{{{{{{{{{",
"{{{{{{{{{{{{{{{{{{.. . . @@ :tCFCtCGGCdtt::sVZJWTRJZdt8787ssdsBCCsstt7:@@{{{{{{{{{{{{{{",
"{{{{{{{{{{{{{{{{{{. . . .. @7aGJCCJGNBt-:sBCGJJCB7-7CZZCDBBNDBJRJCCZCdt@@{{{{{{{{{{{{{{",
"{{{{{{{{{{{{{{{{{{.. . . ..@7aCJJJNtt-tdZGUJJCa--8BCCFJYJDDZDsGUUZCVCFst:{{{{{{{{{{{{{{",
"{{{{{{{{{{{{{{{{{{{ . . .. @:aCFDV9->sZGGJJCs7-7tCCCGFYTYYZZDsGYGCCBGGBGt{{{{{{{{{{{{{{",
"{{{{{{{{{{{{{{{{{{{{{. .. .@7asCd5:taDUGFCs8%-7taBZZCGRJUJJGCCUDDCZCTCCECt7{{{{{{{{{{{{",
"{{{{{{{{{{{{{{{{{{{{{{{o . @7asBa-aDDUDBdM8%-7tadDJNCJRUEYFFCGTBZNVZYJJCZdt7{{{{{{{{{{{",
"{{{{{{{{{{{{{{{{{{{{{{{X. .@7as8-8ZFYDdas7%#7tadCGFCCJYRTRGCJGJdBYYDUCJJJDast{{{{{{{{{{",
"{{{{{{{{{{{{{{{{{{{{{{{{ .. :87--aJZDd87:*#:7tadCCFBCFYYRYJJJEYCDEEYETEYJRGZdt{{{{{{{{{",
"{{{{{{{{{{{{{{{{{{{{{{{{. . @-%-:ZCBN78%%##5tttddCCdBCEYRJTJUEEZJ((YYERJRRRJYCat{{{{{{{",
"{{{{{{{{{{{{{{{{{{{{{{{{{. . @@@8BBaa>- .#*:attdsdFCCJRTEYUYUYRDU))YRRFJEYJYUUCdt{{{{{{",
"{{{{{{{{{{{{{{{{{{{{{{{{{{...@@@aBatt:%. #*:tataaBFCCJUYWUFFRQYEEEFYRURYJTRDFJJZBtt{{{{",
"{{{{{{{{{{{{{{{{{{{{{{{{{{{{{.@%7tt77:o.*o%7taaaasZCNJYYRDFFEETYYDCFJTFYWYRRYJFJFBdt{{{",
"{{{{{{{{{{{{{{{{{{{{{{{{{{{{{{.@:77::*o *oo:asaaaBZBCFYEYJCDREWUJdJJJWYREEYYRGJJDFBCt{{",
"{{{{{{{{{{{{{{{{{{{{{{{{{{{{{{{*-:7::@o**@oo8ssaadCCCFGYRJCZYRYFJCdZJRERRRRTERRYRZRCCV{",
"{{{{{{{{{{{{{{{{{{{{{{{{{{{{{{{ *-7::@oo*@@o@8aa7dsZDCJYRZdCYRDYJ(VFRTRJRTEYUFTJJURDFdV"
};
