/* XPM */
static char *NIGHT_SKY[] = {
/* columns rows colors chars-per-pixel */
"639 640 256 2 ",
"   c #151C3E",
".  c #0E1D4C",
"X  c #151D43",
"o  c #181D46",
"O  c #161F4A",
"+  c #191D4D",
"@  c #151E51",
"#  c #1A1E52",
"$  c #141E5A",
"%  c #191F5A",
"&  c #152045",
"*  c #192247",
"=  c #15214D",
"-  c #18204F",
";  c #162253",
":  c #112656",
">  c #182052",
",  c #162954",
"<  c #1B2954",
"1  c #16255B",
"2  c #18235B",
"3  c #16295D",
"4  c #1B2A5C",
"5  c #2F2E4E",
"6  c #302F4F",
"7  c #242954",
"8  c #212D5C",
"9  c #302E54",
"0  c #29325A",
"q  c #303156",
"w  c #31355B",
"e  c #303D5F",
"r  c #151F61",
"t  c #0E2969",
"y  c #152662",
"u  c #1A2463",
"i  c #142864",
"p  c #1A2A64",
"a  c #15266B",
"s  c #1B266B",
"d  c #152A6C",
"f  c #19286E",
"g  c #1D3165",
"h  c #1D326B",
"j  c #1A376C",
"k  c #0D2C76",
"l  c #162673",
"z  c #1B2771",
"x  c #152C74",
"c  c #1A2A75",
"v  c #16277A",
"b  c #1A267A",
"n  c #152E7A",
"m  c #192C7A",
"M  c #0D3175",
"N  c #133175",
"B  c #1C3275",
"V  c #1B3A75",
"C  c #14317E",
"Z  c #1B327C",
"A  c #1D3A7C",
"S  c #222D62",
"D  c #222568",
"F  c #222B6C",
"G  c #243263",
"H  c #2A3564",
"J  c #22346C",
"K  c #293968",
"L  c #323664",
"P  c #333B65",
"I  c #34376B",
"U  c #343A6C",
"Y  c #212D73",
"T  c #212C7A",
"R  c #223474",
"E  c #233B74",
"W  c #2B3875",
"Q  c #22347B",
"!  c #233A7C",
"~  c #2A3C7D",
"^  c #303670",
"/  c #343B73",
"(  c #363E78",
")  c #1B4279",
"_  c #29427A",
"`  c #354174",
"'  c #344A73",
"]  c #33447D",
"[  c #32497E",
"{  c #3A487A",
"}  c #445378",
"|  c #152E82",
" . c #192E83",
".. c #182A87",
"X. c #1A2E8B",
"o. c #153282",
"O. c #1B3383",
"+. c #163985",
"@. c #1C3A84",
"#. c #15338B",
"$. c #1B348B",
"%. c #163A8B",
"&. c #1B3B8B",
"*. c #162E90",
"=. c #143593",
"-. c #1B3292",
";. c #1C3D91",
":. c #17379A",
">. c #213483",
",. c #2B3584",
"<. c #233B84",
"1. c #2A3D82",
"2. c #23358B",
"3. c #233C8B",
"4. c #293C8B",
"5. c #233D92",
"6. c #283C97",
"7. c #1A3CA2",
"8. c #1B4288",
"9. c #1D418C",
"0. c #1D4393",
"q. c #1E449B",
"w. c #1D4A9B",
"e. c #1D519D",
"r. c #244284",
"t. c #2D4384",
"y. c #24438C",
"u. c #2B448C",
"i. c #2A4B89",
"p. c #324581",
"a. c #334983",
"s. c #374988",
"d. c #334A8C",
"f. c #2B518B",
"g. c #3A538A",
"h. c #224494",
"j. c #2B4493",
"k. c #254B94",
"l. c #2C4B93",
"z. c #23459B",
"x. c #2C459A",
"c. c #234A9C",
"v. c #2B4B9C",
"b. c #344C93",
"n. c #344998",
"m. c #2C5497",
"M. c #2C539C",
"N. c #375698",
"B. c #3C549B",
"V. c #3F6282",
"C. c #3A649A",
"Z. c #1D46A4",
"A. c #1F52A1",
"S. c #244CA2",
"D. c #2A4CA3",
"F. c #2747A9",
"G. c #354CA6",
"H. c #2552A4",
"J. c #2B53A4",
"K. c #2B54AC",
"L. c #2958AA",
"P. c #3757A6",
"I. c #355BA4",
"U. c #335CAC",
"Y. c #2C4DB2",
"T. c #2C59B3",
"R. c #3759B5",
"E. c #3A65A8",
"W. c #3A66B7",
"Q. c #366BB4",
"!. c #465789",
"~. c #485289",
"^. c #455A96",
"/. c #4B638A",
"(. c #55658C",
"). c #4A6499",
"_. c #556899",
"`. c #577597",
"'. c #677E9E",
"]. c #445AA7",
"[. c #4259B2",
"{. c #4767A8",
"}. c #536AA8",
"|. c #4973A7",
" X c #5874A8",
".X c #466AB8",
"XX c #546BB6",
"oX c #4875B8",
"OX c #5777B8",
"+X c #6478AB",
"@X c #647BB9",
"#X c #737FB3",
"$X c #3B6CC1",
"%X c #4C6BC2",
"&X c #4B76C5",
"*X c #5779C4",
"=X c #657CC6",
"-X c #68839F",
";X c #5283B3",
":X c #5985BA",
">X c #6985B9",
",X c #708DB1",
"<X c #748BBA",
"1X c #5884C8",
"2X c #588FCE",
"3X c #6788C9",
"4X c #748BC7",
"5X c #6896C8",
"6X c #7895C8",
"7X c #678CD3",
"8X c #728CD3",
"9X c #6A95D5",
"0X c #7898D6",
"qX c #7BA5CC",
"wX c #75ABD3",
"eX c #7BA6D8",
"rX c #7097E1",
"tX c #79A6E4",
"yX c #8B98BB",
"uX c #859AC8",
"iX c #849CD3",
"pX c #88A6CB",
"aX c #97AACB",
"sX c #88A8D8",
"dX c #94ACD9",
"fX c #88B5DB",
"gX c #96B6DA",
"hX c #A4B7CD",
"jX c #A6BCD9",
"kX c #8A9CF0",
"lX c #88A9E4",
"zX c #95AEE7",
"xX c #87B8E6",
"cX c #97B7E6",
"vX c #A4BCE7",
"bX c #A0BEF2",
"nX c #9EC0DC",
"mX c #ADC5DA",
"MX c #9AC5E7",
"NX c #96C5F0",
"BX c #A7C6EA",
"VX c #B5CAEB",
"CX c #B8D5EB",
"ZX c #ADCEF3",
"AX c #BAD7F7",
"SX c #B9E4FB",
"DX c #C8D8EE",
"FX c #C7DAF7",
"GX c #C9E7FA",
"HX c #CBEEFA",
"JX c #D7E8FB",
"KX c #D8F3FD",
"LX c #F8FAEF",
"PX c #E5EDFB",
"IX c #E8F8FD",
"UX c #F7FBFB",
/* pixels */
"                                                                                      5                         o           o           o         o   o   o     o   o   o   o   o   o o o o   o   o o o   o   o   o o o o o o o o o o o o o + + o + o o + o o o o o + + o + + o + + o + + + o + o + + o o + + + + + + + + + + + + o + + o o + + o + + + + + + + + + + + + + + + + + + + 5 + + + + + + + + + + + + + + o + + + + + + + o + + + + # + + # # # + # + # # # + # + # # # + # # # + + # # 5 # # + # # + # # + # # # # + 5 # + # # # # + # 5 # # # # + # # + + 5 # + # # # + # # # + 5 # + # # + + # 5 + # # # + 5 # # + + # # 5 # + + # # 5 # # + # # + # # # + # # # # # + # # # + + o + + + + + o + + + + + o + + + + + + + + + + + o + + + + + + o + + + + + + o + + + + + + o + + + + + + + + + + + + + o + + + + + + o + + + + + + o + + + + + + + + + + + + + + + + + + + + + + + + + + + + # + + + 5 + + + + + + + + + + + 5 + + + + + o + + + + + o + + + + + + + + + + + + + o + + + o o + o o + o o + o o + o + o o o + o o o o o o + o o o o o     o o o o o o o   o   o   o   o   o   o     o       o     o   o             o o                     o                                                                 5                         5                     5                               5 ",
"                                                                                                          5           o   o       o   o       o       o o     o       o   o   o   o   o   o o o   o o   o o   o o o o o o o o o o o o o o o o o o + + o o + + o o + o o o o o + o o + + o o 5 + + + + + + + + o + + 5 o + + o + o + + + + + + + 5 + + + + + + o 5 + + + + + + + + + + + + + + + + + + + + + + + + + + + + + + + + + + + + + + + + # + # # 5 + # # # + # + # # # + # + # # 5 # # 5 + + # # # # + # # 5 # # + + # # # # # # # + # # 5 # # # + # # # # # # # # # 5 + # 5 # + # # # # # + # # # # # # # + # # # # 5 # # 5 + # # # # # + # # + # # + # # + # + # 5 + + # + # + # # + + + + + + + + + + + + + + + + + + + + + + + + + + + + + + + + + + + + + + + + 5 + + + + + + + + + + + + + + o + + + + + + + + + + + + + + + + + + + + + + + + + + + + + + + + + + + + + + + + + + + + + + + + + + + + + + + + + + + + + + + o + o + + + + o + + + + 5 + + o + + o o + + + + o o 5 + + + o + o + o + + o o + o + + o + o o o o o o o o o o o o o o o o o o     o   o o o       o   o   o   o o     o   o o   o           o   o             o   o o   o                                                                                                                                                       5 ",
"                            o                                             o                                     o   o           o       o   o   o   o   o   o o   o   o o   o       o   o o o o o o o o o   o o o o o o o o o o o o 5 o o o o + + o + + o o + o o o + o 5 o + o o o + o o o + + + + + + + + 5 + + o + o + + + + + + + + + + + + + + o + + + + + + + + + + + + + + + 5 + + + + + + + + + + # 5 + + + + + 5 + + + + + + + + + + + # + # # # + # # # + + # # # # # # # # 5 # + # + # + # # + # # + # + 5 + # # 5 # # # # # 5 # # # # # # # # # # # # # # # # # # # # # # + + # # + + + # # + # + # 5 # + # # # + + # # # # # + # + # # + + # # # + 5 # + # # # # # # + # # + # # + + + + + + + + + + + + + + + + + + + + + + + + + + + + + + + + + + + + + + + + + + + + + + + + + + + + + + + + + + + + + + + + + + + + + + + + + + + + + + + + + + + + + + + + + + + + + + + + + + + + + + + + + + + + + + + + 5 o + + + o + + + + + + + + + + 5 o o + + + + + + o + o + + + + o o o o o o o o + + o + + o + o o + o o o + o o o + + o o o o o o o o o o o o o o o o   o   o   o o   o   o     o o                   o         o         o             o                                                                                                                                                     5 ",
"                                                    5                 o                                                   o   o       o           o   o   o o   o   o     o o   o o o o o o o o o o o o o o o o o o o + o o o o o o o o o o o o o + o o + o o o o o o + o + + o + + + + + + + + + + + + + o + + + o + + + + + + + + o 5 + + + + + + + + + + + + + + + + + + + 5 + + + + + + + + + + + # + + + + + # + + + # + + + + + # + # + + + # # + # # # + # # 5 # # + + 5 + + # # # + # # # # # + # # # 5 # # # # + # # # # # # # # # # # # # # # # # # 5 # # 9 # # # # # + + # # # 5 # # # # # 5 # # + # + # # # + # # # + + # # # + # # + # # # + + # # + # # # # + + # # # # + # # + + # + 5 + + + + # + + 5 + # + + + + 5 + + + + + + 5 # + + # + + # # + + + + + + + # + + + # + 5 + + + # + 5 + + # + # + + + 5 # + + + + # + + # + # + + + + + 5 + + + + + + + 5 + + + # + # + + + + + 5 + + + + + + + + + + + + + o + + + + + + + + + + + o + + o + + + + + + + + + + + 5 + + + + + + + + + + + o o + o o + o o + o o + o o o + o o o o o o o o o o o o   o   o       o o o   o     o   o     o       o o   o o     o     o       o   o         o o         o   o       o         o                                                                                                                           5 ",
"                                o   5                                                         5 o   o                     o   o   o o     o   o o   o   o   o     o     o o X X o o o o   o o o o o + o o o o o o o o o o o o + o o o o + o o + o + o o o + o o o o + o + o + o + + + + + + + + + + + 5 + + + + + + + + + + o + o + o o + + + + + + + + + + + + + + + + + + + + + + + + + + + # # + + # # + # # # # + + # # # + # # # + # # # # + # # # + + # # # # + + + # # # # # # # + # # # + # # # # # + 5 # + # # # # # # 5 # # # # # # # # # # # # # # # # # # # 5 # # # # # 5 # # # + # + # 5 # 5 + # # 5 # # + # # # # # # # # + # # # + # # # # # # 5 # # + + # # # + + # # + # # # # # # # + # # + # + # # # 5 + + # # # + # # + # # # # # + # # + 5 5 # # # + # # # # + # # + # # + # + + # # # # + # # + + # # # + # # + # # + # 5 + # # # # + # # # + # # + # # # # # + # # + # + # + + + + + + + + + + + + + + + + + + + + + + + + + + 5 + + + + + + + + o o + + + + o + + + + + o + o + + + + o + o o + o + o o + o o o o o o o o o o o o o o 5 o o o o o X   o o o   o   o   o   o o   o   o     o     o     o o         o     o   o                     o     o                                   5             5                                                         o                               5 ",
"                                                      5                                                       o o   o                   o   o     o   o   o   o o   o o   X o X o   o o o o o o o + o o o o o o + o o o + o o o o o o o o + o + o o + + + o o + + o o + + + + + o + + o o + + + + + o + + + + + + + + + + + o + + + + + + + + + + + + + 5 + + + + + + + + + 5 + + + + + + + + + # # # # # # # + + # # # + + # # + # # + # + + # # # + + # # # + + # # # # # + + # + + # # 5 5 + 5 # + + + # # # # + # + 5 + # # # # # 5 # # # # # # # # # # 9 # # # # # # # # # # 5 + # + # # # # # # + # # # + + # # # + + # 5 # + + # + # 5 + # # + + # + # # + # # # + + # # + # # + # + # 5 + + # # # # + # # # + # # # # # # + # # # 5 + # + + # # + # # # + # # + # # + # # # # # + # # + # # # 5 # + # # # # # # + + # # + # # # # # + # # # + + # # # + # # # + # # + + + # # # # # 5 + + + + + + + + 5 + + + 5 + + + + + + + + + + + + o + + o + + + + + + + + + + + + + + o + o + + o + + + + + o o o o + + o + o + + + o + o o + o o o o o o o o o o o o o o   o o X   o o o o   o       o o   o o     o   o   o         o       o             o   o o   o         o                               o                                             5                                   5                           5 ",
"                  o                                                                                 o   o             o   o o   o o   o   o   o   o o   o   o     o o   o X o X o o o o o o o o o + o o o o o o o o o o o o + o + o + + o + o o + o + o o + + o o + + + o + o + + + + o 5 + + + + + + + + + + + + + o + o + + + + + + + + 5 + + + + + + + + + + + + + + + + + + + + + + 5 + + # + + # + + # # + + # 5 + # # + # 5 # # # # # + 5 # + # # + # # 5 + # # # 5 # # # # 5 # # # # # # # # # # # # # + 5 # # # # + + # # # # # # # # # # # # 5 + # # # 5 # # # # # # + + + # # # # # + # + # # + # # + + # # # # # # + # # # # # # # # 5 # # # + # + # + # # # # # + # 5 # # # # # + + # # + # # # 5 # # + # + # # # + # # + + # + # # 5 # + # # # # + + # # # # + + 5 + + # 5 # # # # + # # # + # + # + 5 # + # # + # # # 5 + + + # # # + # # # # # + 5 # + # # + # # 5 # + + + + # + + + + + + + + + + + + + + + + + + + + + + + + + + + + + o o + + o + + 5 + + + + + + + + + + + + + o o + + + + o o o o o o o + o o o + o o o o + o o o + o o o o o o o X o o o o o   o o   o   o o   o     o o             o                         o   o             o   o o   o                                                                                                                                           5 ",
"                                                                                                  o           o o                   o   o   o   o     o   o   o o   o o X o X X   o   o o o o o o o o o o o o o + o o o o + o + + + o o + o o + o + o + + o + o o + o o + + + + + o + + + + o + + + o + + o o + + + + 5 + + + + + + + + + o + + + + + + + + + + + + + + + + + + + # + + + + + + + # + # # 5 # # # # # # # + # # # # + # + # # # # # + # # # + # # # + + # # + # + # # + # + + # # # # 5 + + # # # # + + # # # 5 # # # + # # 5 # # # + # # # # # # # + + # # # # # # # + # + 5 # # # + # # # 5 # # # + # 5 + # + + 5 # + # + + # + # + # # # + # # # + # 5 + # # # # + # + # # # 5 + # # + + # # # + # # # + # + + # # # # # # + # # # # + + # # # # + + # # # # # # # + # + + # + # + # # # + # # + # # # + # # # + # # # # # + # # # 5 + + # # + # # + # # # # # # # # # # # + + + + + + + + + + + + + + + + + + + 5 + + + + + + + + + + + + + + + + o + + + + + + + + + 5 o + + + + + o o + + + o + + o + o o + o o o o o o o o o o o o o o o o o o o o   X o o o o   o   o     o o   o   o   o   o o     o   o   o   o   o     o           o o                 o   o           o                                                                       o                                                 5 ",
"                                                                            o     o                                         o o o     o   o   o   o o   o o   o   o   o o o   o o o o o o o o o o o o o o o o o o o o o o o o o o + + + o o + o + o o o + o + + + o + o + + o + + o + + + + o 5 + + + + o + + + + + + + + + + + + + o + + + o + + + + + + + + + + + + + + + + + 5 + + + + + + # # + # # # # + + # # # + + 5 # + + # # # # + + # + 5 # + + # + 5 + # # # + # + # # + + # # # # + + + # # # + # # # 5 # # + # # # # + + # # # # + 5 # + # # # + # # # # + # # + 5 + # # # # # + # + # # + 5 # + + # # # + + # # # # # # + # 5 + # # # + # # 5 # # # + # # # + # + # # # + + # # # # + # # + # # # + + 5 # + # # # # + + # # 5 # + + # # + # 5 # # # + 5 # + # # + + # 5 + # + + # # # # + 5 # + + # # # + # # + 5 # # # # + # # # + # + # # # + # # # # # + # + 5 + # # # + # + + + + + + + + + + + + + + + + + + + + + + + + + + + + + + o + + o o + + + o + + + + + + + + o + o + + o o o o o + o o + o + o o + + o + o o o o o o o o o + o o o X o   X o   o     o   o   o   o o   o   o     o     o     o                 o         o   o     o           o     X                             5                                                   o                                                       5 ",
"                                                                                                  o   o     o     o   o   o         o   o o o   5   o     o o   o     o o   o o   o o o o + o o o o + o o o o o o o o 5 o o o + o o + o + + o + + o o o o + o o + o + + + o + + o + + + + + + + + + o + + + + + + + + + + + + + + + o + + + + + + + + + + + + + + + + + + + + + + + + + + + + # # # 5 + + # # # # + # # # # # # # # + + # # # # # # # + + + + # # # + # + # # # # # # # + + # # # # # 5 # 5 # + + # + # # # + # # # # # + # 5 # + # # # + # 5 # # 5 + # 5 + # # # # + # + # 5 # 5 # # # # # # # # + # # # # + # + + # # # # # # # + # # + # # + # + # + # # # + + + # # 5 # + + # # # + # # + # # # # # # # + # # # # # # + # # + # # + # + # # # + # # + # # + # # # # # # # # # + # # # # # # # + # # + # # # + + # 5 # # + + + # # # + # + # 5 + + # + # # # + + + + + + + + + + + + + + + + + + + + + 5 + + + + + + + o + + + + + + 5 + + + + + + + + + o + + + + + + + + + o + o + + o o o 5 o + o o + + o o + o o o o o o 5 o o + o o o o o o o o o o o   o   o   o   o     o   o   o   o o   o     o o   o   o   o         o         o         o   o                                                                               5                                                                 5 ",
"                                                                                              o o           5   o       o       o     o   o   o       o   o   o   o X o o o o X o o o o o o o o o o o o o o + o o o o o + o o o + o + o o + o o o o + o + o + + + + + o + + + + + + + + + o + + + o o + + + + + + + + o o + + + o + + + + + + 5 + 5 + + + + + + + + 5 + + + + + + + + + + + + # + # # # # # # + # # + # # + # + # + 5 # + # # + # # # # + # # # # + # # # # + + + # # + # # 5 # + # + # + # # # 5 + # # # + + # + 5 5 # # # + # # # # 5 # # # + # + # # # # + + # + 5 # # # # + # # + # # + # # 5 # + # # + # + # # + # + # # + # # + + # # # + # # # # + + 5 # # # + # # # # # # # # + # + # + # # # + # + + # + # # + # + + # # # # # + # + # # # + # # # # # # + + # + # # + # # + # # + # + + # + # + # # # # # # + # + # # # 5 # + # + # # # # + # # # # + + # + + + + + + + + 5 + + + + + + + + + + + + + + + + + + + o + + + + o + + + + o + + + + + + + + + o + + o o + + + + o + o o o + o o + o o o o + + o o o o o o o o o o o o o o o   o o X o o         o   o   o o   o   o   o         o               o     o     o   o         o   o           X   X                       o                       5                                                                                       5 ",
"                                5                                               o       o             o               o     o o   o o   o   o       o   o   o   o   o X o     o   o o o o o o o + o o o o o o o o o o o o o o o o + o + o o 5 o + o o + o o + o + o + + + o o + + + + + + + + o + + + + 5 o + + + + + o + + 5 o + + + + + + + + + + + + + + + + + + + + + + + + + + + + + + + + # # + # 5 + # # # 5 + # # + # # # # # # + # # + # + + # # # + # # + # # 5 # # # + # # + # 5 # # # # + # # # + # # # # + 5 # # # # # + # # + # # # + + # + + # # # + # # # # # # # 5 + # # + # + # 5 + # # + # # # # + # # + # # # + # # + # # + + # # # + + # # + # # 5 # # # # # + # # + # + # + + # # # + # # + + # # # # 5 # + # # + # # # # # + + # # # + # + # # # # + + # # # # # + # # # # 5 + # # + # # # # + # # # + + # + # + # # + # # + # # 5 # # + + # # # # + + + + + + + + 5 + + + + + + + + + + + + + + + + + + + + + + + + 5 + + + + o + + + + + + + + o o + + + + + + + + + + o o + + o o o + o o + o + o + o + o o 5 o o o o o o o o o o o o X o   X o   X o o o o o   o o         o   o     o o     o   o   o       o               o   o             o   o   X     X   X       5                         5                                                                                             5 ",
"                                                                                  o       o       o   o               o             o       o   o   o o       o o X o o X o o o o o o o + o o o o + o o o o o o + o o o o + o + o o + o o + o o o o o o + o + + o + + + + o o + + o + + + + o + + 5 + + + + o + o 5 + + + + + + 5 + o + + + + + + + + + + + + + + + + + + # + + + + + # # + # # # + 5 # # # + # + # # + # # + # + + # # + 5 # # # + # # # # + # 9 # # # # # # # # # + # # # # # # 5 5 # # # # # # # # # # # # # # # + # 9 # # # # # # # # # # # # # 5 # # # # # # # + # # # # # + # # # # # # # # + # # # # # 5 5 + # # + # # # # + + # # # # + + # + + # 5 # + # # # # # + # # # # # # + # # # # # # # + # # + 5 # + # # # + + # # # + # # + # # # + + # # # + + + # # # + # 5 # + # # + # + # # 5 # + # # # # # # + # # + # # # + 5 # # # # + # # + + # # # + + + + + + + + # + + + + + + + + # + + + + + + + + + + + o + + + + + + + + + + + + + + o + o + + + + o + + o + + + + + + + o o o + o o + o + + o o + o o o o o o o o o o o o o o   o o o o o o o o o o o o   o o o     o   o   o   o   o       o     o     o               o               o   o       o                                                                                                                                     5 ",
"              o o       o     o           5           5   5     o     o   o         o         o       o   o   o   o   o   o o   o o o o o o o o o o     o o o o   o o   o X o o o o o o o o + o o o o o o o + o + + o o + o o + o + + + o + + + + + + + + o o + + + o + + + + + + 5 + + + + + + + + + + + + + + + + + + + + + + + + + + + + + + + + + + + + + + + + + + + + + # # # + # + # # + # # + # # + # # + # # + 5 + # # # # # + # # # # # # # # # # # # # # # # # # # # # # 5 # # # # # # # # # # # # # # # # # # # # # # # # # # # # # # # # # # 5 # # # # # # # # 9 # # # # # # # # # # # # # # # # # # # # # # # # # # # # + # # + # # # # # # + # # # # # # # + # # + 5 # + # + # + # + + # + # 5 + # + # # + # # + # # + # + # # # + + # # + # + # + # # # + + # # # # # + # + # + # # + # 5 # # # + # # + # + + # + # + # # + 5 # # # # + # + # # + # # # + + # + # + # # # + + + # + + + + + + + 5 + + + + + + + + 5 + + + o + + + + + + + + o o + + + + + + + + + o + + + o + o o + o + o + + + + o o + o o o o + o + o o o o o o o o o o o o o o o o       o   o   o   o o o   o o o     o o   o     o   o       o o     o   o o   o       o   o   o           o                     o       o         o     o                                               *             &                               5 ",
"        o   o     o   o   o                                           o       o           o     o o     o   o       o   o o   o o   o o   o o o   o   o o o o   X o o X X o o o o o o o o o + o o o + o o + o o + o o + o o + + + + o + + + o + + + + + o + + + o + + + o + + + + + + o + + + + + + + + + + + + + + + + + + + + + + + + + + + + + + + + 5 + + # + # # + # # + # # # # # # # + # + + # # # # + + # # # # # # + + + # # + # + + # + # # # # # # # # # # # # # # # # # # # # # 5 # # # # # # # # 9 # # # 5 # # 9 # # # # 5 # # # # # 5 # # # # # # # # # # # # # # # # # # # # # # # # # # # # # # # # # # # # # # # # # + # + 5 # + # # + # + + # # + # + # # + # # # # + # # # # # # # # # # # # # # + 5 # # # # # + # # + # 5 + # # + # # # # # # # # + # # + # # 5 # + # # + # + + # # # # + + # # # # # # 5 # # # # # # # + # + # # # + # + # + # 5 + # # # # # # + 5 # # + # # # + # + # + 5 + + + + + + + + + + + + + + + + + + + + + + + + + + + + + + o + + + o + + o + o + + + + + + + o o o + o o o o + + o o o o o o o o o o o o o o o   o o o o o o o o   o   X o X X o o o o o   o o   o     o o   o         o         o   o   o           o   o       o   o   .             o   o         o     o   5             5           5                                                                 5 ",
"                              o                                 o         o     o           o       o           o     o   o o o o o o   o o   o   o o o     o o o X o o X o o o o o o o o + o o o o o o o o o + o + + o + o o + o o + + o + + + + o o + + + + o + + o o + + + + + + + + + + + + + + + + + + + + + + + + + + + + + + + + + + + + + + + + + + + + # + + # # + # 5 # + # # 5 # # # # # # + + # # # # + + # # # # # # # # 5 # + # # + # 9 # # # # # # # # # # # # # # # # # # # # # # # # # # # # # # # # # # # # # # # # # # # # # # # # 9 # # # # # # # # # # # # # # # # 9 # # # # # # # # # # 5 # # # # # # # # + + # # # + # # + # # + # # # 5 # + # # # + # # + + # # # 5 + + + 5 # + # + + # + # # + # + + # # # # + # # # # # + # # + + # 5 # 5 + # # + # # # + # # + # # # # # # + + # # # # + + # + # # + + # 5 + + # # # + # + # # # + # # # # # # + # # # # # # # # # # + # # + # + + + + + + + + + + + + + + + + + + + + + + 5 + + + + + + + + + + o + + + o + + + + + + o + o + o + + + o + + o + + o o o + o o 5 o o o o o o o o o o o o   o   o o   o o o o X o X X   o o o o o o   o   o           o o   o     o o       o     o   o           o                 .                                                                   *   *       *   *         & &       5     5     5         5 ",
"  &                                                                         .           *     o       o o     X   X   . X X X X     o o o o o o o   o o o o o o   o o o o o o o O o o o o o o o o o o o o o o o o o o + + o + o + o + + o + o + + o o + + + + o + o + + + + + o + + + + o 5 # + + + + + + # + + + + # + + # + + # + + + + + + + + + # + # + # + + + + + # + + + # + + # # + # + # + + # # # # + + # # # # # + # # # + # # + # 5 # # # # + + # # # # + + # # + 5 # + # # # + # # # # + # + # # # # # # # # # 5 # # # # # # + # # # # + # # + # # + # + # # # + # # + 5 # + # # + # # + # + # # # # + + # # # # + # # # + # + # # # + # # + + # # # + # # # + 5 # # # # + + # # # # # # # # # # + # # 5 + # + + # + # # + # # # + # # + # # # # # + # # + # # # + # # + + # # # + + # # # + # # # + + + + # + + # + + + + + + 5 + + + + + # + # + # + + # + + + + + + + + + + 5 + + # + + + + + + + # + + + + # + + + + + + + + # # # + + # + + + + + + + + + + + + + + o o o X o o + o + + + + + o + o + + o o o o o o + o o o + o o o o o o o o o o o o   o o o o   o o X X o X X X X X   X   X   o   o       o         o     o o     X X   X   X   X     &                                                                                         &                                                       5 ",
"                                                                                    .     X o   o o         o   X X     X X   X o   o o o o   o o o o o o   o o o o o o o o o o o o o o o + o o o o o + o o o o o o o + + + o + o + + o + o + o o + + o + + + + + + + + + o + + + + + + + + + + # + # + + + + # # + + + + + + # + + # + # + + # + # + + 5 + + + # 5 + # + 5 + # + + + # # 5 # + # # # # + + # # # # + + + # 5 # + # + # # + # + # # + # # # # 5 # 5 # # # + # # # # # + # + # + + # 5 # # # + # # # 5 # # # # # # # # # # # # # + # 5 # # # + # + # # # + # + # # + # # + # # + + 5 # # # # + + # # # # + + # # # + 5 # # + # + # # 5 # # # # + # # # + # # + # # + # # # # + # # 5 + + + + # # + # # # # # # # + # # + # + # # + # # 5 # + + # + # # + # + # # + # # # # + # # # # + # # # + + + # + + + + + + + # + # + # + # + # + 5 + + + + + + 5 + + + 5 # + # + # + # # + + + + # # + # + + + + # # + + + + + # + # + + # # + + + + + + + 5 o + + + + + + + + + + o + + o + + o + + + + o + o + o o o O o o o o o o o o o o o o o o o o o   o o o o o o o o o o o X o X X   X   X X X X X o     o o o       o o     o       X X     X   X X X X X               .             &                                                                                                                       5 ",
"            &                                                           .               &     &   o o     o   o X X X X   X X     o o o o   o o o o o o o o     o o o o o o o o o o O o O o o O o o o + + o o + o o + o o + o + + + o + + + + o + o + + + + + + + + + + + + + o + o + + + + # + + 5 # + 5 + + + + 5 # + + 5 + + # 5 + + + + 5 + + + # + + + + + + + # + # + + + # + + # # # # # + # # + 5 # + # # + # # # # # + # + # # # # + # + + # # + # + # # + # + # # + + # # # + # # + # # # # + # + 5 # # + # + # + # + # # + # # # + 5 + # # # + + # # # # + + # # # # # # + # # # # # # # # + # + # # + # # 5 # # + # # + # # # # # # + + # # + # # + + 5 # # + + # # + # + # # + # + + # # # # # # # # # + # + # # + # 5 # # 5 + + # + # # # # # + + # # # # # # + + + # # + + # + + + + + + + + + + # 5 + # + 5 + + + 5 + + + + + + + + + + # + # + # + # + # + # + + 5 + + + + + + + # + + + + # + + # + + + + # + # + 5 + # + + 5 + + + + # + + + + + o + o + + o + + + + + + o + o + o o o + + + + o O o + o O o o o o o o o o o o o o o o o o o o o o o o o o o o o o   o X X   X X X   X X   X   o o     o o     o       o o     X   X X X   X   X     &         .                                                                                       &                                                 5 ",
"                                                                      .             &       &         o     o X X   X   X X X X o   o   o o o o   o o o o o 5   o o o o o o o o o o o o o o o o o + o o o o o o o o o o + o + o o o + o o + o + o + + o o + + o + + o + + + o + + + o + + + + + + + + + + # + # + + + + + # + # + + # + # + # + + + 5 + + # + # + + + + + + + # + + + # # + + # + # # + # # # # # 5 + # # + # + # # # + + # # # # # # + # # + # # + # # + # # # + + # # + # # # # + # + # # + # # # # + # # # + # # # 5 + + # # # # + + # # # + 5 # # # + 5 # + + # # # # + + # # + # + # # 5 # + # + # # + # # # # # + 5 # + + # # # + # # + # # # + + # # # + # # + # # + # # + # + # # + 5 + # + # # + # # 5 # + # # # # + # # # + # + # # # 5 # + # # # 5 + 5 + + + + + 5 + + + # + + 5 # + + + + + # + # + + + + # + # + # + # + # + 5 + + + + + + + + + + # + + # + # + + 5 + + # 5 + + 5 + + + 5 # + + 5 + + # + + + + # + 5 # + 5 + + + + + + + + + + + + o + + + o + o + o + + + o o + o + + o o o o o o o o o + o o o o o o o o o o o o o   o o   o o o o o o X X X X   X X X X   X X o     o       o o     o     o   X   X X X   X   X   X X                                                                                                                                                     5 ",
"            &       &   .                                                           &     &   & o o       o     X   X X X   X       o o o   o o o o o o o o o o o o o o o o o o O o o o o o o o o o o o o o o o + o o o + + o + + o + o + o + o + + o + + + + + + + o + + + + + + + + + + + + + # + # + + # + + # + # + + # + + + + # + + + # + # + + + + + + + # + # + + # + + + # + 5 + # # # # 5 # # # # + + # # # + + # # # + 5 + # # + # + # # # + # # + # # + # # + # # # # # + # # + 5 # # # + # # + # # + + # # + # # # + # # # # # # + + # # # # + + # + # # # # # # + # # + + # # # + # # + # # # + + # # # + # 5 # + + # 5 # # + # # # + + # # # 5 # + # # # # + + # # + # # + # # # # # # + + # # # # # + # # + # + + + + + + + + # 5 + # + # 5 + + + + # + + + # + + + + + + + + 5 # + + # + + 5 + + + + # + + # + # + # + + + + + + + + + + + + + + + # + # + # + + + + + + + + # + + + + + + + + 5 + + + + + + + # 5 + + + + + + # + + # + + + + + + o + + + + o + + o + o o + + o + + o o + o o + + o o o o o o o o o o o o o o o o o o   o o o o o o o o   o o o o o o o o X X X X   X X X X X   o     o         o o   o o   o X   X     X X     & &                 .                                                                                             &         &                             5 ",
"                                                                        .   &     &   & &     &       o   o   o X X   X X X X X     o o o o o o o   o   o o o o o o o o o o o o o + o o o O o o o o o o + o o o o o o + o + + o o + + o o + + o o o + o + o + + + + + + + o + + + + + + + + # + + + + + + + 5 + + + + + + + 5 + # + 5 + + + 5 + + + + # + # + + + + + + + 5 + + + + + # # # + + # + # # + # # # # + # # # # + # # # # # # # # + + + # # + # + # # + # + # # + + # + # # # # # + + # + # # + # + # # # + # # + # # # + + # + # # # # + # # # # # # # + # # + # # + # # # + + # # + # + # + # # # # + # # + # # # + # # + # # + # 5 # # # + # + # # # + # # # # # # # + # + # 5 + # + # # # # + # + # + # # # # + + + # + # + + + + + + + + + + # # + + + + + + + # + # + # + # + 5 + + + + # # + # + + + + # + 5 + + + 5 + # 5 + + # + # + # + # + # + 5 + + + + + + 5 # + # 5 + + # # + # + # + + # + # # + # + + + + # + # # + + + + + + + + + + + + + + + + + + + + + + + + + + o o + + + + + o o o o + o o o o o o o o + o + o o o o o o o o o o   o o o o o o o o     o   X X X X X   X   X o     o     o                   X     X X   X X &     &   &             .                                   .                                                                                               5 ",
"  &                                                                         X       &       &   o   o   o       X X X X   X X X o   o o o o o   o o   o o o o o o o o o o o + o o o o o o o o o o o o o o o o o o o o + + o + + + + o + + + o + + o + + + + + o + + o + + + + + 5 + + + + + # + # + + # # + # + # 5 + # # + # + + + + + + # + # # + + + # + # 5 + + 5 + + + # + + # + # # + # # + # + # # # # + + # + # # + # # # # + + + + 5 # # # + # # 5 # # # # # 5 # + # # # # # + + + # # 5 + # # # # + # # # # + # # # # # + # # + # + # 5 # + # + # # + # + # 5 + # + # # # # + # # + # # + # # + # # # # + + # + # # # # # # # + + # # # # # + # + # # # + # # + # # + + # # # # # # # + # + # # + # + + + + + + + + + # + + # 5 + + # # + # + + + + + + 5 # + # 5 + # 5 + + + + + + + # + + + + + + + + 5 + + + + + + # + # + + + + + 5 + + + + + + + + + + + + + # + # + # + + + + + + + + + + + + + + + + + + + + 5 + + + + + + + 5 + + + o + + o + + o + + o + + + + o + o + o + + + + o + o o + o + o o o o o o + o o o o o o o o o o o o o o o o   o o o o o o o o o o o   X   X X X   X X X X X o   o     o o   o     o   o o     X X     X X       &             .                 &                                                                     .                                                 5 ",
"                  &                                                                     &           o     X   .   X   X X X X X   o   o o   5   o o o o o o o o o o + o o o o o o o o O o o o O o o o o o o o + o o o o o + o o + o + o o + + o o + o o + + + + o + + + o + + o o + + o o + 5 + + 5 + + + + + + + + + + + + + + # + # + + + + + + + 5 # + + + + + # + # + # + + + + + # # 5 + # # # + # 5 + # # # # + # # + # # + # # # # # # # # + # # + # # + + # # + # # # # + 5 # # # # + # # # # + + # # # + # # 5 # # # # # # # 5 # # + # + # # # + # # # # # + # # # + # 5 + # # # + # # 5 # # + # # + + # # # 5 # # + + # + + # # # # + # + # + # # # + # + # 5 + # # + 5 # # + # + + # 5 # + # # + # # + 5 # + # + + + + 5 + + # + + + + + + + + # + + + + + + + + + + + # + + # + # + + + + # + + # + # + + # + + # + + + + + + # + # + # + # + 5 + # + # + + # 5 + + + + + + + # + # 5 + # + + # + # 5 + # + + # + + + # + # + # + + 5 + + + + + + + + o + + + + + + # o o o + # + # # # o + o O o + o + o o o o X o o o + o o o o o o o o o o o o   o o o   o o o o o     o o o   X X   X X   X X     o o   o         o o   o   o   X   X X   X   X                     .                         &       &                                                                                                     5 ",
"  &   &     &   X   X X   X       X X   X   X         &     &   X X   X   X X     o o         o o     o     o   X X X X X . X X o o o o o o o       o o o o o o o o o o o o o o o o o o O o o o o o o + o + + o + + o + o + + + o + + o + + + + + + + o + + + + o + + + + + + # + + + + + # + + + + + + # + # + + # + + # + # + + + # # # + # # # # + # # # + + # 5 # # # + # # # # + # # + # # + # # + # # # + # # + + # # + 5 + # # # # + + # # + # + # # # # # # # # # # # # # # # # # # # # # # # # # # # # # # # # # # # 9 # # # # # # # # # # # # # # # 5 + # # + # # + + # # # + # # + # # # + # # # + # # # + + # # # # + # # # # # # + # + # # + # # + # # + + # # # # # + + # # # # + # # # + # # # + # # + + # # # # # + # # + # # # + + # # + # # # # + # # # + # # # # + 5 # # + + # 5 # # + + # # # # + + # # + # + # # # # + + # # # + # # # + # + # # # + # # + + # # # # # # + # # + # # # + + + + + + 5 + + # + + + + # + + # # # + + # 5 + + + o + + o + + + + # o o # % { ~.H > + O o + o + o + + + o o o o o o o + o o o o o o o o o o + o o o o o   o o o o o X X X X X X X X X   X   X X   X X X X     o     o   o     X X   X X   X   X &     & X   X   X X   X   X     &     &       & X X   X   X X     X   X   & &           & &   &   X X   X   X     X X X X     &       &   &       X X   X   9 ",
"&     &     &     X X   X       X X   X X X   X &         &   &   X X     X X   X       o o       o o   o   X X   X X X X X X X o o o     o o o 5   o o o o o o o o o o + o o o o + o o o o o o o + o + + o o + o + + o + o o + + + o + + + o + + + + + + + + + + + + + + # + 5 5 + # + 5 + + # + # + 5 + + + + + + + 5 + + 5 + + + + + # + # + + # + # + # # # # + + # # + # + + # + # # # # + + # # # # + # # # 5 # # # + # # # # + # # # # # # # # + # + # # # # # # # # # # # # # # # # # # # # # # # # # # # # # # # # # # # # # # # # # # # # # # # # # # # + # # # 5 # # # + # # + # # 5 + # # # + # # 5 + # # # # + + # # # + + + 5 # # # # + # # 5 # # + # # # # + + # # # # # + + # # + # # + # + # 5 + # # # # + 5 # # # # + # # + # # # # 5 # # + # # # # + # + # + + # # # + # # # # # + # # # # + + # # # # + # # # # + + # # # # # + # # + # + # # # + # + # # + # # + + + + # # + # # # + # # + # + # + + # + + + # # + 5 + + # + + 5 # + + + + + + + + + + + + o + o + + L _.uX~.< O o + + o o + o o + o o o O o o o o o o o o o o o o o o o o   o o o o o   o o o X X X X X X X X X X X X X X X X X   X X   o o   o       X     X X   X X X     & &   X     X X     X X X X X &         & &     X X     X X   X   X X &                       X     X X X   X X         &           & &     & X   X   X   9 ",
"        .     &   X &   X   X .   X &     .   X     & &   &   . X     X X   X X   X       o   o o     o   X X   X X X X X X X X o o o o o o o o o   o o o o o o o o o o o o o o o o o o + o o o o o o o o + + + + o o + + o + + o + + o + + + + + o + + o + + + + + + + + + + + # + # + + + + + + # + # # + + # # + # + # + + + + # + # # # + # # + # # + # # # # + # # # # # 5 # # 5 # + 5 # # # # # # + # + # # + # + # # + + # + + 5 + # # + + # # # # 5 + # # # # # # # # # # # # # # 9 # # # # # # # # # # # # # # # # # # # # # # # # # # # # 9 # # # # # + # + # # + # + + # + # + # # # # # # + # + # # + # # # 5 + # # # + # # # # + # + + # # + # + # + # # 5 # # + # + # # + 5 # + # # # # # + # # # 5 # # + # # + + # # # + # + # + + # + # # 5 + # # # # + # # + # # + # # + # # # + + # # # # # + + # # # # # + + # + # # + # # + # # + + # + # # # + # + # # # # # + # # # # # + + + + + # + + + + + + 5 + + + # + + + 5 + + + # + + + + + o + + + + + + + + + # o + + + + D ~._.U O O + o o # + o + o o o O o o o o o o + o + o o o o + o o o o o o o o o o o o o o X X X X X X X X X   X X   X   X X   o o         o     o o   X     X X     X &     .   X   &     X   X   &         & &     & X     X .     X X   X     & .           &     &   X X     X     X     X X   &       &     &   &   X X X     9 ",
"  &   &     &   X         X   X   X         X     &               X X     X X   X   o     o   o   o o   X X X X X X X X X X X X o   o o o o o o o o o o o o o o o o o o o o o o o o + o o o o o o o + + + o + o o + + o o + + o + o o + + o + o + + + + + + + + + + o + + # + # + + + + + # + # + + + + + 5 + + + + + + + + # + 5 + + # + # # # # # # + # # + # # # # + + # # + + + # # # # + + # + + 5 # # + # # + # # + # # # # # # # + # # + 5 # + # # + # # # + # # 9 # # # # # # # # # # # # # # # # # # # # # # # # # # # # 9 # # # # # + # # # # # # + # # # # 5 # + # # 5 # + # # # + + # + + # # # # + # # + + # # # + 5 # + # # + # # # # # + # # + # # # # + + # 5 # + # # + # # # # # + + # # # + # # + # # + # # # + + # # # + # # # # + # + # # # + + # # + # # # # # # + # # + + # # # + + + # # # # # + + # # # # # + # + # # + + # # # # # # + # + # # # + + # # # + # # + # + + # + # + + + # + # + + + # + + + # + + + # + + + # + + + + + + + + + + + + o + o + o + # # 9 # - - - + + o o + + o + O o o o o o + o o o o o o o o o o o o o o o o   o o   o o o X X X o . X X .   X X X   X X X X X X       o o o   o o         X X     X X           X   X     .   X   X       & &     &       X X       &     X   &                   &     X X   X X   X X X X X X X X   & &     & &       X   X   X   9 ",
"  &   &     &   X   X   X     X X   X X   X   &   &   & .   &   X   X X X X   X X   X   o         X X X X X X X X X X X X X X X o o o   o o o o o o o o o o o o o o o o o o o o o o o o o o O o o o o + o + + o + + o + + o + o + o + o + + + + o + + + + + + o + + + + + + + + # + # + + 5 # + + # + + + + + + + + + + + + # + + + # # + # # + + # # + # # 5 # + # + # # + # # # # + 5 # # # # # 5 # + # # # # # + # # + # # # + + # # + 5 # # # # # # # # + # # # + + # # # # # # # # # # # # # # # # # # # # # # 5 # # # # # # # # # # # # # # # + # # + # + # + # # + 5 + # # # # + # # # # + # # # + + # # # + # # # + 5 # # # # + # # + + # # # + # # + # + # # # 5 + + # # 5 # # # # + + # # # + # # + # # + # # + # # # # # # # + # # 5 # + # # + # # + # # + 5 # # # + + # + # # + # # + # # # # # # + # # + # # # # + + + # # + # # # # # # + + + # # # + # # + # # # + + # # # # + + # + + # + 5 + + + # + # + # + + # + # + + + # + # + + + + o + + + + + + + o + o + + o o # + + + # + o o + + o + O o o o o o o o o o o O o o o o o o o + o o o o o o   o o   o o o o X X X X . X X X X     X   X X X X X o   o         o         X   X X   X   X &     X X       &   X X   X     &       &     &   &   X X   X X X .       &   &     &       &     X   X X   X X X X X &   & &     &         &     X X X     9 ",
"  &   &       & X     .   X X     X X   X   X       &       &     X   X     X X   X X X   o o   o X   X X   X   X   X X X X X X   o o o o o o     o o o o o o o o o o + o o o o o + O o o O o o o o o + + o o + o + + o + + o + o + o + + o + + + + + o + + + + + + + + 5 + # + + + + + + + + + + + + # + # # + # + 5 # # + + + # + + + + # # + + # # + # + + # + # # # # # + # # + # # # # + # # + # # + 5 # + # + # + # # + + # # # + # # # # + + # 5 + # + # # 5 # # + + # # # # # # + # # # # + # # 9 # # # # # # # + # # # # # # # # # # + # # # # # # # + # # + # # # # # + # # + # + + # # # + + # # # + # + 5 # # # # + # + # # + # # # + + # # + # + # # # + # # # # # # + + # + # # # + + # # + # + # # + # + # # + + # + + # + # # + # # + # + # # + # + # # + # # + + # # # # # + # # # + + # + # # + # # + + + # # # # # + # # + # + + # # # # # + # + # + # # + # # # # + # # # + + + + + + # # + + + + + + + + # + + + + + # + + + + + + + + + + + o + + + + # o + o o + + + + + o o + o + + + o o o o o o X o o o o o o + o o o o o o o o o o o o o o o o o o o o   X X X X X X . X X X X X X X   X   X   o   X   o       o o   X X   X X   X X   & X     X   . &     X X   .       &     & &   X   X     X       X       & &     .     &       X X X   X X   * X X - & & & &   .     . &     & X X     X   9 ",
"          . &     X X   &   X X       X   &     .   &   &     &   X   X X   X   X X   X     o     o X   X X X X X X X X X X X X o o o o o o o o o o o o o o o o o o o o o + o o + o o o o O o o o o + o o + + o + o + + o + + o o + + + + + + o + + + + + o + + + o + + # + # + # + + # + # # + 5 + + + + + + + + + + + + + # + + # + # # # # # # # # # + + # # # # # # + + # # # # + + + + # # # + + # # # # + # # # 5 # + # # + # # + # + # + # # # + # + # # # + # + # # # + + # # # + # # # # # # + # # # # # + # + # # 5 # # # + + + + # # # # + + + # # # + + # # # # + + # # # # # 5 # # # + # # 5 # # + # # + # + # # # + # + # + # # # # # + # # # # 5 # + + # # # # + # + # # # # # + # # + # # 5 # # # # + # + # # # # + # # # # # # + + # # # # # # # # + + # # # # # # + + + + # # # + # # + # + # # + # + # # + # # # # + # + # + # # + # # # # + # # + # # + + + + 5 + + + + # + + + + 5 + + + + # + # 5 + # + + # + + + + # + + + + + + + + o + + + + + o o + + o o + # o o o o o + # 7 o o o o o o o o O o o o o + o o o o o o o o o o o o o o   o o o o o o o o X X X X X X X   X X X X   X   X X   o   o X   o 5     o     o   X         X     X   & X X   X   X X   X   X X &     & &             & X X   X X   &         &   &   &   & &   X   X X   X & & = * 7 8 < * &       &     &     X   X   X   9 ",
"  &   &         X   X X   X     &   .   &   & &             &   X   X X   X   X     X   o       o   X X   X   X X X . X X X X X o o o o o   o o o o o   o o o o o o o o o + o o o o o o o o o o + o + o + + o + o + o o + o + o + o + o + + + + + + o + + + + + + + + + + + + + + + 5 + + + + + + # + # + 5 # + + # + # + 5 + + + + + # # + + # # + + # # # # + # + + 5 # # # + + # # # # # # + # # # # + + # # + # # + # # + # # # # 5 # + # # # + # + # # # + # + # # # + # 5 # # # # # # + # 5 + # + # # # # # + # # # + + # + # # # # # 5 # + # # # 5 # + # # # # + + # # # # + + # + # # + # # + # # + # # + # # # + # + # # # + # # # + 5 # + # # + + # # # + # # + # # + # # # + 5 + # # # + # # # + # + + # # # 5 # + # 5 # # + # + + # # # # + # + + # + # # # # + + # + # # # # # # + # # + # # # + # # + # # # + # # + + # # # + # # # + # # + + # # + # # # + # # # + + # + + + 5 + + # + # + # + + + + + + + + 5 + + + 5 # + + 5 + + + + + + + + + + + + o + + + o + o + o o + + o o o o o o + + o o O o o o o o X O o o o o o o o o o o o o o o o o o o o   o o o X X X X X X X . X X   X X X X X   X X   o     X               o X   X X X X   X &   X     X X   X     X   X   X &   &       &   .   X   X   X   X X   X   &     &       .     &   X     X     & = < 0 0 < , . &       &       &   X X       9 ",
"      &     X X   . X   X X   X X X   X   X X   .     & X X       X X   X   X X X     X       X X X   X X X X . X X X X X .   o o o X o o o o + o X o o o o o + o o + o o o o o o o * o o o o + o + o + o o + o + o + o + + + o + o + o + o + + o + + + + + o + + + + + + + + + + + + # + # + + + # + # + # # + + + + + + # + # + # # # # # # + # # # + + # # # # + 5 # + # # # # + + # # # # + + + # # # + # # 5 # + # # # + # # # # # # # + 5 # + # # # # # # 5 # + # # # # + # 5 # + # # # + # # + + # # # # + # # # # # # # # # # + # # # # + # # # # # # + # # # + # + + # # # # + + # # # + # + # # # + # # # + + # # # # + + # # # + # 5 # # # + # # # + # # + + # # # # + + # # # + 5 # # + # # + + # # # # + + # # + # # + + # + # # # # # # + # + # + # # # + # + + # # + + # + # # # + + # # # # + + # # # # + + # # # + # # + # # + # # + # # # + + # # # + # + # + + # + + + + + # + + + + + # # + 5 # + + + + + # + # + # + + + o + + + + + + o + + o + + + + + o o o o o + o o + + o + o + + o o o o o o o o X + + o o o + o o o o o o o o o o o o   o o o   o X X X X o X X X o X X X   X   X X X X X X .   X   X       X   X X   X X   X X   X   X   & X   X   X     X X     X           X     X   X   X X   X &   X   X X   &   X X     .   &   X   X   X   . & < 0 e 0 < =   X   .           &   &       9 ",
".       X X X         X X   X     X X     X X       X     X X .   X X X X X X     X X   .     X X   X X X X X X X X X X X X o o o o o X o o o o o + o X o o o o o o o o o o o o o o o o o + + o o + + o + + o + + o o + + o o + + + + + o + + o + + + + + + + + + + + # # + 5 + # + + + + + 5 + + + + 5 + # # + + + # + + + 5 + # # + + + + # # + + # # # # + + # # # # # # + + # # # # + + # # # # # + # + # + + # # # + # + # # # # # # # # # # # # + # # # + # # + # # # # # # # # + # + # # # # # # # + + # 5 # # + # # # + + + # # + + # # # # # # + + # # + + # # # # # # + + # # # # + + + # # # + # + # + # # # # + + # # # # + # + # + + # # + # + # 5 + # # # # + + # # # # + + # # # # # + # # # # + + # # # # + # # # # # # # # + + + + # # # # + # + + # # # # # # + # # # # # + + # # # + + # # # # + + # # # # + # + # + + # # + + # + # + # # # # + # # # + # + # + + # + + + + # + # + + + + + + + + + + # # + + + + + + + + + + + o o . + + + + + + + o + + + + + + o o o + o + + o + o + + o o + o o o + + . o o + o o o o o + o o o o o o o o o o o o o o X X X X X X X X . X X X X X X   X   X   X     X X X X       X     X X X X     X   &   X   X X   X   X X     X X   .     & X X X X   X   X   X X     X   X X       X     X X         X X   X   X . & , 0 0 < * & & X X           &   & &   X   9 ",
"  X & X       X   X   X     X   &     . X X   X X     X X     X X   X       X   X   X X X X X X X X X X X X X X X o X X X X o   X o X o O o o o o + o + X + o X o O o o + o o o + o o o o + o + + o + + + + + o o + o + o o + + + + + + + + + o + + + . o + + + + + + + + # + # # 5 + # + # + + + + + + + # + # # # + # # # # # # + # # # # + # # # # + 5 # # # + # # + # + # # + # # + # # + # # # # + # # + # # # # + # # # 5 # # # # # # + # # # # + # # # # + # # # # # # # + # # # # # + # 9 # # # # # + # # # # + # # # # # # # # 5 # # # # # # # 5 # # # # # 5 # + # # + # # + # 5 # # # # # + + # # # # + # 5 + # # + # # # # + # # + # # # # # # + # # + # # 5 # # + # # # # + + # # # + + # # # # # + + # # # # # + + + # # + # + # # # # + # + # + # # # + # + # # + # + # # # + + + # # # + + # # # + + # # # # # + # # + # # # + # # # # # + # # # + # + # # # # + + + + + # + + + + + # + + + + + + + # + + + 5 + + # + + + + + + + o + + + + + + + + o + + + + + + + + + + + + o o + o + o + o o o o o o o o o o o + o o o o o o o o o o o o o o o o o o o o     X X X o X X X X X X X X X X X X X X X X X   X   X   X . X X X X .   X   X         X       X   X X     X X X   X   & .   X   X   X       X   X   X     X   X X     X X     X X   X     X X X   . & - < < * & & X   X   X &       &     . X   9 ",
"& X     X   &   X   X     .   X           X X     X X     X X X X X X X   . X X X X X X   X X   X   X   X X X X X X o . X X X o o o o o o o o o o o o o o o o + o o o o o o o o o o o o o + + o o + + o o o + + + + + o + + + + + o + + + + + + + o + + + + + + + + # + + + + + + + + + + + # + # + # + + # + # + # # # # + + # # # + # # + # # # + # + # # + # + # # + # # + # + # # 5 # + # # + + # # + # # # # # # # # # # # # # # # # # # # # # # # # # # # # # # # # # # # # # # # # # # 5 # # # # # # # # # # # # # # # # # # # # # # # # # # # # # # # # # + # # + # # + # + # # + # + # 5 # # # + 5 # + # # # # + # 5 # + + # # + # # # # + + # # # # + # # # + + # 5 # + + # # # # + + # # # + + + # # # # + + + # # # + # # + # # + # # + # # + # # + # + # # + # # + # # # + # # # + + + # # # # + + # # # + + + # # + # # # + # # + + + # + # # + + # # + # + # # + # # # + # + # # + # + + # + + # 5 # + + + # + + + + # + + + + + + + + + + + + + + + + + + o + + + o + + + + + + + o + o + + o + o o + o o o o + o o + o o o o o o o o . o o o o o   o o o o o o X X X X X X X o X X X X X   X X   X X   X X X X X X X   X X X       X X   X .   X   .   X   X     & &   X   X X &         &     .     & X X   X X   X   X     . X   X X X X   X X X   X   X     X O O + - X & X X X X     &   &             9 ",
"  &   X X     X   X X   & X   X X   X X X   X   &   X   .     X X X X X   X X X   .   X X   X X X   X X X X X X X X o   o X o o o X o o o o + o X o o o . + o X + o + o o o + o o o o O o o + + o + o + + o + + + + + + + + + + + + + + o + + + + + + . + + + + + + + + + 5 + # + + + + + # + # + 5 + + + # # + # # + + + # # # + + # # # # + + # # + # # + # # # # # + # # + 5 # # # + # # + + 5 # # # + # # # # # # # # # # # # # # # # # # # # # # # # # # # # # 9 # # # # # # # # # # # # # # # # # # # # # # # # # 9 # # # # # # # # # # # # # # # # # # # # + # # # 5 # # # 5 # # # + # # # + + # # # # + # + # # + # # # 5 # # # + # # + + # # # + + # # + # # # # # # + # # + # # + # # # + # # # # # + + # # # # # # + # # # + # + # # # # + # # + # # # # + # + # # # + # # + + # # # # # + # # + # # + # # # # # # + # # + + + # # # # # + # # + # # # + # # + # # # # # # # + # # + + # + 5 + + + # + # # 5 + + + # + # + + + + . + + + o + + + + o o + + + + o + . + + + o + o + + o + o + o + + o + o o o o o . o + . + o o o o o + o o o + o o o o o o o o o o X X X X X X o X X . X X     X   X .     X X   X   X X X     X   X X X   X X X   X     X   X   X X X X   X X   X     &   &       & X     X   X   .       X   X   X X   &   X     X   X   X   &   & X X . O X X X X X   X X X X   X X   X   &   9 ",
"      X X   X X . X   X       X   & X     X   &   X   X       X X   X   X X   X   X X X X X   X X X X X X X X X X X . X X X o   X o o X o o o o o + o o o o o + O o + . + o + o o o o o o + o + + o + o o + o + + o + + + + . + o + + + + + + + + + + + + + + + + + + # # + + + # + 5 + + + 5 + + + # + + # # # + # # # # # + + # # # + + # # # + # + # # + # + # + # # + # # # # + # # 5 # # # # # + # + # # # # # # # # # # # # # # 9 # # # # # # 9 # # # # # # # # # # # # # # # # # # # # # # # # # # # # # # # # # # # # # # # # # # # # # # # # # # # # # + # # + # + + # + # # + # + # + # # # # # + # # # + # + 5 # + + # # + # + # # + # # + + # # # + # # + # + + # # # + # # # # + # # # + + # + # # # # + # + + # # # + # # # + # + + # + # + # + # + # + # # # + # # + # # # # + # # + # # # # + # # # + + # + # # + # # # # # + + # + # # # # + # # # + # + # # + + + + + + + + + + + + + + + + + + + + + # + + + + + + + + + + + + + + + + + + + + + + + + + + + + + + + + + + o + o + + + o + o o o o o o o o + o + o o o o o o o o . o o o o o o o o   o o X X X X X X X X X o   X X X X X X X X X   X X X X X   X X X   . X X X X X     X X   X X   X   & X     X X   X     X &   &     & &     X X   X         . &   X   X X   X       X X   X   &   X   X   X X X X X X X X   X X       X     X X       9 ",
".       X X X       X     X X   X   X X X X     X X   X   X   X X X X     X X X   X X X     X X X   X X X o X X . X X X X X X o   o o o o o o o o o o X o o o + o + + o o + o o o o o o o + o + + o + + + o + + + + o + + + o + + + + + + + + + + + + + + + + + + + + + + + + + + # + # + + + + + # + # + # + # + # # # # + # # # # # + + # # # # + # # # # # # # 5 + # + # # # # + 5 # # + # + + + # # # 5 # # 9 # # # # # # # # # # # # # # # # # # # # # # # # # # # # # # # # 9 # # # # # # # # # # # # # # # # # # # # # # # # 5 # # # # # # # # # # + # 5 # # # 5 # # + # # # # + # # # # + # # 5 + # + # # # + # # # # # + + # # # 5 # # # + # # # # # + # + # + # # + # # # + + + + # # + # # # + # + # # + # + # # + # # # + # + # # # # + # # + # # # # + # # # + # + + # + # # + # + # # + + + + # # # + # # + # + # + # # # # + # # # # + + + + # # + + # # # # # + + + + + # + # + # + # + + + + 5 + + + + + + # + + + + + + + . + + + + + + o + + . + o + + O + + + + + + + + + o o + + o + + o o o o o o o o o o o + o o o o . o o o o + o o o o o o   o o   o X X o . X X X X X X X X X X   X     X   X X X X X   X X     X   X X   X   X     X   X X X       X X     X   X X         & .   & & X X   X X     &   X X   X   X   X X     &   X X     .     X X X X X &   X     X X     X X       X X X   X   7 ",
"    .         X     X   X   X X   X     X         X X   &   X X X   .   X X   X X X   X X   . X X X     X . X X   o X X X X . o o o o o o o o o o o o + o o o o o o o o o o O o + o o O o o + + o + o + o + o + + + + + o + + + + + . + + + + o + + + + + + + . + + # + # + # + + + + + # + # + + + + + + # + # # # + + # # + # + + # # # # + + # # # + 5 # + + # # + # # # + + # # # + # + # # # # # + # + # # # # # # # # # # # # # # # # # # # # # # # # # # # # # # # # # # # # # # # # # # # # # # # D # # # # # # # # # # # # # # # # # # + 5 # # # + # # + + # # + # # # + + # # 5 # + + + # + # # # + # + # # # + # + # # # # + # + # # # # # 5 + + # # # + # # # + # + + # # # # # # + + # + # # # + # # + # # # + # # # # # # # # + + # # # + # # + + # # # + # + # # # # + # # + # # + # # # # # # + # # + # # # + # # # + + # # + # + # # # # # # + # # # + # + + + + + + + 5 + + + + + + # # + + + + # + # + + + + + + + + + + + + + + o + + + + o + + + + + + + o + o + o + o + + o + o + o o + o + o o o o o o + o o + o o o + o o o o o o o o o X o o o o o X X X X X X X X X . X X   X X X X X X X X X X     X . X X X X X X X X X X X   X X   X   X       . X   X   X X   X X   &             X   X X   &     X   X X   X   &   X .     X X   X X     X     X           X X   X   X X   X .   X     X X   5 ",
"      X X     X &     X X   X     X X   X   X .   X X   X   X X X X   X X   X X   X   X X X X X   X X X X X . X O X X X X X X o o o o o o o o o o o o o o o X o o + o + o + o o o O o O O o + o o o + o + + o + + + + + + o + + o + + + o + + + + + + + + + + + + + + # + # # + + # + # + # + + + + # # # + # # # # + # # + # # # # + # # # + # 9 # # + # # # # + # + # # # + # # # # # 5 # + # # + # # # # # # # # # # # # # # # # # # # # # # # # # # # # D # # # # # # # # # # # # # # # # # # # # # # # # # # # # # # # # # # # # # # # # # # # # # # + # + # # # # + # # + 9 # # # # + # # # # # + + # # # + # # # # # # # # # # # # # # + + # # + # # # + # + # # # + # # # # # + # + + # # # # + # # + + # # # + # # + + + # # + # # # + # + # # # + # # + # # # # # + # # # + + # # + # + # # # # # # + + # # + # # # + # # + + # # + # # # # # + # # # + # + # + + + 5 + + + + # + # + + + + + # + + # # + # + + + + + + + + + + o + + + o + + + + + + + + o + + + + o + + + + o + + o + o + o + o + o o o o o o o + o + o + o o o o o o o o o o o o o o o X X X X . X X X X . X X X X . X X X X X   X   X   X X X X X     X X X X X       X   X     X X   X   X X   X   X   X X   X     X X   X X   X   X   X     X   X X   X   X     X X   X   X   X X         X   X X   X   X X   X X   X X   X X   X     X o   5 ",
"  X X X X   X     X X     X X X X     X X X   X X X   X   X         X     X     X X X X X   X   X X X   X X X X X X X X X X X o o o o o   * o o o o + o o o O + o o o + + o + o o o o + o + o o o + + + o + + + o + + + + O + + + + + + + + + + + + o + + + + . + # # + + + + + + + + + + # # o # # # + # + # + + # + # # + # + # + # # + # + # # # # # # + + # + # # # + # # 5 # # + # + # # # # # # # # # # # # # # # # # # # D # # # # # # # # # # # # # # # # # # # # # # # # # # # # # # # # # # # # # # # # # # # # # D # # # # # # # # # # # # + # # # + # + + # # 5 # # # # # + # # + # # + # # # # + # # 5 # + # # # + + + # # + + # # + # # + # + # # # + # + # # + # + + # # # # # # # + # # + # # # # + # # + # # # + # # + # + # # # + # + # # + # + # # + # # + # + + # # # + # # # # + + + + # # + # # + # + # # + # # # # + # # + + # # # # + # + + + + + # + + + # + + + + + + + # # # + + # + + # + + + + + + + + + + + + + + + + + + + o + + + + + + + + + + + + O + + o o + o + + + o + o o o o o + o + + o o + o o . o o o o o o o + o o . o o X o X X X o X X X X X X O X   X   X X X X X X X X X X     X   X X     X X X       X X X X X   .   X   X X   X X X     X X   X X   X     X   X   X   X X X X   X X     X         X   X   X X X X     X   X X X X   X X   X     X X   X         X X       9 ",
"  X   X   . X X &   X X   .   X   X   X   X X     X   X X X X X X X X X X X X X   .   X X X X X   X X   X X X X . X X X X X X o o o o     o o o o o o o O o o o o o + o o + o o o o o o o o * + o + o + + o o + + + o + + + + + + + + + + + + o + + + + + + + + + + + + # + # + + 5 + + + # + 7 + # # + # # + # # + # # # # + # # # + + + # # # # # # # # # + # # # + # # # # + # # # # # # + # + # # # # # # # # # # # # D # # # # # # # # # # # # # # # # # # # # 9 # # # # # # # # # # # # D # # # # # # # # # # # # # # # # # # # # # # # # # # # # + # # # # + # # # # + # # # # # + # # # # # + # # # # # + # + # # # # # # # # # # # # # # # # # + # + # # # + # + + # # # # + # + # # + + # + # + # # # + # + # + # # # # # # # + # + # # # + # + + # # # # # # # + # # # + + # # # + + # + # # # # + # # # # # + # + # + # # # # # + + + + # # # + # + + # + + # + + # + 5 + # # + 5 # # + + # # + # + + + + + + + + + + + + o + + + + + + + + + + + + + o + + + o + + o + + + o + o o + + o + o + + o o o o o + . + o . + o o o o o o o o o o o o o o o o X X X X X X X X X X X X X X X X X X X   X X X     X X X X X X X   X   X X X X . X X X X X     &   X &     X X     X X X   X   X X   .   X X X     & X X   X X       X   X . X   X X X   X     X   . X   X     X       X X   X     X X   X   X   X   o   9 ",
"  X           X   X   X     X       .   X     X X   X   X     X   X X   X X   & X X       X   X X X X X X X . X X X O X X X X o   o o o * o o o . o o o o o o o o + . o o + . o o o O o o + o + + o + o o + + + + + + + + + o + + + + + + + + + + + + + + + + + + + + + + o + # # + # + + + + + + # 5 # + # # # # # # + + # # # + # # # # # + # # # # # # # # # # # # # # # # # # # # # # # # # # # # # 9 # # # # # # # # # # # # # # # # # 9 # # # # # # # # # # # # # # # # # # # # # # # # # # # # # 9 # # # # # # # # # # # # # # # # # 9 # # # # # # # # # # # # # # # # # # # # # # # # # # # # 5 # # # # # # + # # # # # # # # # # # # # # + + # # # + # + # # # # # # + # + # # + # # + # # + # # # + + # # + # # # + + # + + # # # + # + # # # # # # + # + + # # # # + + # # # + # # # # # + # # + # # # + + # # # + # # # + # + # # # + # # o # # + # + + # + + + + + + # + + + + + + + + + + + + + + + + + + + + + + + + + + + + + + + + o O + + o + + + + o + + + + + + + + + o + + o o + o + o + o o o o + o o + . o o + o o o o o o o o o + o o X X o X X X X X X X X X X O X X X X X X X X X   X X X X X X   X   X X X X X X X   X X   X   X   X     X     X   X   X X     X X   X   X         X   .         X     X X     X X   X X   X   X   X X   X X   X   X X   X X X X   X X   X     X   . X X X       9 ",
"X X X X   .     .   X X     X X X X X X X X X X X X X X   X X   . X X   X   & X   X   X . X X   X X X X O X X X X X X X X X X o o o o O o o   o o o + o o o o o o o + . o + + o + o + + + o + o + o + o + + o + o + + + + o + + + + + + + + o + + + + + + + + . # + + # # 7 + + + # + + + # + + + # + # # + # + + # + # # + # + # # # # # # + # # # # # # # # # # # # # # # # # # # # # # # # # # # # # # # # # # # # # # # # 9 # # # # # # # # # # # # # # # # # # # D # # # # # # # # # # # 9 # # # # # # # # 9 # # # # # # # # # # # # # # # # # # # # # # # # # # # # # # # # # # # # # # # # # # # # # # # # + # # # # # # # # # # # # # + # # # + # # + # # # + + # # # + # # + # # + # # # + # + # # # # # + # + # # # # # + + # # # + # # # # + # + + # # # # + + + # + # # # + + # # # + + # # # # + + # # # + # # + + + + # + + + + # # # # + # + # + + + + + # o + + + + + + + + + + 7 + + + # + # + + + + + + + + + + + + o + + + + + + + + + + + + o + . O + + + + + + + o + o o + + o o + + o + o + o o . o o o o o + o o o o o X o o o o o + o o o O X O X X X X X X o . X X X X X X X X   X X   X   X X   X X X   X X   X X .   .       X X X X   X   X X   .   X X X X X X X X X   X X X   X   X X X X X   .   X   X     X   X   X X     X X X X X X X   X X   X X X X X X X   X X   X X X X X     X   X   9 ",
"  X   X       X   X X   & X   X   X   X X   X X X   X   X X X X     X X X X &   X X X       X X X X   X X X X X X X X X X o O X * X o X o o X o o o o o o . o o o o o o o . o + o + + o + + o O + + o + + + . + + + + + + + + + o + + + + + + + + + + + + + + + + . # # + # # # + + # + + + + + + # # # # # # + + # # # # # # # # # # # # # # # # # # # # # # # # # # # # # # # # # # # # # # # # # # # # # # # # # # D # # # # # # # # # D # # D # # # # # # # # # # # # # D # # # # # # # # # # # # D # # # # # # # # # # # # # # # # # # # # # # # D # # # # # # # # # # # # # # # # # # # # # # # # # # # # # # # # # # # # # # # # # # # # + + # # + # + # + # # # + + # # + # + # # + # + # # # # # + + # # # # + # + + # # # # # + # + # # + # # # # # # + + # # # # # # # + # # # # + # # # # + + # # # + + # # + # # + + # + + + + + # # + + # + + # + + # 5 # # o + # + # + # + # + # + + + + + + + + + + + + + + + + + + + + + o + + O + O + + + o O + + + + . + + o + O . + o O + o o + + o o + o o O + o O o + o O + . o o o o + O o O o o X X X X X o X X o X O X X X X X X X X X . X X   X X X   X X X   X X X X X X X X X   X     X X X X   X   X X X X X X X     X   X X   X X X X   X X X X X X   X   X X &   X X X . X X X X X X X X X X X   X   X       X X X   X X   X X & X   X X   X   X X o X X X   9 ",
"  X .     . X X   X X X X X X X X X X X   X X   X X X X   X   X X   X   X   & X X X X & X X X X X X X X X X O X X O o o X X o X X X X X X o * o o o . o o o . o . + o + o + o + + o o + o + + O + o o + + + + + + + + + + + + + + + + + + + + + + + + + + + + + + # # + D + # # + + + + # + + 7 + # # + # # # # # # # + # # # # # # # # # # # # # # # D # # # # D # # # # # # # # # # # # # # # # # # # # # # # # # # # # # # # # D # # # # # # 9 # # # # # # D # # # # # # # # # # # D # # # # # # D # # # # # # # # # # # # # # # # # # # # # # # # 9 # # # # # D # # # # # # # # D # # # # # # # # # # # # # # # # # # # # # # # # # # # # # # # # # # # # # # # # # # # # # # # # # # # # + # # + # # # # # # # # # # # # # # # # + + + # # # # + # # # # + + + + + + + + + + 7 + + + + + + + + + + # + # + + + 5 # # + + # + + # # + + + # # # # # # + # + + + + + # # + # + # + + + + + + + - - + + + + + + + # + + + o o # + + + o + + + + + + + + + + + + + + + . o + . @ + + O + O O + + + o + + o + O o + O O . + O + o + o o X o O o O O o O o o o X X X X X X O X o X X X X o o X & X X o X X o   o X X X X X X X   X X X X X     X X X X   X   X X X X X X X   X   X X X X   X X   X   .   X   .   X   X X X X   X X   X X X X X X X   X     X   X . X X X X . X X   X X   X X   & X X X X X X X   X X X   X   9 ",
"  X X   X X   X X   X   X   X X X   X   X X X X   X   X X X X X X X X X     & & X X X X X X X X X X X X X O o X X X o X O X X O X X X * X & o o o X + o + o o + o o + o . + o o o + + o + o + o + o + . + . + + . + o + + + + + + + + + + # + + + + # + + + + + + + $ ^ #X} # + + + + + # + + + # # # # # + # # # # # # # 5 # # # # # # # # # # # # # # # # # # # # # # # # # # # D # # # # # D # # # # # # D # # # # # # # # # # # # # # # # # # # # # # # # # # # # # # # D # # # # # # # # # # # # # # # D # # # # # # # # # # # D # # # # # # # # # # # # # # # # # # # # # # # # # # # # # # # # # # # # D # # # # # 9 # # # # # # # # # # # 5 # + # # # # # + # # # # + # # # # # # # # # # # 5 # # # + # # + # # # # + # # + # # # # # # # # # # # # # + + # + + + # + + + + + + + + + # # + # + + + + + + # + + + + + + + # + + + + + # # # # + # + # + + + # + # + + + + + + # + # 5 + # + + + + # + @ + @ + + + # + 7 + + + + + + + + - + + + + + + . + + + + + + + + O + O O + O O + o + + o o + + + + + O O + o o + + . o + X . O O O o o . o o o o X O X O X X o X X + X X X & o o X X X X X X X X X X X X X X X X X X X X X X X X   X X X X X     .     X X X X X X   X   X X X X X X X   X     X X X X   X   X X X X   X X     X X X X X X X X X   X   X   X X   X X X X   X   X X X   X   X X   X   X X X X 9 ",
"X X X X         X   X   X X X   X X X   X   X X X X X X X     X X X X   X   X X &   &   &   X   & X   X X X X   X X & X X X X X X X & o X X O O O o o O X O o O O O o O o + O o + + o + + o + O O O O + + O O + + O O - + + o o o + + + + + + + 7 + # # + # # + o # # ^ #X{ # # + + + + + + + # # # # 5 # # # + # # # # # # # # # # # # # # # # D # # 9 # # # # # # # # # # # # # # # # # # # # # # # # # 9 # # # # # D # # # # # # # # # D # # # # # # # # # # # # # # # # # # # # # # D # # # D # # # D # # # # # # D # # # D # # # # # # # D # # # D # # # # # # # # # # # # # D # # # # D # % # 7 # % # # # # # # # # # # # # # # 5 # # # 9 # # # # # # # # # # # + 5 # # # # # # # # # # # # # # + # # # # # # # # # # # # # # # # # # # + + + # + + + + + # # # # # # # # # # # # + + + # + + + # + + + # + + # o o + + + # + # + + + - # + # # + + # + + + + + + + + + + + # + # + + # + + + + + 7 + o # # + + + + + + + + + + + + + + 5 o + + + + + + + @ + O O + O @ + O O @ + O + . o o + + o + o O + O O + O O O + O o o + o O O O o * X o X X X X * O X X O X X X X O & X X * X o X   X o X X   X X &   & X   & X & X X &   X X X X X   X X X X X     X X X X X   X X X X X X   X   X   X X X X X   X X X X X   X X X   X X X X X   X X X X X   X X     X X   X X     X X X X X   X X X   X X   X X   X X   X   q ",
"  X   X X . X X X X X X   X X X   X X X X X X X X     X X X X X X   X   X X   & &   & & & & &     X * X X * o X o X O o X * O X O o & X X O X O o O O o O O O O O + + . O O + o o + + o o + o + O O + O O . + + + + + - + + + 7 o + + + + + + + + + + + # o # + # + % # D % # o + # # + + + # # # # # + # # # # 5 # # # # # # # # # # 9 # # # # # # # # # # D # # # # # # # # # # # # D # # # # # # # # # # # # % # # # # # # # # # # # # # # # D # # # # # # # # # # # # # # # # # # # # # # # # # # # # # # # # # # # # # # # # # # D # # # # # # # # # # # # # # # # D # # # # # # # # # # # # # # # # # # # # # # 7 # # # # # # # # # # # # # # # # # # # # # # # # # # # # # + # # # + # # # # # # # # # 5 # # # # # # # + # + # # # # + + + # + + + # # + # # # # # # # # # # # # # # + # + + + + + + + # + # + 7 + # + + + + + + + # # + + + # + + + # + + # + # + # + + + + + + # + + + + # + # + + + # + + + # + + # + + + + + + + + + + + + + + + + + O + + O + @ O O O + + O + @ + O + + o + o + o + o O O + O O O O . o o o X O o o & X X X O X X O X X X X o O X & X o * o X X X X * &   X X X * X X & X & & X & X X X   & X     X X X   &   X X X X X X   X   X X X     X X X X X X X   X   X X X   X   X X X   X X X   X   X X X   X   X X X   X X X X   X X X X X X X     X X X   X X X X X   X X X X X X   9 ",
"X X X &   X X   X   X   X X X   X X X     X   X   X X X X   X X X X X X X X X & X & . X & X X X & & * X o & &   X O X X X X O o X X o X X X X X O o o O o O o O O o + + O o + O + o o + o + o O + O O + O O + @ + + + + + + + + + + + + + + + # + + + o + + + + # o # # + 7 # # + + + + # + + # + # # # # # # + # # # # # # # # # # # # # # # # # # # # # # # # D # # # # # # # # # # # # # # # # # # # # # # # # # # # # # # # # # # # # # # # # # # # # # # # D # # D # # D # # # # # # # # # # # # # # # # # # # # # # # # # # # # # # # # # # # # # # # # # # # # # # # # # # # # # # # # # # # # # # # # # # # # # # # # % # # # # # # # # # # # # # # # # # # + # # # # # 5 + # # # # # # # # # # + # # # # # # # + + # # + # # # # # # # # + + + + + + 7 # # # # # % # % # % # # # # # + # + # + + o + + + + + o # + + + # o + + + + + 7 + + + + + + + # + + # # + + 5 + # + + + + 5 # + # + # + # + + + 7 o + - + + # + + + + + + + + + o + + + o o + # @ + O O O + O + + + O + + O + + o + + o + + + o + O O o o + O O O O + O o o O o o * X X X o * X O X O X * & o X X & X X X X X & X X X X * X X X X & & X &   & & &   &     X     X X X   & X X X   X X X X X   X X   X X &   X X X   X X X   X X X X X X X   X X X   X X X   X X   X X X X   X X X   X X X X X     X X   X X   X X X X   X X X X   X X X X X 9 ",
"X X   X X X & X X X X X X X X X X X X X & X X X & X X   X X X X X X X & X X X   & & & X   &   & o     X   X o & X X O X O X O X O O X O o O O O o O O o O o O O O O O o O O + O O + O O O O + O . + O + + @ O + O + * - + + + + + + + + # + + + + + + 7 + # # o # # # # # # # # # # + # + + 7 + # # # # # # # # # # # # # # # # # # # # # # # # # # # # # # # # # # # # # D # # # # # # # # D # # D # # # # # D # # # # # # # D # D # # D # # # # # # # # D # # # # # # # # # # # # # D # # # # # # # # D # # # # # # # # # # # # # # # # # # D # # # # D # # # # D # # # # # # # # # # # # # # # % # % # # # # # # # # # # # # # # # # # # # # # # # # # # # # # # # # # # + # # # # # # # # # # # # # # # # # # 7 # # + # # # # # # # # # # # # # + # # # # # # % % % # % D # % % # % % # # # # + # # + # # # + # # 7 # # 7 o # 7 + # # + + o 7 + # + 7 o # # # # # + # # + + + + + 7 + + o + # + + + + + + # + # + + - + * # + + + + + o 7 + # + + + + 7 # + + + @ + + O + . O @ O O O + O O + o o O O O o + O O O O O O + o + o X O O o O O O O O o O O O X X X X O o X X o X o X X X o X X * X *   X X X X X X & X X & X X & & & & & X &   X X X &   X X X X X X   X X X X X X X X   o X   X X X X X X X X   & X   X X X X X X X X X X X X & X X   X X X X X X X X X X X X X X & X X X X X X X X X X X   & X & X & X X 9 ",
". X & X X X &     & & & X & & &   & & X X   & & & X   &   & & X   & & & X X X X X X & X & X X & X X X X & o X X X O X O X o X X X O X o o O O o X o O o o o O O o + O O . + O O O o O O + + + . o @ + O O + . + + + = + + + + + + + # + o + + + # + + + + + + 7 # # # # # o + # # # + # + # # # # # + # # # # # # # # # # # # # # # # # # # # # # # D # # # # # # # # # % # # # # # # # # # # # # # # D # # # # # # % D % # # # # D # # # # # D # # % # D # # # # # # # # # # # # # # # # # # # # D # # # # # # # # # D # # # # # # # # # # # # # # # D # # # # # # # # # # # # # # # # D # # # # # # # # # # % # # % # # 7 # # # # # # # 9 # # # # + # # # # # # # # # # # # # # # # # # + # # # + 5 + # # # # # # # # # # # # # # # # # # # # # # # # # # % 7 % % D r r r r r D % r % % # % # # # # # 5 # # # # # # + # + # # # # # # # # # # # # + # # # # # # # # # # # + + + # + + + + + + + # + + + + + + # + + + + + + o + + + + # # + + + + + ; + + + + + + + @ O + @ O + . O + O + O O + O O O + O O o o O O o O O O O O O O O o O O X o O o O O O o X X X O X X X X o o * X X & o *     X o   X & X * X X X X O X X & &   &   X X & & &     & & & & X & &   & & & X & & &   & &   & & X   & & & & &   & X & & &     & &   & & &   & & & X & &   & & & & X   & & & &     & & & & & X & &   &   & & &   X X X   o X q ",
"  X   & & & & & & &   & & &     & &   & & & & X &   & & & &   & & &   & X X X & & X & O X X X X X & X o o & o & X O X X o X o . o o O O o O O o O O o O o O o O O O O O O + o O O + O O + O + O O O O + + + @ + @ + + @ + o + + + + # + + # + # # + # + + + + + # + # # 9 # # # # # 7 + # # # # # # # # # # # # # # # # D # # # # # # # # # # # # # # # # # # D # # # # # # # % # # # # # # # # # # # # # # # # # # # # # % # # # # % # # # # # # # # D # # # D # # D # D # # # # # # # # # # # # # # # # # # # # # # # # 9 # # # # # # # # # # # # # # # # # # # # # # # # # # D # # # # # D # # # # # # % # 7 # # # # # # # # # # # # # # # # 5 # # # 5 # # # + # # # # # # # # # # # # # # # # # # # # # + # + # # # # # # 5 # # # # # # # # # # # # # # % % % r r D D D D D r D D r % % % # # # # # # # # # # # # # # + 7 # + # # # # # + 7 7 + # # # # + # + # # # + # # + + + + + + + + + + + + + + + o 7 + + + # + + + o + + + + + + + + + + + + + # + @ @ . O O + O + + O + + @ + O + o O O O O o O O . + O . + + O O O + X o O O X O o O o O o O o O o O o o X X O X X * - - & X X X X X X * & X X X X & X O & X & X & & & & & X X & & & & & X &     &   & & &   &   &   X & & & &   & & & X   &   & & &     & & & & & & & X   X & &   &     & & &   & X & X X   & & & & &   &     & & & & & &   & & & & X X & & X q ",
"  &   & & &   &   & & &   & & & & &   & & &   & & & &   & &   & & & &   & & & & & X & X X X X X X & * X & o X   X X o X X o o O o O X o O O O O O O * O O o O O O O O O o O + O O + + + . + + + O O + + @ + + @ + @ + - 7 o # + + + + # + # + # + # + # # + + o # # # # + # + # # # # # # # + # # # # # 5 # # # # # # # # # # # # # # # # # # # # # # # # # # # D # # # # # # # # # # # # # # # # # # # # # D # D # # # # D # # # # # # % # # # # # # # # # # # # # # # # D # # # # # D # # # # # # # # # # # # # # # # # # # # # # # # D # # # # # # # # 9 # # # # # # 9 # # # # # # # # # # # # # # D # # % # # # # # # # # # # # # # # # # # # # # # # # # # # # 5 + # # + # # # # # # # # 5 # # # # # # # # # + # + # # # # # # # # # # # # # # # % # % % D r r r b b D D D D r z r D % D # # # # # # # # # # # # # # # # # + # # # # # # # # # # # # # # # # # # + # # # + + # + + + # # + 7 + + + o # + + # + o 7 + + + 7 # o + + + + + + - + + + + @ + + + + + O O + O O O + O O O + O O O O O O O O O O + O o + O + O o O X o O O O X O o O O O O O X O O o X O o + * 4 4 4 p 4 > & O X X     X & X X X X X X X X X X &   &     X X X & &   & &   & & & & &   & & & &   &   & & X & & & X & & & &   X & & & &   X &   &   & & & &   & & & & &   & & &   & &   & X     &   &   & & & &     &   &   &   &   & X & &   9 ",
"    X &     & & & &   &   & &   &   & &   &   &   & & & &   & & &   &   &   & & X X & X & X X & *   X o X X X * X O X X X O X O o O o O O o O X O o o O o O o O O O O + + o o O O o . + + + . + @ + . + O + O + + + @ O + + # + + # + + + + + # + + + + o # # 7 # # # # # # # + # # # # # # # # # # # # # # # # # # # # # # # # # # # D # # D # # # # # # # # # # # # % # # # # D # # # D # # # # # # # # # # # # # % # # # D # # # # D # # % # D # % % # # # # # # # # # # # # # # # # # # D # # # # # # # D # # # # D # # # # # D # # # # # # # # # # # # # # # D # # # # # # # # # # # # # # # # # # # # # # # # # 7 # # # # # # # # # # # # # # # # # # # # # # # # # # # # # # + # # # # + # # # # + # # # # 7 # # # # # # + + + # # # # # # # # # % % % D r b D r b b b D z D s r r % r % D # # # + # + # # # # # # # # # # # # # # # + # # # + # # # o 7 # + # + + + + + + + # + # # + + + + + # # + # # + + + + # + + # # + + + + + + + - + @ + + + @ O + + . + @ O + @ O @ O + + . @ O O O + o + o O O O O O O O o O O O O O o o O o O X o O X o o O X o X O o O O - p J E E K g < - X X * X X X X X O & X O X X X X & & & & & X X X X & &   & & & &     & & & &   &   & & &   &     & &     & & & &     & & & &   & & & &   & & & &     & & & &   &     & & X & & X & X & & &   & &   X & & & & &   & X X X & o   q ",
". &   & & X &   & & & X & X & & & & &   & X & &   &   & &   &   & & &   & X & X X & X X X O X X   o   & X X O * o X X O o X o O X O X O o O o O o O O O O O o O + O O + O X O o o O O O O O + O o O + O + O + + + + > O @ + + * + + + + + # # + + # + # + # + # # # # # + # # 7 + # # # # # # # 5 # % % % # # # # # # # # # # # # D # # # D # # # # # # # # # D # # # # # # # # # # # D # # D # # # # D # # # D # # # # # # # % % D # # # D # # # # # # # # # # # # # # # # # # # # # # # # # # # # # # # # # D # # # # # # # # # # # # # # # # # # # # # # D # # # # # # # # # # # # D # # # D # # # # # # # D # # # # # # # # # # # # # 5 # # # # # # # # # # # + # # # # # # # # # # # 5 # # # # # # # # # + 7 # + # # # # # # # # # # # # # + # # % r r D D D b z b ..b ,.b b b b D s r % D # % # # # # # # # # # # # # # # # # 7 + # # # - # + 7 o + > # + + + + # + + + # + + # + + + + + + + + + # + + # + 7 o o > + + - + + + + @ @ + @ + + + @ + + @ + O O @ + O + O O + O O + O + O O o + . o + O O O O O O O + O O O O o O o O O o O O O O o X O o O O X X X X ; G ~ b.I.E.N.E 4 , * *     & &   & X O X X X & & &   &   X &   &   &   & &   &   & &   & & & &   & &   X   & & & &   X   & X   & & & & &   & &   &       & & X   &   & & & & & X   & & X & & &   & &     & & & &   & & &   &   & & & & &     X   9 ",
"  & &   X & & & &   &   &     &   & & & &     & & &   & X & & &   & & & X & & X X X X O & X X X X X   * X X X X O O O X O X O X o X O o O o O O O o O O O O O + o O O O O O O O + O O + O + . O O @ + + . + + @ + @ + + + + + - + + + + + # * # + + + # + + + # # # # # # # # # # # # # # # # # # # % % % % % # # # D # # # D # # # # # # # # # # # # # # # # # % # # # % # # # # # # # # # # # # # # # # # # # # # # % # D # # # # # # # # # # # # D # # # # # D # # # # # # D # # # # # # # # # # # # # # # # # # # # D # # # # # # # # # # # # # # # # # # # # # # D # # D # # # # # # # # # # # # # # # # # # # % # # # # # # # + + # # # # # # + # # # # # # # # # # 5 # # # # # # # + # # # # + # # # # # + # # # # # # # # + 7 # # # # + # 7 % % % D D l D b b ..X.,.6.,.,.b b b b D r r D # # # # # # + # # # + # # # + # # # # # > # + + # + + + + # + # # + + 7 + + + + + + + # 5 # + # # + # + + + > # + # + + + + + - - + - + O + + = + + + O @ + + + @ + O + O + O . + + . O o O O O + + o O O + o + o o + O O + o o O o O o X O O o O o O O X o o O O X o o 4 j d.>XjXcX@Xs.h 0 & * X X   X & X o & X . X X & &   & & & X & & & X & & &   & & &   & &   & & & &   & & & & &   & & X & & & & &   &   & X & &   & & & & & X & & & & &   &   &   & & &   & & &   & X & &   &   & & &   & & & & &   &   & .   X X q ",
"  &   & X & & X &   & & & & & X X &   & & & & &   & & & & X X & X X   & & X X O & X X X O X & X o X X X X * o o + X o X X O + O o o O O o O O X o O o O o O O o O O o O o O O O + O O o + O O + + O + O @ O O @ O @ + @ - + - + + 7 + + # + > + + o + # + # + # # + # 5 # # + # # # + # # # # # # % % D D D r % # # # # # # # # # # # # # # # # # # # # # # # # # % # # 9 # # # # # # # # # # # # # # # # # # # # # # # # # # # # % # # # # # # # # # # # D # % # # # # # # # # D # # # # # # D # # # D # # # # # # # # # # # # # D # # # # # # # # # # # # # # # # # # # # # # # # # # # # # # # # D # # # # # # # # # # # + # # # # # # + # # # # # # # # + 5 # # # # # # # # + # # + # # # # + # # # # # # # # # # # # + + + # # # + # # # # # % % % r r r b b b ,.,.6.G.].n.6.2...b b D D r % # % # # + # # + + + + + # + + # + + + + + + + + # + + + - - + + + + + + + + + + + # + + + + + o 7 + + # + + o + + + + + - + + O + + + + + + + + + + @ @ O O O O O + @ O + + O + O O + O O O O O o + O O O + O O O + + o O O O O o O o O O o O O o O O O o o X O X X X & 4 J |.aXPXPXdX{.j - * X &   X & & & X X X X O & & X &   & & & &   & &     & & &   & &   & & X   X & & & & &     & & X & & &     & & X & & &   X & X & & &   & &   & X &   &   & & & &   &   & & & &     & & & & X & X & &   &   & & & X X X & X X q ",
". & & & X O & & & & &   X & X & & &   &   & X X & &   & X & & X X X   & X & X X X X & . X X X X   X & o X o o o o X X X X X O o O o X o O o o O O o & O + O O + O O + O O + o + O O O + @ O O + + O + . + O + + + - + + + + + + + o + o 7 + + + + 7 + + 7 + + + # # # # # # # # # 7 # + 7 # # # # D D ^ ( D D % # D # # # # # # # # # # # # # # # D # # # # # # I ~.% # # % # # # # # # # # # # # # # # # D # # # # D # # # # # # # # # # # # D # # # # # # # # # # # # # # # # # # # # # # # # # # # # # # # D # # D # # # # # # # # # # D # # D # # # # # # # # # # # # # # # # # # # # # # # # # # # # # # # # # + # # 7 # + + # # # # # # # + # # # # # # # # # + # # # # + # # # # # # # # # # # # # # 5 # # # # + + 7 # # # # # + # # # # # # % 8 D D z b ..,.G.G.[.XX}.].].G.2...b b b r D D % # # # # + # + # + + + # + + + + + + + > + + + + + # + + + + + + + + # + # + 7 + + + # + + + + + + + + + o + + + + + + + + + + + - + @ @ + + @ = + + + @ O + O O O O @ . + O + + + O + O O O O O O O O O O O O O o + O o O X O O X O o O O o O o X O o o X O O & O - 4 J E.iXJXFXsX^.j < * o X X & X X X X O X X &   & & X X X X X X & X X & & & X & & &   & &   & & &   & &   & &   & X & & X X X & &   & &   & & & X & &   &   & &   & & & & & &   & X X & &   & &   & & & & &   &   & &   &   & & & & X & X X & X X q ",
"  & X . X X & X &   & X & X X &   & X & & X X & & X & & X & & X & & O X X X X & X O . X & X X X & & & X o & X o o X & * * X X O O O X o O o O o O O O + O o + + O O O O O . O O O O + + O + O + + O O O + . + @ + - + + + + + + + + # + - + # + + + + + o # + # # # # # # # 7 # + # # # # # # % % D ^ ~.~.( ^ D % # # # # # D # # # # # D # # # D # # # # D # # I ~.D # # # # # # # # # # # # # # # # # # # # # # # # % # # # # # # # # # # # # # # # # # # # # # D # # D # # # # # # # # # # # # # # # # # # # # # # # # # # # # # # # # # # # # # # # # # D # # # # # # # # # # # D # # # # # # # D # # # # # # # # # 7 % # # # # # # # # # # # # + # # # + # # # # # # # # # # # # # # # + # + # # # # # + # # # # # # + # # + # # # 7 + + # # % % r s s l b ,.6.G.[.#X4X#X=XXX].6.,.b D D r % % % # # # @ # + # + @ # + # + + + + + > + - # # # # + # # # + # + # + + + o + + + + + 7 + + # + # 7 o o + + 7 + # + + + + + + + + + - + + - O @ @ + + + . + + - O O O O + O + + O + . O O O + O . + O O o + o O o + O O O O o O O o O O o O o O o o o O . X o X O O X & < g i. XuX6X Xr.p < o X X X X & O X X X X & X & X & O X X O X X X . & X & X & X & &   & & X & X & & X & & &   & & X & &   X X X & & X   & & X & & & X & & & X & X & X   & X & & X X & & & & & X & & X &   & X & X & X & & & & X & & X X X &   &   q ",
". & X & X X & X X & & X X X & X & X O X X X O & X X X X X X X X . & X X O & X X X X O X X X O X X o o X o X X X * O & & O O + X O X O O o O o O X O X o O O O O O O O + O + + O O + o . + O + . O + @ + + + + + # + + - + + + + + + + + + + + - # + @ + o + + # # + # # # + + + # # # # # # # % % D 1.^._.~.D % % # # # # # # # # # # # # # # # # # # # # # # # # D # % # # # # # D # # D # # # # D # # # D # # # # # # # # # # D # # # # # # # D # # % # D # # # # # # # # D # # # D # # # # # # # # # # # # # # # # # # # # # # # # # # # # D # # # D # # # # # # # D # # # # # # # # # # # # # # # # # # D # # # # # # # % % # # # # + # # # # # 5 # # # # # # # # # + # # # # # 5 + # # # # 5 # # # # # # # # # # # # # # # # # 7 # # # # # # % % D s l b b ,.G.].#XuXdXhXaX#XXX].6...b z s D D % # # # @ + o # + + + + + + # + + - + + + + + # # + @ + @ + + + + + # + # # # + + # + + + + # # + # + # # + # * + o + + + + - + # + + + ; + + O + @ + + @ O + = O + O + @ O O + O + O O o + + + O O . + + + O O O O O O O O O o O o o O O X o . o o X O X o O O X X & ; 4 J ~ b.m.t.W 4 & * X X & & X X O X X X X X & & X X & X X X O X & X X O X X X X X & X X X X X O X & X X X & X X X X X X & & X X X & X X X X X X X X X X O X & X O X X X O X X X O & X   X X X X X & & X X O & X O X X X X X X X X & & & . X X X q ",
"  & & & . X X X X X X X & X X X X & X & X X O X & X & O X X X O X X X & X O . X X X X X & X O & X X X & o o & X X O @ 2 1 @ + O O o . o O o o O O o O O O O O O O + O + o + + + + O O O . + + O O @ + @ + + + O - + + + + + o o + + # + + + + @ @ + + @ # @ # + # # # # # # # # # # # # # # # % % D W ~.~.( T % D # # # # # # # # # # D # # # # # # # # # # # # D # # # D # # D # # # # % # # # # # # # # # D # # # # # D # # # # # # # D # # % # # # # # # D # # D # # # D # # # # # # # # D # D # # D # # # # # # # # # # # # # D # # # # # D # # # # # # # # # # # # # # D # # # # # # # # # # # # # # # # # # # # # # % D T D D # # # # # # # # # # # + # # # # # # # # # + # # # # # # # # # # # # # # # # # # # o # # # # # # # # # # # # @ % % u s z l b ,.G.XX4XaXhXhXhXaX=X].6...b b s r r % # # # + @ # # # + @ + @ @ # > + + > @ # # # @ # @ @ @ # - + + + + + # # o + # + + + # + # + + # + + + # + # + + o # + 7 + + > + - + > @ @ + + + + + + + + > + + @ + . O + O + O @ + O o @ O O O + O . + O + O O o O O O o X O o O + o X o o o . o o o X + & + o & O + > 8 h J j g 8 * = O o X X & & X O X . & X &   & & X X O & O X X X X X & X & X O X X & X X X X X X X X O X X & X X X X X X X & . & X & X X X X X X O X X X X X X & X & X O & X X X X X . X X X X X . X & X X X X & X X & X X X O X & & X X X X X 9 ",
"  .   & X X & X X & O X O X O X o X X X & X X X X X X X X O & X X & X X X X X & & O X O X X X X * X o o & X X o + 2 s ~ W p @ X . o o X O X O o O O O + o O + o O + O @ O O @ O O + + @ + + + + + @ + + @ + @ @ + + - + # - 7 + # - + + > + + + > # # @ + + # # # # # # # # # # # # # # # # # # r D D ^ / Y D D # # # # # # # # # # # # # # # # # # # # # # # D # # # # # # % # # # # D # % # # # # D # # # # # # D # # # # # D # # D # # # # # # # # % # # # # # # # # # # # # # D # # % # # # # # # # # D # # # # # D # # # D # # # # # # # # # # # # # # # # # # # # # D # # # # # # D # # # # # # # # # # # # # # $ % ^ ( =X~.I # # # # # # # # # # # # # # 5 + # # # # # # # # # # # + # # # # # # # + # # # # # 7 # # # # # # # + # # # # % % r r s D b ..n.G.XXuXhXhXVXaXaX#X].n.X.b b s D % % # # # + + # + + # # @ # + # + # # # + + @ # + + @ + # + + 5 # + # + + + # + + + + + + + + + + + + + # + # + # + 7 + + + + O + + + @ - @ O + > + @ + @ @ O O + + O O + + @ O O O + O + O O O + + O + + + O + o O O O + O O O o O o o o o X . . o o o o X X + X X o o X + > < < < > O & & O X X X X & X O X O X X X   & & X X X X X O & X O X X X O X X X & . O X O X & X O X X & X X . O X X . X & & & X X X X & O X O & X o & X & X X X O X X X X & X O X X & X & X & X O X X O X X X O X X X X O X & X . . & & X & X q ",
". & X & X X X X X O O X X & O X & X . X X O & X . O X X & X O X O X X X X X X X X X X X O & X X X O X o O X X O O ; ` +X_.G $ o o o o o o o o O O X X + O o O + O o + + + + + + . O O + O @ + O + . O + @ @ + + + + @ - + O + + + + # + + - + 7 o + + @ + @ + # @ # # # - # # 7 + # # # # # # + # # % D % D r # # % # # # 7 # % % # # % # # % # % # # # # # # # # # # # # # # % # # D # # % # # # # # # # # D # # # D # # # # # # # # D # % # # # % % # # # # # % # # # # # % # # # # % % # # # # # # # % # % # # % # # # # # % # # # # # D # # # % # # # % # % # # # % # # # # # # # # # # # # # 7 % # # # # % # # # # # R iXFXdXp.% @ + # # # + # # # # # # # # # # + # # # # # # # 7 + # # # # # # # # # # + # 7 # # # # + # # # # # # # # > # @ 2 u s l l ..2.].XX4XaXjXmXhXuX@X].6.,.b b r u D % % # > - @ > + + # + - # + # + + # + + + + - + + + + + - + o 7 # + + # o o + # # - + + + + 7 + # - + + + - + + + + + + + + @ + @ + + + - @ @ + + + > O @ + + O O @ + O O + O O + O O O O O + O + O O o O + + O O + O O O O o X o o o o O o o . o . o . X o O O X X X X X O X X O * * o & O X X X O X X O X X X X X X X X X X X X O O X X X X & & X X X X & & O X X X X X X & X X O O X X O O X X & X & X X X O X X . O O X X X . O X & X X & . X X X X & . X X . X X X X X X & O X X & X X X X X X X & & & X X X X X X q ",
"X & X X & & . O X X X & O X X X X X & X X X X X X & X O X X . & X X O & X O & X X & X . X X X & X X & X X X X X @ 1 ` }.^.p @ O o X O O o o o + o o O O O O O O O O O O O . O + + O O O + O O + O + + + + + @ O + @ + + @ @ > + - + + - + + # + + # + @ @ # + @ + > # # # # # # + # # # # + 7 + # % % % % % % # # # # # % # # # # # # # # 7 # # # # # D # # # # # # D # # # # # % # # # # # D # D % # # # # # % # # # % D % # # % # # # D # # # D # # # # # D % # # # D # D # # # D # # # # # # # D # # # # # # # # # # % # # % # # # # # # # # # # # # # # # # # # # # # # D # # # D # # # # # % # # # # # # # # # # # % I @XVXiXp.8 2 + + # # # # # # # # # # # # # # # # # # + # # # # # 7 # + # # # # # # # # + # # # # # # # # + # # > + > > 2 % u D l l ..2.6.XX#XuXaXaXaX4X+X].6...b b s r r 2 @ @ # + @ + # @ @ # # # - + + + + - # + # # + # + 7 # # + + + # - + + + 7 7 + # + + + # + o + # # + > + + # - + > - + > + + + + - @ + + @ @ + + @ + O + O @ O + O O + O + @ + + O + . @ + @ O . + O O O O O + O O o O + o O O O O o o o O X . o o o o o o O o O . o o X X O X X X X & X X X O X X X & O X X & & O X O X & & O X X X & X O O X X X X O X O X X X O . O O X X O X . X X X & . X O X X . O X X X & O & X X X X & X X X X X & X O X O & X X O & X & O & X & X O X X X X X . O & X X X & & & & X X X . X X q ",
"X . X O X X X X X & X X . X O X X O O X X & & X X X X X X X X X X & X X O X X O X & & O X X X X X O O X X O O O O . 3 ^ G 2 $ X o X . X X X o O O O O + O O O O + O O O + + + + O + @ + O + @ O O O O @ + + @ + + = + + + @ + + - + + - + # + + + # + # @ + @ # # # # + # # # # # # # # # # # # # 7 % % # % % # # % # # # # # # # # # # # # % # # # # # # # D # # D # # % # D # # D # # # # # % # # D # # % # # # % # # # # # # # # % # # # D # # # # # # % # # # D # # # # # # # # # # % # # D # # D # # # % # # # # # # # # # # # # 9 # # # # # # # # # 7 # # % # # # # # # # # # # # # # # # # # # # % # % % 7 # # # % D ( ~.s.2 % # # 7 # # # 7 # # # # # + 7 + # # # # + 7 + # # # # # # # # # # # # + # # # # # # # # # + + # @ # + # # # + % % u D l z ..X.6.].XX#X4XuX=XXX].n.2...b z D u % % # # @ - + + @ - + + + + + + + o o # # + + # + + # o + - + + + + + + # + # o o - + # + 7 o + + + + + > @ + - + + + + + + @ + + O @ @ + + @ + + + @ O + + O O + . + + . + @ . + O @ O + + O + + O O O O + O + O O O + O O X X O o O X o . o X X o o X X o . o o X O X o X O O X X O X o X O X X X O X X X . X X & X X O . X X X X O X X X X X O . X X & X X O X X X & X X X X & & X X O X & X & O X X X X O X O X X X X O X X & X X X O O . X X & X X X X X X X X X O X O . . X O X X & X & X O X . X X & & X O X X O X q ",
"X X X & X O X O . O X X & X X & X X X X X O . X X & X O & X O X O X & . X X X & X O X X X O . O X X & X X X X X O @ @ @ @ + + o o X + X . . o O O o o O O + + o o O O O + O . O + O + O + O + O @ + + O O > + + + @ + @ + + - + + # + + + + # + + + + # # @ > + + > # # + > # # # # # # # # # + # # # # # # # # % # # # # # # # # # 7 # # # # # # # # # # # # # # # # # # # # # # # # % # D # # # # # # % # # # D # % # # # D # # % # # # # # % # # # D # # # # # # % # % # # # % # # # D # % # % # # # # # # # % # 7 # # # # # # # # # # # # # % # # # # # % # # # 7 # # # # # # # # # # # D # # # % # # # # # # # # # # # 7 D D D % + + # # # # + # # # # # # + # # # # # + # # # # # # # # + + # # # # # # @ # + # + # + # # # @ + + # + + # # % % r r s s l ..,.6.].[.}.}.XX].G.6.X.b D r r u 2 2 @ @ # + + + + + # + - + - + # 7 + # + + + + # + + + + # + + + # + + + # # # + + # + + + # + + - + + + + + + + + - + # + @ > + @ + O + > + + > + O @ + @ O O O + O O + O O + O + + + @ O + + O + O O + O + + o O + O O O O o O o O o X . O + X o o o . O o o X O X X o o X X X o X O X X & X O & X & X X & . O X X X & X X X X & . & . X O X X & X X X . O X X & & X X & X X X X X & X X . X X X X X & X O . X X & X X & X X X O & X X X X & X X X O X X O & X X O X X & X & X X X O X X X X X X X X . & X X X X X o X q ",
"& X & X X O X X X & X X X & X X O & X O X O X O X & O X X & X X X O . & X . & X X X X O X O X X & X X O X o X X X X X + + O X o o o o . o O o O o O O O O O O O + O O + O + + @ O @ O + O O O O @ O + - @ > + O @ + + O O + + + + - + # + + + + + + + @ + + @ # # > + # # # > # # + # # # # # # # # # 7 # # # # # # # # # # % # # # % # # # # # # # D # # # # # # # # # # # # # # # # D # # # # # # D # # % # # # # # # # # # % D # # # # # # # # # # D # % # # # % # # # # % D # # # # D # # # # # # # # # # # # # # % # # # % # # # # # D # # # # # # # # # # # # D # # # D # # # # # # # # # # % # # # # # # # # # # # # # # # # o + 7 # # # + # # # # # # + # # # # # # + # # # # # # # + # # # # # # # # + @ + + # > + # @ @ @ + # @ + # @ # % % 7 r s s l b ..X.,.G.G.].G.6.,.X.T l l s u r % % # # # + + - # - + + # + # - # + 7 + + 7 + 7 + # + + + + + + + + # + # + - + # + + + + # + + # + + + > + - - # - + + + @ O + O + + @ + + + + @ @ O + . O O O + O + + O + @ O O + O + O + O + O o O O O O O o + O o o O O X O O o o o O o o o o o o o o o o O X X o X X X X X * X & o X X X X O X O X X X X X O X O X X X X & X X . & X X X X X & X X X X O X O X . . X X X O X X X X & X X X X X O & X X & & X & X X X & X O X & O X X & X X X X X X X & X O O X X X X X X X X & X & O X O X X X X O X X X O X & X o X 9 ",
"  . X & X X X & X X X X X . X X X X X X & X X X X X O X X O O X X X X X O X X X X O & . X X X & O X X X O X X * X X X X X X X X o o o o X . o o O O X O O O + o o O O O O O O O O + + O + @ + . + O O + + + + @ + + + > @ + > + # # + + + + + o > + + @ @ # > + + # # # # # + # # + # + # # # # # + # # # # # # # % 7 # # # # # # % # # # # # % # # # # # # D # # # D # # # # # # # % # # # # # % # # # # # D # # # # % # D # # # # % # # # % # # % # # % # # D # # # D # # # # D # # # # % # # D # # # # % # 7 # # # # # # # # # # # # # # # # # % # 7 % # # 7 % # # # # # # # # D # # # # # # # # # 7 # # % # # # 7 # # # # + o # # # + # # # 7 # # # # # # # # # # # # # # # + # # # > # # > + # > + + 7 # # # # @ @ + @ + # + > @ # @ > + # # # % % r r u z D b ....,.n.G.,.>...b b z s u % % % @ # > + + - + + + + + + + + + # + o + + o + o o + + # + # + # + + + + + + + + + + + - + - + + + # + + + + + + + + + + @ + - + @ + @ + - @ + + + + + + + O + O + @ + . + O O @ O O + . + O O . + + o O O o O O O O O O O o O o X o X o o o o . o o o o o o . O X O X X O X O X X X o * X O X X X X X X O O & & X X X O O X O X X X O X X X O X O X X X & X X X X X X & O X O X X X & O X X O X & X X X X X X X X O X X . X X X X X X O X X O X O O & X X O X X X O X O & O X X X X O X X X X . & X & X & O X X X X . X X 9 ",
"& & & . X & . X X O & O X O X X X X X O O X & X X & X X X X . X & X X X X X X O X X X X X O & X O X X & X X X X X & X X X X X O o o o o X o o O O X X + + o O O O O O O @ + O O + O O + + O O + O + O @ + ; + @ O @ + + + @ > + + 7 o # # + # 7 + + + > @ @ @ + + # + # # # # # # # # # # 7 # # # # # # # # # # # # % # % # # # # # % # 7 # # # # # # # # # # # # # # # # D # # % # # # # # % D # D # # # # # % # # % # % # # # # # # D # D # # D # # # # # D # # # # # D # # # # D % # # # D # # # # # # # # # # # # # # 7 # % # # # D # # # # # # % # # # # # # # # # # # # # # # # # # # # # # # # # # % # # # # # # # # # # # 7 + + + 7 # # + # # # # # # # # # # # # + # # + # # # # # # @ + # # + + + # @ + > @ + > + @ @ # + @ @ # + + @ # @ @ % % % u s D b b b b b ..,.b b l s s r u % % ; # # + + + # + + - + # + + + + # + + # # + # + # + # + + 7 + o 7 - + + # + + + + # + + + + @ > + + + + - + @ + - - + + + + ; + + - @ + + + + O @ + . + O O + @ + + O + O O + + + O @ + @ + + o o O O + O O O + O O O o O O O o O X X o o X o o O X X . o O X * X X X O X X X O o X O X X X X & X X & . X X X O X & X X X X & O & X X & O X & O X X X X O X & & O O X X X X X & X X . X O X X O X X & . X X X X X X X & O O X X X O X O X X X . X X X X & O & X X X X X X X X O & X X X X . O X X O X X X X & X X & X X X q ",
"& X X & X X & O X X X X X O & X X X & . X X X X X . O X X & X X O X X & O X X & X & X X X X O X X X X O O X X O X X X X . . o o . o . X o o o O o o O O + O O O O O O + O + + @ . + O @ O + @ + O O O + O + + + - + @ - + + + + # + o + + - + # - + + + # + # @ + + # # # # # + # # + 7 + # # + + # # # # # # # # # # # # # # % # # # # # % # # # # # # # # # # # # # # # # # D # D # # # % # # # # % # # D # # # # D # # # # # # # # # # % # # # # % # # # # # D % # # # # % # # # # % # # # # # # # # # # # # # % # 7 # # # # # # # # # # # # # # # % # # # # # # # # # # # # # # # # # D # # # # # # # # # # # # # # # # # # # # + % # # o # # # # + # # # + # 5 # # # + + 7 + 7 # # # # # + + # # # # @ @ + + @ # + @ @ # + @ # + + # @ # @ @ # % % % D r u r z b b D b b D b z l s s r u % @ $ # # > + + - + - # + + + + + + + + + # * # + - + + + # + o # + + # + + + + o 7 # # - > + + + + + + - @ + + @ O + + @ + @ O + @ + + O + ; O @ + + O + O + @ O O O O + @ O + O O O + O O O O O O + O O O o O o O o O X O o X O O O O . . . X o X . . O o o o X X X O o X X X o X X & X O X O X X O X X & X O X X X X . X & X X X X O X X X X X & X & . X X X O X X X X & X X X O X O X X X X & X X X O O & X O X O & X X X X X X & X . X X & X & X O X X X . X & & . X X X & X . X X O & X X X & O X X X & X & X & X . X X q ",
"  . & . X X . X X X O & O X X O & X X & X X & X & O X X & X & O X X & X X X X & X X & X O X . X O X O O X X & O * X O O X O X o O X o O O O + o + + O O + + + O + o * + + - + O + O O O O + @ O O O @ + O @ @ + > O @ + + + @ - - # - + - # + @ # # @ + @ @ @ # + @ # # @ + > # # # # # # # # % # # # # # 7 # # # % # # # # # # # # # # # % % # # D # # # # # # # # D # # # % # # # % # # # % # # # # # % # # # # # # # # # # D % # D # # # # % # # # D # # # % # # # # # # D # # % # # # % # # D # # # # # D # 7 # % % # % % # D # # # % # % # # # # # # # # # # # 7 # % % # # # # # # # # # # # # # # # # 7 # # # # # # # # # # # # # # # # # + # # # # # # + # # # # + 7 # # # > # > @ @ # # # @ # @ @ # @ + @ # + @ @ @ @ + # + @ @ @ # + @ + > # > # % % r r r D z s l l l s s s r u % 2 % % % # @ # + @ + # + - - + + + 7 + + + + + + + # - + + + + + + + # + + + + + + + # - + - + + + - + O @ + + + + @ + + + O @ + - + @ O + + + + + = @ + @ + + + - O O O @ O + O + O O O O O @ O + O + O + . + O + O O O O O o + O + + o o o X O X O X o . . X + X X o o O X O X o X O X X O O O & X X . & X & X O . & X X & X . X X . O X X X & . O X O X O X & O X X X & X X X O X X & & & X & X & & . X X & X . & X O X O X X X O X & X . & X X & O X X . X & X X X X O . & X X & O X X X X & X X O X X O X & O . & X X X & X q ",
"  & & & X X X X X O X X . X X X X X . O X X O X X X . X X X X X X O X X O X X O O X X O . O X O O O X O . X O X X X X X X O O X X O o O X + O O O O O + O O O + + O + + O O O O O + @ + O O + O @ + + @ + + + + + + @ + + @ + + + + + + + + + - @ + > + # + + @ # @ @ + + > + # # # # # # # # # # # # # # # # # # # # # # # # 7 # # % % % # # # # # # # D # D # % # # # % # # # # % # % % % # # # # % # # D % # # # D # # # % # # D # # # # D # # # % # # # # # # # # # % # # # % # # % % # % # # # # # % # # # % # # # # # % # # # D # # # # # % # % # # % # % # # # # # # # # # # # # # # # D # # % # % # # # # # % # # # # # # # # % % # # 7 # # # # # # # 7 # # + # # # # + # # @ + + @ + @ + @ + + + + @ > @ + > + # + @ # @ + # + @ + # @ # @ # > % % % 2 r D D r s s r s r D D r 2 2 % @ # # @ @ @ # > + + + + + + # + - + # # + # + + + + # 7 + + + - + + + > + 7 + + + + + + + + # + - + @ O + @ + - + @ + > + @ + + + @ + - @ = @ + + + + + + + @ @ O + O + O + @ @ O O + @ + + O O + O + O O + o O O O O o O O O O O + + o . O O o o o o o O X X o o o o O O o X X X X X O X . O = X X O X X X X X X X X X O O & X & X X & O X X X X X X X & X X X X X & X O X O X & X X . & X & X & & X O & . & & X & X X X X & & X O X X O X X O X X X & X X X O X X O X X X X X X & X O . X X O & X X X & X X X & X X X O O X q ",
". & . X & X X & & X X & X X X O O & O X X X X X O X X & X X X X X . X X X & X X X X X . X O O O . X & O O O X X & o & X o o O O O O X o O O O O o O O o o O O O O O O O + + O + + O O @ @ + + O O + + + + - @ O + + + - O @ + @ + + - + + + + + + @ # # + # # @ @ + @ + @ + @ # + # # # # # > # 7 # % # % # # # # # # % # # % > # % # # # # # 7 # # # D # # # # # % # 9 # D # # # D 7 # # % # % % D # # # # # # D # # # D # # # # # # % % # # # D # # # # # D # # % # D D # # # % # % # # # # % # % # D # D # # % # # # % # # % # # # # # % % # # % # # # % # # # % # # # # 7 # # D # # # # # # # 7 # # # # # # # % # # # # # 2 # # # # # # # # # # # # # # + # # + # # # # # # @ # @ + # + @ + @ # > @ @ # + # @ @ # # + > + @ > @ + # # + @ + + @ @ # + % % % % % r r u s u % r r $ % ; % ; # # # + > - + + + + - + + - - + + + # + + + 7 + > + + + > + + + + # + + + + # + # + - + + - - + + @ - + + + + + O O @ @ + + + O @ + + + O @ + + + @ @ + @ O + + + + O O + O @ + + @ + + O O + + O + O O o o O O O O + + O O O O O O O o . X O X o o o . o o o o o O X O O X X X O X X X O X X . & X X X & X O X & & X X X X X X O X & X X X X O X O & X X X X O . X . X X X O X X X X   X & X * X X X X X X . X X O X & X O X & X X O X X & X X X O X X O X X & X X O X X O X X & X X & X X X O X O & X X X X X & X X & . X X 9 ",
"  &   & X X X X X X X X & X X & X X X X O O & X X X O X & O X O X O & X X . X O & X X O X & X X X X X X X X X O X X o o o o O X X . O o O O O + + O O O + O O O O + O O O O O @ O + O + O O O O O @ O + @ + + + = @ + + + - + + + - # + + - + + - + + @ @ @ # + # + @ # # @ # # # # + o 7 # # # # # # # # # # % % # # # # # # # # # # # # % % # # # # # # # # # # # # # # # # # # # # # # # % # # # # # # # # D # # # D # # # % # # % # # # # # # # # # # % # # # # # # # % # # # # # # # # 7 # # # # # # # # # # # # % # # # # # # # # # # # # # # # # # # # # # # # % # # # # # # # # # # # # # # # % # # % # # # % # # 7 # # # # # # # # # > # # # # > # # # # + # # - # # # # + @ # @ + # @ @ + + # @ + @ # # + + @ @ + # # + # @ @ + > @ # + # + # # + @ @ % % % % % % % 2 % % # % # % # > # - + + + + - + + + > + + + # + - + 7 o + + + + - + + + # + + # + + # + + + + + + + > + + + # + + + + ; + @ + @ + - + + + - @ + + - + - - + - + O + + O @ - + O @ O O + O O O O + O @ O O O + O O O O + O O O O O o O O O O O + O O O o o o O O o o o o o . o o X O X X O X o X X O X O X O O X X O X X X X O X O X X O X O X X X X X O X & & X . X X X X X & X X O X O & X X . O & & & &   & X X X & X X X O & X X X . . X X X X X X & O X X O X & X X O X O X X & X O X X X O O X X X X & X X . X X X X X & . &   X X O X 9 ",
". & X & O X O X X & X X O X O & X X X X X & X X X X & X X X . O X X & X X X O X X O X & O X O X O X X X X O X & O o & & O & & X X O O O O O O O O O O + O O O o * + O + O - - - @ O O @ @ - + - @ + + - + + + - + - @ + + + + + @ - + + + > + - + - - # > + > # + > # > # > > # # + # 7 + # # # # # # # # # # # # 7 # @ % # # # # 7 # # # # # # 7 # # # # # # # D # # # D # # # # # # # # % # # # D # # % # # # D # # # # # D # 9 # # D D # # # % # % D % # # % # # 9 # # # # # 7 # % 7 # 7 % % % # # % # % # # # # 7 # # # 7 # # D # # # # # # # # # # # % # # % # # # # # # # # # # # # # # # @ % # # # # # # # # 7 # # @ % # # # # # # 7 # # # # # # 7 + # # # # # # # # # + > - - # + @ + > > + > # + > # + - # > + > > + > > + > + # > # > > @ - + # # # # # # @ % % % # 2 % # > # # > > # - + + > - - - - > - + - - + + - > + + - + + # - > + > + - - # + + @ > + + # + - - + O @ + - + + @ O + + > @ + + O @ + + + + + - - + - - - O + O = + + - - - O + + = + @ + = + - O @ + = + - - O O + O - O o O O + O + = O O & O O O O X O O & O O & X O O O X O O * O X X & & X X X X X X & X X & O X X O X X X X X X X X O X & X O X X X X X X O X O X & O X X X O X & X X & = X .   & & & = & X X o O X . & X X X & X X O X O & X O X X O . X . X X X X & X . X X X O X . & X O . X X X X . X O X X X & X X & X X X . O   q ",
"X & X X X X & X X O O . . X X X X & . X X . X X . O X X X & X X O O X X X & X X X X X X X O X . X & X X X X O & & & & o O O O O o o X O & O = O O O O X O X o o + O - O O O O + O @ O + O O = + - + - + + ; + - + - O - O > @ = + + + @ + + + > > - + - # > + > > # > + > > + # # # # + # > > # # % # # # # # - # # # # + # # - # # # # % # # % % # % # % % # D # # # # # # # 9 # # D # # % 7 # # # # # # D D # # # # # D # # # # # # # # # D # # 9 # # % 7 # # # # # # # # D # # # # # # # # # # # 7 # # # # % > > % # % % @ > # # % # # % % # 7 # # # # # # # # # # # # # # # # # # # # # # # + # > + > # > # # # # # > + + # # # + > # + + > # # + > # # @ > # + # # + # # # > # # @ # > # > # > # > > # > @ > # > @ @ # > # # @ # > > + > # > # + - + > > - # # # # # > 2 > > # > + - + + - + > - + > + - + + - > + + > - > + - - > + # - + + > + - + + - @ + O + + - + + + + @ @ + + + @ + + + ; - + O + @ + + + @ O = + + - O + O - + - - + - - + + - + = = + = O = + - & O O O - O - & - + O + O O * O O O O & O & O O O X O O O O & X & O O & O O O O O & & X O & O & X X O X O X . X O X X & X O X X & O X O X X X X X X & O X O & O X X X X & X X X O X & X X X & X . & & X X . , , = & X & & X X & X X O O X . & X X X X . & X X X & X O & X X X X O X & . X X O X X X X & X & X & X X & X X O X & . O X & O o X q ",
"X . X O X & O . X X & X X & X X & X X O O X & X & X X X X & X X X X & X X O O X & O X & O X O X X O X & X X X X & o & & O & O & X O O O O O - . & + O O O X o + + * O - O - & @ = + @ + O - - - O + - & + - & O & - + + + + + + O + + = > + + - + > + > + - > > > > # > + > + > + > # # > # > # # # # # # # # # # # # + > # - # # # # # # % # % # # # % 7 # # # # # D # # # # # # D # # # # % # # # # D # # # # # # # # # # # # # # # # D # # # # # # # # # # % D # # # # # # # % % 7 # % # % # # % % # % 7 # % 2 # @ # # 2 > # # # # # # % # # # # # % # # % # # # # # # # # # # # # # # # # # # > @ > # > # > # # # # # > # > # > # # # # # # - # - # # # - + # # # # + # 7 # + > + > > > # + > # - # + > > + # # # > # > # - + > # > + > # > # - > + > + - + # + # # - + > - + + > > > + > - > + - - > + - + > + + > > + - + + - @ + + + + + = + > + # + > O @ + + - + - + > + + + @ + ; @ @ + + + + + @ + - + ; + @ @ @ + - + & - - - O - O - O - & - + - O + = > O + = + - & - - & - * & - - & + O O o O O O O O O O O = O O O O X & O & O O & O & O X X X O o * O O & & X . X X O X O O X X X & X X X O X . X X & & . X X X . X X X X X . X & X X X X X & X X . X X & X & X &   & 8 _.+X* - X X & X X & X X X X X X X X X X X X X O X X X X & X X X X X & X & X X X X X & O X X O X X X O X X X & X X X & X X O X O X q ",
"X & X & X X X X O X X X X X O X X O & X X X X O X X O X O X O & & X . X X X & X X X X X . O & X X X X . O X O & & o O X O O O O & O O X O & O O & = + X O O X O O o O O O O + = + = + = = + O + O - + - = + + - + - = + @ + @ = ; - + @ + + + - - + - + > - # # + # > + > # > # > # # # + > # # # # # # # # # > # # # @ # > # > # # # % # # # # # # % # # # # # # # # # # # # # # # # # # 7 # # # # # # # D # # D # # D # # # D # # # # # # # # # # # D # # 7 # # # # # D # # # # # # # # % # # # 7 # # # # # # > # % # 7 # % ; # # # # # # # # % # # # # % # # # # # # # # # # # # # # # # # # > + > + > # # # @ # # # > + > + # # # > @ # - @ # - + > # # # > # # # # # # + # > # > # + > # > # > + > > # > # > - - # > + > # > # > + > # > @ # + - - - + - > # # # # # > # - > - + # # > > + - - + > + - > + + - + + - + + # + + + + - + - # + + + + + - + + + + + @ + + + + + @ + O + + O + + @ @ + + @ O + + - + + + + @ = > - + O O - + - + - + = + = + - @ O O = + O @ & - - & - - & - + O O * O o O o * O O O O O O O O X & O O X & X O O O O X O O O O & X X & X & & X & & X X & X X X O . X X X & X . X & X X X O X & X O & X X X & X X O X X & . O X X X & O X X X X X & X & ; ).|.< & . X & X & & X X O & X X & O X & X O X X X & X X X O X O & X O X X O & X O X X & X X X X O X X O & . O X O X O X X X X o   9 ",
"  X X X O X X X X & X X X X X & X O X X O X O X X O X X X X O X O X O . X X X X X X X X O & X & & X X O X O X & & + & & O & O & O O & O O & + - & O O O O O + O O O - & - - - & & - + O + = O @ O - O - + - + O - + + + @ O + + + @ + @ + @ + + + @ @ @ # > # > > # - # - # > + > # > + # # # ; > # # > > + - # # > # > + > + > # # # @ % @ % # + 2 # > 7 @ # # @ % # # % # # % # % % # % 7 # 7 D # # 9 # # D # # D # # D # # D # % % # % % # # % # 7 # # % % # # # # # % % # # 7 # # 7 # # # % 2 # # # # % % # > 2 # # # # # # # > # # > # > > # > > # > # > # # # # # > > # # > # # ; # # > # > @ - + > # > # > + > # + > # > > # > # > - # # > + > + > # > + > # > # # > > # # > # - > # > # - # + > # + > # - > @ # > # > + > # > # > + > + - + > + + > + + > + - > + - + - - + + - + - + - + > - + + > + + @ + + - + + + = + O @ + @ + + ; + @ + + O @ + + > + = + @ + + + + O + + O + @ + + + ; O @ + @ + + + O @ + + @ + + + + - - - - O + = + + = + = + = + + = O + = - & - - - & + * + & - + O O + O & O O O O O O O O & O O O & * + X & & O & O O & O O O & O & O - X X & X O X O & X O & X O X & & . X X X X . O X X X & O X . X X & X & X X & X X & X X X O X & X X X O X O & - - & & X & X O . X X X X X X X X X X X O X & O X O X X X X & & X O X O O X X X & X X X O X & X X O X & X O X & X X & X X & X O X 0 ",
"& . X X X & O X . O O & O X . O X X X & X X X X X & O X X O X X X X & X O X & O & . X O X X X O X & X & X & O O + & & + O & O O O & + & & + O & O O O = O O & O O + + & - & * - - - O - @ O = + + - + - - O - - - + @ @ + + > + + O + + @ O + - - + + > > + - # # > # > + > # - # > # > % ; > # @ # > + - > # - - - # - > # > # # # % # # # > # 2 # # > # % 7 > > # @ 7 # 7 # % 7 % # % % # % % # # % # # # # # # # # # # # # # % # # 7 % # # % % % % % 7 # # % # D D # # 7 % # # % % # % # % % # % % 2 2 # % # > # 7 > 2 > # > > # % % > # 2 # ; # # # @ > # - # # # > + % # > % > > # @ % # > # - # > # > + > # > + > > # > # + - # > # # > # # > # > # - # % # > # > > # # > > + > # + > + > @ > # > > > > # # # > + + > # > # > + > @ > > + + > - - - + - > # - # + > # > @ + - > > > + > > > + + - - @ - + - + + @ + @ + @ ; + + + O + + + + O + @ - + + @ + + + @ O + + @ @ @ ; + @ + + + + - + + @ + + @ + > + + @ O + + O + = + O - - + - + - & + = + = O = O = @ - + & - & & - & - - + + + & - O O O O = O & O & O & O O & O & X O O O & + O & O O & X & X O O X O & X X O X X X X X O . X X X X X X X & X O O X X & O X X X X & X X X . O X X O X . O X X & X . X X & X X X X X & & O X X O X X X & X X & O X . & X & X & X X O X X & X O O X X X X X X X X & X X O X X X X X O X X X X X . X X X X & O X X . X X q ",
"X & X . X X X X X & X X X X X X X O X & O X X & X X . X X & & . X X X X X X X X X X & X . O X & X X X X X X & & & O O O & + O O O O O O O O O O O O O O . O = + O O O + - - - - - & = + - + = = - = O + O - - + + = + O + @ + @ + @ + @ + + + @ + + @ > + > # > @ + # > > # - # > + > + # @ # # ; @ # > # > > # # > # # # > # > # # # # > # # 2 @ % > # # > # % % 2 # # % 7 # % % # % # % % # % D # # D # D D # # # # D # # # # # % # # # # % 7 # % % # # % # % # # # # % # % # % # % # # 7 # % % # # % # # # % > # # @ # # 7 > > % # @ # 2 # # @ % ; % % # % # > # # > @ @ > # # > # > # > # > > # > # > # > # # > > @ + > # > > # # # # - + ; > # % # > # ; # # > % # # > > # # > # > > # > # > > # - > + + > - + > > > # > # > + > # # > # - # > # > # > @ # > + > # > # @ + + > + + + + + + + - + > O @ @ + + + + + + - + + - + + + @ + + - O + + + + @ + + @ O + + + ; + @ + @ + + + + ; + @ + @ @ + @ + O @ O @ + > + O + @ + + - + - & + + = + = = O @ + @ + = + + - = - - - & - - + & & - + + & = & O O O O O O + & O & & X O O & O & O + + & + & O O & O O O & & O O X X & & O O X & X X X X X O X O X O . & X X X X X X O X O O X X O X X X X X & O X & X X X X O X & & O O X X X X X X X X X O X X O X X O & X X O X X X X . . & X X X X X . X X . O X & O X & X O X & X . X & . & O X O X & X O X & X X & X & X q ",
"X X X & X X & . X X X X O X & X & X X . . & X X & X X & X X X X O & X X O & X X X X O X X X X O . O X O X O X O O O O & & X O & O & X & O O O = O O = O - & O O - O - * & & - & = & + = + = O + O + - O - + O - - + - - + + + + - + + + > + + @ O @ + + > # - # > # - # # > @ > # > # > > # > % # % > # - # # > > + > @ > + > + # # # # # > # # # # 7 2 % > 2 # % # # % % # % # # % # 7 # 7 # # # # # # # # # # # D # # D # # D 7 % # % % 7 % # % # # 7 % 7 % # # D # # # % # % # % # % # # % # # 2 # % # 2 7 @ # 2 # % % @ # # > > 7 > > # 2 > # # # > # > > # # % > # # ; # > - # > # > + > # # > + - + > + > > + > # > # > # # > ; # # > > # @ > @ > # > # > ; # @ # ; # # > > + @ > + > + > # + # > # @ > # > # > # + > + > # - # > > + > # > + > # > + > > # > > + > # > - + + @ + @ O - + + + + + + - + + + > O @ O + + @ + + @ + @ + @ + @ - + @ + + @ + + + + ; + + - + + + - + @ @ O + + + + O + + - + @ + - + + + @ + @ + > + - - + - - + = + + = + = + = + = = + @ & & - + * * + - + - & + & - - = O O O O = O O O & O O O & O O O O & & O & O O & + O O * X O * O X & O & X & X O X X X O & X X X X X X X X X & X O X & X X X & X X O X & O X X X X X O X O X X X O X X X & X & O X O O & X & X X X O X X X & O X X X X & O X X X X X X & X & X X X X . X X X X . X X O X & X X X X X X O X & X X & X & X . & X q ",
"& X X X X . X O X X X X X X O X X X X X X O O X X X & X X X O X X X X X & X X & & X X & X X X X X X O X X O O & O X O O O X O O & O + & & O O & O O O O O O O + O O O - - - & - & - + + = + @ O = + O = > + - + + - & + + O + @ + O + + O @ + O + + @ + + - @ @ # - # > # - # > > # # > # > # ; # ; % # > # 2 + # # > # # > # > - # > # ; # # > > 2 # > @ # > % % # # % # % # % % # # % # % 7 % # # # # # # # # # D # # # D # # % # 7 % # # # # % # # % # % # % # % # % # % # % % # % # % # % # # > > @ # % > > > 2 > 2 # > > 2 > 2 # # # ; @ # > % # # ; # @ > > # # > @ ; > # > + - # # > + > + > @ # + > # # # - # # > # + # ; @ % # # > # % % # > # # > @ # @ # > # # ; @ + # > @ > > # > # > + + > # > # > > > > - > + > # > + > + > + > # + > > + > # @ @ + @ @ + + @ @ + + @ + + + O @ @ @ + + + O @ + - ; + @ + @ + + > + - + @ @ @ + @ + @ - + O @ O @ + @ + + > + + + @ O + + + @ + - + @ + + + @ + - + - = + = O - + @ O @ + + - = + @ - + = O O - @ O O O O + + = - - & - - & O & - + O & - & + = O O O O O O O X + & O & + & O + & O & & O O O O X O O O O * X & O O X O & X & X O & X & O X X & X X X X X X X & X O & X O X X X . & X O X X O & X X X X & X X X & & X & & & X & . X X O X X & & X X X X X O X O . X & O X X O X X & O . & X X X & X & X O . X & O X & X X X & O X X X & X X X X & & X X X &   q ",
"  . X X X X & X O X O O X & X X O & O X . X X X X O X . & X X & X O X X X O . X O X X X & X O & X X & & X X X + + & & O & & O & O O & & O O O O & O = O O O & O O - O & & - + * = + - = O O - + + = = + O - + = = + + - - + O @ @ @ ; + + + O + - - + + + + + > > # > + > # > + + > > + ; # > # > # # # # % # # > @ # > # > > # # > # # % # @ > # # > # % 7 > # # % % # % # % # % # % # % # % # D # D # # D D # # # # D # # # # # % # % 7 % % % # % % # % # % # % # % # % # % 7 # % # % % % % # 2 # 7 # # @ 7 # > # > # # 7 % @ # # # > > # % # # ; # > # > % # # > > # # % # > > # > # > # > # > # # > > # > ; > # @ ; # > 2 @ # @ # > # % ; # > # # ; > # @ % % # # ; > # @ % > + - # + > # - # > > # > # > + # + # # # > @ > # > # > # > # > > # @ > # > > + + - @ + > + + + = + @ + + > + + - + - + + @ + @ + + + = @ + + + + @ O @ + O + + + + + + + @ + ; + + + @ @ O @ @ @ + - @ + + O + + + + - + O + - - - - + > > - @ > + + + + + + = O = = + @ = = O + ; + ; = O + & & - - & - - + + * - & + O = O O = O O O O O & & O O O & & O & O & X O O O & & & & O & O O O O & O X X O X O X O X X X X O X X O & X O & X X O X . X X X X O X & X X X X X X X X X O X X O X X O X . X X X X X O O X X X O X X X & . O O X X & X X X X X X X & O X X X X X X X O O X X X X & X X O X X & X X X X . O X X & X O & X X & . X X q ",
"& X & . X X X X X X X & X X O X X X X & & X O X X O X X X X X X X O . & X X X X X X X X X X X X X O & O & X X & & & O O + & & O O O O X O O O = O O = O = O O O O + + - & - - & - & + = @ - ; O + O + = = + + - O - - - O - = + + @ + + @ + @ - - + @ + - + + > + > + > + > # > > > + > # % > > # > > # # @ # % # # > @ # # > + > # ; % 2 # % # @ 2 > # # # 2 # # # # % % # # % % % # % # % 2 # # # D # # D # # # D # # # # # # % # % # % # % # % 7 # % # % # % # # % % # % # # # # % # % # # # % > 7 # % > 2 # 7 % # 2 @ # # ; > # > # # > ; # > # > # > # > + > # # # + # > # # # # > @ - # - # - # > # > # # @ # # # ; # # > > # ; % ; @ > # > # # > # > # > # > # > # > # > # > # > > # > @ > # > - + > + > > + > # > - # - > @ - # > + @ + + + - @ + - + + - + + + + + + @ + @ + - + + O + + + - @ + + + + + O + + + + O @ + + > + + + + + + O @ @ + + - + + - + + + + + O + + + + > + @ + = @ + + + > + > > - > > @ - > > > - - - = + O - O + + @ = O = + @ = O + + - = - & + - - - O & + = O + - & + O O O O & O = O & & & O X + O & O & + & O O & + + & & O & X O O O X X O X & & O X X X . O X X X X & O X X X . & O & X X X X X X X & & X X O X & X X & O X X . O X & & O X X X X X X . X X X X . X X X X X & X X X X X O & X X . X X X X X X & X O X X O X O X & X X X X X X & X O X X X X X O X X & X X X X & X q ",
"& X X X X X X O . X X X & X & . X O X X X X & X X & X O O X O X & X X X X O & O O X . O & X O X O & X & X O X & & + & O & + O O O & O O & O O O O O O O O O O O O O * - - & - - - & = + = + O = O ; O + + & - + & + = + - + - + + + - + + + + - + = @ O + + + # > # > @ > # > # @ # > # @ @ # # # % @ > # % @ # ; > % @ # 2 @ > # - # # + > # > # > # > # % + 2 % 7 # 7 # # 7 # 7 # % # % # # # # # # # # # # # # # # # D # # D # % # % % % % % # % % # % 7 % # % % % # % # % # % 7 # # 7 # % # @ # # 2 # > > > # @ # # % # # # # # # 2 # % # > # % @ > # % @ > # > - > > # + > > - > + > # > # > # - # > + # ; ; % # > % # > # # > # # # > # > + # > # > + > + - + > + - + - + > # > + + > # > + > # @ > # > # @ > > + # # # > + > # > # > > + + + + + + + + = - + - - O - - + + @ O + + @ @ + @ + + + + > O @ + @ @ + - @ + + @ O + + + @ @ + > + + + + @ + + @ + O @ + @ - + @ + + @ O + + @ + + @ + @ O + > > > + ; > > + > + > - - - > @ O = + = O O ; = O = + - O = + @ & - - & & - & + = O & + & - & . O O = O O O & + + O O & & O O O X O O & O O & & + + & O O & O O & X X X & * X X X & O X X & X X . X X O X X X X X & X O & X O X X . X X X X O & . X X X & X X X O X X O X O X X O & X X & X O & X X X X X O & X X X O X X X & X O O X & O O X X X X X X & X X X O O X . O X X O X O & X O X X X & & O O X & X 0 ",
"X O X & X O X O & X X O X O X . O X X X X O X X X X X X X X & X X X . X X O X O X X O X X X X & X X X X & O O O + & + & O O & & O O X & O & O = O O O & O O O O O * + O * O O + - & # - + = + + @ - = O @ = + - + = + + = + - + + - + + + + @ O + O - + O + + > - + > > + > + > > > > + # > # > > # > # > # > + + > # % # > > # > # > # + > > > # ; @ % ; % # > @ % # > 2 # > # % % % # # % # % # % % # # % % # # # % # D # # % # % # 2 # % % @ # % # # # # % % # % 7 > % @ # > % # % # % > > 2 % # 2 > > # # # # + > # @ ; # # > # > # > @ % + # > + > + > # @ # > # > # > + > # + @ > + > + > # > # # # ; > # # > # ; # > # ; @ 2 > # @ # # > # > # > + > # > # > + > # - # > # > @ # > + > + # > + > + > + > # > + > # > + + + + @ - + O - + + + + + @ + + - + + + @ + @ @ - - - O - + - - + + - @ + + + + - + @ + + > @ + - o # + > + - + + + + + + - + + + + + + + + + @ O + + + O @ + + @ - + @ + > - + > > > > # > # % > > > @ + - - - = O = + = + = + = + O = - & - - - & O & + + - & & O O O = O O O O O O O X & O + & O O O & O & & + & O O & O & O O O O X O & O O X O X O X O & X O X X X & X X X O O X X O X X X X X O X X X O X O . X X X O X X X X . & X O X X X X & O X X O X X X X X X X X X X & X X X O & X X X O X & O X X X X X X . & X O X X X . O & X X X X X O X X O X X O X X X X O O X O X X X & X q ",
". X O & X X X X & X X X X X X & X X X O . X O X X O X O O O X X X & X X X X X X X O X X X O X O O X O X X X X O & O & & & & + X O & O O O O O O O O O O = O O O O + * + + & O * & - + - - @ = O + O + O + - = + - + - - O - - + - - + @ - @ + + + @ + + @ @ + + # @ - # > # > # + > # > + - # > + > # > + > # > > # > @ > # # > + > # - > # # # > # # # # # # > % # 2 > # > 7 # @ % # % % % % # % # % % % # % % D # # % # # % # 2 # % # # # # % % % ; % % # % % % @ # # % 7 # # 2 # @ # > # 7 # @ # # # % > 2 # # 2 # > % # > # @ ; # # # ; > # # > > # > # > # > + > # - # > # > > # > > # # @ > # 2 + # % # # > # % # # # % # # # # > 2 # > # > # - # > # > # > + > # > # - # > + # - # > # > > # > # > # > # > + > # > # # - - + + + @ @ + @ - @ + @ + @ O + @ O + + + O + + + - + + O + - + + + + + @ - + + + + + @ + O + + + - + @ O > O @ O ; + - + + @ @ + @ + @ @ + @ + + - + @ @ + - + + + + - > > > - # > > > > % > @ ; @ ; ; @ = > + @ + = + = + = + = + - & - & & + + - O - & + + + O O O O O O O = O O & O + & & & O & O + O O O & O O & + O O & O O * & O O O O X X X X X X X X X & X X O O X & . X X & X O X O X X X X & X O X X & X X & X X X O O X X X X X . & X X X X X O X & . X O O X O X O X O X O X . X X X O X X . X O X & X & O O X X X X X & X O X O X O & X X & X O X X X X O & . X X X X X O *   q ",
"X & X X & O O X X X & O X X X X O X X X & X X X & O X & . X X O & X X O X & O X . X X X O X X & X & & X & X & & O O O X O O O O O O & O O O O & O O O O O O O O & + - * - - & - - - - O = O = + = - + = + = O O + = = + = - O - - O O @ + @ @ + + O @ @ = + + - + = + # + @ # > # > > # > > > + > + > + > # > + + > % @ # % # # > # > + > # + % > # > # 2 + # > % @ # # % > 7 # 2 # % # @ % # % # % % # # % # % # # # # % % # % # % # % 2 % 7 # # % # # % # # 7 # # - > # # > 2 # 2 # 7 # 2 # # 7 # > # # # > # ; % % # # # @ 2 % > # % # # # > > # > # + # > # # - # > # > # > # # > # - # > @ @ % # # # > # # # > # > > # # > # ; # # # # # > > # 2 @ # ; # > # - # - # > @ > # > # > > + > + + > # - # > # > # > # > # > > + # + @ @ @ # + + + O + = + - + + + ; + @ + + + + + + + + @ + + # @ @ @ + @ + @ + + - + + + + O @ > + O + o + @ + @ + @ + O @ + O @ + + O + + + - + O @ + O + + + + @ # > - > > $ > 2 % % 2 # 2 @ ; > @ ; > @ > # @ O + = + = + O O - & - + - & - + & - * - O O O = O O & O O O O & = & O & & O X & O O & O O + & & X & & O & O O O X O & & O & * & & & O O & O X X X O X X X X X X X X X X O X X X X O X X X X O X X X X X O X X X X X & O X X X X O O X X X X X X & O X & O X X X O X X X O & X X X & X X X O X X X X X X X X O & X X X X X X O . X X X X X X X O X X X X X X O X & O & & o 0 ",
". & O O O & O & & + O & & + & & & - & X & X & - O O X O & & + & + & O O & O & + & & & - O & O O O + * O O O & + O & O O & O & O O & O O O = O + O O O = O O O @ + & - + & - + & & & O - + = + = O @ = + = + - @ O = + = + O O @ - + + - + + + + > + + + + + @ + + - + @ @ + + @ + # + > @ # # # # > # > > > > > > # # ; ; # > # @ @ # ; # + 2 @ # # % ; # > # # # # 7 > # % @ % # % # % % # % 7 # % # # 7 # % # # # % % % # % # % # % # # # % # # 2 % % % 2 % % # % % # 2 > # > # > > > > # % @ > # 2 > > > 2 + # # @ > # > # > # # ; # > % ; # # > # # ; # # ; > # @ @ > # > # > @ # > # # # 2 > # > % > # @ 2 % @ # % @ ; # % > # @ % # 2 @ # # # # > > # @ # > # > # > # > + - # > + # > # > > # > @ - # > + + @ + @ @ + @ @ @ # + + + @ @ + @ @ + @ + + - + + + + O @ @ O > @ # @ @ @ @ @ + # @ > + # @ @ + @ + O @ + @ + @ + + + + + + # + @ + + + + @ > + + = ; + + - + @ ; + + + @ + ; + + + > # > @ > ; ; > ; ; > 2 ; # @ @ > $ $ ; @ # @ O ; + @ O = = @ + & - & - - & - - & - . O O O O O O O O & O O + & + & O O O O X O & X O & & + O O & + O O & X & O O O O O O X O O O & X O & + & O O X & O & & O - & O & & O O & O O & & O O & & O - & & - & X & O O & & + & O O O & & O O & O O & & & X O O & & O & O O & + & O & O + & & O & O & O O O & O & O & O O O & O & & X & - & O = & & O & O & X & - X & & & & X q ",
"X & O & & & + & O & + & - O O O O O O O & O + & X + & O & O O & & + & O & O O & O O O O X O & O O X & O O O & & O O O X & O & O X & O & O O O & = O O O O O O O O O O O O O & - - & = O @ - = + = + = + O O @ - - O O + + = = - & - + + O @ + + > + @ + @ + ; + + + + + > # # + # @ + > # # - > # > # > > > > # - # > # # 2 # # % > ; % # # ; # > # > # > # > 2 2 # # > > # > # % # % % % # # # % % # % % # % % # % # % # % # % # % @ % % # % # 2 % % % 2 2 2 % % % % # # > # # > # # # > # 7 # # @ % # 2 > ; # > # @ ; % # > # # > # # # @ 2 # > # > + # # # > @ # # # ; % # > # ; > # > % # # > # > @ # > # ; # > # ; > # > @ # > % ; > @ % # @ @ % # # ; # > @ > + > + > + > # > # > + > # > + > + > > > # @ > + + # + + # @ + @ @ > @ # # @ @ @ # + @ @ + # @ + + # @ # @ + @ # + + # + + # + # + @ + @ # @ + + + + @ + ; O + @ + + @ + @ + + @ + - O @ + + @ + @ + > + O + + + + + + + + + - > + @ # % % @ @ 2 @ 2 2 4 ; 2 1 $ @ ; @ % ; @ > > O @ - + = + - + & + - & - - & - + O O O O O O O O O O O O O O O & X & O + & & & + & & O O & O O O & O O O & & O O O & O + & O O X & O O O & O O O O + & + & X & O O & O O O O & & & + & & + O & & & + & O O + & O O X & O & O O O O & O O & O & & + O O & O + & X O & O X & O O & & O O O O & O O & O O X + O O O & O O X + & X & O O & O O O O O O O O O O & O X & & o q ",
"X & O + X O & + & + & & O & O & O & & O O O & O & & & O O O O X O & & O O O X & O O & & & O O O O O O & & & + X O & O & + & O O + & O O O O O = O O O O O = O O O @ O O = @ - - - - + = = + + @ O = + = + = = + @ O @ - = O + + @ + - + + + + @ O + + + + + @ O @ = @ @ + + @ @ > + # @ @ # + @ + + > + + # > > # > # > # @ > % # # # > > # # > ; # # # @ > # > > # 2 # # 2 > % # % @ % # % 2 # % # % # # % # % % # % % % # % # 7 # % % # 2 # 2 7 # % r D u 2 2 2 % % # 2 # # 2 7 2 > 2 # 2 % @ 7 > # 2 # # % ; # > # % > # # > ; # > # > # # # # % # 2 > % ; # @ 2 % > # > # # @ # # # # ; > # # > # ; # # % # > # % # # # # ; > # # # # ; > # > # # > @ # > # # # > # > # > # > + - # > # > + @ # @ + + # + @ @ # @ @ # @ + # # @ # + + @ + + + # @ @ + # # @ @ # @ @ @ + # @ @ + @ # @ @ @ @ @ @ + # @ @ + + @ @ O ; + + @ O o > @ . > O + @ + + O + + - @ + + + + - + + @ + @ @ O ; + @ + ; > - > ; ; 2 ; ; 2 2 2 8 4 2 2 2 ; $ 2 @ @ ; ; > + > - = + = + = + = - - - - & - + - O @ O O O O O = O O = O = O O & O O O O & & & + + & O O X & O O * & & O O O X O & O O O & & & O + & & O X & & O & & & O O O O O & O O & X & O O X O O O & X & + X O & + & O O - O & + & O O O & O & X O O O O X O & & + O O & O & O O O + & O O O X X & O & + & O O & O & & & O O O & O & & & O O O O O & O & O O & & & X O O & O O O X q ",
"O & X & O O O O + & O X O O X & & O & X O O + & O O O O + & + & X O O O & O + & & O & + & & & O O O O O O O O O O & & + & O & X & + & & & O & + O & O = O O & O O O @ + O O & & & & + + + = O O + = = + = + + = O + = + + O @ - + @ = + O ; = + @ + O @ + + + + + + + + @ @ + @ + @ + @ + @ @ > # @ # > # > + > - # # # # > @ @ > % # # # ; @ # @ # > % % # > # 2 7 # % 7 @ % # 2 7 % # % # % % # % # % % # # % # % % # % # # 7 # % % # % # # # @ 2 % D F G S D r % 2 # % # # 2 # # % # > # # > 2 # # 2 # # > # # % # > # # > # @ % ; % > # > # > @ # % # > # # > # # > > # ; # % > ; % > # # ; % # # # > # # > ; # # # % # # > # > # > ; # # > # - # > # > + > - # + > + > + > # > # > # > # @ @ + # @ + @ + # + @ @ + # @ > + # + @ @ @ # @ # + # + # + @ + > # + @ + @ + + @ > @ + # + @ @ + O + - + @ + @ O + + + + # + @ + + 1 W S @ @ + + > + @ + @ + @ O + + O @ @ + + - + + + + + @ O > - > # # ; @ % 2 4 4 8 S 8 8 8 p 8 2 2 2 2 $ > @ > > > + = = O + = O - & & - - - - O O O O O @ O O O = O O & O O O O & X O O O X O O & O * + O O X & O o O O X & O O & O O O O X O O & O O O & + O O & + O O & O O O X O O O O O O O O O & O & O O O O O & O O O X & + O & + & & X & + O & + & O O & & + & & & O O O O & O O & O O & & & & & O O O & O O O O O & & + X & O O O O + & O O & + O O & O X O O O O O & X & O - X 0 ",
"X & O + & X O O & O O & O & O O + & O O O & & & X O & O & O & O & O & O O O & O & X O & + X O O * & X O & O & O O O O & X O - O O & O O O O + & O O O O O O O @ @ O O O O = - - - - + = = + + = @ O + @ O O = + ; O + = + = O O - O O ; + ; + @ + + - + @ + @ + + > + @ # + # @ # @ + # @ @ + + + # # + > + > # # > # 2 @ # ; # # ; # > > # % # % # # ; # > # 2 # > # @ # # > % # # # % # % > # % # % # # 7 % # % # # % # % # % # 2 # % # 2 % % 2 2 D F W ( U D D 8 > % 7 > # # % @ @ # 7 > 2 # # > # > # > # > # ; # # 2 @ @ > # # # > # % @ > # > # @ ; # % ; @ # > # # # % > # # # > # % @ # > # > % @ ; # % @ > # > ; # > # % @ # % @ # > # > - # # > # > # # > > # > # > # > + > @ > + > + # @ # + # @ @ @ + # # + @ + @ @ @ + # + > + + @ > @ + @ # @ @ + # @ > + # @ # + + + - @ + + @ O @ > + + + + + + ; + + - + + + + + u _.g.; > O O + + + @ + + + + > + @ + + @ O + @ + + @ + O + > > > > % 2 % @ 2 4 2 8 S G G S S 8 2 ; ; @ ; > > @ > > + O + @ - + = & - - & & + O O @ O @ O O O & O O O O O O O - + & O O & O & O O & O & X O & O O O O & O & O * X O O O & O & O O & O & O O & & X O & X & O O O * & O O & O & & O O & O O O O & O O & O O & O & O & O O & O O & O & O O & O & O O O & X O O O O & O O & & + & O & + + & + & + & X O & O & O + & & + & O & O & & + & O O & & X + & & O & O O O O & O O & o q ",
". & O O * O O & & + & O O O & O O O O X O & + O & O O X & & O O O O & O X & O & O O O & & O & O O & O O & O & O & O O O O O O O X O O O O & O & O O O = O O O O O + O O O @ @ O & - - & - & & + - + + = + = O @ = + = = O @ + = + = + = + = O + @ + + + = + + @ @ + + + ; + + @ @ # + @ > @ + + # # # # + + # # + > > > + > + > > # # % # # # % @ ; # # % > # # # # % @ # > > # # # % @ # # % > # 7 # # 2 # # @ # 2 # # 2 # % # % # 2 # 2 # % # 2 % 2 ^ ( ` / H 8 % % # # % + # @ # > # + # # # # > % # # > # ; # ; # # > # # # > # % # # ; @ # > # # # # ; @ % > # ; % # > # # # # ; @ # ; # > # > @ % > # ; # # > % # # ; # # > # > # > + + > # - # > + > # - - + > # > + > @ @ # @ + # @ # + @ + # @ # + @ + @ @ # + + @ # # + # + # # # + @ + @ # + > @ # + @ + @ @ # @ # + - - + O + - + + + + + + O + @ + @ + + + ; + + + @ 1 H G @ . @ + @ + + @ + + O @ + + + + - + @ @ + @ + - @ + + > @ O $ @ ; 2 2 ; 8 8 G H H H H 0 8 7 8 2 2 ; > @ O ; > O - + @ & & - = O . O O O @ O O O O O O O O O O . & O & O O O & O & O O & O & O O O O & X & & & O - & + & O & O X & & & O O O & + + & O O O O O O O O X & & + & O O O O O O & O & & + X O & X O O & + + & O O O & & & O O O & & O + & O O O & O O & X & & X & O O O O * O O & O O & O O O O X O O O X & O O X & & + & O X & & O O O O & O & O O & O O & O & O O O & X q ",
"O & X O O X O O & + O & & O + & & O & & & + & O O O O O O O & O O & O O + & O O X & O O + & + & O O & + O O X O O O O & & X & O & O & O O O O O O O O O = O O @ O . + + O O O O + - & - & - = = + = = + = + + - + = O + = + @ O = + + O = + @ + + - @ + @ + + + + + - + @ O + @ + @ + # + # @ # @ + + @ @ # + # # > # # + > > # # > # # # # % ; % # > # # # > % ; > # # ; # # # > % # 7 @ 7 > > # # % # # 7 % % % % # % # % # % # % # % # % # 2 8 2 D I ( } / ^ D % 8 % % # + % @ % @ > 2 # ; % > # ; # > # @ # > # @ % # > # % # ; # > > # % # # ; 2 @ > # # # # > # @ > # 2 @ > # # % > # % # > # > # # # @ % ; # @ ; > # ; # + > # - # > > # > # - # > # > # # > # > # > # + @ + # @ @ + # @ # @ @ + @ > # @ # + @ > @ # + @ # @ + # + # @ # + # @ + + @ # @ # + # + > + @ + + + @ @ + + + > + @ > + @ + - + + + - + @ O @ @ + @ 2 ; + + > + + + + - + - + @ @ @ @ + ; + O + + + + + + = + ; @ ; @ 1 $ ; 2 4 8 G H P P P P L G D 2 % $ ; > > ; > @ = = - + = - O = O + O O + O O O O O = O O = O O O - O O O & + O O X O O O O O & X O & O O O O X O O X O - O O O O & + O O X & O & & & O & & O & O & O + * + & O & O & O & & X O O O & & O O O & O + & & + O & O + + X O & O X O O & & X O O O O O O O & + O & O & O & O O X O X O O O O & & & & O & O & O O & & + & O O & & + O & & + O O X O O & O O O O & o O & + O q ",
"O & O O & O X & + & O O O & O O & + + & & & O & & X & O O * O O O O & X & & O & & & O & X & & O O O X & & O & & + & O O & O & O O & O & X & O O = O O O O O & O @ O O @ @ + O O - & & - - - - + = O + @ + O = + - + + = + = + = + = = O - O + @ = O + + + = = @ @ + - + + @ + @ @ + @ # + @ + @ @ + @ + + + @ @ + @ @ + # + @ > > # # ; ; @ # # # # @ 2 > # ; @ % # # ; % # > 2 > 2 # > % # 2 # % # # % # 7 # % % # % @ # # # % % @ % # % # @ # % % D F ^ ^ H Y % % % # # % # @ 2 # % # # > @ > # @ % # ; # % # # > # > @ # # ; # % > # > # ; # % # > # # # > # % # > # # # # > # # # > % # # > # % # > 2 # # > # # > # # > # % # # # > > # @ > # % # > # # > + > # - @ > + @ + # + @ + @ + + > + + @ @ + @ + + @ + + @ @ + # @ @ + @ # + @ @ + > > + # + @ + @ # @ + @ + + @ + # @ @ + # @ @ + + O @ + @ + + @ @ + - + + @ + O + + + + O + + > @ - + + @ O + + + O @ + + + + + + @ + ; + + + > @ @ @ @ # 2 8 8 G G H P ` P ` P H S 8 % ; ; ; $ @ @ - + + = + = & + O O O O O O O @ O = O O = O O O O O O = & + O & & O & & + & O & O & O O O O O O O O & O O & O & & & O & O O O & O & & + X O O & & O & X O O X & O O O O O O + & O O & + & O & + & O & & & & X & O & & + X O & O & O O O O & X & + & O O + & O O O O O & O O & & & & + & X O + & O O O O O O O O O & + & O O X O O O O & O & & & + + O O & O & O & . & X 0 ",
". & X O O O + * & & X O O O X & O & & + X O O O O O O * O O & X & + & O O O O O O o O O O O O O & O & O O O & + & & X & + & + & & + O O & O O O O O & O O O + @ O + O . + O O + + - = + = + = + + = = O = = + = @ O = + = + = + = + > @ + @ = O + ; @ = ; + - + @ O + + + + + > > - # > # > # - # > > > > > > # > # @ > > # > # # > > # # % + 2 # > # > # > # > > # > # > # # # > # > # 2 > # # # 7 % # # > > > > # % # 2 7 @ % % # 7 > # % % # % % % % D D 8 D % % % % # @ % # + > # > > # % # ; # # > % > # > # % ; # 2 # > # # @ ; # # % # > # > # > > % # ; @ > # > % > > # > % ; # @ ; # # # # ; # @ # > # % # # > > # > # # % ; # # ; % # # @ ; # % ; @ > + - # > # > # @ > - # > > # > @ > # @ + # > # > > # > # > + > + > @ - > - > > > # @ # @ @ # + @ + @ > # @ # @ # # + @ # + @ # + - + @ + + = + + @ O + + + + + O + > @ + > @ O + + + + @ + + + > - + + + O @ + @ + O + + @ + + > . ; > ; ; ; 2 D S H U P ` e e P H S 8 4 2 % ; > ; > > O = + = + > O O @ O O @ O O O O O & O O O O O O = O O O & & X O O & + & O O O O O & X O = O & O & O & X O O & + + & + O & O O O O + & & O O X + & O O & O O O & O O & X & & O & O O & O O O & O O & + X O + & & + & & O O O O O O O & O O & O & O & & + & O & O & o & O & + + & + & O & & & + & O & O & O O & O + & O O O & O O & & X O O & + & & O & O O O O & O - X q ",
"X O X O O O & + & + & & O & & X & O O & O O O O O & & X O & O O & O O O O O O & O * X & * + & O & X O & O O O O O & O O O O O O O O O O & O O O O O O O O O O . + O @ + + . O @ O @ + = = O + @ = + + = O = + = O @ + = = + = + + = @ - O @ ; O + O + ; O = + + = @ + @ @ + + @ # # > # - # > > > > - > > - > - - - > - > - > > > > > @ ; @ @ # > # > # # % # # # ; # @ # > # 2 7 @ @ % > > 7 % # 7 > > @ 2 # > > 2 # # # 7 > # # > # # > 2 > 7 % % % % % % r % % 8 % @ > > > # # # # > # # # > > # ; # # > # > # @ ; # ; # # % > # > # > # # # ; # # % # ; @ % > # ; # > # % @ # > # # > # # > > # # > # # # > # > # % @ > # > > @ ; # # % > # > # @ ; @ % # > > > > + > > - > > - - > > + > > > - > > > + + > > - > - > - - > > > - > - > > # > + # @ # @ + @ @ # + + @ + + @ + @ @ + @ # @ @ + + + + + + O @ O @ + @ @ + + @ + + + + + - + + @ + O + + + - + + + > @ @ @ + @ @ - O + ; O + ; ; @ ; @ 2 2 4 7 S H L U ` P P H H S 8 % ; ; % $ O @ - + O + = O O @ O O O + O O O . O O O = O O O O O O O = O O O O O - O O = O O & O O O & O O + * O & O & & O O X & & & O O O X & O O O & O & O O O O & O O & & + & & O & & X O O & O O X & O O O O & & O O O & & + & & & O * & X * O & + & & + & & X O O & O & O X O O O O O & O + & + & O O O O O & O O O & & O O & X O & O & + & & + & O O O O & & X + & + O X O O O o q ",
"O & O O X & O & O & O O O + & O O O O & & O & O O O O O O X O & O O O & & O & X O O O O O O O O * O O O O & & X & + O O O & O & = O O O O O O = O = O O = O O O . O + O @ O O O O O = + + = = O O O = + @ + = + = + = + O = + = + @ O + + - + O @ ; O + + @ ; O + + + + + + + @ > + @ # @ + + > > + > > > > > > > > > > > > > + > - - > # > @ % @ % # > ; # # > > # # % # # > @ # # 2 # # 2 # @ # > % > % # # > # 2 > 7 @ > > 2 > % 2 > 7 # # 2 % 7 % 2 % r % % % @ # @ # # > # % ; # % % ; # % # % @ # # # % @ > # % # # > # @ # ; # % # ; % @ # > # @ > # # # # # # % # > # > > # # % # > # % # > % # # > % # > # # ; % # ; # # # @ % # ; @ @ # ; @ @ # # @ > - > > - > - > > O > > > - > - > > > > - > > ; > - > > - @ > > > > - > > > @ > @ > > # @ + > + # + # @ @ # # @ @ + @ @ @ @ + @ O O ; + - + ; + + > + + + + + + + + O + + + + > + + + @ + @ + + @ + @ + O + O + + @ O ; + @ + O > % @ @ @ $ ; 2 2 8 G H I P P U L 0 8 8 2 > $ @ ; @ ; > = = + O @ O O @ O @ O + . @ + O O O O O O & O O = O O O O O = . & O O O O & + O O O O O & & X O O O X O O O O & + + & X & + & O & X O O O X & O O + & O O O & O O & + & O O O X O O & O & & O O O O O O & + & & O o O O O O O O O & X O O & + & O O O & X O O & O X O & O + & & & + & O O O & O X X & O O O O X & & O O O O & X O & + & O & O O + & & O = * & O & & o q ",
"X & O * O & & O & + O O & O & O O O O X O & O O O & O O & X O O + & X O O O O O O O O O & X & & O O O O & X * O O & & & O & O O & O = O O O O O O = O & O O O O O + . O O + O @ @ O O @ = + @ O @ + + = = + + = = O = + + = = + = @ + ; = @ + ; O > + = = + + O + - @ O = + ; + + @ + + # @ # > - > > > + > > - > > > - - > > > > - # > - # @ ; # > ; # # # @ > # % > # ; % # # # > # # > > ; # # @ % # # > # 2 > @ # % % # > # # # > + # @ # % # % % # % % 7 # % $ % D 2 @ 2 # # # > @ # # > @ # ; # > % ; # > # > # > % # # ; % # > @ % > # ; % # # ; > # > # @ % > # ; % # # @ > # ; ; # # ; ; # # ; ; # # ; # ; > # @ ; # > - > + > > - > @ > > > - > - > - > > > > > O > @ > > > + - > > > > + @ > ; + > - > - > > > - @ > + > - > - > > + + @ > + + @ @ # @ @ + @ + @ @ + + + + + + + + + @ + @ + @ @ + @ + + O + + + + @ + @ - + + + > - + + + ; + + + = @ + + O - + ; O - + = = O + = > + > ; 2 @ @ 2 2 8 S H H P H H G D 8 2 % 1 @ @ @ ; @ - + O @ + @ @ O + O + O @ O @ O O O O & O O O O O O = O O O O O O O O = & O + O O = O O O O O O O O O & & O X * O O & O O O & & + O & + & & & & O & O & O & O X O O + & O O & & * O O O O O & + X & + & O O O O + & O & O O O O O & O O O & & + & O & O O & & O & O & & O & & & O X & + & & * O & O & O O * O O & + & + & O & O O O & O & O O O + & O O X = & o & . - X 0 ",
". - X O O O O O O & X & O O O O & O & O O O X & O O O * O O O & & O & O & O & O X & O & O O & + O O & O O O O O O & + X O O O O O O O O O = O O O O O O O O O O + O @ O @ O O O O O O + + = + + + = - @ O O = + + = + - @ O + - + = = + + = = + @ O @ = + - @ @ @ = + = + ; + @ @ @ # @ + @ + @ @ + + @ @ @ + > > + > > - > - > - > > - > # % # > # # % 2 @ @ # # ; # > # > # 2 @ # > # # % # > % @ ; # > # # # # # > @ # # # % # > # 2 # # @ @ # # % @ # % @ @ # u W 1.Y % @ # # > # ; # > # ; # % > # # # > # # % ; # > # > # # > # > # # > # # > > # # % # ; ; # # > # # # 2 % # > # @ % > # @ % > # @ % > # % @ # # % # > # > > > - > > - > > # - > > > # > > + > - - > > > @ > > - > > > + - > > = > > > > @ > - # - > > + @ # + @ + @ + # + # + # @ # @ + + # @ > + # > + + > + - + > + - @ + + + + O + + @ + @ - + @ @ O > + + O + > + + + ; + + @ + @ = O O ; ; + = + = + = @ + @ - + ; + > @ ; 2 $ 2 2 4 D S G G G S 8 8 8 2 2 ; > ; ; O ; > O + @ O O + O . + . + O O O O O O O O O O = O O O O O O & O O & O O O O O - & O O O = O O & O & O O O O O O O & O O & O & + & & O O & O O & + & + & X O O & O O & O O & O + X O O O & O & O & + & & & X O O & O O O O & O & & X O & O O O O & O O O O & + O O O O & + O & O O O O O & O O X O O O O X O O & O O & O & O & + & & O + & + & & O & & X & O O O O & O + X q ",
"X & O * O & + O & O & O & O O O O O & X & O X O X & O O O O O O & O O O O O O O O & O & O O O O X & & + O & O & O O O & & & O & O O O = O O O O + O O O O @ + O . O O + . + . + + . O . + O O @ = + = O + = + O @ > - & - - + = - + + = O = + - + = = + ; @ + ; + = + + = + O + > + @ @ + + + @ + @ + # > + @ @ > > + > @ # @ > > @ > - > > + > > > ; > - > > > # > # # > # ; @ > # > > # # # # # 2 # # # ; % > # ; % # @ @ % @ > # % # # + # > # # # ; % > # 2 # u ^.@XW % @ % > # ; # > # ; # # > # > > % # # > # % # # 2 # > # # @ @ > # @ ; > # @ % # > # ; % # # @ 2 # @ @ # # # > # > % @ % @ ; # > $ # > + > > - > > > - > = @ @ > - > - - @ > - > > > O - ; > ; > > > - > > + > > > - > - @ > > + > > @ @ # @ @ # @ ; + # + + @ @ @ # + @ # @ @ + + > + + + > + - + + + + + + + + > + @ + @ + - O @ + + + O @ @ @ + + ; > @ O ; O > > + O @ ; + O O @ + + O ; @ O > @ + O + ; + O - @ @ - > ; @ $ ; $ 4 4 2 8 S 8 D 8 8 2 2 2 # > ; @ # @ + - + O O O O + . O + . + . + + O O O O O O O O X & O X & & O O & O O O = O O + & O O & O & X O X O & O & & + & O O O O X O O & O & & & - & & O O O O X & O O O O O X X & O O & + O O & X & & O X & & O & O & & O & O O O O X - & & O & O & O O O O O O X & O O O O O - O X + O & O O O & O & O & & O & O O & & O O O & O O X O O O & & O & & O O & + & O O & O O O O & O q ",
". & O & & X & O O O X O X O & O O & O O O O & O * O & & O & O & X O O & O & & O O O O O X & O O & + O & X O O O X & O O X O O O & O O & O O O O + & = O O O & O O O O O O + . O @ O + O . + O @ + = - @ = @ = + - + O O & - > = - - - = . + O O ; + + - O O O + - @ = @ O ; ; + + + + O @ - + @ @ @ + @ + # @ # + # + @ @ + + > - > > > - > > > + ; + > + ; > # ; # # % # > # % # # @ % # > # 2 # @ > # # > # # > # # # @ # # # # # > > > 2 # # @ ; # > # # # + 2 % ^ ~.D % @ # # % # > # % # # > # % @ # > > # # ; # > > # # # ; # % @ # # % @ # > > # > # # % ; @ > # # # > # > % ; # > # # ; # @ # > # # > @ > > - > # - - > - > > > - > > - > > - > - @ > > @ > + + - - @ > > - > > > - + > > - > - > > + ; > > > > > > # @ > @ # @ + + > @ @ + + # # @ @ + + @ + + @ O @ + + @ = + + + + @ + + O + + > + @ - + + + + + - O O O + + @ O O @ = + + = ; + O = ; + O + @ O = + ; = + @ @ - + O ; + @ ; ; $ @ ; @ 2 1 4 4 4 4 2 7 2 2 ; > @ > > > O O ; @ O @ O + O @ O O O O O + & = O O O = O O O & O O O + = O O = O O O O O & & X - O O O O O & O O O X O & O X O & & & & & + & + X * & & = O & O & O O & O & O & & O O & O & & O O O O & + O O & + O O - & X O O O O & O & & & O O O O + & & O O & O & & O & O O & & + & & O & X O & + & + O O + & O O O O O O X & O O O O O & O X O - & & X & O & O O O X O O & . & X w ",
"O & O & & O O O O O & & O O O & & O O O O O & = O O O + O O X & O O = & O O O O X & O O & & = & O O O & O O O = O O O & O O O & O O O - & - O O O O & - + - - O O O O O O O + O O O @ O + + O O @ O + = @ O O > > - @ + - 7 e & & > - = ; - > - O O O + + - @ - - O @ O + = + + = + = + - + + + # @ @ # + @ @ + > + @ # + ; @ > > > - + - > - > + > > ; > @ > # # # @ ; # > # > % # # 2 ; % # # # # # # > # # + # # > # # # # > > # + # # ; # > % # 2 # % # @ 2 2 @ 2 2 % 2 # > # > > # > # # > # # # > # # > # > # > # # > > # % # # # > @ # > @ 2 # > # > # > > # ; @ > # > > # # # > @ % # @ > # @ # > # @ > - > > > > - > @ - > > > > - > # > - > @ > @ - > > > > > > + > - @ > - - > + > > @ > - > - > > > > > > - > > > + + @ # + # @ + @ @ + @ # @ + @ + + + O + + + @ + @ + + > O @ + O + + @ + + + @ O + = - + O @ = + @ + + = @ - = O + O @ + = + @ - + = @ O + = + = + O = O - + + = + - ; @ > ; 1 ; ; ; ; 4 1 4 1 1 @ 2 > ; > > > - O @ O + O O O O O O O O O O + O - O O O O O O O O O O O = O - & - & O O O O - = O O & & O O = O & O O O O O O & O O O = + O O & & O O O O O & & O O O O O O & & O O + & O O O & + = O O O O O O O O & = O O O & & O O O O O & O & & = & X - & + + & O X O O O = O & O X & & O O O & O O O O & & O O O O O O X & O O & & & + & O & O O O O O = & O O O & O O O & O O O X & X w ",
"O & O O O O O & & & O = = & & = & & = & & & = & & O & & & & & = = & & & & & & & = & & O & = & & & & - & = & & & & = & & = & & = = & . & = & . O O - & - & & & - O O = - @ O @ O O ; O O O . = = = O = = O O ; O O & - + & P } < - + + & = = > & + ; @ @ = @ O - - - - - ; + > = = > - - - - - @ > + > # # @ > > > > - > > - > > - @ > > > @ > - > ; + + > = > @ # > > # > # > # ; # # @ # @ > > 2 # 2 ; # # 2 2 2 # 2 ; 7 # 2 # # 2 2 # > % % > # > # > > > # > % @ 2 $ % # # # ; # # % @ > # # > # 2 > > # 2 > > > > > > # > > > > # 7 + 2 > # > # + # > > + # # @ # + # > # # # > > # > + @ - > > > > - > > = > - + > # > - > > > + - @ > - > + > - > - > > - > - - > > > @ > > - @ > > ; - > > - > > > - + - - - - - - - - # > # > + # > # @ # > > + > # > - - @ @ - > + - - + > + - + > + > > > + > + > + - ; - - > - - - - - > - - - - - - ; - - - - - - > - - - - > - - - ; > - - - - - - - $ ; @ > # $ ; 2 # 2 2 ; 2 ; ; 2 @ ; @ > > - - ; O ; = @ O . - O O O @ O = O O - & & - O - & & & = & & & & & . & . O = & = & & & & . & & & & = - & & & & O = & = & & & & = & . & & O = & & = & & & & & & = & . & & & - & = & = & & & & . = & & & = & & & & & . & = & & & & = & = & & . & & & & & & & & & & & & & = & & & & . & = & & = & & = & & & & & & & = & & - & . & & = & & & = & & & & = & O = & & & = & O O = & & X q ",
". & & & & = O & & = = & & = & & = & & & & . & & . = & & = & & & = . & = & & & = & . & & = . & = & & = & & = & & & O & & = . = & = & . = = . & - & & - & & O & - - & & - + @ + = O . ; = = = = . = O ; O O ; = O O & - O ; { } 8 - - + & = - - - = + = + + + = > - - - - - > - - - - > + - + ; - - - - - - - - - - - - - - - + = - - - - - + - > > - > > @ > - > - > @ > > > > > > 7 # @ 2 # @ ; > # 2 # > > > > # > 2 # > > > > > # > > > # 2 > > # > # > 7 # @ @ # 2 # @ + > % @ 2 # > 2 # > 2 > 2 > > 2 # > > > > > > > > > > - > > > > > > - > - - > > - > > - > ; > > > > - > > - > > > @ > > > - > - > + > + ; > > - - > - + ; > > > + > + > - > > > > + > + > - > > > > - > @ > O - > - > > > + - - > > - - - - - - - - - - - - - - - - - - - - - - - - - - - + - - - > = - - - - - - - + - - - - + ; - - - - - - - - > - - - - - - + - - > - = > - + = > + = > - - ; - - + - - - > = - - > > @ > ; @ $ > ; ; > ; @ ; > ; ; ; > @ > ; - = ; O O = = = = & & - - & O - & O & & - & - & O = . & & . & & & = & = . & & & & & = = O . & & & & & . & & . & & = & & = & = & & & = & & = & & = . & = & . & & & = & = = & = & & & & . = & & & = & & & . & = & & & . & & = & & & & & = & & & . = & & = & & . & & = = & & = & . & = . & = & & & = & = & & & & O . & & & = = = & & = & & & = & = & & & . & = & & & = X = & & = & q ",
"& & & & & & = & & . & & . & & . O . = & = & & = & & = = O . = & & & & & . = & & & = = & & = & & . = & & & & . = & . = & & & & & & & & & & O = & - = & + - * - - & - - & = & - = = O = = O O = ; O ; O = = . = + - - - > 3 (.-Xj ; @ + - ; > - - - - > - > = - - - - - - - + - - - - - - - - - - - - - - - - - - - - - - - - - - - - - - - - - > > > - > > - > @ > - > - > + > > > - # > - - 2 @ ; > # > # 2 # 2 > > > # % > % > > 2 2 # > % # > > 2 # 2 > > # % > # 2 + 2 + 7 2 2 # > # @ > > > > - > > > - > > > > + > > > > > > - - > > - - > > @ > - # > > - > - + > - - @ > - > > - + ; - > > - > # > > > > > - > + > > @ > > > - @ > ; > > > > > + - > > > > > > - + > - > > > > > > @ > - - > > > > > + > > + > > - > > - - - - - - - - - > - - - - - - - - - > - - + - - - - - - - = - - - - - - - - - - - - - - - - = + - - - - - - - - - - - + - > - - - - - - - + - - - - - - + - > - - - = ; ; @ @ ; 2 @ ; @ > $ > ; $ ; > ; = = O O O ; . ; O = = - - - & - = - & - - + & - O O O & & & & = & = & = & & O = = & . & & & & & . & = & & & = = & & = & = & . & . & = & & . = & = & & & & & = & & = = & & . & & = & & . = & & & & & = & = & & = . & = & & = & & = . & = & . = & = & & & & & = & & = & & & . & & & & = & & & = & = & . & & & = . = & = & & . & & & & . & = O & . & = . & & & = & & . & & O O . & & X 0 ",
"& & . = = & = & & & & . & & & = & & & & = & . = & & . & & & & . & = = & & = . & & & & = & & & & & = & . . & & & & & = & & & = & & = = & . = = O O O - & + & & & - & O - - & & = O ; = = ; O = O = . = = = = O O & = = 3 _ >XqX' i ; - O = & - - - - - - - - - - + > = - - - - - - - - - - - - - - - - - - - - - - - - - - - - - - - + > - - - - > + > > - > - > # - - > # > > > > > > > > - > > % > 2 > # 2 # # > # > > > > 2 > > # # > > ; 2 > > 2 > > # 2 > > 2 # # + % 2 ; @ ; > 2 # > > > - - > > > > - > > + > - - - > > - > # > - - > + > - @ > > - > - > > > > - > + > - > - > + > - > > > + - > > @ > > > - > > > + > - > - > - = > + ; > > > > - @ > > > ; > + - > = > - > - > + > @ - - @ > > > - > > > # > - - - > - - - - - - > - + - - - - - - + > - - - > - - - - - - > - - > - - - - - - - - - > - - + > - - - > > = - - - - + - - - - - - - - - - - ; + - - - - - > - - - - - - - - - > O @ > ; # > - > - ; > ; > - @ ; = = > = = O . O ; & & - & - & - - & - - - & = O O O = & & . & & = = . & = & & & & & = = = & = & = = . & = & & & & = . & = & & = & & = . & & & & & . & = = & & & & = . & & & & . . & = = & & & = = & . & & = = & & & = . & = . & & & & = & & & & & & & = . & = & = = & . = = O = = & = & & = O . & & = & . & = & & & & & & = & = = & = & . = & & . & & & & & = & & = & . X O & & = X 0 ",
". & & = O & . & & = = & & = = & = = & . & & & & & = & & = = & & & & . = & & & = & & . O = & . = & & = & & = = & & = . & = & & . & . & & & & & O O O + - + > - - & + - & - - - O = O = . ; O O ; O ; = O = O ; > - - 4 E g.fXnX|._ p ; O - O - - > + - - @ - - - - - > - - - - = > - - - - - - - - - - - + > - - - - - - + ; - - - - = - - - - > > - > + > - > - > > > > - - > - > > - > - > > > > # # > > > > > 2 # ; % > # # > > # 2 > # > # > # # # # 2 @ ; @ ; @ # 7 - > ; @ # # > # > $ # > > + > - - > + > > > > > > - - > - - > > > > > > - > - > # > - @ > + > > > > @ > - > > > > - > + > > > - > > O > + ; - > > > - > > > + > > @ > ; + - > - > ; + - + + > ; > @ > > > + > > > - > > > > - > + > > @ @ ; # @ $ @ @ - - - - - - - - - - - - - - - - - - = - - - - - - - - - - - - - - - - - - - - + = - - - = - - - - - - - - ; - - - - - - - - - - - - - - - - - - - - O > - - - - - - - = = ; = ; O - > > ; > > ; ; O ; @ ; O ; > O = = = ; O = - + & - - & - - & + = + @ O O O O = = & & = & & & & . & = & . & & = & . = = & = = & = & . & = & & & & . & & = & & & = & . = & = & & O . & = = & & & & = = & & & & & & = & . & = & & & . & & = & & & = & & = & & . O = & = . & = = . = = = = = & = = & = . & = = . & & & & & . = & & = & & & = & . = & = & & . & & & & & & = & & = = = & & . = & & = & - = . & & w ",
"& & . = = & & & . & = & . = = & & & & & = & & & & & . & & & = & = & & & & & & . & & = & . & & & & = & . = & & & & . = & & & = & & & = & . & & & = & & = = = = & + - & - - & + - & & - = . = = O O = = O = = = > , g [ C.qXGXKXfX`.V.) , < + + - O + = O + = O > > + > - - - - - - > - - - > + - - - > - > - - - - - - - - > - - - - = @ - - - - + - - - - + = > - > = > > + > @ - - > + > > + > - > - > + > @ ; ; > % ; > > @ > 2 > # ; % > > > > # > > # > > # > # ; @ % # # > > > > - > - > @ > + + > > > > > - > > > > @ - > > - > > > - > @ > > = @ > - > > + ; > > - > > > @ > - + > > - > - > > + > > > > - > > > - > - > @ > > > + > - > > > - > @ > > > ; > > + ; > + ; - > @ > - > > + ; > + > > @ > > - > - > - > > - - - - - - - > - - - - - + ; - - - - - - - - - - - - - - - - - - - - - - > - - - - - - - - ; - - - - - + - - - = - - = - - - - - - - - - - > - - - - - - + > = > > > > @ + > @ ; ; = = = > = ; O = = O ; = O ; = = O = = O - & + & - & & - - & = = = & = = & = & & = & & = & & = & = . = & = . = & & . & = & & & = & . & = = = & & & = . & = . & = = & & & & = . = & & & = & & & . = & & . & & X = & & . & & & & = & & = & & & . . & = . & = = = & = & = = = & & = & & = & = & & & = & = = = = & . & = & & = . = O . . & & . & & = & & & . & & = & & = & & = & & & = = & = & & = . X & = - X w ",
". & & & & & O . & = & & & & & = = . & = & = = . & = = & & = . & & & = . & = & = = & = & & = = & & & & = & & = & & = & & = . & = & = . & & = = & & . & = & = = - * - - & & - * - - - = O O ; = = = ; O = & - < H e } ;XqXZXIXLXSXfX<X/.' K 8 > + - - + O = + - @ O ; = - - - - - - = - - - - = > - - - - + - - - - > + - - + - - - - - - - ; - - = - - - - > - > > > @ > > > - > > > > > > @ > > > @ > - > > > > % > # > % # 2 > # > > % @ ; % > # 2 % ; 2 # ; # @ # @ @ @ > # - > - + > @ - - > > ; > ; - > + - > - > + > - > > > > + > - > > - + > > > > > ; + + > + ; ; + @ = > = > > > - > > - > ; + ; + > = > @ + > - > > - > - - > > > > - > + > - > - > + - @ > - > - @ > > - > - - @ > - > + ; - > = @ - - - - - - - - - - - - - - - - - - - - - - - - - + - - - - - ; + - - + > - - - + - - - - - - - - - - - > - + - - - - - > - - - - - > > - - - - - - - - - - + - - - - - - - - - - + - - > - - - = = = > ; = = ; = @ = @ O = @ O @ = . = = & - & = - - - - - * - - & = = & & = . & & & . = & & . & = = & & = = & & = & & = & & = . & = = & & & & . = & & & & & & & & & & = = & & & & . & . . & . = & & = = & & = & . X & , = & & . & = . & & = = & & & & & & & & = = . & = = & = & & . & & = . & & & & = = & . & = = = . = = = & & & & & & = & = & & . = & & = & = & . = & & = & . & & & . & & = . & O & . & X w ",
"& & & = & = O & & & . & & & & & = & & = & & & & & & & & & & & & . & = & & . & & & & . & & & . & = . = & . & = . & & & = & & & & & & & = = & . = & & = . & = & - & - - & - - & & = = = O O O = = O ; = = > = - ; e e g.|.qXHXIXMX;X/.' G < O . + O & @ - = + + = O + + = - - - + + - - - - - - - - - - - - - - - - - = > - - - - - - - - - + - - > - - - - - - > + > > @ > - > - ; > > - > = + ; - > @ > > > + > - - - > - - @ > - > - > > - - # - > - - - > > > > > + > > # > > + > > > > > > > > = > + > - @ > > + - > - > > - - > > > > > > - - > + > + - > > ; > ; > - > > > > > > - > + ; - > > > > > + @ > > - > - > + > > - > - @ > - > + > > > = - - > > > > + > > + - > > > > - > > + > ; > ; > > > - - - - + - - = - - - - - - = + - - - - - > - - - - = - - - - - - - = > - - - - - > - - - - + - - - - - + = - - - - - = - - + > - - - - - - - - - + - - - - - - - - - - > - > > > O = + + = = + O ; O ; ; O O ; ; = = = = = O = ; O = = O + - - - - - & - & & - - & = . = . & = = & = & = & & = & = & & & = & & = & & . & = & = = & & & & & . & & = & . & = = & & = = & & . & . & = & = = & & & & & & & . & = & & & & & , w , & & & & = & & = & & = & = & = = = & & . & & = & = = & & = & = & & & = = & & . & & & = = & & = & & = & & & . = = & & & & & = & & = & & & & & & . & & = = & & & . & & = & X & & - X q ",
"X = & & . O O = & = = & & = . & & & & . . & = = = . & = . = & = = & & = = & & = = = & & = & & = & & & & = & & & & = . & & = & . = = & & & & & & = & & = = = & - - & - - - & - - O O O ; ; O = = = . = = = = - . , , p V N.fXMX|._ 3 , = & O , - + - + - O O = + = + = + + = O > > - - - - - - - - - - - - - - - - - - - - - - - - - - > - - - - - - - - - - - @ > > - > - > @ > - + > > - > > > - # > - > - > > > # # > - > > - > > - # - > > > > - > # > - > # - > > > > > - > ; > - > > @ = > @ > ; + > > > = > ; > > @ - > + > + > - - > + > > > > > > > > - > + + > > > - @ > + > > - > > @ + ; + ; > > - > ; + > > - ; > @ @ > > - - > > > - > @ > > @ > - > - > > > > - > > + > > > - > > + > + > + - > - - - - - - + - - + > - - > - - - - - - = - - + ; > - - - + - - - - - - - = - - - + - > = - - - - - - - - - - - - - - - - - - - > + - - - - - - > - - - @ - - - > > - - - O = + = + = O = + = O @ = O ; . O O . O O ; . O = = . ; = = - = & & - & * - & * - & & - & & O & . = & = = & & & . & = & & . = & & . & = & = & & . & & & = . & = & = & & & = & & & . = & & & = & & = & & & & & & = & = & & = & & = & . O X & 7 ' < & . & . & & = & & = & = & = & & & & . & = & & . & & & & & & . & = = & & & & = & & & . . = & = . = = & & = & & & & . O = & & & = & & . = = & . & & = & . & = & = & & = . O & . = X w ",
". & & = & & = & = . & = & & = & & = & & = & & & & . = & & & = & & = & & & = & . . & = & & . = & & & = . = . & = = & & = & & = & . & = & . & = & = & & . = . & - - - & & & - - & - & O O ; O O . = O = O O ; = = & * , 3 E ,XqX[ g : & O - - . - O O O + + O @ - O - O - O = + = = O = O @ @ O > - - - - - - - - - > - - - - > = + - - - - - ; - - - - - - - - - - - - - - - - > @ > + ; > + + > > > - > > + > - - > > - > # > > - > - > > - > - - > > > > > - > > > > - > - > @ > + - > - ; > + > > + > > > + > + + ; > - @ > > - > + > > @ > - > - > @ > + - > > - > - + > - > > - > > > - - > > > > - > - > @ > - > > ; + - > ; + - > > > > - > - > > ; > > > > + > + > > > > > > > @ - > > - - - - - - - - - - - - - - - - - - - - - - - - - - - - + - - - - - - - - > - - - - - - > - - - - > - - - - - - = - = > - > - - - - - = - - - - = - - + - - - - - - - - - - - - - - - > = O @ @ + = O + = O @ O = @ O ; O = O ; ; ; O O ; . = = O - - - & - - & + = = * = = & & : = = = O . & & & & & = & & & = & = = & & & = & & & = & & = & & & & & . = & & & = = & = = = = & = = = = = & = = & = & - & & = & . = . & = . & = O - * 5 ' 0 & . & . = = & = = = & & & . & = & & & & = & = & & & : & = = & = = & = . = & & & = & = & = = & = . & = = & . = = & = & & = = . & . : & & = = & & = = & & & = & & = & = & X & . = X 0 ",
"& & . = = & O & & & & & . & & = . & & . = & & . = & & = = & = & & = . & & & & = & & & & = & & & = & & & & = & & . & & & & . & = & & & = = & & & & & = & & = & - & - + - - & - - & - ; O = . ; O O ; O ; = O O . . . . , , (.-XK , . = - = - = - @ = ; = = = = O = + O @ + + = + = + + = + - O - - - ; + @ - - - - = - + - - - - - - - - - - + - - - - - - - - - - - - - - - - > > - > > > ; ; > > - - @ - > > > > - + > > > > - - # > > - > > > > # > > - # > - + - - > @ > - > > ; > > > + - > > - > > - > > > ; > - @ ; > - > > > > - > - > > > > > = > > > > - > @ > > > - > > - + > + > > > - > + > - > - > > @ + > > > > - > > > > @ - + > > @ + > + > + - > ; > ; = @ > + + > = > ; > - - - + > - - - - - - - - - - - - + + - - - - - - - - - - > - - - - - - - > = - - - - - - + > - - - = > - - - - + > > + - - = + - - - > > - - - - - - - - - = > - - - - - - - - - - - - + O = + O = = O = = O ; ; O = = = . = = O O O = O ; = = O = & - & - & - & - & = = = = = = & = & & . & = = . . & = & = & & . & & & . & & . & = & & . = & . O = = & & = = = . & = . & & & . = & = = & = = = & & . = & = & & = & = & = = & & > - < ' } 0 , , & & & = = . & = & = & & = & . & = = & = & & . & & . = = & & = & . = = . = = . = & & = = & = & . = = = & & = . & = = . & = = = & & & & & . & & & & = & & . & = . = & X & & & X q ",
"& & & & & . & & & & = & & = & & & & & = . & = = & & & & = & . & & & & & = O = & = & . = & & & & . & & = & & & & & = = & & = & = = = . & & & & = = . & = & . & = - & & - - & - & - + = = = O ; = ; O . = = = O ; @ , , & - } (.4 . = ; ; = & > & = = ; = O = = @ O @ = + ; O + - + O + + - O - - - - - - - - - = - - - - - - - - - - - - - - - - - - - - - > - - - - = + - - - > > > > - + + > > > > > > - > - # # # > @ # @ # 2 > > # # @ @ @ # @ # @ @ @ > @ # ; % @ @ # > > > - - > > > > > > - > - > - @ > > > > > > > + > > > - > > - > + > > + - @ > - + > @ > > - > + @ > > @ > @ ; > + > > > - > > - > - = > ; > + > > > + ; + > > @ > > > > > > > > - > - > + > > > > > - > > > + > > + - - - - - - - - - - - = - - - > > > > > - > > - - - - - - - - - - - - = + - - - = > - - + - - - + - - - - - - - - - - - - > - - + - - - - - + - - - > - - - + > - - - - + - - = O & > O + = + = O = O ; O O = = O O = = ; . = = ; = O O O ; O = + & & - + * & - = = = & = & = & . & = = = = = & = & & . & . & = . & = = . = & = & & = = = = & = = & = = = & & = & = = & = = & = . = = = & = = . = . & = & = = . = = = & = = = & = , ' (.e , , & = = . & = & = & = & & = & = = & & & . & = & = = & = . = & . & = = & = & & = = & = = . = = = & & & . = = = & = . = & & = = & = & . = & & . & & . . & & = & & & & . X = . - X q ",
". = & & & = O = & . = & & = & . & = = & & & & & & = & . & = & & . & = & & . & & & = & & & = = . & = & & = & . = & & & . & = & & & & & & & = . & & & & = = = & - - * - - & - - & - & = = = = O = O O = = = ; O - O & O & O ' { * * = = . ; - - - = O . O = = = + + ; + @ O > - - ; - - = - - - - + - - - - - - - - > - - - + - - > - - - - - - - - - - - - + - - - - > - - - - + + > - > ; > ; + > + > - > - > $ > # 2 @ ; # # @ # $ > @ # ; @ % @ > > # > # $ > # % @ ; # @ # > @ > > + > O > @ > @ > - > ; + - > + > - > - > + + > @ - > - > > - > > > - > > - - > > - > > > - - > - ; > + > > > + @ > - > @ > > > + > + ; > + + > > - > > = > > O > + ; - > > + ; > ; + - > - > @ > O > > > - - - - - - - - > - > @ > > - > > > - @ - > @ > - - - - > = + - - - - - - - - > - - - - - - - - - > - - - ; + - - - - - - - - - - - - - - - - > - - > - = - - - - = > - - - - - + + - - - - - - = ; ; . O ; O = . ; ; O = O = O = . = = = = O = O - - - - & O & - & = = = = = = & & = = & = & = & & = & & & = & & = = = & & = = & . = = & . & = = O ; O = = = = = . = & = . & = & = & & . = & & = = & = = = = & O & & = . & = & - = 0 (.-X' 0 , & = & = & = = . & & . & & = & & = = = = = = = = & = & = = = = = & = = = = = = & & = & = & & = = = & - & = = = = & & = = . & = & & & & = & & = = & & & = & & . = = & O & & - X w ",
"& = O = . = O & & . = & = = & = & = & . & = O = = . = & . = = & = & = . & = & = = & & = . = = = = = & = & . & = . & = & = O & . . & & = & = = . = & = & = = . & = = = = = & & - = O O ; = = = . . = O = = O O . O = . O ; 8 H - O ; . O O = O ; ; O ; O O @ . ; ; = ; ; O ; = @ + - - > - - - - = > - - > > - - - - - - - + - > + > > - > - > ; @ @ @ - > > > > > > O > @ > > > > - @ > + > > > - > ; + > > > @ @ ; % @ ; @ @ @ # # @ ; > # > # @ ; > $ # > @ # @ @ % @ % # @ > - > > ; > > > - - > + > > > > + ; > + + > > > > > - > > > + > = > > - > - > @ > > > > - - > - + > > > - + > > @ > > = @ @ > - > @ > - > > > > > > + > > > = @ > + > - > > > - > > @ > > @ > > @ > > + > > + > - > = @ > - > @ > - > > > > > O @ - - > + > + > @ > > - @ - > + > > > - > > - > > > > - > > > > - = - - - - > - - - - - - - - - - - - - - - - - - = - - - - = > - - - - - - - - > > - - > - @ O ; O ; ; = O ; O . = = O O ; O = = = = . O & = = - & = & - & & - - = = = = & = = = = = = = = = = . . = = & . = & . & . = . & = . = = & = & = = = & . & & & = & = = & = = = = = = = = & = & = & = = = = & = = = = = = & = & = = - - , < `.yX} g < * . * = & - = = & = = = = & = & = = = = = = = = = = = & = = = = = = = = = = & = , = = = * = & = & = = & = = = = = = = & = & = = = , & = = & = = = = = = . & & . & . & - & ; X w ",
"& = & & & = O = = = & = & . = = = & = = = & . = = & & = = & . = & . & = & = . = & . = = & = & & = & . O = = = & = = & = & . = = = = = . = = & & = = . & & = & = & = & = = = - - + = O O = = = ; = = = = O ; = ; = ; = O = ; ; ; = = ; = ; ; . O . O = ; ; O = = . O O O = . = @ > - - @ - - - - - - - - + = - - ; + - - - ; - - > - > @ > > @ > > > > > > + - - - > > > - > - > + > > = ; ; + - + > > - > O - $ @ @ # # # % > # ; % @ @ $ > @ $ % @ # > > # @ ; @ ; # > # > # - > @ - + - - @ > > @ > - > - > > > + > ; + ; @ = > > > O - > > > @ > > + > - - > + > - > > > > > > - + > ; - > = > - > > > - > - - > > + + > - > > ; > = - > > > > > > - @ - > + > = > + > > > - - > > > - > > > > > > > > - - > > + > - > + > > > > > ; > - ; - - > - > > > > > @ > > + - > @ - - @ + > O > @ - - - + - - = - - - - + ; - - - - - - - - - - - - - - - - - - - - > = - - - - - - - - - + O + @ O O O . O ; O = = ; . = = . O - . ; = = ; @ = = - & = - - - - - & & = , & & = = & & = & = & = & = = & = & = & & = = & = & & = & = = = = = = & = = = = = = = = = & = = = & = & = = = = = = = = = = & = = & = & = = = = = = = = - < g ' ;XhX-X_ g , = , = & & - . = & = = & & = = = & = & = = = = & & = = = = & = & & = & = = = * & & = = & = = = = = = = = = & = & = & , & = = = & & = & & = . & & = & & = = = = = & O = . = X q ",
". = & . & = O . = & & = = & = & . & & = & = = & & & = = = & & = = O & . = & = & = = . & = & = . & & = = & = & = = & . = = = . & & = & O . & & = & & = = = = = . . & = = = = & & & - = = O = = O = O = . = O = O = = = = = . X = @ = @ = O @ O ; ; = O . O O = O O ; ; . = O ; O - - ; O - - > - - - - - - - - - - - - - - - - > ; @ - > + > > O = > > > > + > > > > > > > > > @ > > > > > + - > > - ; > > - > @ # > @ @ # # > @ # @ @ # # > > @ # # # @ > # @ @ @ # @ ; > # @ > > + > > > + > - - > @ > > > > - ; > + > > ; + > > > > > @ > O > ; + > > @ > - > > + > > + > > @ - > ; > > > - > > - > + - > + > ; + > > > - > - > + @ > > > - > @ > @ > - > - > > - > > > O - > > @ - > - > > > - > + > > > > - + ; ; + - ; ; - + > @ - @ > + ; - > > > > - > - > O > > > @ > - - - - - - - - - - - - - - - - - - - - - - = > - - - - - > - - - - - - > - - - + - + - - - - - @ - - O @ @ - @ = . = O ; = @ ; O = O = = ; = O ; O = = O = & - & = - - & & - & - & = = & = = = = = & . & = = = & & & . = = & = = = = & = = = = = & = & = & = = = = = = = = = = = & = & = = = = = = * = = = & = & = & = = = = * = = & & = = ; , 4 _ ' ,XmX;X) ) < : , = - = = & = = = - & = & = & = = = & & = = = = = = = = & = = = = = = = = = = = = = = = & = = = = = = = & = = = = = & & = & = = = = = = & = = & . & & & = & . & O = = = X 0 ",
"& = = = = & - & & . = = & = O . = = = = & . & . = = . & . = = & = & = = = . & = = & O = & = & = = . = & = = & . & = & = = & & = = & = = & = = = . = & = . & = & = = & = & = - - & - O = O = O ; O ; O ; O ; O = O O = > - - = = O = = O = = = = ; O ; O . ; O ; = O ; O @ = O ; = = O ; O = = - - - - - - - - - - - - - - - - @ > - > - > > > + @ + - > > > - > + > - - + > = > - > > + ; > > > > > + > # > - > > > > - > > > > > > > - > - > + > > > > > > + 2 > > @ + > > > > > > - > > > @ > > - - > > @ = > + > ; ; > - > > + - > @ > > > > > > > - > - > > > ; > + > > - - > > - @ > + > > - > > > > > > > > > > - > - @ > > > - > + > > @ - - > - > @ > - + > > - - > > > > - > - @ > - @ > > - > > + > > > - > > > > + > > - > > - > > > > > > + > + > > > > > - ; + > - > - - - - > - - - - - > - - - - - - - > - + - - - - - > + = - > - - - + - - - > - - - - - - - = = = ; O = = O ; ; = ; O O = = O O ; O = = = = O = O O = - - & - - & & - - - & = = = = = = & & = = = = & = & & = = = = & . = = & & = = = = & & = = = = = & = & = & = & = = = = & = = = = = & & * = = & = = = = & = = = = = & = = = & = = = , 4 j _ C.qXCX:XC._ g 4 , > & & & = - = = = = = = = = & = = & = = = & = & = & = = = & & = = = & = & = & = = & = = & = = & = & = = = & = & = = = = = = & . & = = = & = = = = = = = & = = & = & O X w ",
"& = . & . = & = = & = & = & = = & . & = = & = = = & = & & = = O & = & & & = & . . & = = = = . & & = = & = = & = = O . & = = . & = = & = = & = & = & = & & = = . . & = & = & - - - - & - & + = O O = ; O . = O ; = . O . O = ; O = ; = = ; O = ; = ; ; O ; @ = = = O ; O O O ; . = O . ; O ; O - - > > + - + - - - - - - - - - - - - - - + - - > > > - > - ; O @ > - > @ > - > + > @ > - > - > > > - > > - - > - + ; > > @ > - > > > - > > > = > - > + > > - > - > - > > @ > - > > - > > > > > - > @ > O + > - > > ; + + + > > > > > - > - > ; + - @ = @ > > # - > = - > @ > > > + > > > - @ - @ > @ O > > > > - - @ > O > > > - > - > > - > > - > > - > > + @ > ; > > + ; > + > - > > - > + = > + ; > > + ; > @ > @ - > @ - > > > > - @ > > > - - > @ - > @ @ - - - - - - - - - - - - - - - - - - - - - - = > - - - - = - - - - - - - - - - - + - - - - - > - - + ; + - > - @ = O . ; = O ; . O = . = O ; = = = = O = ; = = O = = ; = - - * - O - & - - & & - = = = = = = & = . & & = = = & = = = & & = & & = & = & . & & & & = & = & = & = = = = = - & = = = = & - = = = = - - & & = = - & = = = - & - = & = * * * = = < < g ) m.C.fXHXwXE.f.) g 4 , , - - * = - & = = = - & - = & = = - & - = = = = = = = & = - & = = = & & - = = = = = = = = & , = = = = = & = = = = = & = & = & = = , & = = = & & = & & . = = O & . - X q ",
". = & = & = O & = & O . & . O & = O = & & . = & . = & . = & & . . = = = = & = = & = . O & = & = = & . = & . = & = & & = & & = = . & = & = & O . & . = = = & & & = = & = = - & & & - - & - - = = = = . = ; = O = O = = O O = . ; O . O = O = O . O . O ; = = ; O ; . O ; ; ; = O O ; O = ; O . > = = = = = ; ; = - - - - - - - - - - - - > - - ; > > + > ; + > > > > - > > > > > - > - > > > > + @ > - - > > @ > > ; - @ - - > > > # > - > + @ > > > > - # > > > > > - > - - > @ - > > O + > - > > > > > > > > - - > > > ; > - > = > > > - @ > - - > > - > @ > - @ > > - > - - @ > > - > - > > - > - > > > @ @ > - > > - > @ @ > > > - @ > + ; + > - > @ > > > > - @ > - ; + > - @ - > - > ; > > @ > - > - > = > > - > - > > + > > - > ; > - > > + > ; > - > > - + - ; + - - - - - - - - - - - - > - - - + > - - - - > + - - - > = @ - - - - - = + > - - - = - = = ; = ; = = - @ ; O O = O ; = = = ; O ; O . O = O ; O . = ; . O O . - & - & & - - - & & - - = = & = = & = = & & = . = & & = . & = . = & = = = = & = = = : = = = = = = = = = & = & & - - & & - & - - & - & - & & = = & = & - - = & & - - * = = = = * , , , g ) f.E.5XMXKXMX:XC.f._ g 8 < ; = = & O O - & = & - - = = & = - & & - & - & - * = = * & - - & - - - & * = = & = * * = = & = & & = = = & = & = = = = = = = & = & = = & = = = = = = = & & O = . - X w ",
"& = & = & = O = = . = = = & & = = = = & & = . O & = = = = & = & = & O = . & & = & . & = . & = = = & & = = & O . & = = = = & & = & = = . & . = & = & = & = & = = = & = & & = * + & - - & = & O ; = O ; O = = = O = = ; = = ; = O . O = O O = . O = O = O = . O = = = O O O . ; O ; . ; O ; = O ; = = O ; O ; O > > - - - - - - - - > - - - - + ; ; 1 , ; > > > > > + = > + > > - > - > @ > + - @ > - > # > @ > - > + > > > > + > > - > + - ; ; > > - > > - > + > > + > > > > - > @ > > @ - > = > - > - > + > @ - > - > > > - > + > - > > > > + > > > > > - > @ > > > + > - > - > - + ; @ > > > > > + > - > + > = > > > > > @ > - - ; > > > > > > + > - - - - > + > > + > > > - > > > + > + + > + - - > > @ > > > > + > > - > > > ; > + + + > - + - - - - - - - - ; - - - - > - - - - - - - - - - - - - - - - - - - - - - - - - - - - - > - - - - - - - - - - - = = = @ O = = O = ; O ; O O = O O O = = O = . ; O = O O = O = = = = - & - - - - - * - * - & = = = = = & = & = = = = & = & & = & = & = . = & = & = = = = & = & = & = = & = & = - - - - - & - & & - - & & - - & & - - & * = & - - & - - + & * - = = , , 0 ) _ f.C.Q.:XnXSXLXSXfX5X|.C.[ _ j , , ; - - * - & & - - & - - * - * - - & - * - & * = = = & - - & & - - - - & = = = & * = = & = = = & = & = = , & = & = = = = = = = = & = = & & = & = = . = O = & = X w ",
"& = . & = . O O & = & & . = . = & & = . = = & = & = & = & . = = = & . & = = = & = = = & O = & & = . = & . = = & . = & & = . = . O & = & = = & . = = . & = = & . = & . = & = O - & & - - + = & O O ; O = = . O ; - . O = = O O = ; = O ; = = ; = O ; = = = O = @ @ O ; ; = ; = O ; O O ; . O ; O = @ = ; . O = - = + > - - - - - - + - - - - - p g G p 4 > + - @ > > @ - > > > - @ > - > - > > > - > - > - > - > > - > + > - > > - > > > > > + > + > @ - > > - > > - > + > - > - > - > > > @ > > > + > > > - > > > > + - > @ - > @ > > + > - > > > + - > > - > - > - > > > @ > - > > > - > + - > - > > > - > > > > + > - - > - > > + + ; > - + ; > > > > > > - ; > - > > + ; @ > > - > > ; > > ; > > + > > - + > - > ; @ > + > - + > ; > > > > = - - - - - - - - - - - - + = - - - - - - + > - - - + = > + - - - - - - - - - + - - - - - - - > - - - - - - @ > O @ = = ; O = ; = . = = @ ; ; . ; O = = O = ; O = = ; . O ; O O = = + & - & - & & - & & = = = = & & = = . & = & = = = = = = = = . & = & = = . & = & = = = = = = = & = & = = = = & - & - & - - & - - & - - & - - * - - = * - & - - - & * * , * , 8 8 0 ' [ V.;X;X5XMXSXKXUXKXSXxX5X;XE.V.[ ' e g 7 < - & - & - * - & & * = - & - - & - - & - * & = - & - - - & & - * * = * = = = & = = & = = = = = & = & = = = & = & = & = & = = = = = = = = = = & & O = . O X q ",
". = O & . & - = & = & = = . & = & . = = = & & . = & = & = & . & = & = & = & & & & = & & = & & = = = & = & & & & . = & = & = & = = & . & = & = = & & & : = & & = & . = = & & = = = = = & = = . ; = O = = O = O = O ; = = = O O ; @ = = ; = ; O ; O ; = ; O ; . O ; = = @ . ; = O O ; = = @ ; = = . ; = O ; O = @ O + > - - > - @ > > - > + > 4 Z g.{.N.R 4 & @ > > > > - > + > - > > + > > > - > - > > > - > ; + > = > @ - > > > + > > - > ; > + > ; + = @ > @ > - @ > > > - > > > @ > - > - > - > - > > > > > + ; > - > > > = > > - - @ ; + + > > - > > > + > + > - > @ > @ > > - > > > + ; + > ; > ; + - > + > > > - > ; + - > - > + > > > @ - > > @ - - > > - @ ; > ; > > - > > O + ; + > > @ > > ; - > > - > O > + ; @ > - > + > > > @ > > - - > > ; + > > - - - = + - - - - - - - - - - - - - - - - - - > + - - - - > - - = ; = ; - > = = = O ; O O ; ; = ; = O ; O . ; = ; O O . ; = O = ; O O . ; = O ; O O ; O ; O . = = = & = = = = & & = = & = = = & ; O ; O ; . = = & = = = O . & = = O ; . = = O ; O O = O = = O = O ; O . ; ; O . = O = O ; O = = = & = = = = & = = & = & = = & = = = = = . < ` ' } /.`.-XyXaXmXCXHXLXUXIXUXLXUXKXHXDXmXhXpX-X`.} } ' e < - & = ; O O = = O = = O ; O = . ; = O = O O ; O ; . = = O = O = O ; O O = = = O = O . = = = = = O ; O . = = O ; O O = O = O . = O = O = O & - - = . X 0 ",
"& = . = = & & = & = = = & = = = = = = & = = = & = = = = = & = = = = & = = = = : = = = = & , = = & = = = = = : = & = = = = = & = & = = = = = & = = = = & = & : & & = & = . = & = . O = = = = O = = = ; O = = ; O = . ; . O ; = . O ; O . = O ; O O . O O ; O = = O @ = = O ; O ; ; . @ O = . ; O O ; ; O = @ = + @ - = - - - - O - - - - - 1 S l.,XVXuXb.h ; + > > # - > - > > > ; + > > > - + > > @ - @ + > > + > > - > > > + ; - ; - > > + > ; - > > > > > > - > - > - - > > O > > > @ @ > @ > @ - > + > - - > > @ > - + ; > @ + > > > > > ; ; @ > - > > ; > > @ > - > - - > @ > - > + > > > ; @ + > > > > > > > + > > > > > > > > > > + - > > - - > > > @ - > - > + + > + > > > > > > > > - - O > + > > + > > > > > - - - > > ; ; + - - ; + > > @ - + > - > - - - > - - - - ; + - - - - - - - - - - - - - - - @ ; - - - - + ; = = = = = ; ; O @ O ; O O . O O ; . O ; O = O ; O ; O = @ = = O ; . O = = = . O = = = O = = = . = = = = = . ; = = = = ; = = O O = = = O O = = O . O = . O O = = . O O ; = = O = ; O ; . = = O = O = = = O = ; = ; O = O . = O = = = = O O ; = = ; O O = = . = O = & = & = 8 6 ' } /.(.-X,XpXfXMXCXKXIXUXIXKXSXnXaX6X,X-X-X} } e 0 < - & O O = O . ; = = = . = O ; O O O = = O ; = = = O O = = = O ; ; . O = . ; = O ; O ; O = = ; . O = O = O ; = = ; O = = ; O = ; = = O ; . ; - & = = = X w ",
"& = & > = = - & = & = & = = = = = & = = & = & = = & = & = = & , = = = = = & = & & = & = = & = & = = & = & = & = = & = & = = = = = = = & = = = = = & = = = = = = = & = & = & = = ; O O = = O = O O = O . . = O ; = = O O ; O = = = O O ; @ O ; ; = @ ; O = = = ; O = O ; ; O . O O @ = ; = ; O O = O . O . = O @ @ O + = > - > . - - & > > 1 S N.jXIXvX].j ; 2 - > - > # @ > > + > ; - - ; + ; > ; - ; + > - > > - > > > + > > @ @ > > > + ; + ; + > > @ + - > > - > + > > > - > > + > = - # > - > > - > - + > > > > + > > > + > > > > - + > > + > - > + = > + ; - > > - > - > > @ > - > > = > + - > + ; - > > - - > - @ + ; + > - > > - > > + ; @ > > - > - > @ > > ; > - > > @ > @ > - > > ; > > > > - - > @ - > > > > > > + > > - > > > > - > > + > > > > @ - - - - - + ; - + > - @ - - - > - = + - @ ; + - = @ O @ O + O @ ; . @ O ; = = = @ = . = = ; O ; O ; O @ = ; = = . = ; ; O = = ; O = O ; O O = ; = . = O = = ; O O O = O = ; O = = O = O . = O ; O = = O = = ; O . = O = = = = O ; = = O O = = ; O O = . ; O O . = O O O = = O = ; O = = ; . O = O ; . ; O = ; O = = ; ; O O ; = = = - & = & = * = < 0 ` _ V.C.C.;XwXVXHXUXHXMXwX;XC.C.' ) K < 5 < ; & = O ; = O = = = O = O ; = = . O = ; O = = O = = O O = ; O . O = = = O = . O O = . = . O O ; = O = O . = O O O = O . ; = ; O = O = . ; O = = - - = = = X 0 ",
"= = & = = & - = = = = = & = & = = = & & = = = = = = = = = & = & & = & = = = = = = = = = = . = = & & = = = = = = = = = = & = & = & = = = = & & = = = = & = & = & = = = = = = = = O = = = = = O ; ; = = = ; O = O O = ; O O O ; O = ; . O = = O . @ @ ; . @ @ @ . ; ; . O O = ; ; = = = O ; . O ; O ; ; O ; = ; O = O ; = O = = ; - - @ + - ; 4 r.>XzX4Xd.3 - # > - > > - > = > ; + > @ > > > ; + > + > > > > - > > > > + > - > > > - + > > > + > > > - - > > > - > - > > + > > @ - > > > > > - > - @ > - > > > - + - > > + > ; ; - > - > @ ; > - - > > - > @ > > - > - > @ > O > > - > > @ > ; + - > > ; + > @ - - > ; > + > > - - @ @ > = > > > > - > - > # - > > - + > > - = > > > > + ; - + > > @ > > + > > - > @ > + > - > > > @ > + > - > > > > + ; > - > - - - - - - - - ; = - = = ; = = @ = ; = = O ; O = O O ; = = = = O = O ; O ; . O O = @ ; = O = ; . O = = O O @ O ; O . O ; = . O = = = O = ; O = = = O ; O = O O ; . O ; O O = O ; ; O ; O = ; = . . O ; O = O O ; O = = O ; . O O = = ; O O = = . = = = O ; O ; = . ; O = = O = . . = = O ; = O ; O = O = = O . = = . O = = = O = = = = = = = = = > ; , p j _ f.I.;XwXCXUXZXwXQ.C.f.[ ) g , < < * = O = ; = O . ; = . ; O O ; O = = = = O = = ; . . O ; ; = O O ; ; O ; O = = ; = ; O = = ; ; O O O ; O = ; = = = ; = = = . O O = O ; O ; O = = O & - = = = O w ",
"& ; & = = = = = & = & = = = = = = = & = = & = & = & = = & = = = = = & , = = & = = & = = = = = = = = = & = = & = & = & = = & = = = = = = & = & = = & = = = & & = = & = & = = = = = = = ; O = = = O O ; O . = = = = = O ; . = = O = = = O ; O = = = = @ = = O ; O O ; ; O = @ ; O . ; = @ O O . ; ; = O ; O ; = = @ = = O ; O O @ = ; - - > ; 1 f t.B.t.G ; > ; - - - - - - - - > > + > @ + @ - > + > > > - > > > - > ; + > > > = > - - > > > > ; > > > > + > > > > + > > - > > - > > > - > - > @ - > - > > > > - ; > @ > - > > + > @ > - + > > > > > > - > > > - > > > - > - ; > - > - > - > + > > > > - - > > ; > > + ; > - > > > > + > > + > - > > > - # > - - + > - > + > > > - > > > + > > > > @ > - - > @ > > + > > > = > - - + > > > > - - - = - - - > - - - + - - + > - O = O = O = = = = = @ . ; = = O . O @ = = = = = = ; = O ; O . O ; @ = . O ; ; = O = O . ; = = = = ; O = = O ; O = = . ; O O . ; = O . ; = = = = = ; = O = O ; O . = ; O ; O @ = = . ; = ; = = = = ; O = O = O = = ; O O = ; ; O . = = = O = > = = ; = = O = = ; O ; O = = = = = O ; . = O = = = = O = ; O . = = O O = O . = = = = = > - ; 4 g V r.m.;XfXJXwX;XN._ R g 3 ; * = & = = = O = - - & = O ; = O ; O . = . O ; O = O O . . = = O = = = = . = = O = O ; O O ; = = = = O = O ; O = = = = = O = ; . = = O = O = ; O O = = = & - = . . X w ",
". = . = = = O O ; O ; = = & = = = = = = = = = = = = & = = = = & = & = & & = = = = = = & & = & & & = = = & = = = = = = = = = , & & = & = = = = = = = & = = = , & = = = = & = & = = = O . ; O = = O ; O = = = = = = = . O = = O ; = . O ; O = O = ; O O ; . ; O = . O ; . = = O = = O = O O ; O = . = ; O O = = = O = = ; ; O ; O = = + ; - O > 7 i i 3 < 7 ; , - - - - - - - - > > > > > ; > - > > - > - > > + - - @ > - > O > > > @ > - ; + > + + > - > ; ; + - > ; @ > > + ; + > + > > - > - > > @ > @ - > + > @ - > = + > ; + > - > > > - > - @ - + > + > - > + > > > - > + > > @ > - > > ; > + > > > > @ + > + ; @ > # - - > > - > > - > > > + > - > - > > > > > + > ; > ; + > + > = > - > - > - > > > - > - - > = > > > @ > > > - > @ = > + - - - - - - - = = ; ; = = ; = = = ; O ; = = ; O O = = O @ = = ; ; O = @ = = = - O = O ; = ; ; O = = ; ; O . O ; @ O ; = @ = = = @ = O = O O = = = = O = = O O = O ; = = O O = = O = ; O . O ; O = . O = ; O = . O = = O - = = = ; . = . O ; O = . O ; = O O = = ; . O ; = & - = = = = ; ; O O = O = O = = O O ; O O = = = = = = O = O = = = ; . @ = ; O - - = = = = & - ; < 8 W i.E.wXGX5XC.[ g g 4 ; ; , = = = @ O . = & = ; = O O O ; = . O ; ; = O = O ; = ; O ; = = = - - = O = = = O ; O = O O = = = O O = = O . ; = = = = ; O O O O = = = = = . = . ; = O + - = = = X w ",
"& = O O O O @ = O . = O = = & = = = = = = & = = & = & = & = & = & = = = = = & = = & = = = = = = = & = & = , & & = = & = = = & = = = = = = = & = = = = = & = & = & = = = = & = = = = = = & = = ; . = = O = O O . O ; ; O = = = O ; O ; O . = = = O ; = O = ; O = ; ; O O O . ; @ ; O O ; = . ; O @ = O ; ; O - = ; = = = O = ; . = = . > ; = - * = , = @ # @ & - - > - - - - > + > - O > > - > + > > > > > - @ > > > + > > > > + - > > > > > > - > - ; > > + > > + + > = > > > > - > > > > > > - - > > > > > @ > > > + > > - > > - > + > > > > + + > > > - > > > - > + > > > - > + > @ - > - > - + > - @ > - > - > + - > > > - > = > - > - > + > > - > > > - > > > - ; > > + > - > + @ > > > ; + - > + > @ > - > + > > @ ; + > > + > > = > > > - - > - - - - + ; ; = = = ; = > ; ; O . ; - = = = ; O O ; . ; ; O = = ; . ; O = - ; ; O = O ; O = O ; O O ; . ; O O ; = . = O - - = = O = . & = = = O = O . O = = = O = ; ; O = = ; O ; = = = = = O ; = O = = = = O = = = = = = = = = O ; = = O = = = = O O = = = = O O = = = = = O ; O . O = = O = O ; . O = O . O ; . O O = - - ; ; = O = O = O = = ; ; ; = = ; ; = = = = < 4 8 ) C.,XCX>Xf._ g , > = & & = = = = = = = ; = = = ; = = O = O ; O = = = O O ; = = = O O = = = = = = ; O . = ; = O ; O O . = O ; O = = . = = = = = O = = ; = O = . = O ; O ; . O ; = = ; @ = O w ",
"= ; O ; = = - = = = = = = = = = = & = & = = & = = = , & = = = = = = = & = & = = = = & = & = = = = = = = = & = = = & = = & = & = & = = = = & = = & = & = = = = = = = & = = = = & & = & & = & & = = = O ; O ; ; O = O O = = . O ; O = O = = = = = O . = = = O = @ = O ; O ; O = = @ = = = ; @ O ; O ; O = ; . > & O @ @ . . ; O O - @ O O = + + @ + @ $ ; O - - - - + - - - - - > - > > - > > > > @ > = > + > > > > - > > > @ - > > + > + > @ = > > - @ + > ; > + > ; > > > - + ; > - + > - - @ > > - > + > - > @ - > > > > > - > > > - > @ - ; > ; > - > > @ - > > - > > + > > > > - > > > + > > > > - > > + ; > > > - > - @ > @ @ > + ; @ > ; - > > > + @ > - > > > @ - ; + > > > > - > - @ > > > > - > > - > > > - > > > + > > > > > @ > + ; - - + - - - - - = O @ = = O = = . O O ; = > = = = O ; O ; = O ; O @ = = O ; O ; = O O . ; ; O . ; ; O ; = = O = @ ; O = ; O ; > & O = . ; ; = = = O ; = = ; O ; O = O = . O = = = O = . = ; O O = = & = = & = = O = O = = = = = = = O ; O @ = . ; O = = . ; O ; O O = = = = = = = = O = O . ; O = ; . O O ; = = ; = = ; ; O = = = O . O ; O ; @ = . O O O = = = > & = = . ; ; 4 4 V f.-XmX;X_ g , ; ; > & - > ; & = & = = O = = = O . = = = = O = = O = ; . O = O = O = = = = = = = O O ; O . = = = . ; O = = ; . O = ; O = = = = . = = O O ; O ; O ; O = = O = O + O = . O O w ",
"= = O & & = & = = = = = & = - & = = = = = = = = = = = = = = = = & = & = = & = = = & = = = = & = = = = = = = = = = = & = = = = & = & = & = = = & & = & = = & = & & = & = & = = = = = = = = & = = = = = = = = = = ; = = ; = = - = = - = - = = - = - = = = = - - = = = = = - = - ; = = = = > = = = = = = = > = , - = - = ; = = = = = = = ; > = = - = ; - = = ; = ; = - = - = = ; = = = = - = - = = = ; - ; = @ ; @ @ O ; > ; @ @ ; ; ; @ ; ; @ @ O ; @ @ > @ ; @ ; > @ @ ; = > ; = ; O - ; O @ ; @ ; @ @ @ ; @ ; @ > @ O ; @ O ; > - = O ; O = ; = ; = - = - = = @ @ = @ > ; O @ ; = ; @ = @ > @ @ ; = @ ; O @ @ ; @ @ > @ ; @ @ ; > ; ; @ = ; O @ @ ; @ O @ ; @ O > ; ; O - = ; @ O @ ; @ @ > @ > = @ O @ > @ ; = - = = ; = = - = = = - = = - = ; = ; = ; = - - = ; = = - = - = ; ; = - > = = ; = ; ; O ; - = ; = = = = - = = = = = = = = = = = = = = = = = = = - - = = = = - = , = - - = , = - = = - = = = * = = = = = = = = > = = = = = = & & = O ; = = = O O . & = = & * = = = * = = = = = = = ; - = = = = = = = = - = = - = = ; = = = = - = = - = > = = = ; - = = = = = ; = - - = > = ; = = = > > = = = = = = = = - = = - = = < ' -XhX/._ 3 & = - = = > - = = = = - - = = - = > = = = = = = = = - = = - = = = = = = - = = = = = = = - = ; * = - = = * = = , * = = = = , * = * * = = = = = = = O = = = , = = = = - = = - X w ",
". > . = ; = = = = & & = ; = = = = = & = = = = = = & = & = & = & = = & = = & = = = = & = = & = = & = & = & & = & , & = = = & = = = & = = & = = = = = = = = = = = = = = = = = = & = & = & = = = & = = & = & = = = = = = = - = - = = - = ; - = ; = = = - = = = = ; ; = = = = = = = = - - = = = - ; - = - = = = = = = = = = = - = > = - - = = = = < = = ; = - = - = = = ; = ; - = - = ; ; = ; = = > = - = = = > @ O ; ; @ @ O @ ; O O @ @ O @ O @ ; @ ; ; = O ; > @ = @ ; @ @ @ @ > ; @ @ ; @ ; O > @ ; > = = > @ O ; @ ; @ ; ; @ > > = > = ; = ; = = = = ; = ; = > ; > O ; @ ; > @ > @ @ > O ; ; @ ; @ > @ @ ; @ O ; O ; O O ; = > @ O @ > @ > @ ; @ ; - ; > @ # ; O ; = @ ; @ = ; ; > @ ; @ = = > @ ; ; @ ; @ ; - = ; > = = - = ; = > ; = ; = - = - = - = = = = ; - = ; = ; = - = = - = = = ; = - = = = = = ; = - - = = = > = - = = ; = = = - = = = = - = - = = = ; = = - = = = - = = = = * = = = = = = = = = = = = < = = = = = = = = = = = = = = = O = = O ; = = = = = = = = * = = = = = = - = > = = = - - ; = = > = = = = - = > - = - - = = ; = - = = = = = = = - ; = = = = = = = = = = = = - - = = - = - ; = = ; = - = = = = ; , ) } ,X{ K , - = = = - = = - = - = = = = ; = = = = - - = - ; = ; = - = = = ; - = - = = > = - = = > = = - = = = = = = = = = = * = * * = = * * < = = * = * = = - ; . = O . = = & . & ; = > X w ",
"O = & ; = = = & = = O ; . = ; = = = = = = = O & = = . = & = = = & = = = = = & = = = = = = = = = = = = & = = = = & = & = = & = & = = & = = = = & = = & = = & & = = = & = & = = . = & = = = & = . = = = & = = . - = ; O ; = - = = = = = ; = = = = = ; = > - = = = = = ; - = - - = = = = = = = = = > = = = - - = = - = = = ; - = = = - = = = - = = = = - = = ; = = > = = ; - = ; = = = = - = ; = ; ; = ; = - @ ; ; @ > ; O ; @ @ > O ; @ ; ; @ O ; ; = @ @ ; @ @ O ; @ ; O > ; @ @ @ @ ; @ ; > ; @ > O ; @ @ O @ ; O ; @ > @ @ @ O = = = = ; = = = = - = ; - = - @ @ @ > @ @ ; ; O ; @ > @ @ > ; ; @ > ; ; @ O ; > > ; > = ; ; > @ > ; O @ @ @ > ; ; O @ = ; O @ $ @ ; ; 3 % + = > ; @ > @ > ; @ @ ; @ ; ; ; > O ; - = - = ; = ; = ; = = = = = = = = ; = - ; = ; = = - = - ; = = = ; = ; = - = - = = > ; O - = = - = = > = - = = = = - = = ; = - = = = = = = ; = = - = = = - = > = = - - = - = = - * * = = = = = = = = - - = = = = = = = = = = = = O O . = = = = = = = * = * = = * = = = = ; - = = = - = > = = = - = = - = = = = - = = = = - = = = = = - - = = = = = = ; = - - = - = = = - - = = = > = = = = = = = = = = = = ; = , , 0 ' -X' g , - ; = = = = - = = = = = - - - = - = = = = = = = = = - = = = - = = = = = < - = - = - = - = = = ; = = = = * , = = = = - * = = = = = = = , * = = * = ; . O ; = = . = = & = = ; & q ",
"= = = = . = = . = ; = . = = = = . = = = = - ; O = & = = = = O = , = = = . O ; O & = & = . O = O . = = = = = O ; = = = = = = . , = O ; = = = = = = = = = . ; ; O = = = = = = = O = = = = = = = O = & = = = & O ; O = = O = = = = - = = = = - = - = - = - = = = = = - = = = = = = = > - = ; = = = = = = = = = = > = = = = = = - = = = = - = - = - ; - ; = = - ; > = ; - = ; = = - ; - ; = - = - = = - = - = ; @ - ; @ @ ; > @ = ; ; > @ ; > ; > ; ; > > > > > ; ; > > ; + ; > ; @ ; O @ > O @ @ ; @ ; @ O > ; ; @ @ @ ; @ ; O O ; > ; = > = = = ; ; = - = = ; = ; O ; @ ; @ @ ; @ @ ; O ; ; @ O @ = @ O @ ; ; > ; ; > ; > > > ; @ ; @ @ ; ; ; O > ; > > ; > ; > ; i p p 3 ; ; 1 > > ; O ; ; O @ ; + ; O @ @ @ @ = = ; = ; = - = - = - ; - - ; = > - = ; = = - = - ; = ; = = = - ; = - = - = ; = ; = = = ; = ; = ; ; - = ; = ; = - - - - = ; = > @ > - - ; = = = - = = - = = = = = = = ; = = = = = ; = = = = = = = = = = = = = = = = . = = = . = ; ; = > = - = = - = = , > , = - = = = = = - = - = = = = = = = = = > - = ; = > = = - = = - ; = = - ; = = = = - ; = = = - = = = ; = - ; = = > = - = = = = > = = > = > - = ; = = = * ; p ' /.` < ; = - = > = = , = > - ; = = = = ; = = - = > = = = - = = = - = = > - = = = = = = = = > = = = = - = = = = = = * = = = = = = - = = = = , = = = = = = = = O = O = = = = = = = . & o w ",
". = = = & ; = ; ; ; ; ; ; ; = = = = = = O = = = = = = = ; = = O = = = = = = O ; ; = = = = O O = = = = = = = O O = O = = = & = = O ; O = = ; ; O = = = O = = = O = = = = . = O ; = = O = = O O = = = = = = = = O O ; O = = O = O = = = O = O = - = = - = ; = = = = = = - = = - - - = - = - = = - = = = = = - - , > - = = > = = = = = = = = = = ; - = = ; = - = = = ; = - ; = - = ; = ; = = - = ; ; = - = = > ; @ O @ > ; @ ; @ > @ > ; @ > > > > > ; > ; @ > > ; ; > ; - ; - ; ; > @ @ ; ; > ; O @ > = ; @ O @ @ ; = @ > = ; ; - ; ; ; > - = = - = - = - = = = ; @ @ ; @ > > ; O > ; O @ @ ; @ O @ ; @ = > ; > ; > ; @ ; > ; ; > ; > ; > > ; @ > - > ; > > > ; 2 W }.}.j . ; @ ; > ; O @ > @ @ ; @ = @ ; = ; O ; = = ; = = - = = ; = ; = = - = ; ; = = ; = = = = ; = ; = - = - = ; = - = = ; = ; > = = ; = - = = = - = = - ; = - = = ; = > ; = O = = = = = = = = = = ; = = - = - > = - = ; = = = = = = = = = = & = = = = = = = . = = . , = = = = = = = = = > = = = = = = - = = = , = - = = ; = = - = = = - = = ; = = ; = - = = ; = - = ; = ; - ; - ; - ; ; = ; - = - = - - = - = = - = = = ; = ; = ; = - = ; ; - = = ; - = = = = ; 1 0 } 0 ; ; = - = - = = = = > = ; = ; = > - = = = = > = = - = ; - - = = = = = - = = = = - = - = , * - = = = - = = = - = - = = = > = , - = , = * = = - = , - - = - = = = = = : = & = . = = e ",
"= = . = : = = ; = = ; , , > = ; = . = = = = = O = = O = . O O ; & = . O O = = = = = . ; O = ; O = = = O ; . = = O ; O = = = = = = O . = = . O = = = O = ; . O ; = = = = = = = = = = = ; O ; ; O = = O = ; . O = = O = = O ; ; . = . O ; = = = = = = = = = O O ; = - = = = - = = = = = = = = = = = = ; - = = = = = = - = = = - = - ; = - = - = - = = - = = = - = - = ; = = - = ; = - = - ; = - = = = = ; = @ @ ; ; @ ; O O ; > @ @ ; ; @ O ; @ ; ; + ; ; > > @ ; - ; > ; > ; > O ; = > @ @ @ ; @ ; @ @ > ; ; > ; @ > O ; ; > @ @ @ @ O @ = ; ; = ; = ; = > = - > > ; O > = @ ; @ @ = @ ; > @ ; ; > O ; > @ > O > ; > > > ; ; + ; - ; > > ; > ; > ; ; ; - > > ; p ^.ZXbXg.p 4 = ; > ; @ ; = @ ; O > > @ = @ > @ = - = - = ; = ; > = = - = ; = - = = > - = ; - ; - = - = - = ; = ; = = = ; - = - = = ; - = ; = > = ; = ; = = = ; = , > ; , 3 , , ; , ; = = - = - ; - * - = = = = = = = - = = = - = = = . = = ; = = = = = . = = = = = = = = = = = = - = > - = = = = - = - = = = - - * = ; = - = - = = ; - = = ; = - = ; = - ; = - = ; = - = = - = = = = = = - = = = = ; ; = = ; = = = ; - ; = - - = = - ; = - = = = - ; = = - ; = * ; ; 0 ' 8 ; = ; = ; = ; = > ; = - = - = = = = ; > = = = = - ; = = = ; = = = - = > = > = = = = - = = = = > = , * - - = = = = = - = = = = = = - = = ; = = = - = = = = - = = . = = O = = = = & e ",
"& , = = = = ; > ; , 8 8 8 < , ; ; = = . O = & ; = . ; O = = = = = = = = = O = ; = = = O ; O ; = ; . O ; = O = O ; . . = O ; = = O ; = . O = = O ; . = = = O = = = = = & = = = O = = O . O = = = = = = O O O = O O . ; = ; O = = ; O O = O ; . = = O = = ; O O = = = = = ; = O = = = = = ; & = - ; - = = = - - = - = = = - = = = = = = ; = = > = = ; - = = = > ; = - = - ; = = = - = ; = ; = = ; = > = ; ; + > O ; @ @ @ @ > ; ; @ O @ O @ @ O @ ; @ ; @ ; ; @ ; ; @ O ; ; @ > @ O @ > = @ ; @ ; > = @ ; @ ; ; O > @ @ ; > ; > > ; ; @ = = - + = = - > = = ; = @ ; O > = @ ; @ > @ > > @ O ; @ > @ ; @ @ ; @ ; @ @ ; ; + O @ ; > ; > ; @ > > - > ; > > ; > > @ p g.sX0X] 1 $ - ; ; @ > @ ; @ @ > ; O @ > ; O > = = ; = - = - = = - = = - = ; = ; = = = - = - ; = - = ; = = ; - = = - = ; = ; = - = ; = ; = = ; = = = - - - - = ; , < 4 4 8 3 3 , , > ; = > = = = = , = = - = - = , = = = = = = = = . , = = = = , = ; = = = = = = = = = = - = = < = = = = = > ; = > = = = = = = = = = = - = ; ; = = = > ; - = - = - = - = - ; - ; = ; = ; ; - = = = ; - = - ; ; - - = - = ; = ; - ; = = = ; = ; = = = = - = - = - = - = > = = - = > , 8 ` 4 > - ; = ; - = - = = = ; = = > , - - = - = ; - ; = = = = = - = = - = = = - = = - , - = = = ; - - = - = = = ; = = = = < = - = - = - = - = = - = = = = - - > = = = = . = . = ; = = X 0 ",
"& = . = = - ; > ; < 8 H 0 8 < ; ; = = = = . = = = O ; O O = = = = = = = O ; O . = O O = O = . = = O = O O ; O = = = O ; O O = = = = = O ; O = O = O ; O O = = = = = = = = = O = O = ; O . ; = O = . O ; ; O = = = ; . O O = = O O = = ; . O O ; O = = = O = = = = - - = . O ; = O = = = = - - = & = - - = = = = = = = > = = - = = = = = - = = = = = = = - = = = ; = ; = = = > - = ; = = - = - = = > = = = ; @ ; @ O ; > ; @ O = > ; @ ; ; @ ; @ O @ O @ O @ O @ @ O @ @ @ @ O ; @ ; @ @ ; O > @ @ @ ; O > @ > @ = @ ; @ > > > < 4 1 > ; - - - ; = ; = = - = ; @ @ ; @ @ ; @ O ; @ ; = @ ; @ @ ; > @ ; @ @ O @ ; O ; @ ; @ ; @ @ ; O ; O ; @ = ; > > = > ; ; @ 1 J t._ p ; # @ = @ O ; = > @ ; @ ; @ @ ; @ > @ ; - = ; = ; = - = = ; ; = - = - = - = ; = ; = = - = ; = - = = > = ; = - = - = = ; - = - = - = = - - = = = = = = 3 4 p g G g g g 8 4 < < = - = - = = = > = - = = = - = = > = = = , = ; = = = = ; . & . = = = . = = = = = = ; = = = = - = - = = = = = = = = - < ; = - - = = - = = ; > = = = = ; = ; = ; = ; = = = = - = - = = = ; = - - ; = = = = = = ; = ; = - = = - = - ; = - = - ; - ; = = ; = ; = ; = = = ; = - ; = & 0 = > = = = - = ; = ; = - = > = = = = = ; = ; = = = > = - - = = = = ; = = = = = - = = = = - = = = = = = = > = = = = = = - = - = = = = = = > - = = = - = = = = = = = = = = ; & = . , & 0 ",
". ; = = ; , = ; ; 4 0 H H 8 < > > = = = . = = = = = = = = = = = = = = = = = & = = = = = = = = = = O = O & = = ; = = O = . O = = = = = = O = = O . = = O = & = = = O ; & & = = = . O & = = = - = & & & = > ; & ; = = & = = = O = = O = = = = O ; = = = = = & = = = = = = O = O = = = = = = & = O = O O . ; O = = = & = = = = = ; = = = = = - = = , = - = = = = = = = = - = - = - = = = = ; = ; - - - - - - - - = = = ; = ; - = ; = = - = = - = ; ; @ > @ O ; ; @ @ ; > ; O @ > ; ; O @ ; @ @ @ = > = > = = ; = = = - & - ; , J g.g.4 > ; ; - - = ; - - = = = = ; - = ; = ; = O ; = = > = = = > O = @ - ; @ @ > > ; O @ ; @ @ > = @ ; O @ > ; @ @ > ; @ @ O ; @ ; ; ; > > ; @ > O ; @ O ; @ ; O ; = = ; = = > = = ; > = = = ; = ; - = - = = ; = ; = - = = ; = ; = = = ; = ; - - = = = = = = - = - = = = - = = ; * = = = = > ; 4 p g j E A r.E E E g 4 4 < = & = = = ; = = = - = > - ; = - ; = = . = = . = = = = = = = = = = = = - = ; = = - > = = - = = = - = = > = = ; = - = - = ; = = = > = - & > > > O + - + = ; = ; = ; = = > = - = = - = ; = ; = = = ; = ; = O ; = = ; = ; = = ; = - > = ; = = ; > = ; = ; = - = = > - = - = = ; > = = = ; = = - = - = ; = - = ; = - = = - = = > = = - = ; = = - = - = = = = > = = ; > = = = = > = = - = = - = = = = = = - = = = = = > = = - = ; - = * = = = = = = = = = = ; = = = . > & w ",
"= = = = = . = ; ; ; 4 0 0 8 < ; ; = = = , & = = = = = & = = = = = = = = = = ; = = = = = & = = = O ; = = = = = & . O = = ; = ; O = = = O O = O = ; = O = = = = = O = = = ; = = = = = ; = = = = ; . ; ; = = O . = = = = = = = = = . = = = = O = O = = = = = = = = = = = = ; O ; O = = & = = ; = = = = = = = = ; O = = = = = = = = = - = - = = = = * = = = , = - - - = = = = - = = = > > = = - - = = ; = > = = - ; = > - = = = = > > @ ; @ ; @ @ > O ; @ ; @ > @ O ; @ @ = ; @ @ O > @ ; @ = > ; = ; = = = > = ; O ; = > ; ; 4 ( uX+XU ; > ; ; = = = = ; = ; - = - = ; = - = - ; O @ ; ; @ ; > @ ; @ ; @ O ; @ = @ @ ; O ; ; @ > @ > @ ; @ ; O ; O ; O @ ; ; @ ; O > > > ; O ; @ ; > @ ; @ @ > @ = ; O = - ; = + ; = = - ; - = - = = ; > = - = - = ; = - = = - = - - ; - = = = ; = = = = ; = - = = = - = = = = = = = ; = = , , 4 S R _ y.r.k.r.r.E V j 4 > < - ; = = = = = ; = = = - = ; = = = ; = = = , = = ; = = = = = = = = = = = = - = = = - = = = - = ; = = - = ; = - = ; ; = = @ = ; > = = ; & . = ; ; = = ; - = - ; = > = = ; = = ; = = = - = - > = = - = - ; = > = = - - = - = ; = = = O ; - = = = = - = = = ; = = = ; = ; - = = = > = = - ; = ; = - = = ; - = ; = = ; = ; = - = ; = ; = - = = ; = ; - ; - = = - = = = > = = = - = = = , * ; = > = - = > = - = - = = = = = = = = = , = = - - = = - - - = = = = ; = ; & w ",
"= = = = ; = = , ; < < 4 4 4 ; ; ; ; = = = = . = = = = = = ; = = = = = . . = & = = O = = = = = = = = O . = = = = = = = = = = O O & = = & ; = = = = = ; O = = = , = = - = = = , . = = = = - = = p.p ; = = = . & = = = = = = = = = ; = O = = = O ; = = = = = ; = = = O = = = = . = = = = = = = = = O = = = = = O O = = = = O = = = = = & = - = = = - = = - - = = = = = - = = , = - = = ; = ; = = ; - = - = ; = ; = = ; = ; - = - > ; @ @ ; ; + @ @ @ > ; O ; @ > ; O @ ; > ; O ; @ @ ; @ = > O ; > + O @ ; ; - ; . ; - + @ @ 2 E _.^.K ; > > = = = ; = ; = - ; = ; - = = > ; = ; ; ; > @ > > @ @ ; = > ; @ @ ; ; > > ; > ; > - > ; ; = + ; @ ; > ; ; - > > ; > ; O - > > ; = @ > @ ; O @ > ; @ > ; ; ; = > O @ > = ; = = = = ; = = ; = = ; ; = = - = ; = ; - = ; = = = ; = ; = ; = = - = > ; = ; = < - ; = > = ; - = = - ; , p g V ) i.N.E.{.E.m.u.! E p 4 , = = = = = = = = = - = ; = = = , = = = ; = = ; ; = ; = = = = - = = = = = = ; = = = = = - = > = = = - = - = - = = - = - = O = = = = = ; ; > ; ; . ; ; > O ; ; O ; O = @ - ; > ; > ; O ; @ > ; ; > @ @ > @ ; + @ @ O @ ; @ ; @ > @ ; @ ; ; @ @ > > @ @ > ; @ @ ; ; @ ; O ; ; @ @ ; O ; = > = = = = - = = = - = - ; = - = ; = ; = - = - = > = = ; - = ; = ; = = - = ; = - > = = = - = > = - = = = = = = = = = - = - = - > = = = = = = - = = = = ; = = = = & = = ; = & w ",
". = = , = = = ; ; ; > ; , ; ; ; = = . = . = = = = = = = = = = = = = = = = = : & . = = = . = = = = = = ; = = = = = = = = = = ; . , . = = . = = = = = ; . = = . & ; . . = = = & = = = = = ; = = E p . . - ; = = = = = = = . = = = = = = . = = = . . = = = = & = . = = = . = = = = = = = . = . = = . ; = = = = ; . : & = = . = = = = = , = = = = = ; = = = - - - , > = - = = - = = = - = - - = - = = ; = ; - = - = - = - = ; = = - > @ @ ; O ; ; O @ ; - @ @ ; @ @ @ ; @ @ @ > @ ; O ; > > @ ; @ @ ; ; ; @ O @ ; > > @ @ ; @ ; 4 4 H , ; > = - ; = - = - = = = = - = = ; = = - = > @ @ ; @ @ ; @ O @ @ @ ; O ; @ > > ; ; + ; ; ; > > ; ; > > > ; > > ; > ; > ; > ; > < > > > ; > @ @ ; ; @ @ ; @ O + @ ; @ ; @ ; = = - = ; - = ; - = - = = = > = = - = - = = ; = - = - - = - = - = = ; = = = - = - = = - = = ; = - = - - > 4 S h r.k.N.OX4X0X4XoXP.i.! J p 4 ; = = = - ; = - = = ; = = = , = = ; = ; = = ; = = = = = ; = - = ; - ; - = - = - , = > = ; = = - = = ; = ; = ; ; = ; = ; O ; @ ; = > + > O O ; ; ; ; = @ @ @ > @ ; > @ ; - > - @ @ ; @ ; @ O @ ; = @ ; O ; ; ; > ; ; @ @ @ ; O ; O > @ O ; @ ; O ; @ ; > @ O ; > @ @ @ O @ > ; @ ; @ > = = > = ; = = > ; = ; = = - = ; = - = - = ; = ; = ; - = ; = = - - = ; = - = ; = = = = > ; = = = = = > = > = > = > = = ; = ; = = ; ; = = > = = = = > = - * , = ; = = = > ; & w ",
". = = ; ; = ; . ; ; ; ; ; ; ; ; = = = . = = = . = & : . = = = = . , = . = . = = = = = = & : = = . = = = = = = . = . = = . = = = = = = : . = & = = . . , = = = = = . = = . = = = = = = = & , = . . & = & = = = = = & : . = = . = = . = = . = = = = = . = & = = = = . = = . = = = = = & = = : = : = . = = . = = = = = . = = = = : = = = = = = = = - = = = = = = = = = = = ; - = = > = - = = - = = = = = = = = = = = ; ; - = = ; > = @ > = > ; O ; ; ; @ > @ > O ; > @ @ ; ; > = ; @ > = @ ; O @ @ @ O @ ; @ ; @ > O @ ; ; ; @ ; 1 < + O ; @ > ; = = = = = = - = = - = ; = = > - @ @ ; @ @ > ; @ ; > ; @ > ; O @ ; ; > > > ; > > ; - ; > ; ; ; > @ ; - > ; @ > ; > ; ; ; ; > > @ ; @ = > @ @ @ > ; O @ ; @ = > ; = - = ; = - = = ; - = ; = - = = ; - ; - = = ; = = ; - = - - ; = - ; - = ; = - ; = ; = = ; ; - = = = = - , 4 g E r.N.OXiXVXVXvXuXOXN.r.E h 4 > - = = = ; ; ; = = = = ; = ; = , = ; = = = ; > = = = - = ; - = = = = = ; = = = = = ; = - = = - ; - = - = - = = ; = - = - O = = - - + > > > ; ; @ + ; ; ; O @ O @ ; @ = ; @ ; O ; ; @ @ O ; @ O @ ; @ > ; O @ ; @ ; @ > = O ; @ @ @ ; ; > ; O ; @ > O = ; O @ @ ; O ; O ; = > @ O @ ; @ ; @ > ; O @ ; ; = = = - = - = ; = - = = ; = ; = ; = - ; = - = = - = ; = - = - = > - = ; = - = = = ; = = - = = - = ; = - = - = - = = = > = - = = = = - = = = - = - = ; ; & w ",
"= , = = = = ; , = ; ; ; ; ; = ; = , = = = = = , = = = = & = = = = = = = = = = = = = = . = = = . = = , . = . = = = = = = = = = . = . = & = = : = = = = = = = = = = = = = = = = = = . . = = = = : = * = . . ; : = = : = = = = = = = = = = = = . = : & = = : = = . = = = = = = . = = = : = . & = & = = = = = = = . : & = = = . = & = . = = , . = . = = = = = = = = = - = = = = - = = = = = = ; > = ; = ; = ; - ; ; = - = = - ; = = = ; > = = ; ; @ O @ ; @ ; @ ; @ ; @ ; O @ @ @ @ @ ; ; @ @ ; - ; ; ; > @ ; @ O ; ; - ; O ; @ ; O = > + < > = = = ; - ; - = ; - ; = ; = - ; = = ; > @ ; > ; @ ; @ ; O @ ; @ ; O ; O ; = @ O @ ; > ; > ; - > > > ; > ; ; > ; > > > ; > > ; > @ O ; > @ ; @ > = ; O ; > @ ; @ @ @ - = ; = - = ; = - = ; = - ; = - = = = = ; > = = - = = = ; = = = < = = = - ; = = = - = = - = = = ; ; - > > 3 h E r.{.7XvXJXPXPXvX3XN.y.E h 3 ; > = = , = = = = ; = , = = ; = = = - = ; = = = = ; - = = = = - = > = - = - ; = > = - ; = = > = = = ; = ; = ; - = = = ; = ; O = - > 2 ; 1 4 ; O + > > > > > ; ; - > ; ; > > = ; > > O > ; @ = @ ; > @ @ = @ ; O > @ O ; @ ; @ ; > O ; @ @ ; @ @ O @ ; @ > @ ; ; @ @ > @ > @ @ > ; ; @ O ; ; @ @ > @ = - = > - = ; ; = = = = ; - = - = - = ; = = - = ; ; = - = ; = ; = ; = = ; = - ; = > - = - ; = - ; = ; = - = ; = ; ; = = = - = = = = - = = = - = ; - = = - > & w ",
"= , = ; = ; ; = = ; = ; ; . = , ; = : = = = = = = = : & : = = , = = = = . , . = = , = = & : = = = = = = = = = = = = = . , . = = = = = : = = = = = . = = . = = = = = = = = = = = = = = = = = , & & . = = = , X . = & = = = & = = = = = . , . = = = = = = = = = = = = , . = . = = . = & = = = = = = = . = = , = = = = . = = = = = = = = . = = = , = = = = = = = = = ; - = = - = = = - = - = = = = ; = = = - = = = = = = = = - = > ; = = = > = - @ O ; O ; @ ; @ ; O ; @ > @ O > = ; @ > @ @ ; @ - = > - = - = ; = ; ; ; O O ; ; = = > O > . - ; ; - = = ; ; = = = - = = - = - = ; = @ ; @ @ ; O > @ ; @ @ @ O @ > ; @ ; @ ; @ O @ @ > > @ O ; O ; O @ ; = = ; O ; - = @ O ; O @ @ ; O O ; = > @ ; ; = ; = - = ; = - > = = - = - = - = - = - ; = ; = ; - = - = ; = ; - ; = = ; = = = = - ; = = - - = = = = = - = = = = , > 8 j E r.{.9XvXPXUXPXvX7XE.t.E h 4 , = = = = = = = ; , = = = ; = = - = ; = - = ; = ; ; - = - = ; = ; ; = = ; > = = ; = ; = - = ; = ; - = ; = - = - = ; > @ ; @ = ; > < p J R h p 2 ; + - > @ ; > > ; > > > ; ; > @ ; > ; ; > ; > > ; > ; > ; > ; ; > ; ; > > = > ; ; > ; ; > > > > ; > ; @ = > ; O ; @ ; ; @ ; @ @ ; @ > @ > @ ; ; @ O ; ; O ; @ O ; > = ; - = ; = ; = - = - = - ; = = ; = ; = ; = - = ; = = ; = ; = ; = = ; ; = ; = = = - = = > ; = = = - = > - = = - - = = > = = ; - = - - = - ; * w ",
"= = = = ; = ; = = ; ; ; = ; = ; ; = & = = = . = . = = = = = = = = , = = = = = = = . = = = = = = = . = = = = . , & = = = = = = = : & = & = = = = = = = = = = = . = = = . = . = = , . = = . = = = = , > = . = & = = = = . = : = . = = = = = = = = : & = = = . : & = = = = = = = = = = : = = = = = & = = = = . = = = = = = : & = = . = = = = = = . = = = = = , = = = = = = = = = - * = = - = - = , = = ; = ; = = - ; - ; - = ; = = - = > = = = = @ ; > @ @ O ; - @ @ @ ; @ ; ; > @ @ O ; = > @ ; = = = = ; = ; = - = = > = > = O > O > O ; - = = = ; = = = - = - ; = ; = ; = = = - = > = = - = ; @ @ > O ; > ; ; @ ; @ > @ O ; @ ; @ ; = @ ; @ > @ ; @ @ > @ > @ > = ; > ; > ; @ ; ; @ ; @ > @ @ = = - = - = ; = - = = ; = = ; = ; = ; = ; = = - = - = = ; = ; = - = = - = = - > = - = = = - = = = = - ; = ; = = = = * - , 3 h E r.E.3XgXJXPXFXvX3XB.r.V h 4 ; & , = ; = = , = = ; = = = = = ; - = = ; = = - = = - - - - - - - + - - = = = - = - = ; = - = = - = ; = - = ; = ; = = O ; > ; ; > ; B }.4X}.E 1 , > ; > ; > ; ; > ; > ; + > ; > > ; > > ; > > = > ; - > @ ; > ; > > > > ; > ; + ; ; + + ; > ; ; - ; > > > @ ; > ; > = ; > = > @ @ ; O = > @ = > @ ; @ @ ; @ @ ; > @ = = = - = - = ; = ; = ; = = - = = - = - = ; = - = = - = - = - = - = = = - = = - ; = = ; = = - - ; = = = ; ; = = = - - = = = = = = - & = ; > * w ",
"= ; = = = : = = , = = ; = = = = = = , . = = = = = = . , = = = = . = = . = = = = & : = = = = = = = . = = = . . = : & & & : * = = = . = = = & = . = : = = = = , . . , = = = & : = = = = : = = = = = = = = = = = , = = . = . , = = & = . = = = = = . = = = . = = = & = . = : = = = = = & : = = = = : & : = = = = & = = = = : = = = , = = . = = = = . = = = = . = = = , = , = ; = = , = = = , = ; = = ; = = = = , = = = = = ; = = = = = = - = - = ; = - = - = = = - - = - = ; = - = - = - = > = = - ; = ; = = = > ; = ; = - = ; = = = - = - = - = - - = - = = = = ; ; = - = - = = ; = ; = ; > = = ; > @ O ; @ ; @ ; @ > @ ; @ $ > - @ ; @ @ > = @ ; O ; = > = > @ @ @ O ; > + ; @ > @ > @ > ; @ = = = ; O - = ; ; = ; = = ; = ; = ; = - = - ; = ; = = ; > = ; - = = = = > - = = = = - = = = ; = = = = = - = = = - = = = = > 4 g E r.m.XX0XcXBXgX4XoXN._ V g 4 ; > = = = = ; = = = = = - = = ; = ; = ; = = = ; = ; = = - = - = ; ; = = - = ; ; O ; = = ; = = - = ; = = = = ; ; = = ; = O > @ @ ; 4 1.pXHXiXu.Y @ O > > > > ; > ; @ ; @ 2 ; ; ; ; ; > ; @ > > ; > ; - > > > = > > > = ; > ; > > > > > ; ; ; > ; > ; - > > > > > > ; > ; ; > ; > ; > = ; ; @ @ ; = @ ; ; > = ; ; @ > @ ; > = = = - = = = - - = ; = ; = = > = = = ; = - = - = - = - = = - = ; = - ; - = = ; = ; = - = = = - = - = - = > = = - = = = = ; = - - = ; & w ",
"& > = = ; = = = = = = = , = ; = = ; = = , . = . = = = = = , . = = = = = = = = . = = = . = = . = , = = = . = = = = . = = . = . = = = = = = : = : & & = = . = = = = = = . = = & = = . = & = . . = . = = = = . = . = = = = = = = = : = = = . = = = = = : & = = = = : = = = & = . = = = = = = = . = = = . = = = & : . , . = & = . = = = = : = = : & = = = = = = = , = = . = = = = = ; = ; = = = = = = ; = , . ; = ; - ; - ; = = ; ; > = ; = ; = - = ; = ; = = > ; = = ; ; = = - = ; = ; = ; = = ; = = - = - > = = = - = ; = > = = - ; = ; = = = ; = ; = ; = ; - = - = - = ; = ; = - - = - = = = > = = = ; - - = > O ; @ O ; ; @ O ; O ; ; @ > @ ; O ; > @ @ @ @ ; ; ; ; @ @ ; @ ; = ; = = ; = - = > - = ; = - = = - - = - = - = - = = ; = ; - = - = - = = = = = = > = = = = - = - = = = - - = = = = = - = = - = = = = = ; ; 3 g h ) u.I.XX>X3X3XXXI.r.A J p ; ; - = = ; = = = , = = = = ; - = - = - = - - ; = - = - ; O ; = - = = - ; = - = = ; O ; ; O O ; = ; = - ; - = - = = - > @ ; ; ; > > 4 <.<XBX4Xr.3 + ; > > > > > ; - ; > 2 ; @ ; % @ ; > > > @ ; - ; > ; > > > ; > ; ; > > = > ; > > > > ; > > ; - ; > ; > + > > - ; - ; + ; > @ > > - ; ; O ; > > = ; + @ @ @ @ @ ; O ; @ @ ; - ; = = > = = = ; = - = - = ; = > - = = ; = ; = = ; = ; > = ; = - = = ; = = > - = ; = - ; ; = ; = = = ; = - , = = > = = = ; * , & > * w ",
"= = . ; ; = = = = , : = ; = , . = ; , = = = = , = = = = = . = . = = & , & = = = = = = = & = . = & = = = = = & = = = . = = : , = = = = = = = = & : & . = = = = = = = = = = = : = = = . = = = = = = = & : = = = . = = = = = = = = . = = = = = = = . = = = = = = = . = = = = = = = & = . = = . , . : & = = . = = = = . = = = = = = = = = & = = = = = = = = = & : . = = = ; , = = , = = , = = = ; = = = = = , = ; = = ; = = = = = = = = = - ; = = = = - - ; ; - = - = - = - = = = = = = - = = > ; = - = = > ; = ; = = - = - - = - = = - = ; > = = ; - = = = ; = = ; ; = = = - = - ; = = = - = ; > = ; = ; = = = ; ; @ ; @ ; @ ; ; @ ; @ ; @ ; @ @ > @ @ ; @ ; @ ; O @ > ; O O ; > = = = = = - ; ; = = ; = ; = - = = = = = - = ; > = ; - = = = = ; - = - = - - = = = = = = = = = = = = ; = = - = = ; = - = = - = = , > = ; = ; 3 g _ A y.m.m.m.I.J.r.A j h 4 ; ; & ; = = = = = = = = - = = ; - = = = ; = = = - = ; = = ; ; = = - = = = = = = = O = = - = ; = - = O ; > @ ; ; + ; > # O ; @ > $ > 1 h d.B.a.g , - > > > > > > > ; > ; # > > ; ; ; ; > ; > ; > > > ; - > > # 2 ; > ; ; ; > ; > > ; > > = - > > > @ ; - ; 2 > > ; > ; > ; > > > > - > # - ; ; + > > > @ @ O > = O @ = > @ = @ = = - > = ; = ; = - = = > - = ; = = - = = ; = = ; = - = = - = - = = - = - = = ; O = ; = = = - = ; > = = = = - = = - = - = = - ; = = * w ",
"= ; = = = = ; ; = = = = = = = ; = = = = = = = . = = = . = = = ; = = , . , = = = = . = = : = = = = ; = & = = ; = = = = . . = . = = . = , . = = = = = = = = = = = = . = = = = . = = = , = = = & : = = . = = & , = = = = . = . = & = = : & , . = = = = : & = = . = = = : & = = . = : = = = = = = = = = = = = = : = = = = = = = . = . = = = = = = . , . = = = = = = ; = = ; = = = , = ; = = ; = = , = , = ; = = = = = = ; = = ; = ; = > ; = = = - ; ; = = = = = ; = ; = ; = ; = > - ; - = ; = ; O ; = = ; = = - = O = = ; = = ; = ; ; = = - ; = = - - = ; - - = = - = = > - = ; = = - ; ; = - = = = - = = - = ; = - = - = - - = - @ + ; @ ; O ; ; @ @ ; @ ; O > @ ; O ; @ ; @ @ @ = = > > = = = = - - = ; O ; = = ; = ; ; = - = = = = = - - ; = = = ; = ; = = ; = > ; = = = = > = > - = = - ; = = = ; = = > = = = ; = = = = ; , p g j _ r.r.8.r.r.E V h p 3 ; ; ; = = = ; - = = = ; > = = - ; = ; - = - > = = ; = - = ; O ; ; = = ; - ; = > - = ; = = ; = - = = ; > ; ; @ O > > - 2 ; > > ; ; > ; 3 f f p ; ; 1 ; ; ; > > 2 ; > ; > ; > > > > % ; # > ; > ; ; ; @ ; ; > > ; > ; ; > > ; > ; > ; ; ; ; $ > > ; ; > ; @ ; ; ; > ; > ; > ; > = > > > 2 ; > ; ; > > > > ; ; > @ ; > @ @ > > @ ; ; = = = - = = - = = ; = = ; O ; ; = = > = - - = ; = > = = ; = ; ; = ; = > = = ; - = - = ; = - = = ; - = = = = > = = , = = = = . ; & w ",
"& ; = ; = - = = = ; ; = = = = = ; = = ; . , = = . = = = . = & = = , . , & , = = = = . = = = = , = = = = = = = ; = - - & * , = = = = = . = = = . . = = = = = = . = = , . = & . , . = = = , . = = = = = = = = = = & : . , = = . , = = . = = = . = = = . , = = . , = = . = = = . , = = = = = = = = = . . , = = . = = = . = = = . = = = = = & . , = = = = . = = = , . = = = = ; = . = = ; = . = = ; = = , = = ; = , ; , = = ; = = = = ; = = - = - ; @ > ; @ @ ; > @ ; O O ; @ > ; @ ; + @ ; @ @ ; O ; @ @ > @ ; > ; > ; @ > ; O ; @ O @ > ; ; @ > ; = > ; > > ; = ; O ; @ @ = > ; @ ; @ @ ; ; O ; > = - = ; = = - = = ; - ; = O ; @ @ @ ; O ; @ @ ; > ; @ > O ; @ + @ ; @ @ ; @ @ = - = - = = - = ; @ > O ; > @ @ = - = - = - = ; > ; = = ; - = = - - ; = - = = = = & > = = = = = = = = ; = = ; = = = = = = ; = > ; ; = = = ; ; , 4 g J E A E V E J h p 3 ; = ; = = ; - = = = ; = ; = = - = O @ ; @ > @ @ ; > = > ; ; @ ; O @ ; @ ; ; > ; O @ ; @ > @ > = @ ; O > > > = > > > > ; ; @ ; > ; ; ; > O % u , = @ % O @ 2 # ; @ ; ; > > ; ; 2 # # ; ; 2 ; ; > % ; > > ; > > ; @ ; ; @ ; ; ; $ > ; ; @ > ; @ > 2 ; > > ; ; @ 2 ; 2 @ ; > ; - @ ; > > ; @ @ > @ > > > > > > ; > > > > > ; ; O O ; @ ; = > ; @ @ ; ; > O ; > = @ O @ ; > @ ; > ; O ; @ ; ; ; @ @ ; = ; - - @ > @ ; = > > = = = ; = = ; = ; = - = - ; = = ; & > ; ; - O w ",
"& ; = = ; = = ; = = = = = , = , = , = = = = = ; = , = , = = , = = = = = , . = = ; = , = = = = . = = = = = = . : , ; - - , * = = = = ; = = = , = = , = = = ; , = = = = = = , = = = = ; = = = ; = , = = = = = ; = , = = = = = ; = = , = , , = = = , = = = = = ; = = , , = = = = = , = = = = , = ; , * = = = = ; = , = , = = = , = , = = , , = = = = = , = = = = . = , ; = = = = ; = , . = , = , = . , = = = = = = = = ; = = = ; = > O ; ; = ; = @ @ ; O ; @ O ; @ > @ ; @ ; @ @ ; @ ; ; > ; - > @ > @ ; @ ; O @ ; @ @ ; @ ; @ O ; ; @ = @ @ = = @ ; @ @ @ = > ; @ > @ ; @ @ @ @ ; O ; > @ > @ @ @ ; @ > @ > @ ; @ @ O ; > ; ; + ; ; O @ > @ = > @ = @ ; O ; > @ ; ; @ = > O ; > ; ; ; @ ; ; @ > @ ; @ ; @ = @ ; ; = ; = ; = = = = - = = - ; = = ; = = = ; ; - = ; , = = ; = ; = = ; = = = = = = ; ; = ; = = = = = = ; = : = = ; 1 p p f h J J p p 4 ; ; - = - = ; = = = ; - = - = = ; = ; ; > @ ; = @ ; @ > > ; = > @ + ; ; O > @ > - > @ ; @ = ; > ; > ; > ; @ ; $ ; > > ; > @ ; $ ; > > @ ; > - ; < * > u 2 + 2 @ ; ; ; ; ; > > ; @ ; ; 2 ; @ ; ; > > ; $ > ; ; > % ; ; ; # 2 ; @ ; ; > > > 2 # 2 ; > @ ; $ ; ; ; > # > > ; ; # > ; ; ; ; ; ; @ > > ; ; ; ; > 2 ; > > $ > ; ; > ; ; ; > ; > ; ; > ; > O ; @ ; @ @ @ > ; @ O ; @ @ @ ; @ > @ O @ @ = > @ > ; ; > ; @ ; O ; > > = - = = - - = - = ; = ; = = - = = - - = = = * e ",
"= - = ; = - - = ; . = = = = = = = ; = = = = , = = = = = , = ; ; = = = ; = = = ; ; = , = ; = = = = = , = > 3 g V h p : . = = . = , = , . = ; = = ; = = , . = ; = = , = ; = = = = = , = = = = ; = = , . = = = , = = = , = = = , = = = = = = = ; , = , = = = = = = = = = = , = ; ; = = . = = . , = = ; = = = = , = = , = = , = = = = = ; . = = = = ; = , = ; = = = = , = = , = = ; = , = ; = = = = ; = = = ; = = = , = = = = ; = @ @ ; ; O ; @ > ; ; O ; @ ; @ O ; ; O @ > O @ > @ ; ; @ @ O @ > = ; ; @ O @ @ > @ ; @ @ O @ @ > > @ ; @ > @ > ; @ @ + ; @ ; @ + ; @ ; ; > ; @ > O ; O = @ ; @ > @ @ @ = @ ; @ @ @ ; @ @ @ @ ; ; O > ; @ @ > O ; @ @ = @ ; @ @ O > @ @ @ > > @ @ @ O @ = @ @ ; ; O O ; @ @ @ > ; O ; @ > ; @ > - ; - ; = ; - = - ; = ; = = = ; - = = ; = = ; = ; ; ; = ; ; ; ; . ; ; = ; ; ; ; ; = = ; ; ; = = ; 3 4 4 4 p p 4 3 3 ; > - ; > = = - = - = ; = ; > = = = > @ = @ @ @ @ > ; O > @ @ > ; @ @ ; @ @ @ ; ; ; O ; > - ; > ; @ > - > ; > ; > ; ; $ ; ; $ ; ; # ; > 2 ; ; > ; 2 - + $ @ - > ; ; @ ; @ ; ; % ; ; ; @ ; @ > 2 @ 2 @ 2 ; ; ; $ ; ; @ ; @ 2 > > @ ; ; ; @ 2 # 2 # ; ; ; @ ; @ ; 2 > ; # > ; ; 2 ; > > ; $ > ; ; ; ; $ ; ; ; 2 @ $ > ; ; ; ; ; > $ ; > ; @ > ; > ; > ; > ; > @ @ @ ; @ ; ; @ O ; @ ; @ > ; @ > @ - ; ; @ ; + - ; ; O @ O ; = - = - = ; = ; = = - = - = ; ; = ; = ; - - ; ; * L ",
"= > = = + - > = = , = , ; = ; = = = = , ; = = = , = = = = = = = = = = ; = = , = = = = . , = = ; ; - = = ; g _ N.N._ g : = ; , = = = = ; = = , = = = = = , = = = = = = ; = , = = = ; = = , = = = = = = , , . = = = = = = = ; = = , = = = = = = = = = = = = , ; = = , = = = = = = = = , = = ; = = = = , = = ; = = = = = = = = = ; = = = = ; = = , = = = = . , ; = = = = ; = ; = = = = = = , ; = = = = ; = , = ; = = = = ; = = ; @ ; O @ ; + ; @ O @ > @ O ; > ; @ @ ; ; @ ; @ ; O O @ ; O ; @ ; @ O @ > ; ; @ ; O O ; > ; ; @ = @ > @ O ; @ ; @ O ; ; O ; @ O ; @ ; @ O @ = > @ ; @ > @ ; O ; @ ; > ; @ ; @ ; > ; > @ ; @ ; @ @ ; @ = > ; @ ; O ; > > @ @ ; @ ; @ > ; O ; @ ; > ; @ ; > > $ @ ; @ > @ ; ; O ; @ ; + ; @ O ; = ; = = = = - ; = = = = - - ; = = = ; = = ; , = = = = ; ; = ; = ; ; ; ; ; = ; = = ; ; = = = ; . ; . & , = = > , ; ; > > - - - - = ; = ; = - = - = = = > ; O ; > @ ; ; O ; > @ = ; @ = O ; @ O ; > O ; = > > ; > ; @ > > ; > ; ; > ; @ > > ; ; ; ; > ; ; 2 ; $ ; @ 2 > @ ; ; > > > ; > # 2 ; ; # 2 > 2 @ ; # 2 ; > > @ ; > ; ; @ ; > > ; # 2 ; > > 2 @ 2 ; @ ; ; ; ; @ ; ; # 2 ; 2 @ ; @ ; ; 2 @ ; @ ; ; $ > ; > > ; ; ; ; > > @ ; @ ; > > ; ; > ; $ > > > > > > > - > > > ; + ; @ = > ; O > @ = > ; @ > @ O ; O ; @ ; @ O O ; @ ; @ = @ ; > ; > @ ; ; = ; = - = > = = ; = - = = - = ; = - = = > O w ",
"= - = = = ; , = = , ; = = ; , = = = . ; = , = = = = = ; = = = = , = ; = = , = = ; = , = = ; = = , & O ; 3 V OXjXvX).V 1 + < - = = = = = = ; = ; . = = , = = = = ; = ; = , = = ; = = = = ; = , = = , = = = = = = = = = = , = = = ; = = = = = = ; = = = ; , . = = , . = ; ; = = = ; = = = = ; = , = = . = = = = = = = , = = , ; = = ; ; = = = = ; = = = = = ; = = , ; . , = = = = = ; ; = , = = ; = = = = ; - > = = = = ; = = = = ; = , = = = = ; = = ; ; = ; @ > > @ @ @ O ; = ; > @ O ; > ; > > ; @ ; @ ; > ; @ @ @ ; @ ; ; > > @ ; > ; @ > @ = ; = - = - = ; = > - ; = @ ; @ @ > = > ; O @ ; @ ; @ > O ; @ @ ; @ ; @ = > ; O @ ; @ @ ; @ O @ ; @ ; @ @ > = @ ; ; @ ; O @ > ; O = @ ; = @ > > ; @ ; @ ; ; @ @ > = = = > = = - = = ; - = ; - = = ; = ; = . , = ; = ; = ; ; O . ; = = ; ; = , = = = . ; = = , = ; = = = , = ; = ; = @ > O ; @ ; O ; ; @ @ ; O @ = - = - = = > = ; @ ; ; @ @ ; O @ @ ; O @ @ @ @ ; @ @ > = ; O ; > > ; > > - > @ ; # 2 ; ; ; # @ ; ; ; ; @ # 2 ; ; ; ; # 2 2 @ ; # 2 ; ; ; @ > ; ; > > ; @ ; 2 > ; ; 2 # ; @ ; ; 2 @ 2 2 ; % % ; ; > > ; ; @ ; > > ; ; 2 # 2 # ; 2 > ; ; @ ; ; ; ; # ; ; 2 # ; # ; 2 ; ; > ; > % ; ; > % ; ; @ # 2 ; @ ; > ; ; > # # 2 ; ; @ ; ; > ; > ; - > > > = ; @ @ > = @ > = @ > = ; O ; @ ; @ = @ > > = ; > = ; O @ @ = > O ; @ @ ; @ ; O ; - = ; = = > > = = - > . - & w ",
"= - ; = - = = = = = = = = = = = = = , = = = ; ; , . , = ; ; = , ; = = = ; . , = = = = = , . ; & ; , = = 3 _ >XGXAX XE 1 O = . ; , . = , = = = ; , = = = , = ; = , = = = = = = = = , ; = = , = = = = = , ; ; = , ; = , ; . = ; = = = = , = = , = , ; = = = ; = , = ; = = = = , = = = ; = = = = = = , = , , ; = = ; = = ; = = = = , . = = , = = = , = ; = : = = ; = = = = , = ; = , = = . = = = = ; = ; = = = = = ; - = - ; = ; = ; = = = = ; , = ; = = ; ; = ; @ ; = > ; @ > @ ; ; ; @ - = = > > @ > @ O @ @ @ ; > ; @ ; ; - > = - = = = = = > = = = = ; = ; = > > > > ; O ; ; @ @ > @ = @ ; > @ @ ; @ ; > @ O ; > @ > @ @ ; @ ; > @ O ; > ; ; @ O ; ; @ > @ ; @ = @ > @ ; @ ; @ > @ @ > O ; @ = @ > @ @ ; + ; = = ; = - ; = = ; = - = = = = = ; - = ; = = ; = ; = ; ; ; = ; ; ; = = = = = = ; = = = = ; = ; = = = ; = ; = = = ; ; > ; > ; > > > ; @ > > ; + ; ; = ; > = = ; ; O @ @ > @ = > @ ; > = ; @ - ; O ; ; @ > @ > - @ > ; > ; > > > 2 ; ; ; @ > ; 2 ; ; ; # 2 ; ; @ ; # ; ; > @ > ; ; 2 2 @ ; # 2 > 2 @ > % ; ; ; # > > ; @ ; ; ; ; 2 @ 2 @ @ ; ; ; 2 @ > > ; ; # 2 > 2 ; @ ; ; ; @ ; @ 2 @ ; # 2 # 2 @ 2 ; ; @ ; ; 2 ; # @ ; > ; > > ; ; > > ; 2 ; ; ; ; ; ; > @ ; > 2 ; ; @ ; ; ; ; > - ; > ; > > > ; + ; @ ; ; @ > @ @ ; @ > @ @ ; O @ > O ; @ @ @ @ @ > @ ; @ ; @ ; > @ O ; > @ @ = = ; = - = = = = = - = ; - O w ",
"= ; = > = = = > = ; = ; = ; ; = ; = = = = = = = = = ; = = = = = = ; = = = = = = = ; = = = = , = = , = ; 3 J {.pX8XN.h 1 = , . = = ; , = = , = = = , = ; ; = = , = ; . = = = , = ; = . = = ; = . ; = ; . = , = = = = = = = ; , = = , = = ; = ; = = = = = = = = = = = = = = = , = , = , = ; = ; = ; = ; = = = , = = = = = = ; = ; = , = ; , = ; . ; = = , = , = = = , = = = = = = = = ; , = = = ; ; = = = ; = ; ; = ; = ; ; = = = = = = = = = = = = = = ; ; > ; O O ; ; @ ; @ > = @ @ ; @ ; @ ; = > ; ; ; > @ > @ ; O ; + O @ ; = = > = ; - = = ; ; - = ; - > = = ; = = = = > = + ; @ @ @ @ ; = > > O @ ; ; ; @ - ; > ; O O @ = > = @ > > ; @ @ @ @ > ; > ; @ @ O > O ; @ @ ; @ > @ ; @ ; @ ; @ ; @ ; > = ; @ ; ; - = - = ; = - = = ; = = ; = ; = , = = = = = = ; ; ; = ; ; ; ; = = , = , = = = = = ; = = - = = > = = = = = = = ; @ > > > > ; ; > > ; > ; > ; > @ @ ; ; O > O ; @ > > ; @ @ O ; @ @ > @ @ ; @ @ ; > ; > ; > > > > - ; > > > > # ; ; ; > > @ 2 > ; @ 2 ; ; ; ; ; 2 @ 2 ; ; > ; ; @ # ; ; 2 > > # ; ; ; @ ; ; ; @ % ; # @ 2 # > ; ; 2 ; @ % @ ; @ 2 ; % % ; ; ; ; @ ; ; ; @ ; ; > > > ; ; 2 > > # ; ; @ ; @ % > ; @ ; ; 2 > ; @ ; % ; @ # ; # ; ; @ 2 @ > > ; ; @ 2 ; @ > > ; % ; > > @ ; - > > > > ; ; O @ ; > ; O ; @ ; @ ; = @ > = > ; @ @ ; ; > ; @ > ; @ > ; > ; O @ > @ > > = - = ; = ; = ; @ = - = ; ; & w ",
"= = = > = ; ; = = = = > = = = = = , , = = ; = = = = = = = , ; = = = , = , = ; = = = , ; = = = ; = . = ; ; 3 B [ t.V p ; = = . , = = = ; ; = = = = = = = = = = . = = , = ; ; = = = = , ; = = = , = = = = = = ; = ; = = = , = = ; = = , . ; = = = ; = , = = ; = ; = , = , = ; . ; = = = . , = = = ; = = = ; = = ; = , = = , . = = = = = = = = = , = = = = = = = = = = = ; , . ; ; = = = = = , = = = = ; = = = = = = = = = = = ; = , = = ; = : = = ; = = ; O @ @ ; @ @ @ O ; > > - > = @ = > @ ; = ; O = > = = = = = ; ; = = > ; - = = = - = = - = = = - = = = ; = - = > = = = ; ; O ; > ; @ O ; @ @ ; @ O O @ ; @ @ @ @ ; ; > @ @ ; @ = @ O > = > ; @ O @ O ; > ; ; @ @ ; ; O ; @ = > @ @ ; @ @ - = = > = = - = = = ; = ; = - = ; = - ; ; - = - = = = = ; ; = = = ; = . ; = = ; = ; = = = = ; , = = = = ; = = ; = ; = ; = ; = - > ; @ ; O ; O @ @ @ O ; = ; @ ; O > @ ; @ @ ; @ O = @ O ; ; ; > @ @ ; = ; O ; > > ; - ; > > > > 2 ; > ; ; > > ; ; 2 @ 2 @ ; > > > ; # > > > % @ ; ; # > > 2 @ 2 @ > ; ; @ ; % ; ; % ; 2 @ @ 2 2 ; ; ; % ; 2 2 @ % # ; 2 ; 2 ; # 2 2 @ ; ; ; % @ 2 ; > # 2 ; ; > > > > @ ; > % ; ; ; # 2 ; > > ; ; ; @ @ ; > 2 ; @ 2 ; 2 @ ; ; ; ; # 2 % ; ; % ; ; 2 ; > % ; ; > # ; ; > ; ; ; ; > ; > > ; O @ ; @ O > @ = @ > ; @ @ @ ; @ ; @ O @ @ ; @ O ; @ O @ @ ; ; @ ; @ ; = = ; O = = - = ; = - = ; > * w ",
"= = = ; = = = - - = - = = ; - ; = ; = = = = = , ; , = = = = = = ; = , = = = = = . , = = = = = ; = ; ; & ; : i 3 3 3 ; + = = , = = = = = , = = = ; = ; = = ; = ; ; = = = . = = , = , = = . = , = ; , = = ; . , = = = , = = = ; = = = ; = = = = = . = = = = = , = = = = = = , = = = = , = = ; = = = = = = ; = = = = = = ; = = ; , = = = = = ; = = = . , ; , = = = = ; = = = = = = = = = = ; ; = = = = ; , = , = = ; = , = = ; = , , . = ; ; = , = . , = = = ; ; = - = - = ; = - - = - = = - ; = > = ; = = - = ; > ; = - = = ; = = = = = = = - = = ; = - > ; = ; = = = > = ; = ; @ = > = ; > ; O @ @ > = ; = > = ; ; O ; + ; @ ; @ O ; ; @ ; > ; @ @ > ; @ = ; ; - O ; ; @ @ = @ > @ ; @ ; ; = > = - = = > = = = - ; = ; = - = - = = = ; = = = = ; = ; = , = = ; ; = ; ; O ; ; ; = ; = = = = = = > ; = ; = - = > = ; = = = - ; - > @ > @ ; ; ; - > > ; ; @ > O @ ; @ = + ; O @ > ; @ ; > @ @ O @ ; @ ; O > > > > > - ; # > > > ; @ > $ > > ; ; @ # # ; @ 2 ; ; % % ; 2 > > ; ; @ > ; 2 > ; > ; ; ; > > 2 @ ; ; @ 2 % ; ; 2 % ; ; ; 2 @ 2 # ; ; ; ; ; % % ; ; % ; ; 2 ; % % 2 @ ; ; @ 2 % > > > ; % > > 2 ; ; # ; ; ; 2 # ; ; ; > > 2 ; ; @ > > ; ; # ; @ 2 ; ; % > > ; ; @ > > ; @ # ; @ 2 > > ; 2 ; ; @ 2 > > ; > ; + ; - ; @ > ; > = @ > @ ; @ O > ; ; O @ ; > = @ > @ > = ; @ = > @ O ; O @ > ; O ; @ ; = ; > ; = - = ; ; & w ",
"= ; = = ; = ; = ; = = ; = - = = = = = ; ; = ; = = = ; = ; = , = = = = = = ; = ; ; = = = ; ; = = = . ; & O , , ; ; = - & = ; ; = = : ; = = = ; = = = = = = = = , = . , ; , = = = = ; = = , = = ; = = ; = = = = = , . = = = , = = ; = = , , . = , , = = ; ; = = = = ; = , ; = = = ; = = = . , , = , = = ; = = , . = ; , . = = = = ; = ; = = = = , ; = = = = = ; , = = , . = ; = , , ; = = = = = , = = = = = = ; ; , = = = = = = ; = ; = = = = ; . ; = = ; ; = ; ; = ; = ; = = = ; ; = - ; = = = = ; O = > = = = = O ; = ; = - - = ; = > = ; = = > = = = = = = - = = ; = = = - = ; ; @ ; > ; @ @ ; @ ; @ > @ @ ; - > @ @ ; O ; @ ; @ > @ O @ @ O ; @ ; O ; ; > = > ; @ @ ; @ > O ; ; @ > O = ; > = = ; = ; - ; = ; - = - = = ; ; = = , = = ; ; = = = = = ; ; = = = ; @ ; ; . ; ; = = = ; = , ; = = ; = = - = ; = = = = ; ; = = = - ; O ; @ O = > > O @ @ = @ ; ; > @ > ; @ @ ; @ @ > @ = ; > ; @ > - ; > ; > > > ; ; > ; ; ; ; ; @ ; ; ; > ; > ; 2 ; ; > > @ ; ; ; ; @ ; ; ; > 2 > ; @ 2 @ > > ; ; ; % ; ; ; % @ ; ; ; % ; ; 2 @ # @ 2 2 @ 2 @ > % 2 ; ; ; % ; ; % @ ; ; ; ; ; % ; @ ; ; 2 ; ; ; % ; 2 @ @ ; 2 2 @ ; ; > ; ; ; > > # ; # 2 > # ; ; ; ; ; # ; # > > > ; ; ; > > ; ; ; ; ; # 2 @ ; @ > $ ; 2 @ ; > + ; ; > ; > ; > @ @ = ; @ @ @ ; ; @ O @ = > @ @ ; ; = @ ; + @ ; > ; ; @ @ ; @ @ O ; > @ > > > - = = - ; . ; & w ",
"= > ; > > = ; = = , = ; = = = ; ; = = ; = = = ; = , = = ; = , = = = = ; = = = , , = ; = = , , & = . , ; @ = . = = = , < , . O ; = = = ; = = , = ; . = = , = ; = , = = = = ; = ; = = = ; = = = = = = = = , = = = , = = ; = = ; = ; = = . = ; , = = ; , = ; = , = = ; = ; ; = = , = = ; . = = = = ; = = = = = = = = = = = . , , = = , = , = ; = = = = ; = = = = . ; , = ; , = = = = = = , . ; = = . , = , = = = = = ; = = = = = = = = = = ; = = , ; = ; . ; = = = = - = > = ; = - ; = = = = ; > = = = ; = O ; ; = = = = - = ; = = - = = > = = = ; = - ; = - = = > > O ; ; @ ; ; = O ; = = = = - ; @ = > @ ; O - > ; @ > O @ ; @ O ; @ @ ; = @ @ ; O @ ; = @ @ ; - @ @ ; O ; @ @ ; ; O @ = @ > > - - = = = = = = = = = - = = ; = = = = ; = = = ; = = , = = = = = ; . ; ; ; ; = ; = = ; = = = = = = = = - = - = > = = = = = ; = = ; @ ; ; @ ; @ = ; ; @ @ ; ; O @ @ ; O @ ; ; @ O ; O ; = @ @ = ; > ; > ; - > > > ; @ $ > ; ; > > ; ; > ; ; > > ; > 2 ; ; ; # ; ; # > > @ 2 > > > > > > > > > > 2 @ ; 2 ; % > > 2 ; ; % > # 2 @ ; 2 ; @ 2 ; ; ; @ ; @ ; # > @ 2 ; % # ; @ ; % ; > > 2 # ; @ 2 @ @ ; @ 2 > ; 2 @ ; @ > > > > ; @ ; 2 ; ; ; ; ; 2 ; ; > # ; ; @ 2 < ; 2 ; % ; 2 > ; ; > # ; ; > ; ; ; > ; @ @ ; ; ; > > > ; > > ; > ; > ; > = > > > = ; @ @ ; ; O @ @ @ ; O @ ; O ; @ O @ @ ; O ; ; @ = @ @ @ ; O ; ; ; - > ; ; O w ",
"; ; > ; ; > > , = = > = , = ; = - = ; = ; = ; = = = = ; = = = = = , = ; = , = . = = = = = = = = ; : ; & O - ; ; ; = . ; . = = = = , = = = ; = ; = , = , = = = = = = = = , = = = = = , = = ; ; = = , . ; = = ; = = ; = = = , . = = = = , = = = ; = = = = = = = . = = = = = = = = ; = = , ; = = , . = = , , = ; ; = , = = ; = = = = = . , = = = ; = , = = = ; ; = = = = = = = ; = ; = = = , = = ; ; = = = = ; = , = = = ; , = ; = = , , = = = = = = = ; O ; ; ; = ; ; = - = ; = ; - = > > - > = > > ; > > ; > > ; > > ; > ; > > > ; > ; > > ; > - - - , = > > = > > ; @ > > > O > ; - ; - > > = > > ; > > ; ; > > ; @ > ; > ; > ; > > ; > > ; > > ; ; > > > > > > > > + ; > > ; > > ; > > ; > > - > ; > > > ; > > = ; ; = > = - ; . , = = ; = = = ; = = = = ; ; - ; ; . ; = ; ; = = , = , = ; , = = ; , = ; = = , , ; = , = = ; > > = > ; > > - ; > ; > > > ; ; > > ; > ; > ; ; > @ ; > ; > > ; > - ; > ; > ; > % ; ; > ; ; $ ; ; ; > $ ; % ; ; > > ; # 2 2 ; ; 2 ; > > 2 2 ; ; 2 ; > 2 ; 2 > > > 2 ; ; 2 ; 2 % 2 ; 2 ; 2 2 2 2 ; 2 2 2 > 2 % 2 2 ; 2 2 2 2 ; ; 2 2 2 2 > 2 2 2 2 2 2 ; 2 ; 2 2 2 ; 2 2 > 2 2 2 ; > 2 ; > 2 2 ; > 2 > > 2 ; > 2 ; > 2 > 2 ; 2 ; ; > > > 2 ; > 2 ; > 2 > 2 2 ; < ; ; ; ; ; 2 # ; 2 ; > > - ; - ; > ; > ; > ; > ; > > ; > > > ; > ; > > > ; ; > ; @ > ; > > ; ; > > ; > > ; > ; > ; = > > ; ; + L ",
"= ; ; ; ; ; ; ; ; ; ; , ; ; ; = = , = ; = = < = - , = = , = - = = , = = = = , = ; , = = = = = = , = = = ; = ; = = = = = , = ; = = , = ; = = = . = , = = = ; ; = = = = , , = = ; . = = = = = , = , = = ; = = . , ; . , = = , = ; = ; = = ; = = = = = = = = ; = , , . = = = = = , = = = = ; . = = , = ; = , = = ; ; = = = , = ; = = = = , . , = , = ; = = ; = = = = ; , = = = = = = = = = ; = = = , = = ; = = = = = = = = = ; ; = = ; = = ; = = = = , = = = = = ; ; ; ; ; = ; ; = = > , = ; ; ; = ; ; ; ; ; ; ; ; ; ; > ; ; ; ; = = , = = - = , = ; , = ; ; = , ; ; ; ; ; = ; ; = ; = ; > ; ; ; = - ; ; ; ; ; , ; ; > ; ; ; ; ; ; ; ; = ; = ; ; = ; ; = > = ; ; = ; ; = ; = ; ; = ; ; = > ; ; = ; = > ; = > = ; ; ; = = < = = = ; @ ; = . ; ; ; = ; ; ; = = ; ; = = ; = = = > = = < = , = < = ; ; ; ; ; ; > = ; = = ; ; = > ; = ; ; ; ; > ; ; ; ; ; = ; ; ; ; = ; ; > = ; ; ; ; > > > + ; ; ; @ ; ; 2 ; ; ; ; ; ; # 4 ; ; ; ; ; ; ; ; ; ; 2 ; < ; ; ; 2 ; < ; ; < ; ; ; ; < ; ; 2 ; 2 > > ; 2 2 2 % 2 > 2 2 > ; > 2 ; 2 @ ; 2 2 > > 2 2 > > 2 > 2 2 2 2 > 2 2 2 > > ; 2 2 > ; > ; 2 ; > 2 > 2 2 ; 2 ; 2 2 > 2 > 2 > ; < 2 2 > 2 > 2 > 2 > 2 2 2 - < 2 ; ; 1 2 ; ; > ; > ; ; 2 ; > ; ; ; > > > > ; ; ; < ; ; 4 ; ; ; ; ; ; ; 1 ; > > ; - ; - ; > > ; - > - > ; = ; ; ; ; > > = ; ; ; ; ; ; ; ; ; = ; ; - ; = ; > ; ; = ; ; ; - w ",
"= ; = ; = ; > = ; = = > ; = ; = > = ; = , = = ; = , = > = < , = ; . = = ; = = = = = ; = , = = ; = = ; ; . = = = ; = ; = = = ; = = = = = = ; , = = = ; = = = = = ; = = = = ; = = , = = , ; = = = = = = = = , = = = = = = = = = = = = = , . , = ; , . , = = = = ; , = , = ; = = = , = ; = = , ; = = = = = = = , . = = , . = = = = = ; = = ; = = = = = = ; = = , = , = . = ; ; = , = ; = ; = , ; = = ; = = = , . , ; = , ; , = = = = = = ; = = , = ; . ; = = , ; ; ; = ; ; ; ; ; > ; ; ; ; > ; ; , ; ; = ; ; = ; = ; , = ; > = , = ; = = ; , = = < = = < = = < = ; ; ; = > ; ; ; ; > ; ; ; = ; ; ; ; ; = ; ; - = ; ; = ; = ; ; = ; ; ; ; ; ; ; ; > ; ; ; ; ; ; ; ; ; ; > ; ; ; ; > ; ; ; ; - ; , ; ; ; ; ; , ; ; = = , ; = = ; = ; ; = ; O ; ; ; = = . ; ; ; ; ; ; ; = = ; , = , = = ; ; = = = = ; = - ; ; , ; ; ; ; ; ; ; ; ; ; > ; > = ; , = > ; ; ; ; = = ; ; ; = ; ; ; - > ; > ; > ; > > O ; ; ; ; ; ; ; ; ; ; ; ; ; ; ; ; ; 2 2 ; 2 ; > ; 2 ; 2 ; > ; 2 ; ; ; 2 < ; > 2 ; 2 ; > 2 2 2 2 > ; > ; 2 ; > > 2 2 2 > < 2 2 > 2 > 2 ; 2 > 2 2 2 ; > 2 @ > 2 > ; > 2 2 2 2 > 2 2 2 > 2 > 2 > ; > 2 > 2 # ; > 2 2 ; 2 2 > 2 @ 2 ; > 2 > 2 2 ; > ; ; > ; ; ; ; > > > > ; ; > 2 ; < ; ; < ; ; 2 ; ; > > ; 2 ; ; ; ; ; > ; ; ; ; ; ; ; > ; - ; > ; > ; + > > ; ; - ; ; ; ; = ; ; ; ; ; = ; ; - ; = ; ; ; , = ; ; ; ; > , = = ; ; ; * P ",
"; ; ; ; ; ; , ; > ; ; ; > = ; < = - , < = < ; = > = - , ; , = ; = ; ; = = = , = = , = = = ; , . = = = = , = = , = = , = , = = = . , = ; = = = = = = = ; , . , = , = ; = = = = , = ; = = ; = . = ; = , ; = = = ; = = = = ; = ; , , = = = = ; = , = ; = = = = = = = ; = = = = ; . ; = = : = = = = ; , = ; = = = = ; = = = ; ; = = = = = ; = = , = = ; , = = = = = = = ; = = = = = = = = = = . = = . = ; = = = = = = = = = . = = = = ; , = = = ; = ; = = = ; = = ; ; = ; = ; > ; ; = ; ; = = ; ; = - ; = , < = = , - = - , = > = > - = , = ; = = - ; = = = = = = ; = , , = = ; < ; ; = ; = = ; ; ; ; ; > = ; ; ; ; ; ; ; ; = ; = ; ; ; ; - > , ; = ; > ; = ; > , > = ; ; = > , ; ; ; > ; = ; ; ; > = , , - = ; , = > = - = ; = = ; = ; . ; ; ; . ; ; = ; = = = , - = = = ; , - , = , = = < , - , ; ; ; ; = ; ; ; ; ; > ; ; > = ; = ; = ; ; ; > ; = ; = ; ; ; ; ; ; ; > > ; > ; > > > ; > ; > ; @ ; ; ; ; ; ; 2 ; ; ; ; ; ; 2 ; ; ; ; ; 1 ; ; ; ; ; ; ; ; ; ; 4 ; > ; ; ; > > > > ; 2 > 2 > > 2 @ 2 2 ; 2 2 ; 2 2 > ; # 2 > 2 > ; > 2 > > ; > ; > 2 2 > 2 2 ; > ; 2 # ; > 2 > 2 > 2 > 2 2 2 2 2 > 2 > 2 2 2 > ; > 2 > 2 2 2 2 > ; > 2 2 2 > > 2 2 ; > ; ; > ; ; ; > < ; ; ; 2 ; ; 1 ; ; ; ; ; ; ; 2 ; 4 > ; ; ; ; 2 ; ; ; ; ; ; ; > > ; > ; - ; - ; ; - > > ; > ; ; = > = ; ; ; ; ; ; ; ; ; ; ; ; > ; ; ; ; - ; = ; ; = ; ; ; - L ",
". ; ; ; - ; = ; ; ; = ; ; ; ; = , = = = ; = , = = , = = = = ; = , = , = ; = = = = = = ; = = = ; = ; = , = = = = = ; = = = = = : ; = = = , = ; = = ; = , = = = = = ; = = ; = = = = = = ; = = , = = = = = , ; = = , = ; ; = = = = = = ; = = = = = = ; = , , = ; = = = = ; ; = = , = = = = = , = ; = = = = = , = = = = , = = = = , ; = , . ; = = = = = = = , = ; = = = = = = , = , , . , = , , = ; , = = = = ; = ; = ; = = , = , = = = = = = , = = = = = , = = = ; ; ; ; ; = ; ; = ; ; ; ; ; ; = > = = ; = = ; = - , = = = , = , = = , = ; - = , , = , = ; ; = , = = - = - , = = ; ; ; ; ; ; ; ; = = ; , ; = ; ; - > = ; - ; ; ; ; ; = ; ; = ; ; ; = ; ; ; = ; ; = ; ; ; ; = ; ; > = ; ; ; = ; ; = = - = , = - = ; = , , = = = = ; ; ; ; @ ; O ; ; = , = = ; = = = ; = ; = = - = ; = = ; = = = - ; ; ; ; ; > = > ; = ; ; = ; ; ; , ; ; = > ; = ; ; ; > ; ; = ; = ; > ; > = ; > > ; ; ; ; ; ; ; ; ; ; ; ; ; ; ; ; ; ; 2 ; > 2 ; < ; ; ; < ; ; ; 4 ; ; 2 < ; ; ; ; 2 ; 2 2 2 ; 2 2 2 2 ; > 2 < ; 2 2 2 > 2 > > 2 > 2 2 2 2 ; > 2 2 2 > 2 2 2 > 2 2 2 > 2 > ; 2 2 > 2 2 2 ; 2 2 > ; 2 ; > ; > 2 > 2 > ; > 2 > 2 > 2 2 2 2 ; > > 2 2 2 > ; > 2 ; > 2 2 > 2 2 2 ; 4 2 2 ; 2 2 > 2 ; < ; 4 ; ; > 1 < ; 1 ; ; > 2 ; 2 ; ; ; ; 1 ; ; ; ; > ; - ; > ; > ; > ; > ; > - ; = > ; > ; > ; - > ; - ; = ; = ; = ; - ; ; = ; ; ; ; ; - = ; ; - w ",
"> , ; > ; = ; ; = ; ; > = ; ; = > ; ; ; ; ; ; = ; = , ; = , = , = ; = > = = ; = = ; = ; = = = = = . = ; = , = ; = = = = = ; = = ; = = = = = ; = = , = . , = = ; . = = = ; = ; = , = = = = = = , = = = = = ; = = = = , = = = , = = = = ; ; , = = ; = = = , = = ; = , = = = = = = ; = , = = , = , = = = = ; ; = = = ; = = = ; = = = = = = = ; ; = = , , = = = = ; ; , = = ; = = . = = ; = = = ; = = ; = = ; = , = = = = ; = = ; ; , . , = = = = ; = ; = , = = = , = - ; = , , = = = ; = ; = = , = = > , - ; = = ; = , = ; , = , = , = ; = , = ; = < = = , = ; < = - = < = = = , = = = ; = = , = > ; ; = ; ; = ; ; , ; ; ; ; ; ; ; ; - ; ; ; ; ; > , ; ; ; ; ; ; ; ; ; ; ; = ; ; = = , = , - = = , , = , = = ; = = = , = ; , = = ; ; ; ; ; ; = = , = = , = = = ; ; , = = , = , = > ; ; ; = ; ; = ; = ; ; = = > ; = ; ; ; ; ; = ; > ; ; ; ; ; ; = ; ; = ; ; ; > ; > ; > ; - # > > ; ; ; ; ; ; ; ; 1 ; ; ; > ; ; > > ; 1 ; < 2 ; ; ; < 1 ; ; 2 > > ; - > ; ; 2 ; > > 2 > 2 @ ; 2 > 2 2 > ; > 2 2 2 > > 2 > 2 > ; 2 ; 2 > ; 2 2 > ; 2 2 2 2 > ; ; 2 ; 2 % @ 2 2 ; 2 % 2 ; % ; % 2 % 2 2 2 > ; > 2 > 2 2 2 > 2 > 2 > ; > ; ; 2 2 > 2 > > 2 2 > < 2 2 2 > < ; 2 2 > 2 2 2 > > > > > ; ; ; ; 2 > ; 2 ; ; ; ; < ; 2 ; ; 4 2 ; 4 ; ; ; 1 # ; $ > > ; > ; > > - > ; > - > > ; - ; > > ; - = ; ; ; ; ; ; = ; ; ; ; ; ; ; ; ; ; = ; ; ; - w ",
"= ; = ; ; ; - ; , > ; = ; > ; ; ; ; = ; = ; ; = = < = = < = > = , = , = = , = = = = = = = , = , = , , = = ; = = ; ; = , = = = ; = = = , = , = = ; = = , = = = = = , = = = = = = = = , = = ; = ; ; ; = , = = , = ; = = = ; = = = = , = = = = = = = = ; = = ; = = = = ; = = , = ; = = = = = . = = ; ; = = = = = , = = = : = = = , , = = , , . = = . = = = = ; = , = = ; = = = = ; = , . = = = = = = = , = = = = = , = , . = , = = ; = = = = ; = = , = = = ; = = ; = , = - = - = > = , < = < ; = ; , = = = = , < = = < ; = = ; = ; = > = , = > = , ; = = ; , = = ; = , ; = < = = ; < , = ; ; = = ; ; ; ; ; ; ; ; > ; = - ; = ; ; = ; ; = ; ; = ; ; = ; = ; > = ; ; ; = ; - ; ; , = = - ; = = ; - , = > , - , = < = ; = = = = = = ; ; . O ; = ; ; = ; = = = , = = = ; = = ; = - ; ; ; ; , - > ; ; ; > , ; > ; ; ; ; = ; = ; ; ; ; ; = ; = ; = ; > ; > ; ; > > > > ; > ; > ; ; 2 ; ; ; ; ; ; ; ; ; ; ; 2 2 > ; ; ; 2 ; ; ; ; ; < ; 2 ; ; ; 2 ; 2 ; ; 2 2 ; 4 2 2 ; 2 > 2 2 2 2 2 ; > > 2 2 2 > ; > 2 2 > 2 2 > 2 > 2 2 ; > 2 > 2 > > > ; > 2 # 2 2 % @ 2 2 ; 2 # % ; ; # 2 % ; ; > 2 2 > 2 2 2 2 ; 2 2 > 2 2 ; > 2 > > 2 > 2 > 2 2 ; ; > 2 2 2 @ ; > 2 ; 2 @ > 2 > ; > 2 ; 2 2 > 2 2 < ; ; 2 ; ; < > ; 2 2 ; ; < ; ; ; ; ; ; ; ; ; ; ; ; > > ; ; ; ; > ; ; > > > ; > > ; - ; > ; ; ; > ; = ; ; ; ; ; ; = - ; ; ; ; ; O ; ; ; ; & L ",
"; ; ; > ; ; ; ; ; ; ; ; ; ; > , = ; = ; ; = ; = = = ; = = = = ; = - = > = = ; , ; = . = = = = = = = = = = = ; = = = = = = = , . = = = = = ; ; = = = = = , = = ; = = = , , ; . = ; ; . = = , = = = = = = = , = = = = = . = = : = ; = = = ; = ; . , = = , = = = = = = , = = = = ; = ; , = ; = ; = = , = , = ; = = , = = ; , = ; = = = = = = ; = = , ; = ; = = , . = , = = = , = = ; = = = = = , = = ; = = = ; = ; , = = = = = ; = = = = ; = , = , = = = , = = = = < = = , = ; , = ; = ; = = ; = = = > = , ; = = ; ; = = ; = ; = = = = ; = = = = = = = = = = ; = = - , = , = ; , = = ; < = - = , = ; = = , - = , = ; ; ; ; ; ; ; > = ; ; ; ; = ; = > ; = > , ; ; = = , = , = = ; = , = ; , < , = = < = = = ; = = , = = , = ; = = ; O ; ; = ; ; ; = = = ; = = = = = = = ; = ; = > = - ; = ; = ; ; ; = ; ; ; = , > = > ; ; > > = = ; ; ; ; < ; ; ; > ; > > = > > ; ; ; ; ; ; ; ; @ ; ; ; ; 2 1 ; ; 2 ; ; ; ; 1 < ; ; 2 ; 2 ; ; ; ; < ; ; ; < > 2 4 ; 2 > > 2 > 2 ; 2 ; 2 < ; 2 ; 2 2 ; 2 2 2 2 > 2 2 > 2 > ; 2 2 > > 2 > ; > 2 2 2 2 ; > ; 2 ; 2 ; 2 2 % 2 # 2 % ; 2 % 2 % 2 2 % % ; < ; > 2 > ; 2 ; > 2 > ; 2 2 > 2 2 ; 2 > 2 2 2 > 2 > > ; 2 ; 2 2 2 > ; > ; 2 2 > 2 > 2 > % ; > > > > > > 2 > 2 > > 2 ; ; ; ; ; ; ; < ; ; ; ; ; ; ; ; ; ; ; ; ; > ; ; - ; > > > > ; > ; > ; - ; > = , = > ; = ; = ; ; ; ; = ; ; ; @ ; ; . , - L ",
"= ; = , - ; = ; ; = ; > = ; = ; ; ; ; ; ; ; ; < - , = , = ; < = = , , = < ; = = = , = , = ; ; = , ; = = = , . = = , = ; = , = = , = ; = , . = = , = ; = . ; = = = ; ; = = = , = = = , = ; = = = = , ; = = . = ; = = , , = ; = = ; = = , = = = , = = = . ; = = , = ; . ; = , = = = = = ; = = = = = = = , . = = ; = ; = = = = = = = ; = ; = = , = = = = = ; = = = . = = ; = = ; = = , , = ; = ; = = = , = , . = = = ; = = . , = = , = = = ; = . = = = ; . = ; , = = ; ; = , = = < = < = = , = < = , = - , = , = = = , = = < = ; = , = = = , = ; = = ; = , = = = , = = ; = - , = = ; = = = , , = > = < = - = , = ; - ; ; = = ; ; ; ; ; = ; ; ; ; ; ; ; ; ; ; = ; - ; = ; = = < = ; = < = = = = ; = = , = > = , = . ; = = = = = = : ; = ; ; ; . ; = ; = , = ; = < - , = = , ; ; , ; ; ; ; ; ; ; = > > ; ; = ; ; ; ; ; ; = ; , ; ; ; ; = ; = ; ; = ; > ; > > > > # ; $ ; ; ; ; ; ; ; 2 ; @ < ; ; ; ; ; 4 ; 2 < ; 2 ; ; < ; ; ; 2 ; ; ; 2 ; ; > ; ; 2 ; > 2 2 ; > > 2 > 2 > 2 > > 2 > > 2 > ; > 2 ; ; ; 2 2 > > 2 ; 2 > 2 2 2 > ; > 2 % % 2 2 % 2 % ; # 2 % 2 @ 2 ; % 2 @ 2 ; % ; 2 @ 2 > 2 > 2 > 2 ; ; 2 2 > 2 > ; 2 2 > > 2 > ; > 2 > 2 2 > 2 > 2 > 2 > 2 2 > 2 > 2 2 ; 2 ; 2 2 ; < > 2 2 2 ; 2 ; > > ; 2 ; ; > 2 2 ; ; ; 2 ; 1 ; ; ; ; ; ; ; ; ; ; = - ; > > > > > - ; - ; > ; > = ; ; ; ; ; ; ; ; - ; ; = ; ; > ; @ = > , ; - w ",
". ; ; 1 @ ; ; ; ; ; ; ; ; ; ; ; = ; > = ; ; = > ; = ; ; > ; ; ; ; = > ; = , ; = ; > ; ; ; ; O ; = = ; = ; @ ; . ; = . = ; ; = , ; = = = = ; ; = = = , = ; = = = , = = = = = = , = = = = ; = = = = = . , = = = = = , , = = = = = = = ; ; . , = = ; = ; = = = = = = = = ; = . , ; = = = = ; . , = , = = = = = . , = = , = = ; = ; = , . = = ; : = = = ; = = = = ; , = ; = = ; = = = = = = = = = , = = ; , = = . , = = ; = ; = , = , = , = = ; = = = , = = = ; ; = = = = = = ; . ; = > ; = ; ; ; ; ; ; > ; ; ; ; ; = = = = = ; = ; = = = ; = = = . = = ; = = = = ; ; ; ; = ; ; ; ; > = ; ; ; ; ; = > ; ; = > ; ; ; ; ; ; = = > ; = ; ; ; > ; ; > ; = ; = ; ; = ; > ; = - ; ; ; ; ; ; ; = ; > = ; = = = = = = ; = = ; ; ; ; . ; O ; ; ; ; @ ; = ; = ; = ; = = > = , = = ; = ; = ; ; ; ; - $ ; ; > > ; ; ; ; ; ; ; ; ; ; 2 ; ; ; ; ; ; 2 ; ; ; @ ; ; ; ; ; ; ; ; ; ; > ; ; ; ; ; ; ; 2 ; ; ; 2 > ; ; ; 2 ; ; 4 ; 2 ; ; 2 > < ; ; > ; 2 2 > ; 2 2 > ; 2 2 > ; 2 2 > 2 @ 2 % 2 2 % ; 2 % 2 # ; 2 @ 2 # 2 @ # 2 # 2 2 @ 2 ; % 2 % 2 % 2 ; ; % 2 2 % ; ; % 2 % ; 2 % 2 @ @ 2 2 % ; 2 2 2 2 2 % > 2 2 % # 2 ; > 2 > 2 2 2 2 % 2 % 2 % @ 2 ; 2 @ 2 2 % ; > ; % 2 ; % ; 2 2 ; 2 2 2 2 > 2 > 2 2 2 > ; 2 2 > ; 4 2 > 2 2 2 > 2 ; ; 2 ; 2 1 ; 2 > ; 2 ; ; < @ @ ; ; ; ; ; ; 2 ; ; ; 2 ; ; ; ; ; ; ; ; ; ; 2 ; ; ; ; ; ; 2 @ ; ; @ ; @ 1 O w ",
", ; > ; 1 ; ; ; ; 2 ; ; ; ; ; ; ; ; ; ; ; ; ; ; ; ; > ; = ; ; = ; ; ; = ; > ; ; ; ; ; . ; ; . = ; ; . ; ; O = = = ; ; = = = = = = = , = = = = = = ; = = = = , = = = ; = = , . = ; ; = , = = , = = ; = = = , = ; = = = = = ; = , = , = = = = , = = = , = , . = ; , = = = = = = = = ; , = = = ; = = = = : ; = ; = = = ; = = = = = = ; & , = = = = = , . = = , = = = = = = = = = , = ; , = ; = = = = = = = ; = ; = = = = , = = = = = = . ; = = = , = = ; = = ; ; = ; ; ; , = ; ; ; = ; ; ; ; = ; = ; . = ; ; = O ; ; ; . ; = ; ; . ; ; ; . ; ; ; ; ; ; = ; ; ; ; = = ; ; ; > ; ; ; ; ; = ; ; - ; ; = ; ; ; ; ; ; = = ; ; ; ; ; ; ; = ; = ; ; ; = ; ; ; ; ; ; ; ; = ; ; ; ; ; = ; ; = ; ; ; ; ; ; ; ; ; ; ; ; . ; ; ; = O ; ; ; ; ; = ; = ; = ; = = = ; = , , = , = , ; ; ; ; > ; ; ; > ; ; ; > ; > ; ; ; ; ; ; 2 ; @ ; ; ; ; ; ; ; ; ; ; ; ; ; ; 2 ; ; ; ; ; ; > 4 ; ; < ; 2 ; 2 ; ; ; ; 2 ; > ; 2 ; ; ; ; ; ; > 2 ; 2 ; ; ; 2 > 2 2 > 2 2 ; > 2 > 2 > 2 > 2 > 2 ; 2 ; 2 @ # 2 % 2 ; % @ 2 % 2 % 2 % 2 ; % ; 2 % 2 @ # 2 @ ; ; > % 2 % @ 2 @ 2 2 % 2 @ 2 ; % ; 2 2 2 % @ 2 ; % % 2 2 # 2 ; @ 2 2 2 2 > 2 2 2 > 2 @ # 2 @ 2 @ 2 2 ; 2 % % 2 ; % % 2 @ 2 % 2 2 % ; # # 2 > ; > 2 2 ; > ; > 2 > 2 > 2 ; ; > 2 > ; 2 ; ; 2 2 ; 1 ; ; 2 ; > < ; ; ; ; ; < ; 2 ; 2 ; ; ; ; ; ; ; ; ; ; ; 2 @ ; ; ; ; ; ; ; ; ; ; ; ; ; ; O ; ; ; , + L ",
"; 1 ; ; ; ; ; ; ; @ ; 2 ; 2 @ ; ; ; - > = > ; ; ; = ; = ; ; ; ; ; ; ; ; ; ; ; ; ; ; ; O ; ; ; ; = ; ; ; ; ; ; O ; ; = = ; ; = ; ; = = = ; , = , = = = ; = ; = = = = , = ; = ; = = = = = = = = ; = = = ; = = ; = = , = ; . ; = ; = = = ; = = = = = = . = = ; = = = = ; . = , = ; , = = = ; = = = = ; , = = = , = , = = = , = = = , ; = - & ; ; = = ; , = ; = = = = = ; = , = = = = = : = = = ; . = , = ; = = = = , = = = = ; , = = = = = , = ; = = = = ; = ; > ; = ; ; = ; @ = ; ; ; = ; @ ; @ ; @ ; ; = = ; ; ; O ; ; ; ; = ; . = ; = ; ; = = ; . ; ; @ = ; ; ; = ; = ; ; . = ; ; ; ; ; = ; ; ; ; ; ; ; = ; ; ; ; ; ; ; ; ; ; = ; ; ; ; = > = ; ; ; ; ; ; ; ; ; ; ; ; ; ; = ; = ; ; = ; ; = ; ; = ; ; = ; @ = ; = ; ; ; @ ; O ; ; ; ; = ; = ; ; ; ; ; ; > ; ; = ; > ; > ; ; ; ; ; ; ; ; ; ; $ > ; ; ; 1 ; ; ; ; ; ; ; ; ; ; 2 ; ; @ ; ; ; ; ; ; ; 2 2 ; 2 > ; ; ; ; ; ; ; ; ; ; ; < ; ; ; < 1 < < ; ; ; ; ; > ; ; ; ; > ; > > 2 > 2 > 2 2 2 2 2 > % 2 % @ 2 % 2 2 # % ; ; 2 2 % ; 2 2 2 @ 2 2 % 2 % 2 2 2 @ 2 % 2 2 2 2 % ; 2 ; % 2 2 % @ 2 % 2 2 2 % # 2 # % 2 2 2 % 7 2 2 2 % 2 2 % ; # ; @ 2 % > @ 2 ; % % 2 ; 2 @ 2 2 % 2 # > % > 2 % 2 ; % 2 2 # @ ; % 2 @ 2 2 2 @ 2 2 % > ; > ; 2 2 > 2 > 2 # ; 2 ; > 2 > 2 ; ; 2 ; 1 ; ; ; ; ; ; ; 2 2 ; 2 ; 2 ; ; < 2 ; ; 1 ; ; 1 ; 2 > ; ; ; ; ; ; ; ; ; 2 ; ; ; ; ; 2 @ > @ 1 ; O H ",
"; ; ; ; ; ; ; ; ; ; ; ; ; ; ; ; , > ; > ; ; ; ; ; ; ; ; ; = > ; > = ; > = ; > = = ; ; ; ; O = ; ; ; = ; ; . ; ; = ; ; ; = = ; = ; . = ; = = = . = , = = = = ; ; . ; = ; = = = = = , = , . ; = = = = , = = : = = ; . = = , = = = ; = = = , = ; = = , = ; = = , ; , = = , ; = = = = = ; = = = = , = = = ; = ; = = = = ; = = ; = . = O ; = ; ; & ; , = = = ; = = , ; = = , = ; = , = ; = = ; = = , = . , = = ; , = = = ; = = = = = = ; ; = = = = . = ; = = . ; ; , ; ; ; ; ; @ ; ; ; = . ; ; = ; = ; ; O ; ; = . ; ; ; ; ; ; ; ; ; = ; ; ; = ; ; ; ; ; ; ; ; . ; . ; ; = > ; O ; ; = ; = ; ; ; ; = = ; ; = ; ; - ; = ; ; = = ; ; ; ; ; = ; ; ; ; ; = ; = ; ; - ; ; ; - = ; ; ; ; @ . O ; ; = ; . ; ; ; ; ; ; @ ; @ ; . ; = ; ; ; . . = ; ; @ ; ; ; ; ; = ; = ; ; ; ; = ; ; = ; ; ; ; ; ; ; ; , 1 ; ; ; ; ; ; ; ; ; ; ; 2 ; ; ; @ ; ; ; ; 2 ; 2 ; ; ; ; ; < 2 > ; ; 1 ; ; 1 ; 2 ; < 2 ; ; 2 ; ; ; ; 2 ; 2 2 2 < 1 ; ; 2 < 2 2 2 ; 1 2 2 ; > ; > % ; ; 2 @ 2 2 % ; > % 2 ; % 2 @ % ; % % ; % 2 ; # 2 2 ; @ 2 % 2 @ 2 2 % % ; % 2 % % ; ; % 2 2 % 2 % 2 % 2 2 2 2 2 2 % 2 % 2 2 % 2 2 2 % 2 2 2 % 2 % 2 ; 2 ; # 2 2 @ % ; 2 ; # 2 % 2 ; 2 2 @ ; % 2 ; 2 % ; 2 2 2 % 2 @ 2 % 2 @ 2 > 2 2 2 > 2 2 ; > 2 2 2 2 ; 2 2 2 ; ; 2 < ; 2 ; ; 1 1 < 2 ; ; ; < ; ; ; ; < ; ; ; ; ; ; ; < ; ; ; ; ; ; ; 2 2 @ ; ; ; @ ; ; ; ; ; ; - $ ; . 1 O L ",
". ; @ ; ; ; $ ; > > ; ; ; ; ; ; ; ; ; $ ; ; , > ; ; ; ; = ; ; = , = ; > ; = ; ; ; > = ; = > ; = @ = ; = ; = = ; . O = ; ; ; ; = ; ; = ; O ; ; ; ; ; = ; = ; ; . , = ; = = ; = ; = = = = = ; = : ; = = = = , = ; , = . , = , = = = = = = = , ; = = ; , . = , = = = = = = ; . , = = , ; = = = , = = = = = = = = = = = = ; = = , : ; ; > . . , = = = = ; = ; = , = = = = , = = ; . = , = = = = = = , = = = = ; = = = = = = = = . , = , = = = = ; , = = = = = ; ; . ; @ ; ; . ; . ; = ; . ; . = ; ; ; = ; ; ; ; ; ; : @ ; ; ; ; ; ; ; ; . ; ; ; = ; ; ; ; @ ; ; ; ; = ; ; . ; ; ; @ ; ; ; O ; ; ; = ; ; ; ; = ; ; > ; ; ; = ; ; ; ; = ; ; = ; ; ; ; ; ; = ; ; ; ; ; ; ; = ; ; ; ; ; ; ; ; O ; = ; ; ; . . ; ; ; ; ; ; ; ; = = O . ; > ; = = ; = ; = = ; = > ; ; ; - ; = ; ; 1 ; ; > ; ; ; ; ; ; ; ; ; ; ; ; ; 2 ; ; 2 @ ; ; ; ; ; ; ; ; ; 1 ; ; < ; ; ; ; ; ; 2 ; ; 2 < ; 2 ; 2 > ; ; ; < ; < ; ; > ; ; 2 ; ; ; ; 2 > 2 > ; > 2 > 2 > 2 # ; 2 2 2 # ; 2 2 % 2 ; 2 % ; % 2 2 % 2 2 @ 2 % % ; % 2 2 @ % ; 2 % 2 % 2 ; @ 2 % ; % % ; 2 2 2 % % 2 2 2 2 % 2 % 2 % 2 2 % % 2 2 2 2 2 2 % 2 % 2 2 % 2 ; 2 2 2 # 2 2 % 2 2 2 2 % ; > ; % @ % 2 2 @ 2 % 2 % @ 2 % 2 % 2 % ; 2 % 2 ; % 2 2 % 2 # 2 @ 2 % ; 2 @ 2 > 2 > 2 > ; > 2 > 2 2 ; ; ; 2 ; 2 ; ; ; 2 > ; ; 2 ; ; 1 ; ; ; ; 2 < ; 2 ; ; ; ; ; ; ; ; ; ; ; ; ; ; ; ; ; ; ; O ; 1 ; + w ",
"; ; ; ; 1 ; ; ; ; > $ 2 ; ; ; ; ; ; ; 1 ; ; ; = ; = ; ; ; ; , - ; ; ; ; ; ; ; ; ; ; ; ; ; ; ; ; ; ; ; ; ; ; ; @ ; ; ; @ . ; = ; ; . ; O ; ; ; . = : ; ; O ; = ; = = = = = = = = = ; . , = = = = ; = , . = = = = = ; = = = = ; = , . = , = = = = = = = ; = = = = = ; ; = = , = = = = = = ; = = = = , ; = , ; = = = ; = = ; = = . = = ; h 3 : - = = = ; = = = . = = , = ; ; = = = = = ; = = , = ; = = = ; = = = , = ; , = ; = ; = ; = = = = = = = , = . ; = ; ; ; . ; ; = ; ; ; ; ; ; ; ; ; ; ; O ; = . ; = = ; . ; @ ; ; ; = = ; = = = ; . ; = ; ; @ . ; ; = ; = = ; O ; ; ; ; . ; . ; ; = ; ; > ; = = ; ; ; ; ; = ; ; ; ; ; ; ; ; ; ; ; = ; ; = ; ; ; ; > ; ; = = ; = ; = ; O ; ; ; ; ; = ; ; = ; ; @ ; ; ; ; . ; . O ; ; ; ; ; = ; ; ; ; ; ; ; ; ; ; ; = ; ; ; ; ; ; ; ; ; $ > ; ; ; ; ; ; ; ; ; 2 ; ; ; ; ; ; ; ; ; ; @ ; ; 2 2 < ; < ; 2 2 ; ; 2 2 ; ; ; ; 2 ; ; ; ; 2 ; < ; 1 ; 2 ; 2 2 ; 2 2 2 > > 2 2 2 2 2 2 2 > ; > 2 2 ; > 2 2 ; > 2 ; % ; # 2 % > @ 2 2 % % ; ; ; % 2 2 ; 2 2 2 @ 2 % ; % # 2 @ 2 # 2 2 % % 2 2 2 2 2 2 % 7 2 2 % 2 % 2 2 2 2 2 2 2 2 2 2 2 % 2 2 % % 2 2 2 % % 2 % 2 % 2 2 ; 2 @ # ; % ; 2 % % 2 2 2 @ 2 % 2 # 2 ; > 2 % ; ; > ; ; % @ 2 2 # ; 2 @ ; 2 ; ; # @ 2 % 2 2 ; < > 2 > 2 2 2 2 ; ; ; 2 < 2 ; ; 2 ; ; 2 ; > < ; ; ; ; ; < ; 1 ; ; ; < ; ; ; ; < ; ; 2 ; ; ; ; ; ; ; ; 2 ; ; > @ ; ; ; + P ",
"; ; ; 1 ; ; ; ; ; ; ; ; ; ; ; % ; ; $ ; ; ; ; ; ; ; ; = - ; = ; > = = ; ; = = ; = ; ; = ; ; ; ; ; = ; = ; ; ; ; ; ; = ; ; . ; ; = ; ; O ; . O ; = = ; . ; ; ; ; = ; ; ; ; ; = ; ; = ; ; ; ; = ; = = = = ; = ; = = = = = = , = = = ; , = = ; = = , = ; = = = = , = = , = = = = = = ; = ; = = ; = = = ; = = = = , = , = , = = = ; & - g  X}.8 & = ; = = , = ; = = = . , = = ; = = = = , = = = = ; = ; = = . , ; = = , = ; = = = = = = ; = = , ; = = , , = ; = ; ; ; ; = ; @ ; ; = @ ; ; O = ; ; @ = ; ; ; ; = ; ; @ ; ; ; O ; ; = = = = ; = = = ; = ; ; ; ; ; = ; ; . ; ; O . ; ; O ; = ; ; ; = ; = ; ; @ = ; . ; ; > = = = ; ; = ; = = ; ; ; ; ; ; = = ; . ; = ; ; ; ; ; ; ; O ; @ ; . ; ; ; ; ; ; ; ; ; ; ; ; ; ; ; ; @ ; ; ; O = ; = ; ; ; ; ; = ; ; ; ; ; - ; ; ; ; ; ; ; ; ; > $ ; ; > ; ; ; ; ; ; ; ; ; ; ; ; ; ; ; ; ; ; ; ; ; ; ; > 2 ; ; ; < ; ; 2 > ; < ; ; < ; ; ; ; 2 2 ; 2 ; ; ; ; 2 2 > 2 2 > 2 > 2 > ; 2 ; 2 2 > @ 2 # ; 2 2 @ 2 > 2 % 2 @ @ 2 2 % @ 2 2 % % 2 @ 2 % 2 # @ 2 # ; 2 ; % ; 2 2 % @ 2 ; % 2 2 2 2 2 2 2 2 2 % 2 % 2 2 2 2 % 2 % 2 2 2 2 2 2 2 % 2 8 % 2 2 2 % 2 2 % ; > 2 2 % % 2 ; # % ; @ 2 @ 2 % 2 2 # ; 2 ; 2 2 % 2 % 2 % 2 % 2 % ; % > % % 2 ; 2 2 % ; 2 2 2 # ; 2 2 2 2 > 2 > 2 > ; ; 2 2 ; 2 ; 2 ; ; 2 1 ; ; ; > ; 2 ; < ; > > < ; ; ; ; ; 4 ; ; 1 ; > ; ; ; ; ; ; > > ; ; ; 2 ; @ ; , ; - L ",
"; ; ; ; ; ; ; ; ; ; ; ; ; ; ; ; ; ; ; ; ; ; ; > ; = ; ; ; ; ; ; ; ; ; ; ; ; ; ; ; ; ; ; = ; > = ; ; ; ; ; = ; = ; ; ; = ; ; ; = ; @ ; ; ; ; ; = ; ; @ ; . ; ; O ; ; = ; ; . ; ; = ; ; = = ; ; = , = = ; = = = , ; = ; = = = = ; = = = ; = = , . = = = = = ; ; = = ; = = , = = ; = = = = , , . = , . = = ; = ; = ; . = = , = = ; < > p 5XOX3 > , . = = = = = , ; = ; = = = = , = = ; . ; = , = = = ; = , = = = = ; . = = , = = ; = = , = ; = = = = = = = = = ; = = ; = ; = = = ; ; = ; = ; ; . ; ; ; = . ; ; ; = = = = . . ; = = = , = = = ; = = = ; = = . ; = ; ; O ; ; ; ; O ; @ ; ; ; . = = ; ; ; . ; = ; = @ ; - ; ; ; = = ; = ; - ; = ; = = ; > ; = ; O ; ; . = ; = ; ; . ; = = ; ; . ; = = = = = = = = = = ; O = ; ; . ; ; ; ; > ; ; = ; = ; ; = ; ; ; , = = ; ; ; ; ; ; ; > 1 ; 1 1 ; 2 ; ; ; @ ; 2 ; ; ; ; ; ; ; ; 2 ; < 2 ; ; ; > ; 2 ; ; ; 2 < ; ; ; ; 2 ; ; 1 ; ; > 2 ; 2 ; 2 ; 2 ; 2 > 2 ; > 2 2 ; > 2 > 2 > 2 > 2 2 2 2 2 @ % 2 2 % 2 ; % 2 2 ; # 2 2 ; # 2 2 @ 2 % ; % ; 2 % 2 2 @ % 2 2 @ ; % 2 % 2 % 2 2 % 2 2 2 2 % 2 2 2 2 2 2 % 2 % 7 2 2 2 % % 2 2 % 2 2 2 % % 2 7 % 2 2 2 2 2 2 2 # 2 @ 2 2 2 > % 2 2 % ; ; % 2 2 @ 2 @ % 2 2 > ; > % 2 @ 2 2 % ; 2 ; % # 2 % ; 2 % 2 % ; 2 ; > ; > 2 2 ; > 2 2 2 ; ; 2 1 ; ; 1 < ; 2 ; 1 < 2 ; ; ; ; 2 2 1 ; ; > > 2 2 ; ; ; ; ; $ ; ; ; > ; 2 2 ; ; ; ; ; > @ ; ; ; - P ",
"> ; ; ; ; ; 2 ; ; ; ; ; ; $ > > $ > > ; ; ; $ > $ ; ; ; ; ; ; > ; ; > ; ; ; ; ; ; ; ; ; ; ; ; ; = ; > = ; ; ; ; ; = ; = ; > ; = ; = ; = ; ; ; ; . ; ; = ; = ; ; . ; ; ; = ; . ; = ; = = ; = = ; = ; ; ; ; ; ; = = , , = = = ; = = ; = . = ; = ; ; = = = = ; ; = ; = = = = ; = ; ; = = ; = = , = = = , = ; = = = = = = , ; = = . - ; 4 p 8 < = ; = ; = = = = = = = = , = ; = = = = , , = = = = = ; = = = = = = ; = = = = = ; ; = ; . = = ; = = = = = ; = , . = , ; ; = ; = = = = = = = = = = ; . ; = = . ; = = = = = . = = = . ; ; = = ; ; ; = = = ; = = = ; = = = = = = ; = ; ; ; . ; ; O . ; ; ; ; ; @ ; = = ; ; O = ; @ ; ; ; ; ; ; = ; ; . ; ; ; O ; ; ; ; = ; ; ; ; O . ; = = ; = . = ; = ; = ; ; ; ; = ; - . ; = ; ; ; ; ; ; ; ; ; ; ; ; ; ; = ; > > > ; ; ; ; ; ; ; ; ; ; ; ; ; ; ; @ ; ; $ > ; ; ; ; $ ; ; ; 1 ; ; ; ; ; ; ; ; 2 ; 2 ; ; 2 ; ; 2 ; ; ; 2 ; 2 ; 1 2 ; < ; 2 ; 2 ; ; 2 ; 2 2 2 2 > 2 > ; % > % ; % @ 2 % % > % @ 2 2 % 2 2 % ; 2 % 2 2 @ 2 2 @ 2 2 % ; % ; 2 2 % ; @ 2 ; % 2 % 2 % > 2 2 2 % 2 2 % 2 2 % 2 2 % 2 % 2 2 2 % 2 2 2 2 2 2 7 % 2 2 2 2 2 2 2 2 2 2 % 2 2 2 2 2 2 2 ; 2 2 2 2 % % > ; ; % ; 2 % % 2 2 @ 2 @ @ 2 @ 2 2 > ; @ 2 2 # ; 2 2 % 2 ; % 2 @ # 2 2 ; % ; % % 2 % % ; % 2 > ; 2 2 > 2 > ; 2 2 > ; 1 ; ; ; ; 2 > > < 2 ; ; 2 2 > ; ; 2 ; > ; < 2 ; 2 ; ; 2 ; ; ; ; ; ; ; ; ; @ > > 2 + w ",
"; > $ ; ; ; ; ; ; ; ; ; ; 1 > > 1 ; ; ; ; ; 1 ; > ; ; ; ; ; ; > ; = = ; ; = = > > ; = ; ; - ; ; ; ; ; ; - ; = ; ; ; ; ; ; ; ; ; ; = ; - ; = = ; ; O ; ; = ; - = = ; = ; ; = ; = ; = = ; = , = ; ; ; ; ; = ; ; = = = = = = ; , = = = = ; = = = = = = ; = = = = = = = ; = = = = = : = = ; , . = = ; = = = ; = , . = ; = = = = ; ; = ; , ; ; ; = = = ; , = ; = ; = ; = = ; = = ; = = = = = = ; = ; = = , = = ; = = ; ; = , = = = = = , ; = = , ; = ; = = = , = = = = = = = ; = ; = ; = ; = ; = ; = = ; = ; = = ; = ; = ; = = ; = ; = ; ; = . ; = ; = = = ; = = ; = ; ; = ; = = = . ; ; ; . ; @ = ; ; ; = ; . ; ; ; ; ; ; ; ; ; O ; ; = = ; ; = ; ; = ; . ; = ; ; ; ; = ; ; ; ; ; ; = = = ; = = = ; ; ; = = ; ; ; ; ; ; ; @ ; = = ; > ; = ; ; = - ; ; ; ; @ > ; ; ; ; ; ; 2 ; ; ; ; ; ; ; ; ; 2 ; ; > > ; ; ; ; > ; ; ; ; < 2 ; ; 2 ; < ; ; ; ; ; < ; ; < ; < ; 2 ; 2 ; > 2 ; 2 ; 2 ; 2 ; 2 2 ; 4 @ > ; > 2 > 2 2 2 ; 2 % 2 2 ; 2 ; ; 2 2 % % ; % @ 2 % @ 2 # ; % 2 % @ % ; 2 % 2 @ @ @ 2 % 2 2 % 2 2 ; > 2 2 @ 2 % 2 2 2 2 2 2 2 2 2 2 2 2 2 2 % % 2 2 % 2 2 % 2 % % 2 % 2 2 % 2 2 % 2 2 2 2 % 2 2 2 2 2 2 % 2 2 > 2 # 2 % % 2 % ; ; @ 2 2 % 2 2 % 2 % % ; % 2 2 % 2 % @ 2 2 @ % 2 2 2 ; % % % 2 2 2 ; ; > 2 ; ; 2 2 > 2 > 2 2 2 > ; 1 < 1 ; 2 1 ; ; 1 ; ; ; ; ; ; ; ; < ; ; < ; 2 ; ; ; ; ; ; < ; ; ; ; 2 ; > ; ; 1 ; ; = ; > w ",
"; ; ; ; ; ; ; ; ; 1 ; ; ; ; , ; ; ; ; ; ; ; ; ; ; ; 1 ; ; ; 2 @ > ; ; ; ; ; ; ; ; ; > ; ; ; = > ; ; ; ; ; ; > ; ; ; ; > ; ; = ; ; ; ; ; ; ; ; = ; ; = ; ; ; = ; ; = ; = ; = ; ; ; = = ; = = ; ; ; = ; O ; = = ; ; ; = ; = ; = ; = ; = ; ; = ; ; ; = ; ; ; ; = ; ; = = ; ; ; ; = = , = = = , = ; ; = = = = = = ; : = = = , = = = ; = ; . . ; = = = = ; ; = = = = = = = = = ; = ; = = ; = = ; , = = ; = ; . = ; , = = = = ; = = ; = = = = , = . , ; = = = = ; = ; ; = ; = ; . ; ; . ; = = ; ; ; = ; O ; = ; ; = = ; = ; = ; ; ; O ; ; ; ; ; = ; ; ; ; ; @ ; ; : = ; = ; . ; ; = ; = ; ; ; ; ; ; ; O . = ; ; ; = = @ ; ; . = ; ; . ; ; . ; ; = O ; = ; . ; ; O ; . @ ; O ; = ; = ; ; ; . O ; = ; = ; ; ; > = ; ; = ; ; ; ; ; = > ; > ; > > ; ; ; ; > ; ; ; > > ; ; ; ; ; ; ; ; 2 ; ; 2 ; ; ; > > ; ; ; ; ; > ; ; ; > 2 ; 2 ; < ; ; < ; ; 2 > ; ; ; ; ; ; ; ; 2 ; 2 2 ; ; 1 2 ; ; 2 ; 2 2 ; 2 ; 2 2 2 ; ; 2 % ; > 2 2 ; ; 2 2 # @ 2 % 2 ; 2 > ; % 2 @ % > 2 2 % 2 ; ; 1 ; $ ; % ; 1 2 2 2 ; 2 ; @ 2 2 2 2 > 2 > 2 2 % 2 2 % % % % 2 2 2 2 2 % 2 2 7 % 2 % 2 % 2 2 % % % % 2 2 % 2 % 2 2 2 2 2 % 2 % % 2 7 % 2 2 2 2 2 2 % 2 2 % 2 % 2 % @ % ; 2 % ; > 2 % % 2 % # ; @ 2 % 2 % ; % ; % 2 @ 2 ; % # ; % 2 2 % % > % 2 > 2 > 2 > ; 2 2 ; 2 ; 2 2 ; 2 < ; ; ; < > ; ; ; ; ; ; ; ; ; ; ; > > ; 2 ; ; < ; ; < ; ; ; 1 ; ; 2 ; ; ; 2 > w ",
"; ; ; 2 ; ; ; ; ; ; ; ; ; ; @ ; ; ; ; ; ; ; ; ; ; ; ; ; ; ; ; ; , ; ; ; ; ; ; ; ; ; ; ; ; ; , ; ; ; ; ; ; ; ; ; = ; ; = ; = ; ; = ; > ; ; = ; ; ; ; ; ; = ; ; ; ; ; ; ; ; ; ; = ; = ; ; ; ; . ; @ ; ; = ; ; ; = ; ; ; ; ; ; ; = ; @ ; = ; ; = ; ; ; . ; ; = ; = : ; ; ; ; . ; = = = = = = = = = . = ; = = , = = = = ; = = = ; ; ; ; ; = ; = ; ; ; = = . . , , = = , = = , . = = ; = . , = = = = = ; = = , = = = . , = = : = = = = ; , = = = = = = = ; = = = = ; = ; ; = ; ; ; ; ; ; ; ; = = ; ; = ; ; ; ; ; ; ; ; ; ; ; = ; ; ; . ; = ; ; ; = ; = ; ; ; ; = = ; = ; ; = ; = ; ; ; = O ; O ; = ; ; ; ; ; ; > ; ; ; = ; = ; ; ; ; ; = > ; ; ; ; ; ; ; > ; ; ; ; @ ; = ; . ; @ ; = ; ; ; ; ; ; ; ; ; = ; = ; ; ; = ; = ; = ; ; ; ; ; ; ; ; ; ; ; ; ; ; ; ; ; , ; ; ; ; ; ; ; ; ; ; ; ; ; ; ; 2 ; ; ; 1 ; ; 2 ; < ; ; ; 1 ; ; 2 1 ; 2 ; 2 ; 2 ; 4 1 2 ; 2 2 ; 2 ; ; ; ; 4 ; ; 2 ; ; 2 ; 2 ; ; > 2 @ % # 2 2 2 % ; % % % ; % % 2 2 % ; % % ; % 2 ; % 2 2 ; % % 2 @ 2 % 1 1 1 2 2 1 % 2 2 2 ; 2 % 2 2 % 2 2 % 2 2 2 % 2 2 2 2 2 7 u % 2 % 2 % 2 2 2 % 2 2 2 2 2 2 2 2 % 8 2 2 2 2 2 2 % 2 % 2 2 2 2 2 2 2 % % % 2 2 % 2 2 2 % @ 2 2 ; ; 2 1 2 % 2 1 % ; % ; 2 @ 2 @ 2 2 > 2 @ 2 > 2 % 2 @ 2 % 2 ; 2 % 2 ; % ; 2 % ; ; 2 2 ; > 2 % ; 2 % ; 2 ; ; 2 ; ; 1 1 ; 2 1 ; 2 2 1 ; 2 2 1 ; 2 2 ; 2 1 ; 2 ; 2 ; 2 ; 2 1 ; 1 ; < ; ; = , ; > P ",
"; ; ; ; ; ; 2 > ; ; ; 2 ; ; @ 1 ; ; ; ; , > > > ; ; ; ; ; ; ; ; 2 ; ; ; > ; ; ; $ > ; ; ; ; ; ; ; ; ; ; ; ; ; ; > ; ; @ > ; ; = ; = ; = ; ; ; - = ; ; - ; ; = ; = ; ; = ; ; ; ; ; ; - = = ; ; = = ; = ; ; > = ; ; = = ; = ; ; ; ; ; ; ; ; ; ; ; . = ; ; ; - ; ; = ; = ; @ ; = ; ; = ; ; ; ; ; = ; ; = ; ; ; ; = ; ; ; = ; = ; O ; = > ; ; > = ; ; @ ; O . ; ; O ; . ; ; = ; . ; ; ; ; = ; ; = ; O ; ; . ; ; ; ; ; ; = ; ; @ . ; ; ; . O ; ; = ; ; = ; ; ; ; ; O ; ; ; = ; O ; ; ; ; ; ; ; ; . 1 ; ; ; ; ; ; ; ; ; ; ; . ; @ ; ; = ; ; @ O ; ; ; @ ; ; ; ; ; ; = ; = ; ; = ; ; = . @ ; ; ; = ; ; ; ; = ; ; ; ; ; ; ; ; ; ; ; = ; ; ; = ; ; ; ; ; ; ; ; ; ; ; ; ; = ; ; > @ = ; . ; ; O ; ; = ; ; ; = ; ; ; ; , ; ; ; = ; ; ; ; ; ; ; ; ; ; ; > > ; ; ; ; @ 2 ; ; ; @ 2 ; ; ; 2 ; ; ; 4 ; ; 2 < ; ; ; > > ; ; 2 > 1 < ; 2 ; ; ; 2 ; 2 2 ; 1 2 2 ; ; 2 2 ; 2 ; ; 2 2 ; ; ; 2 ; > 2 2 2 % 2 2 # ; 2 ; 2 > ; 2 % @ 2 2 # % > ; 2 @ 2 2 % 2 ; @ 2 2 2 2 @ % @ > 2 @ 2 1 1 1 % % 1 ; 1 % ; 1 % 2 2 2 2 2 2 2 2 2 2 2 7 % 2 % 2 2 2 2 2 2 % 2 2 2 % 2 2 % % 2 % 2 2 2 2 % 2 2 2 2 2 2 2 2 % % 2 7 % % % % 2 2 % 2 2 % 2 2 2 2 2 @ 2 % 2 2 1 2 % 1 % 1 @ @ % ; % 2 @ 2 % 2 @ 2 2 2 @ # 2 % ; 2 ; % 2 > 2 @ 2 2 % 2 # ; 2 2 # % 2 # ; 2 @ 2 @ ; 2 ; 2 2 ; 2 ; 2 ; ; 1 2 ; 2 ; 2 ; 1 ; ; ; 1 ; ; ; 2 ; ; 2 ; 2 ; 4 ; 2 1 > 1 ; < ; ; > w ",
". 1 ; 1 ; 2 < > ; ; ; ; ; ; ; ; ; > ; ; ; ; > $ ; ; 2 ; ; ; ; ; ; ; ; ; ; ; ; ; ; ; ; ; ; ; ; ; ; ; ; ; ; ; ; ; ; ; ; ; ; ; ; ; ; ; ; ; ; = ; ; ; ; ; ; ; = > ; ; ; ; ; = ; > = ; ; ; ; > ; ; ; ; ; ; ; = ; ; ; ; ; ; > ; = O ; ; ; ; ; ; ; > ; , ; - ; ; = = ; ; = . ; ; ; ; . ; ; ; . ; = . ; ; ; ; @ . O ; ; ; = , . ; ; @ ; ; ; = = = ; = ; = ; = ; ; @ ; ; = ; = ; ; @ ; ; = ; . @ : = = ; ; ; @ ; ; . O = = ; ; = ; O ; ; ; ; ; ; = ; ; = @ ; . ; ; ; . ; . ; ; ; = ; . ; @ O ; ; ; = ; ; ; ; @ ; ; ; @ ; = ; ; ; = ; . ; ; ; . ; . ; @ ; ; ; = ; ; ; ; ; ; ; ; = ; ; = @ ; ; = = ; @ ; . @ ; ; = O ; = ; ; = . O ; = ; O ; O ; ; O ; . O ; ; O ; = ; = = ; = ; = ; ; > ; = ; ; ; ; ; ; = = ; ; ; > ; - ; = ; ; ; ; - ; ; ; ; ; $ ; ; ; $ ; ; ; ; ; ; ; ; ; ; ; ; ; ; ; ; ; ; ; ; ; ; ; 1 2 2 2 1 < 1 1 ; ; 2 1 ; 2 1 2 ; 2 ; ; 1 ; ; ; ; 1 ; ; 2 1 ; 2 ; 2 2 2 ; 2 2 2 ; 2 @ ; > 2 ; # 2 ; % % 2 2 ; 2 > 2 ; 2 ; ; % 2 ; % ; 2 % 2 % @ 2 2 2 2 1 2 ; 2 2 % ; % 1 1 2 2 2 2 2 1 2 2 2 2 % 2 % 2 2 # 2 % % % % 2 2 2 % 2 2 2 2 % 2 2 2 2 2 r 8 2 2 2 % r 2 2 2 u % r 2 % % 8 % u % r 2 u 2 2 2 2 2 2 2 % 7 % 2 2 % 2 2 % 2 2 % $ 1 2 ; % 1 2 1 2 % 2 2 ; 2 ; # 2 % 2 2 ; % 2 # 2 % 2 @ 2 @ 2 % 2 @ 2 ; # 2 2 ; 2 2 @ 2 ; # 2 2 2 ; ; ; ; 2 ; 2 ; 2 2 ; ; 2 2 < ; 2 ; 2 2 ; ; 4 4 ; ; 2 1 ; 2 ; ; 1 2 ; ; > 2 2 > , 1 > w ",
"; < ; ; ; ; ; ; 2 ; ; ; ; $ ; ; $ > ; ; ; ; ; 2 ; ; ; ; 2 ; ; ; ; ; ; ; 1 ; ; ; ; ; , > 1 $ ; ; ; ; ; ; > > ; ; ; ; ; ; , ; ; ; = ; = ; ; = ; ; ; - = ; ; ; ; ; ; ; ; ; > ; ; ; ; = ; ; ; ; ; ; ; = = ; ; ; > ; > ; ; > ; ; . ; ; ; ; ; = ; ; = ; ; ; ; ; ; ; ; ; ; ; ; ; O ; ; O ; @ = ; = ; ; ; . ; @ ; ; ; ; ; O ; ; ; . ; ; ; ; = . ; ; ; ; ; ; O ; ; = = ; ; ; ; = ; ; ; . ; ; = ; ; = ; . ; = = ; ; ; ; ; ; ; ; = = ; . ; = ; ; = ; ; ; . ; = ; ; O ; ; = ; . = ; ; @ O ; ; . ; . ; = = ; . ; ; ; O . ; ; ; ; ; ; = ; ; ; ; = O ; ; ; ; = ; = ; = ; = ; ; ; ; ; ; = ; ; = ; = ; ; ; ; ; ; O ; ; ; ; ; ; ; ; = ; ; @ ; ; ; ; O ; ; O ; ; ; ; O ; = ; = ; ; ; ; ; ; ; ; ; ; > ; ; = ; ; ; ; > = ; = ; ; ; ; ; ; ; > ; ; = ; ; ; ; ; ; ; ; ; ; ; ; ; ; ; ; ; ; ; ; ; ; ; ; ; > ; ; ; ; 2 ; ; ; ; 1 ; 2 2 ; 2 ; 2 ; 2 ; ; 2 2 ; ; 2 ; < 2 ; 2 ; 4 ; ; 2 ; < 2 ; % > % 2 2 % % 2 2 @ % @ 2 @ % % % 2 % % 2 @ % @ % ; % % 2 2 # % 2 # ; % ; $ % 1 % 2 2 % 1 2 1 % 1 1 % % 1 2 % % 2 2 2 % 2 2 % % 2 2 % % 2 2 2 % 8 2 % % 2 2 % % 2 2 8 % 2 % u % u % u 2 2 2 2 % r 2 2 2 2 2 u 2 2 2 % % 2 2 % 2 2 2 2 2 % 2 % 2 2 2 2 2 2 2 ; % 1 ; 2 1 $ % 1 2 1 ; 1 2 % 2 @ % 2 > 2 % 2 @ 2 ; % % ; % 2 ; > 2 2 @ 2 @ 2 @ % @ % ; @ 2 @ 2 2 @ 2 @ % 2 ; 2 ; < ; 2 ; ; ; < ; ; 2 ; ; 1 ; < 2 2 2 ; 2 2 ; 2 2 ; ; 2 ; ; ; 2 1 $ 2 > ; ; # w ",
"; ; ; 4 ; ; 4 4 ; ; ; ; ; ; ; ; 1 ; ; ; ; ; ; ; ; ; ; ; ; ; ; ; ; ; ; ; ; ; ; ; ; ; ; > > > ; 1 ; ; ; ; $ ; 1 ; ; ; ; ; ; ; ; > ; ; ; ; ; ; ; = ; ; ; ; ; ; = ; = ; = ; ; ; = ; ; - ; ; = ; = ; ; ; ; ; = ; ; ; ; , , ; > ; ; ; = ; = ; = ; ; ; = ; = ; ; ; = ; = > = ; ; = ; ; ; . ; = ; ; = ; O ; = ; = ; . @ ; ; ; = = ; ; O ; = ; = = = ; ; . ; ; ; = ; ; ; . = ; ; O ; ; ; ; O ; ; = ; ; ; ; . ; @ ; = = ; = . ; ; ; ; ; = ; @ @ ; = = ; ; ; = ; . @ ; ; = ; ; ; = ; . ; ; ; ; = ; @ ; ; = ; ; O ; ; ; ; . O = ; = @ ; ; . O ; ; ; = . ; ; ; ; . ; @ ; = = ; ; = ; ; ; > ; ; ; . ; @ O ; = ; ; = . ; @ . ; O ; ; ; ; = ; ; . ; . ; ; ; ; ; = ; ; ; ; ; ; = ; ; ; ; = ; = ; = ; ; ; ; = = ; ; ; ; ; = ; ; ; = ; = ; ; ; > ; ; ; 1 ; ; ; ; 1 ; ; ; ; ; ; ; ; 2 ; ; ; ; ; ; 2 2 ; 2 ; < ; > 2 ; 1 ; 2 ; ; 1 ; 2 ; 2 ; < 2 ; ; 2 ; ; 2 2 ; 2 ; 2 ; ; 2 ; 2 2 @ % 2 ; 2 # ; ; 2 % > 2 2 2 % 2 2 ; 2 @ 2 ; % 2 2 2 2 % 2 2 @ % 2 2 2 @ 2 2 ; ; 1 % 1 ; $ 1 % 1 % 1 % 2 1 ; $ 2 2 2 2 2 % 2 2 2 2 2 2 2 2 2 2 2 % 2 2 2 2 2 2 2 2 2 % % % 2 2 2 2 % 2 2 u % % u 2 % 8 r % u 2 2 % u % u 2 u 2 2 u 2 % % u 2 2 2 2 2 % 2 % 2 2 2 $ 1 % 1 2 % 1 1 % 1 % % 1 2 2 2 2 2 @ 2 % 2 @ 2 % 2 ; % 2 2 ; % % # ; 2 % 2 % 2 2 2 2 % 2 % 2 2 % 2 % 2 2 ; 2 ; 2 ; 2 ; 2 1 2 2 ; 2 ; ; 2 ; 2 2 ; ; ; 1 ; ; 2 ; ; ; 2 ; 2 2 ; ; ; ; % > ; 3 # w ",
"; 1 ; < ; ; ; ; ; ; ; ; ; ; ; < ; ; ; ; ; ; ; ; ; ; 2 ; ; ; ; ; ; ; ; 2 ; ; > 1 + > ; t a 1 @ ; ; ; ; ; ; ; ; ; ; ; 1 ; ; ; ; ; ; ; ; ; ; ; ; ; ; ; ; ; = ; ; = ; ; = ; ; > ; ; ; = > ; ; ; ; = = ; ; > ; ; = , g y.j.! p , ; > > ; = ; ; = ; > = ; = ; = ; ; = ; ; ; = ; ; @ ; ; ; ; ; ; ; ; ; = = ; ; = ; = = ; ; = ; @ ; @ ; = ; ; ; . ; ; = ; = ; O . ; ; ; ; O . ; ; ; ; = ; = ; = ; O ; ; O ; ; ; . ; O ; ; = ; ; . ; ; @ ; = ; @ ; ; = ; ; O ; ; = = ; @ ; ; = ; ; ; ; O ; ; ; ; ; ; = ; ; . . ; ; ; O ; ; . ; ; ; O O ; ; ; ; ; ; . ; ; ; O O ; ; ; ; = ; = ; ; ; . ; ; ; ; ; = ; ; > , ; ; ; ; ; 1 ; ; ; ; ; ; ; = ; = ; = ; ; = ; ; ; ; ; ; ; ; ; = ; ; ; = ; ; O ; O ; ; = . ; = ; = ; ; - ; ; ; ; - ; ; ; ; ; > > ; ; ; ; ; ; ; ; ; ; ; ; ; @ 2 ; ; ; ; ; 2 ; ; ; ; ; ; 2 > ; 2 ; ; 2 ; ; 2 1 ; 1 ; 2 ; 2 ; ; 2 ; 2 1 ; 2 ; ; 2 2 ; 2 2 ; > ; ; 2 @ 2 2 % ; ; % % 2 % 2 ; # ; # 2 ; 2 % @ 2 @ 2 % 2 2 % 2 ; % ; @ 2 ; 2 2 1 ; 2 2 1 % 1 2 2 ; 1 % 2 2 % 2 2 % 2 % 2 2 2 2 2 % 2 2 2 2 2 2 2 % 2 2 % 2 2 % 8 % % 2 2 2 2 2 u 2 u % r 2 8 2 2 r % r % u % 2 8 % % 2 u % r 2 8 2 2 r r % 2 8 % r u % 2 % 2 2 % 2 2 2 2 2 2 2 2 2 2 2 ; 1 % 1 % 1 $ ; 1 1 $ ; 2 1 % 2 @ 2 2 @ 2 2 % > 2 > % % 2 % 2 2 % 2 @ % 2 % 2 2 % ; % % ; 2 ; 2 2 ; 2 2 ; ; 2 ; 2 1 ; 2 ; 2 ; 2 ; ; 2 ; 2 1 ; ; 1 ; 2 2 ; 2 ; 1 ; 2 % , ; 2 # w ",
"; ; ; 1 2 > 2 ; 2 ; < 2 2 ; ; 2 ; 2 ; ; ; ; ; ; ; ; ; ; ; ; @ ; ; ; ; ; ; ; > $ > - % d.=X! $ > ; ; > > ; ; ; ; ; ; ; ; ; ; ; > ; ; ; ; ; ; ; ; > > - ; ; ; ; ; ; ; ; ; ; ; = ; ; ; ; ; = ; ; < , > ; = = ; ; h r.>XpX{.g < 3 > ; ; ; ; ; ; = ; ; ; ; ; ; ; ; = ; = ; . ; = = ; = ; ; = = ; = ; ; ; = ; ; ; ; ; ; . ; = ; = ; . ; = O ; ; ; ; ; @ ; ; . ; = ; = ; ; @ ; ; = @ ; ; ; @ ; ; . ; ; @ ; O ; ; ; @ ; ; = = ; = ; ; ; = ; . ; . ; ; = . ; . ; ; ; = ; = ; ; . ; O = ; ; . ; O = ; ; = ; ; ; @ = ; @ ; ; = ; = ; ; ; = ; . = @ ; = ; = ; ; ; ; . ; @ ; = ; ; = ; ; . O ; ; ; ; ; . = ; ; ; ; ; ; ; ; > ; ; ; ; ; ; ; ; ; ; ; > ; ; ; = ; = ; ; ; ; = ; ; ; ; = ; . ; ; ; @ ; ; ; ; ; ; ; ; ; ; = , ; ; ; ; ; ; ; ; ; ; ; ; ; ; ; ; ; 2 ; ; ; ; ; ; ; ; ; ; ; ; ; ; 2 ; ; 2 ; ; < ; ; 2 ; ; 2 ; 2 2 ; 2 ; 2 ; 4 1 ; 1 ; ; 2 ; 2 2 ; ; % ; @ 2 2 2 % 2 2 % @ 2 % % 2 ; ; 2 @ 2 2 2 2 % % # 2 2 % 2 % ; ; ; ; % % 2 % 2 2 2 % 2 @ $ 1 1 % ; $ % 2 1 % % 2 2 % 2 2 2 2 2 2 2 % % 2 % 7 2 % 2 % 2 % 2 2 2 2 2 2 2 2 % % % 2 2 r 2 % 2 % 2 2 r % % u 2 8 % u 2 % 2 r 2 r % r 2 2 r % r % 8 % % u r 2 % 2 2 2 2 2 2 2 % 2 2 % 2 2 2 % % ; % 2 % 1 % 1 % 1 1 % % 1 2 2 1 ; 2 ; % ; 2 % 2 2 ; 2 ; 2 ; % 2 2 @ ; % 2 2 @ ; ; % 2 % 2 ; > ; # 2 ; 2 ; ; 2 1 ; 2 ; ; 2 ; ; ; 1 ; 1 1 ; 2 ; 2 2 ; ; ; < ; 2 ; 2 < ; 1 2 < ; 2 # w ",
"> ; ; ; 2 ; ; ; < ; ; ; ; ; 2 ; ; ; 2 ; ; ; ; ; ; ; ; ; ; ; 2 ; ; ; ; ; ; ; ; ; ; O 2 b.=Xc y ; ; ; ; $ ; ; ; ; ; ; ; ; ; ; 2 > ; ; ; 1 ; ; ; ; > > ; ; ; ; = ; ; ; ; = ; ; > > ; > ; = ; = ; - ; ; ; ; ; ; = d B.vXHX6X_ , 1 ; = ; ; ; ; ; ; ; ; ; - ; = ; = ; = @ ; ; . O ; = = ; ; = ; ; = ; ; ; ; ; ; ; = ; ; ; = ; ; = ; = ; ; = ; O @ ; . @ ; ; ; ; ; ; ; . ; = ; = ; ; = ; . ; = ; ; ; . ; ; = = ; ; ; = ; ; . ; ; ; O ; ; O ; ; = ; ; = ; ; O @ ; ; ; O ; = ; = ; = ; ; ; . ; @ = ; ; = = ; = ; ; ; ; . = ; : = @ ; ; ; ; . ; ; = ; ; ; @ ; ; = ; ; ; = = ; ; ; = ; ; ; ; . = ; = ; ; ; $ ; ; ; @ ; ; ; ; = = ; = = ; ; ; = = ; = ; ; = = ; = . ; ; ; O ; = = ; ; ; O . ; ; ; ; = ; ; = = ; ; ; > = ; ; ; ; ; ; ; ; ; 2 ; ; ; 1 ; ; ; 2 ; ; ; ; ; ; ; ; > ; ; ; 4 ; ; < ; ; < ; ; ; ; ; 1 ; ; 2 > ; 2 ; ; 1 ; ; ; 2 2 ; 2 ; 2 ; ; 4 ; 2 % 2 2 % % ; ; % 2 # ; 2 2 % % > ; % 2 % @ 2 ; 2 ; 2 % ; 2 @ 2 % % ; @ 2 @ 2 @ 2 % 1 2 2 2 % % 2 2 2 % 2 2 2 2 2 7 % 2 2 % 2 2 2 % % 2 2 % 2 2 2 2 % 2 2 % % 2 % 2 % % 2 2 2 2 u 8 r 2 u 2 u 2 % % 8 % 2 % 8 2 2 % r 2 % 2 2 2 % 2 r % u 8 % % u 2 8 % 2 2 2 % 2 2 2 2 2 2 2 % 2 2 2 2 2 % 2 2 $ 1 % 1 % ; $ % 1 1 % $ 1 % 1 % $ ; % @ 2 2 @ > 2 % ; 2 ; # ; 2 % 2 # % 2 % 2 2 @ 2 ; 2 % % 2 @ 2 ; 2 4 ; ; 2 ; 2 2 ; ; 2 ; 4 2 ; ; ; ; 2 ; < ; 2 2 ; ; 1 2 ; ; ; @ 2 ; 1 2 @ P ",
"; 1 1 ; ; ; 1 ; ; 1 ; ; ; < ; ; < > > 2 2 ; ; ; 2 @ ; ; ; ; ; ; ; ; 1 ; ; ; ; 2 > > 1 a B y $ ; ; ; 1 ; ; 1 ; ; ; ; ; ; ; ; $ > ; ; ; ; ; > $ ; 2 ; ; @ ; ; ; ; > ; ; ; ; ; ; > ; = ; ; ; ; ; ; = ; ; = ; > ; 3 a.<XsXOXh = > ; > ; ; = ; = ; ; = ; ; ; ; ; > ; ; ; ; = ; ; ; ; ; = : ; = ; ; @ O ; ; O = ; ; ; ; = ; ; ; ; ; ; . ; ; ; ; ; = ; ; = ; ; = ; = = ; ; ; O ; ; . ; ; O ; = ; ; O ; . ; ; ; = ; ; . = ; ; = ; = ; . ; ; ; = ; ; = ; ; ; ; ; ; ; ; . ; = ; , @ ; . ; ; ; = ; ; ; . ; ; @ ; = = = ; ; ; ; = ; . ; = ; ; ; ; O ; ; = = ; . = ; ; . O ; ; ; . = ; = = ; ; ; ; O ; ; = = > ; O ; ; ; O ; = ; ; = ; > ; = ; ; = ; ; = : ; ; @ ; O @ ; ; . . = ; , ; ; ; ; = = > ; ; ; ; ; > ; = ; ; ; ; ; ; ; ; ; ; ; ; ; @ ; ; ; ; ; ; ; ; ; ; 2 2 ; ; ; > 2 ; 4 ; ; 2 ; 1 2 ; 2 1 ; 2 2 ; 2 2 ; < 1 ; 2 2 ; > 2 1 ; ; 2 2 < ; ; 2 ; ; 2 ; % @ 2 % 2 > % 2 ; > % 2 ; 2 2 % 2 2 @ 2 % % ; 2 @ 2 ; % 2 @ 1 2 2 % 1 2 2 1 % 1 % 1 % 1 % 1 2 2 2 2 2 2 % 2 2 2 % 2 2 2 2 % 2 2 % % 8 2 2 2 2 2 2 2 2 % 8 2 2 2 2 2 u u % 2 % % 2 2 % 2 % u 2 2 r r % r 2 2 r 8 r 2 u u % r 8 8 2 2 % r 2 2 2 2 r % r r % u 2 % % 7 2 2 2 2 2 % 2 2 % 2 2 2 1 % 1 ; 1 2 1 % 1 2 2 ; % 1 % 1 % 2 2 @ 2 ; # 2 2 % 2 % 2 @ 2 ; # 2 ; ; 2 ; # ; # 2 % 2 % 2 @ 2 ; 1 ; ; 1 ; ; ; 2 2 1 2 ; 2 ; ; 2 2 1 ; 2 ; 2 1 ; ; 2 1 ; ; 2 2 < 2 % ; ; 2 @ w ",
"> 1 @ 4 4 ; 2 ; ; < ; > ; > ; < ; 2 ; 2 ; ; ; ; ; ; ; > ; > > ; ; ; ; ; ; ; ; 2 ; > ; ; . p = ; ; ; ; ; ; ; , ; ; ; ; ; ; ; ; ; ; ; ; ; ; ; ; ; ; ; ; ; ; ; ; ; ; ; ; ; ; ; ; ; > ; > > ; ; ; ; ; ; ; ; ; > ; = g t.d.R 3 ; > ; ; ; = ; ; = ; ; ; ; ; ; ; = ; ; ; = ; = ; > ; ; ; , = = = , = ; . , ; ; = ; = ; = , ; = = ; = ; = ; = = ; = ; = . ; ; . , ; . , = : = = ; . ; ; . , ; : : = = : ; . = ; ; . ; ; . ; = ; ; = , . . ; ; . ; ; . , : = ; . = . ; ; = : = . . ; : = ; = = = : = : = = : = : ; . , ; = : = = . ; : = ; = ; . , ; . , ; ; , . ; . ; ; . , ; ; ; = ; . ; = = = : = = : = ; ; ; . ; ; . . , ; : = : ; ; ; . = ; ; = ; = = : = = ; . ; ; ; = ; . = : ; = ; ; ; : = ; , ; ; ; > > ; ; = ; ; ; ; > ; ; ; ; ; 1 ; 1 ; ; ; ; ; ; ; ; @ ; ; ; ; ; ; ; ; ; > 4 ; < ; 1 ; 2 2 ; 1 2 ; < 2 ; 4 @ 2 ; 2 ; 2 2 @ ; @ 2 ; 2 2 ; 2 2 2 > 2 % 2 % ; 2 @ 2 % ; ; 2 % ; ; > ; % % ; 2 % % ; 2 % % ; % 2 2 % 1 % $ ; 2 1 ; % % 1 % 1 2 2 % 2 2 2 % 2 2 % 2 2 2 % 7 2 2 2 2 2 2 2 2 2 2 2 2 % 2 2 % 2 2 2 % 2 2 % r 2 u % % r u % 2 2 % u 2 % 2 2 % % u % 2 2 % 2 2 2 % 2 % r % 2 2 2 % 2 % 2 2 % 8 2 % 2 2 2 2 2 2 2 2 2 2 2 2 2 2 2 2 2 2 2 2 2 2 2 2 1 2 % 1 1 % 1 1 % % 2 2 @ 2 % 2 ; ; 2 % ; > 2 2 2 @ 2 2 % 2 % ; 2 % 2 2 # ; % ; 2 2 2 ; 2 $ ; ; ; ; 2 ; 2 % ; 1 ; ; < 2 ; ; 2 ; 2 2 ; 2 ; ; 4 ; ; 1 % > ; 2 # w ",
"; 2 ; 1 ; ; ; 2 ; > 2 2 2 2 2 ; 1 ; ; ; ; 2 2 ; 2 2 ; 2 2 2 1 ; 1 ; ; , , ; ; 1 ; ; ; 1 1 ; ; ; ; ; 4 ; ; ; ; 1 , ; ; 3 1 ; ; < < ; 1 ; ; ; ; 2 ; > ; < ; ; 4 ; ; ; 1 ; > 2 ; ; ; ; ; ; ; ; ; > ; < ; > ; < ; , : u p 3 , 1 1 ; > > , > ; ; > ; > = = ; ; ; ; = ; ; ; ; ; ; ; ; ; ; ; ; ; ; ; = ; ; . ; : , ; , ; ; ; ; ; ; ; ; ; ; ; ; ; ; ; ; ; ; ; = ; = ; ; ; ; ; : ; = ; ; ; ; = , = ; ; = , ; , ; ; ; = ; ; ; , ; ; ; ; ; ; ; = , = , ; = = ; , ; ; ; ; ; ; ; ; ; , ; = ; ; ; : ; ; ; ; = ; = ; = ; = ; ; = : ; ; , ; = ; ; ; = : = ; ; ; = = ; ; ; ; ; ; ; ; = ; ; , ; ; ; ; : ; ; ; ; = , . , = , ; ; ; ; ; ; = ; = ; = ; ; : ; ; ; = : ; ; ; : = ; ; ; , . ; ; ; , ; ; . ; = , = ; = ; ; ; < ; > , ; ; ; ; ; 4 1 ; ; 1 ; ; ; , , ; ; ; 2 ; 2 2 2 ; ; 2 2 ; 2 ; 2 2 ; ; ; 2 2 ; 1 ; ; 2 2 ; 2 ; ; 1 ; 2 ; 2 2 2 ; 2 2 2 2 2 ; 2 ; 2 2 ; 2 % > 2 ; 2 2 2 2 2 2 2 2 2 2 > 2 2 2 2 2 2 2 2 2 2 2 2 2 ; 2 2 2 2 1 1 2 2 2 2 1 2 1 2 1 % 2 @ 2 2 2 2 2 2 2 2 u 2 4 2 u 2 2 4 2 2 2 2 8 2 2 u u 2 2 u u 2 % u u 2 u 2 8 2 2 2 2 u 2 2 2 u 2 2 u u 2 % u 2 2 u 2 % u 2 D 2 u u u % D 2 u 2 u 2 2 u 2 2 % r u 2 2 4 2 2 8 2 2 2 7 2 2 2 2 2 % 2 2 2 2 ; 2 2 2 2 1 2 1 % 2 2 2 2 2 2 2 ; ; 2 > 2 2 2 2 2 2 2 ; 2 2 2 2 ; 2 ; 2 2 ; 2 2 ; 2 2 2 2 2 ; 2 ; 2 2 2 2 2 ; 2 ; 2 ; @ 2 2 ; ; 2 ; 1 2 ; ; 2 1 ; 1 ; ; ; @ 2 ; ; 2 > L ",
"; 2 2 ; 2 ; 2 ; ; 2 2 ; ; ; ; 2 ; 1 ; 4 2 2 ; 2 ; ; ; ; 1 ; ; ; ; , ; ; ; 1 ; ; 1 ; , ; > O 1 , , ; , ; ; ; ; ; ; ; ; , ; ; ; 1 ; 1 ; ; ; 1 ; ; ; 2 ; ; 2 ; ; ; ; ; ; ; ; 2 ; > ; ; ; 4 ; ; < ; > > > , ; ; > 4 $ ; > > ; < ; ; ; > ; ; ; ; < ; > , > ; > ; > , , = ; ; ; ; ; = . , = ; ; ; ; , ; : ; ; = = ; . ; ; . , ; ; . , = ; ; = = ; , ; ; ; , : ; : = = = ; ; , ; = ; ; = ; : , ; ; ; , ; = . , , ; ; ; = ; ; ; : = = ; ; ; ; ; ; : = , ; ; = , = , ; . : = , ; ; ; ; , ; ; ; ; ; : = ; ; ; ; , = ; ; ; ; ; , ; ; ; : = ; ; ; ; ; , = = ; , , ; ; , = , : = , ; = ; = , ; ; ; ; ; , ; , ; ; ; ; ; , ; ; , = = ; ; , , ; ; = ; , : ; , ; = ; , ; ; = ; = ; ; = : ; = , = ; ; = ; , = ; ; > ; ; > , > ; ; > > 2 ; < ; ; ; ; ; , ; ; , ; 1 ; 2 ; ; 1 ; 2 ; ; 2 4 ; ; ; ; 2 2 ; 2 ; ; < 2 ; ; 2 ; 2 ; ; ; ; 2 ; ; 2 2 ; ; 2 ; 2 2 2 2 2 ; 2 ; 2 ; 2 ; 2 ; < ; 2 2 2 2 2 ; 2 > 2 ; 2 2 ; ; 2 2 2 2 2 1 2 1 2 2 2 2 2 2 2 2 2 1 1 2 2 2 1 2 2 2 ; 2 2 2 2 2 2 2 2 2 3 2 2 u 2 2 u 2 2 2 2 2 2 2 2 % 2 u 2 2 u u 2 2 u r % 2 u 2 2 u u u u 2 2 2 2 2 D % 8 8 % 2 D D 2 % 2 2 2 2 2 2 2 2 % 2 2 u 2 2 D 2 u 2 2 u 2 2 2 % 2 2 u % 2 2 2 2 2 2 2 2 1 2 2 2 % 2 2 2 2 2 2 1 2 2 2 2 2 2 2 2 ; 1 2 2 2 2 > 2 ; 2 ; ; 2 2 2 2 2 ; < 2 2 2 ; 2 ; 2 2 2 2 2 ; 2 ; ; 2 2 ; ; 2 ; 2 ; $ ; 2 2 ; ; % 2 ; < ; ; 1 ; 1 ; ; 2 @ , ; 2 # w ",
"; 2 ; ; 2 ; 2 ; 2 1 ; 1 ; 1 1 ; 2 ; 2 ; ; < 2 ; 2 1 4 ; 4 1 ; 1 ; 1 , 1 , ; ; > 3 ; ; ; ; 4 1 ; ; 1 ; 1 , 1 ; 1 4 ; 1 ; ; 4 , ; ; ; ; 4 ; ; < 1 ; 2 < 2 ; < ; 4 4 ; 1 < < ; ; 4 < 1 ; ; 4 , ; ; ; , > > , > > > 1 * & 3 2 * ; ; ; < ; < > < ; ; ; > , > , > ; ; , ; ; = , ; , ; ; ; , ; = : ; ; ; ; = ; ; ; ; , , . , ; ; = ; ; : = : ; = : . ; = ; = ; ; ; ; , = : = ; ; : , = ; ; = ; = ; = : ; ; ; ; = = : ; : , = = , ; , ; ; = : = ; ; ; ; = ; ; ; ; ; ; , ; ; = ; = ; = ; : = = ; = , ; ; . ; ; ; ; , ; . ; ; = ; = ; ; , : = = ; ; ; ; : = : = ; ; . ; ; ; ; = ; = : ; ; : = ; = ; . ; ; = ; , . ; = ; ; ; ; ; ; , . ; = ; , ; = = ; = ; = : = ; ; : ; , , = ; ; ; ; ; ; ; , ; ; ; : ; ; ; < ; < ; ; > 4 > 2 2 ; 4 1 ; 3 1 ; 1 ; 1 ; 4 ; 1 ; 2 ; 4 ; 1 1 ; 2 ; 2 ; 1 1 ; ; 2 ; 2 2 ; ; 2 ; ; 2 ; 2 ; 2 $ 2 2 2 @ 2 ; 2 2 2 2 ; 2 ; 2 2 2 2 2 < 1 2 2 2 2 2 4 ; > ; 2 2 4 ; 2 2 2 2 ; 4 2 2 2 2 2 2 2 % 2 2 1 2 2 1 2 2 2 2 2 2 2 2 2 2 2 2 2 2 2 2 2 2 1 2 2 2 2 2 2 2 2 2 2 2 2 2 2 2 u 2 u u 2 2 2 u 2 % u 2 2 2 u 2 u u 2 % 2 % 2 2 D 2 D u % r 2 u r 2 2 2 2 u 2 2 % D % 2 u 2 D 2 u 2 u 2 u 2 2 u 2 2 2 2 2 2 2 2 2 u 2 2 2 1 2 1 2 2 2 1 2 2 1 2 2 2 2 ; 2 2 2 2 ; 2 2 2 2 2 2 2 2 2 2 ; 2 2 2 2 2 2 4 ; > 2 ; 2 2 2 ; 4 2 2 < > 2 ; 2 2 2 ; 2 % ; 2 2 ; % 2 2 ; 2 2 2 @ 2 2 ; 2 ; 2 2 ; 2 1 ; 1 > % 2 < 1 2 % w ",
"; 1 ; 2 2 ; 2 ; ; 4 ; 2 2 ; ; 2 ; 2 ; ; ; 1 ; 1 ; 2 ; 2 ; 2 ; 1 ; ; 1 ; 1 2 2 ; , ; 3 ; , ; 1 , , ; ; , ; , ; ; , 1 ; , 1 ; ; 1 4 ; ; , ; ; 4 ; , ; ; , , ; 1 ; > > 1 ; ; ; < ; ; 2 > > ; < ; 1 ; ; ; ; 2 > ; ; < ; > > ; ; < ; ; ; ; ; ; 2 > > < ; > ; > > > ; ; ; ; ; < ; ; ; ; > , ; ; ; , = ; = ; . ; = = ; ; , ; , = = : = ; : = = ; ; , = ; ; ; ; ; = ; = ; ; = , ; = , = ; ; ; ; ; ; = ; ; ; : = = ; ; , = . , ; . , ; ; = ; : ; . ; = , ; , ; : = = ; ; , ; ; ; ; ; , ; : ; ; ; ; = , = , = , ; ; ; = : = = ; ; ; , = = , = ; , , ; = : ; ; = ; ; ; ; . = ; = ; . , , ; , = = , ; ; , . , = ; ; = , ; ; = ; ; , = ; ; . > < , , , 3 1 , ; ; = , = = ; ; ; ; , = , ; . , ; ; ; ; > > ; ; ; > , > ; 2 ; ; 1 < ; 1 ; 1 ; ; , , , ; ; ; ; ; ; ; ; 4 ; ; 2 ; ; 2 ; 2 ; ; ; 2 2 ; 2 ; ; 2 ; 2 2 2 1 @ 2 ; ; 2 2 2 ; 2 2 2 2 ; 2 ; 2 2 ; 2 2 > 2 < 2 2 2 ; ; 2 2 ; 2 ; 2 2 2 ; 4 2 ; ; 2 2 2 2 2 2 2 2 2 1 2 2 2 2 2 2 2 2 1 2 2 2 2 2 2 2 2 2 2 2 2 2 u 2 2 8 2 2 2 2 2 2 2 2 2 2 2 2 2 2 2 2 u u % 2 2 u 2 % 2 2 u 2 % 2 2 2 2 2 2 2 2 u 8 2 2 2 8 r % 2 2 2 2 2 2 % 2 2 2 D u 2 % D r % r % 2 2 D % 2 2 2 2 u u 2 2 2 u 3 2 2 2 2 u 2 2 2 2 2 2 2 2 2 2 2 2 2 2 2 2 2 2 1 2 1 2 2 2 2 2 2 2 2 > ; 2 2 2 ; 2 1 2 2 2 > ; 2 2 ; 2 < 2 2 2 ; 2 2 ; 4 2 2 ; 2 2 @ 2 2 1 @ $ ; 2 2 2 ; % 2 ; % 1 ; ; 2 ; 2 2 ; ; 2 # > , 3 @ P ",
"@ 1 ; ; ; ; ; 2 1 ; 2 ; ; 2 1 ; 2 ; 2 2 2 ; 2 ; ; ; 2 ; 1 ; ; 2 2 ; ; 2 2 ; 1 ; ; ; ; ; < ; ; ; ; 1 1 ; 1 ; ; 1 ; ; ; ; ; , , ; ; ; ; 1 ; , ; ; 1 ; 1 ; ; ; ; ; ; 2 ; < ; ; 2 ; ; ; 2 ; ; ; ; ; 4 ; ; 2 ; ; 2 ; 1 ; ; 2 < 1 ; ; ; < > ; ; ; > > ; ; , > 2 ; > < ; ; < ; ; ; ; ; < > ; > , > > ; ; ; , , , ; ; ; ; = = : ; ; ; ; , = ; ; = : ; ; ; , . , , : ; ; ; ; = : : = ; ; : = = , , = ; ; = , ; ; ; , ; ; ; ; , ; , ; = ; , ; = = , ; ; ; . ; ; = ; , = : . ; , = , = . ; = = , ; : ; ; ; ; ; = ; , = ; , ; ; . ; ; ; ; ; ; ; ; . = ; ; ; ; = : ; = , ; , : ; , ; ; ; . ; ; ; ; ; ; = ; , ; : ; = ; ; : = : = ; ; : ; ; , 1 4 p i 3 i 2 : : : ; = , = ; = = : ; ; = ; ; ; , ; = ; > < ; ; > ; > ; ; ; ; ; ; ; ; ; ; , , ; ; 1 ; ; ; 1 ; ; ; ; 2 ; 2 ; ; 2 2 ; 1 ; ; 1 2 ; ; 2 ; 2 2 ; 2 ; 2 ; 2 ; 2 $ ; 2 @ 2 2 ; 2 ; 2 ; 2 4 2 2 2 2 4 ; 2 ; 2 ; 2 2 2 2 2 2 2 < 2 ; 2 2 ; 2 2 2 2 2 2 2 2 ; 2 2 2 2 2 2 2 2 2 2 ; 1 2 2 2 2 2 2 2 2 2 2 2 2 2 2 2 2 2 2 u % 2 2 2 2 4 2 2 u 2 2 2 2 2 u 2 2 2 u u 2 2 u u 2 u 2 D 2 u 2 2 2 D 2 8 % r u u 2 r r D % 2 D D % 2 D u 2 r % 2 2 2 2 8 8 r 8 u 2 2 2 D 2 u 2 % 2 2 u 2 u 2 2 4 2 2 2 2 2 3 2 2 2 2 ; 2 2 1 2 2 2 2 2 2 2 2 2 % 2 2 2 ; 2 1 2 2 ; 2 2 ; 4 ; 2 ; 2 2 2 2 4 2 ; ; 2 > 2 ; 2 2 2 > 2 ; 2 2 2 ; 2 ; 2 ; 2 2 2 2 ; @ 2 2 ; ; 2 ; 2 ; 2 ; 2 ; ; 1 ; % 2 > ; 2 % w ",
"> 2 1 ; ; 2 2 ; 2 ; ; ; 2 ; 2 ; ; 2 4 ; ; ; ; 2 4 ; 2 ; 2 ; 2 > ; 2 ; 2 ; 2 ; ; 1 ; ; ; 2 ; ; ; ; ; ; ; , ; ; ; 4 ; 1 ; ; ; ; ; ; ; ; ; 1 ; ; 1 ; ; ; ; ; 1 1 ; ; , ; ; 1 ; 1 ; ; ; ; 2 ; ; < ; ; ; ; ; < 2 ; < ; ; 2 ; ; ; ; ; > ; ; < < ; ; > > > > ; ; ; ; ; , > ; ; ; ; > > > , > , > ; ; ; ; . ; = = ; ; ; ; = ; ; ; = , = ; ; ; = ; ; ; = = , ; = = ; , ; : ; ; ; ; ; = : = ; ; : ; ; ; , ; , = ; , . ; = ; ; = ; ; ; ; = ; ; ; , ; , : = , ; = ; . ; ; ; ; ; = : ; ; ; , ; ; : = = ; : = = ; ; , ; ; ; ; ; ; , , . , = ; ; = , ; ; : = ; ; ; ; ; ; = ; = ; ; = : ; ; ; , ; . , ; ; , ; ; = , ; : = ; , . . ; ; = ; ; , 4 p p j B V h 8 g 4 3 ; . ; = : = = ; = : ; = ; = = ; , = ; ; ; < > > , ; 1 < 1 ; , ; ; , 1 ; ; 1 ; ; 4 ; ; 4 ; 4 4 ; 2 1 2 ; 2 ; ; 2 1 ; 4 ; 2 2 ; 2 1 < ; 1 ; 2 2 ; 2 2 ; 2 2 @ 2 ; @ 2 2 2 2 2 ; 2 ; ; 2 2 2 ; 2 2 2 ; 2 2 ; 2 2 2 2 > ; 2 2 ; ; 2 2 2 ; 2 2 2 2 2 2 2 2 2 2 ; 2 2 2 2 2 2 2 2 2 2 3 2 2 2 2 2 2 2 8 2 2 2 2 2 2 8 2 2 2 2 2 2 8 2 2 2 2 2 2 2 u 2 2 u 2 2 2 u 2 2 2 2 u 2 2 2 u 2 D % % r 2 2 % % u % % 8 2 2 8 r 8 2 2 r u 8 8 r u 2 % r u 2 u % 2 u u % 2 u u % 2 u 2 2 u 2 2 2 2 4 2 2 2 2 1 2 2 2 2 1 2 2 4 3 2 2 2 2 1 2 2 2 2 1 2 2 1 2 2 2 2 2 2 2 2 2 ; 2 ; 2 ; ; 2 2 2 2 2 2 2 2 ; 2 2 2 2 2 2 > ; 2 2 % ; 2 2 ; ; 2 ; 2 2 ; 1 2 ; ; 2 2 @ ; 2 2 2 > 2 ; , ; 1 > w ",
"; 2 ; 2 1 ; ; ; ; 2 ; 2 ; 2 ; ; 1 ; ; 2 ; 1 2 ; ; 2 ; 2 ; < 1 ; 2 ; 2 ; < ; 2 ; ; 1 1 ; 2 ; 1 ; ; 1 , ; ; ; 1 ; ; ; ; , ; 1 , ; , ; 1 , ; ; , ; ; 1 ; , , ; ; ; 1 ; 1 ; , ; ; ; ; 4 ; ; 2 ; ; 2 < 1 ; ; ; ; ; ; < ; ; ; ; 2 ; ; , ; ; ; ; ; ; < , ; , > ; < , ; ; ; > ; , ; ; > ; > ; > , > ; ; , , ; ; ; , , ; ; , ; ; ; : ; ; ; = : , , = ; : ; ; ; = : ; = ; = ; = ; = , ; ; , ; ; = , . ; = ; . ; , ; ; ; : . , = ; = : ; ; , . ; ; ; = ; ; ; ; , ; , ; , = = , ; ; : = = ; = ; ; = ; , ; ; ; : = ; ; , . , ; ; = ; ; ; , ; ; ; ; = ; = , ; : = , = ; ; ; , = , ; ; = , = ; ; , . ; ; = ; ; ; ; ; = , ; ; ; , ; , ; > 1 3 p g j V _ ! V _ R h g 3 : : , ; ; , ; ; ; ; : ; , ; ; ; ; > ; ; ; , 1 ; ; ; ; ; ; ; ; ; 1 ; ; , ; , 1 ; ; ; ; ; ; ; 2 ; ; ; 2 ; 2 2 ; ; 2 ; 2 ; ; 1 ; ; ; > 2 2 ; ; 2 @ 2 % ; 2 2 2 ; 2 2 ; 2 ; 2 2 2 2 2 2 ; 2 2 1 ; 2 2 ; 2 2 2 2 ; 2 2 4 2 2 2 2 2 1 2 2 2 2 ; 1 2 2 2 2 1 2 2 2 4 2 2 2 2 2 2 2 2 2 2 2 2 8 2 2 2 2 3 2 2 2 u 2 2 u 2 u 2 u 2 u 2 2 2 3 D 2 u % u 2 2 % D 2 % u u % u 2 2 u 2 % 8 % r 8 r 2 % 8 r 2 8 r 2 u 2 r r % u 8 % % u u % 2 2 % D 2 2 % r 8 2 r % 8 % 2 u 2 2 u 2 2 2 2 2 2 2 2 2 u % 2 2 2 1 2 2 2 2 2 2 2 2 2 2 2 2 2 1 2 2 1 % % 2 4 2 2 ; ; 2 ; 2 2 2 2 2 2 2 2 2 2 2 ; 2 2 2 ; 2 ; 2 2 2 2 2 4 @ ; 2 1 @ @ 1 % ; 2 2 @ 2 @ 2 % 1 2 ; 2 2 ; ; 1 ; 2 2 ; 1 2 # P ",
"; 1 % 2 ; 2 2 $ 2 2 ; 2 ; % 2 2 ; 2 2 ; ; 2 ; % ; 2 ; $ 2 2 @ 2 1 2 ; < 1 ; ; 2 1 1 < 2 ; 2 ; ; , ; ; ; 1 ; ; 1 ; ; ; ; ; 4 ; 1 ; 1 > ; ; , ; ; , 1 ; 1 ; ; ; ; ; ; , ; ; 1 ; ; ; ; ; ; ; ; ; ; ; ; ; ; ; ; ; ; 2 ; ; ; ; ; ; ; ; ; ; ; ; ; ; , ; ; ; ; , ; 1 ; ; , 1 ; , ; ; < > , > ; ; ; > ; ; ; ; > > > < ; ; ; ; ; = ; ; ; ; : = ; : ; ; ; = : = ; ; ; . ; ; , , ; ; ; ; ; ; : ; ; . , ; ; ; = ; ; : = = ; , ; , = ; ; ; , ; = , ; ; = , = ; ; ; ; ; = , ; ; , ; ; = ; ; = , = ; ; : = ; ; ; ; ; ; ; = ; = , = ; ; = , : = : ; , = , ; ; ; , = = : , ; ; ; = , ; ; , . = , ; , ; ; ; , = = ; . = ; ; = ; ; ; ; ; : ; 3 p h V ) ) k.y.y.y.A V h 4 3 ; , ; ; = , ; ; = ; ; ; = ; ; ; > > > ; ; ; ; , ; 1 ; ; 1 ; ; ; ; ; ; ; ; ; ; ; ; ; ; 2 2 ; ; 2 2 ; 2 2 ; 2 ; ; % 2 ; 2 2 ; 2 ; ; 2 2 ; ; 2 2 ; 1 2 ; 2 2 ; 2 2 > 2 ; 2 ; 2 2 2 2 2 2 2 2 2 ; 2 2 2 ; 2 2 2 ; 2 ; 2 2 2 2 1 2 2 4 2 2 2 3 2 2 2 2 2 2 2 2 3 2 2 2 2 2 2 2 2 3 2 2 u 2 2 2 2 2 2 2 2 2 2 2 2 u u 2 2 2 u 2 2 u 2 2 u 2 % 2 u r 2 u 2 8 r 2 8 % r r 8 D % r r % D 2 2 u D 2 D u 2 u 2 2 2 2 u 2 % u % % u % % r 2 r u % 2 u 2 r % u 2 % r 8 r % 2 2 2 2 2 2 4 2 2 2 2 2 % 2 2 2 2 2 2 2 2 2 2 2 2 2 2 2 4 2 2 2 2 % 1 % 1 2 2 1 2 2 2 2 ; ; 2 2 ; 2 2 1 ; 2 ; 2 ; 2 ; 2 2 4 2 ; ; 2 2 2 2 2 2 ; > 2 2 ; 2 ; ; 2 ; 2 ; ; ; 2 ; ; 2 2 2 ; < % 2 > ; 2 # w ",
"$ 2 ; 2 ; $ 2 @ 2 ; 2 2 ; 1 ; 2 2 ; ; 2 2 ; 2 ; 2 ; 2 2 2 ; 2 ; ; 2 2 ; ; > 2 1 ; ; 2 ; 2 ; ; 1 1 1 ; 2 1 ; ; ; ; 1 ; 1 1 ; ; 2 1 ; 2 ; ; 1 1 ; 1 ; ; 1 ; 1 2 ; ; 1 ; 1 ; 1 1 ; 1 ; 2 1 1 ; 1 1 ; 2 1 1 1 1 1 ; ; 1 ; 1 1 ; 1 2 ; 1 1 ; 1 1 1 ; ; 3 1 ; 4 ; ; ; 1 ; ; ; 1 ; 1 ; ; ; 1 ; , ; ; 1 ; ; ; , > > ; ; ; < ; < : ; ; ; ; ; ; ; ; , ; = ; , = ; , = , ; ; = . ; , = = ; ; = ; ; ; , = : ; , ; = = ; , ; ; ; ; = : ; = : ; ; = ; ; ; ; ; , ; = , ; ; = ; = ; = ; , ; ; , ; : ; = , ; ; = : ; = : : ; ; = : ; ; , ; ; ; ; = ; ; ; . , ; = ; ; ; ; . , ; = ; ; ; = ; ; ; ; ; = ; = ; = ; : ; , : ; ; ; , = ; = ; ; , i h B r.m.I.{.XX.XI.i.A V h 3 ; ; ; ; ; ; ; = ; ; ; ; : , ; ; 2 ; ; , ; , ; ; ; 1 1 ; ; 1 2 ; ; 1 ; 2 1 ; 1 1 4 ; 2 ; ; ; 2 ; ; 2 2 ; 2 ; % 2 ; ; 2 2 ; 2 2 2 2 2 2 2 2 2 ; 2 2 ; ; 2 2 ; 2 < < 2 2 2 2 2 < ; 2 ; > 2 2 2 2 2 2 2 2 2 2 2 2 2 2 2 2 2 2 2 2 ; 2 2 2 2 2 2 2 2 2 2 2 1 2 2 2 2 2 2 2 2 2 2 u 2 2 2 u 2 2 u 2 2 u 2 2 u u 2 2 2 u u 2 2 2 u u 2 2 2 2 u 2 2 % 8 u 2 r r r % 8 2 r % 2 2 r 8 2 2 % D 2 2 2 2 2 % % D u 2 2 2 8 r 2 r 8 r u 8 % D % 8 D 2 r 8 8 % % 8 8 u u % D 2 2 u u 2 D 3 2 2 u 2 2 8 u 2 u 2 2 2 2 2 2 2 2 2 2 2 4 u 2 2 ; 2 1 2 1 2 ; 2 2 2 2 2 2 2 2 2 2 2 2 2 2 2 2 2 2 2 ; 4 2 2 ; 2 2 2 > 2 ; 2 2 ; 4 2 2 2 ; 2 2 2 2 2 2 2 2 2 2 2 2 ; 2 ; 2 2 2 % ; ; 2 % P ",
"> 1 $ ; ; 2 2 1 ; 2 2 @ 2 1 $ ; 2 2 2 % 2 $ 2 ; ; 2 @ 2 2 ; 2 ; 1 ; ; 2 < 2 2 ; 2 ; ; 2 ; 2 ; ; ; 4 ; ; ; ; < 2 1 ; 1 ; ; 1 ; ; ; 1 ; 1 1 ; 1 ; ; 1 ; ; 1 ; 1 2 1 ; 1 ; ; ; ; 1 ; 1 1 ; 2 ; ; 1 1 ; 1 ; ; ; ; 1 ; ; 2 ; 1 ; 2 ; 1 ; ; 1 ; 1 ; 1 ; ; 1 , ; ; 3 , ; ; 1 , ; ; 1 , , 1 ; ; ; ; , ; 2 ; ; 1 ; 2 ; ; ; 2 1 ; 1 ; , ; ; ; ; ; ; ; ; : , ; ; ; ; ; = , ; ; ; ; ; ; , ; ; , = = = ; ; ; ; ; : , , = ; ; = ; = : = , = ; = , ; : . , = ; = ; . , = ; ; , , ; ; = ; : , ; ; = ; : ; = ; ; = = ; , = , = : = = , . = : = = ; , : = ; ; , = ; . , = = : , ; , ; ; = ; = = ; ; = ; : = ; = ; ; ; ; , , ; ; ; ; ; ; ; 3 p h 8.u.W.3XsXdX0XOXI.i.V h 4 ; , ; ; , ; ; = ; : ; , ; ; , ; ; ; < , 1 , ; 1 4 2 ; 1 1 1 ; 2 1 ; 1 ; 1 ; ; 1 ; 2 2 ; 2 ; ; 2 2 ; ; 2 ; 2 ; 2 1 $ 2 @ 2 @ ; 2 2 ; 2 2 2 ; 2 2 ; 2 2 2 2 2 2 ; 2 2 2 2 2 ; 2 2 2 2 ; 4 ; 2 2 2 1 2 2 2 2 2 2 2 2 ; 2 2 2 2 2 2 2 1 2 2 2 2 2 2 2 2 1 4 2 2 8 2 2 2 2 u 2 2 2 2 2 u D 2 2 u 2 3 u 2 2 u u % 2 u % 2 2 u 2 u 2 2 D 2 r 8 D 2 2 u % % u % u 2 2 u 8 % D u 2 2 2 2 r % 8 r % u u u D 2 % D D % u % % D 8 % % D 2 u u 2 u % r % u u u D r 2 % 2 2 2 2 2 u % u 2 u 2 2 u 2 u 2 2 u 2 2 2 u 2 4 2 2 2 2 2 2 2 2 2 2 2 2 2 2 2 2 2 2 2 2 2 < 2 2 2 2 2 2 2 2 2 1 2 2 2 2 2 2 ; 2 2 ; 2 < 2 2 2 ; 2 2 2 ; 2 2 2 ; 2 ; 4 2 2 2 2 ; 2 2 2 2 ; ; 2 % 2 1 ; 2 ; L ",
"; 1 @ 2 2 @ ; 2 2 ; ; 2 % ; ; 2 @ ; 2 ; 2 @ 1 2 ; % 1 2 ; 2 2 ; ; ; 2 ; 2 ; ; 1 ; ; 2 ; 2 ; 2 4 1 ; ; 2 1 2 2 ; ; 1 ; 1 2 ; 1 ; 1 ; 1 ; ; 2 ; 2 1 ; 2 ; ; 1 < ; ; ; 2 1 1 ; 2 ; 1 ; ; 1 ; 2 ; < ; 2 ; 1 ; 1 1 ; 2 1 ; 1 ; 1 ; ; ; 1 1 ; 1 ; ; ; , ; ; ; ; ; ; ; ; , ; ; , ; ; ; ; ; , , ; 1 , ; ; < ; ; 2 ; ; < 2 ; ; ; ; ; ; ; : ; ; : ; ; ; ; = = : ; = : ; ; : = = , ; = : = = ; : ; ; ; , = = ; = ; ; ; : = , ; ; ; ; ; ; = ; ; ; = ; ; , ; = : ; ; ; ; = : . ; , ; ; = . ; ; , ; = ; , = ; ; , ; = ; ; ; ; ; ; ; ; ; ; ; , ; = ; ; = ; ; ; ; , ; ; ; ; ; = . ; , ; ; , : ; ; , ; = : ; , ; , = ; = . , ; ; . ; = , 3 g E _ f.OXlXCXJXCX0XoXm.A J 4 1 : ; ; . ; , ; ; = ; , ; 4 ; ; ; 2 ; ; ; ; 1 ; ; ; 2 ; ; ; 4 ; ; 1 ; 1 ; ; 1 ; ; 1 ; 1 ; 2 2 ; 2 ; $ 2 $ 2 2 ; 2 ; 2 ; 2 2 ; 2 4 ; > 2 2 2 ; 2 2 2 ; 2 ; 2 2 2 2 ; 2 ; 2 2 2 ; 2 ; 2 2 2 2 1 2 2 2 2 2 2 2 2 2 2 2 2 2 2 2 2 2 2 2 2 2 2 2 2 2 2 2 2 2 u 2 2 2 2 2 2 2 u u 2 u 2 2 2 2 u 2 D 2 2 2 u 2 2 2 u 2 2 u % u 2 2 2 u 2 r % 2 2 2 u % 8 r 2 8 % D 2 2 % r 2 2 u 2 % D 8 r % u % u % u % r u % r u % D 2 r r u 2 r u % r u % u % D % u % u % r D 2 2 u u 2 2 u % 2 u 2 2 u 2 2 2 u 2 2 u u 2 2 2 2 2 2 2 2 2 2 2 2 2 3 2 2 2 2 2 2 2 2 2 2 2 2 2 2 2 2 4 ; 2 2 2 2 2 2 2 2 2 2 ; 2 2 2 ; 2 ; 2 2 2 2 2 1 2 ; 2 2 2 2 ; > 2 2 ; 2 2 2 ; 2 2 2 < 2 2 < 2 u @ L ",
"; 2 2 @ 2 @ ; 2 ; 1 2 ; ; 2 2 ; 2 2 ; 2 ; 2 ; ; 1 @ 2 ; 1 2 $ ; ; 1 % @ 2 2 ; 2 ; 1 ; 2 2 ; 1 ; 2 ; ; 2 2 ; ; 2 ; 2 ; 2 1 ; ; 2 ; 2 ; 2 2 ; 1 ; 1 ; 1 ; ; 1 ; 1 1 ; ; 1 ; 1 ; ; ; 2 1 ; 2 ; ; 1 ; 1 ; 1 ; ; 1 ; 2 ; ; 1 2 ; 1 $ 1 ; 1 ; ; ; ; 1 1 ; 1 ; ; 2 1 ; ; ; , ; ; ; ; ; ; < ; , ; ; , ; ; 1 ; , ; , ; ; ; ; ; ; ; < ; ; ; ; ; ; , , ; ; : ; ; , ; = ; ; ; : = ; : ; ; ; ; ; . ; . ; , ; , ; , . = ; : , ; , ; ; : ; ; ; ; ; ; = = ; ; ; , = ; ; ; ; ; = ; , = . , ; ; ; = ; = ; = , ; , , ; ; ; ; ; ; ; ; = = ; ; ; ; ; . , ; ; ; , ; = : = ; ; , . , ; ; , = , ; ; ; : . , ; = , ; : = = ; : , . ; = ; ; = - ; 3 h V 8.J.1XvXJXPXJXdX*Xl.r.R p 4 ; ; ; ; ; 1 ; ; ; ; ; ; ; ; ; ; ; , ; ; 1 1 ; ; ; ; 1 ; ; 1 ; ; 2 ; ; 2 ; ; 1 ; 1 ; 2 2 2 ; 2 2 ; % ; 2 $ ; 2 ; 2 ; 2 2 2 ; 2 2 ; 2 2 2 2 ; 4 2 2 2 2 2 ; ; 2 2 2 2 2 2 2 ; 2 ; 1 2 1 2 2 2 2 1 2 2 ; 2 2 ; 2 4 2 2 2 2 2 2 2 2 2 2 2 2 2 2 2 3 2 2 2 u u 2 2 2 2 u u 2 2 % u 2 2 2 u 2 u % 2 2 u u 2 2 u u 2 2 2 u 8 r % u % r r 2 u D 2 % D 2 2 2 2 2 2 D 2 % D 2 u r u r % r D % r 8 % u % u u D r u % u u D % u % r % D r r r D D u 2 2 2 % D D 2 u 2 u 2 2 u u u 2 u 2 u 2 2 u % % 2 u 2 2 u u 2 2 2 2 2 2 2 2 2 2 2 2 2 4 4 2 > 2 2 > ; 2 u ; 2 2 2 1 2 2 2 2 2 2 1 2 2 ; 2 2 2 ; ; 2 2 ; 2 2 2 2 ; 4 2 2 2 2 2 2 2 2 2 ; 2 2 2 2 > ; ; 2 2 ; 4 % > 2 ; 2 @ L ",
"; 2 ; 2 ; 2 2 2 2 % ; 2 2 ; $ 1 2 ; ; $ 2 2 2 % 2 2 ; 2 % ; ; 2 % 2 ; 1 2 ; 2 ; 2 ; 1 ; ; 1 ; 2 ; ; 4 ; ; 4 ; ; 2 ; 2 ; ; ; 2 ; ; ; 1 ; ; 1 ; ; ; 1 ; 1 1 ; 2 ; ; 2 2 ; 1 ; 1 $ 1 ; ; 1 ; 1 1 ; 1 ; 1 ; ; 2 ; 2 ; 1 1 ; ; 1 ; 1 ; 1 ; 2 2 $ 1 ; ; 1 ; 2 ; ; 1 ; , ; 1 ; ; 4 ; ; ; 1 ; ; , 1 ; ; ; ; ; ; ; ; 1 ; < 1 ; 2 2 ; ; 2 3 ; ; ; ; ; ; ; ; ; : ; ; , : ; ; ; , ; = ; = , = ; , , , ; = ; = ; ; ; ; ; = ; = ; = ; = , = = : = ; , ; ; : = ; ; , . , = ; , ; = ; ; , ; ; , , ; : ; ; ; ; . = = : = . , = = ; : ; , ; = : = ; ; , . = ; ; ; ; = ; ; ; , . ; ; = ; ; ; = ; = ; , ; ; = ; ; ; ; ; = ; , ; ; : ; , = , 3 g J i.N.3XBXPXIXJXvXXXm.1.V p 4 ; ; , , ; : @ : ; ; ; 1 ; ; 1 1 ; ; 1 ; ; ; 1 2 $ 1 ; 1 2 ; 2 2 ; 2 2 ; 1 2 ; 2 ; 2 ; ; ; 2 @ 1 2 1 ; 2 ; 2 2 2 % ; 2 2 ; 2 2 2 2 ; 2 ; 2 ; 2 ; 2 > < 2 2 2 4 ; 2 ; 2 ; 2 2 2 2 2 2 2 2 ; 1 2 2 2 2 2 1 2 2 2 2 2 2 2 2 2 2 2 2 4 2 2 2 2 2 S 2 2 2 2 2 2 2 u u 2 2 2 % u u 2 2 u 2 2 2 u 2 u u 2 2 2 u % % u u 2 r % 8 2 2 8 % 8 2 2 2 2 2 % 2 2 D u u 2 % 2 2 2 2 u 8 % r D r r 2 u % u % 8 u % r % % 8 u % r r % D 8 r 8 u % r % % % u u u u % 2 p % % 2 D 2 % 2 % u 2 2 u u 2 u 2 u 2 2 u 2 2 2 2 2 2 2 4 4 2 2 2 2 2 2 u 2 2 3 % s % $ 2 r % 1 2 2 2 2 2 2 2 2 2 2 2 2 2 2 2 2 2 2 2 ; 2 2 2 2 ; 2 > 2 ; 2 ; 2 ; < > ; 2 2 2 < ; 2 2 4 2 2 ; 2 2 2 2 2 2 4 > L ",
"; 2 2 2 % 1 2 @ $ ; @ 2 2 ; ; % $ 2 2 ; ; ; ; 2 ; @ 2 2 2 ; 2 ; 2 ; @ 2 1 2 $ 2 2 ; ; 2 ; ; ; 2 2 ; ; 1 2 ; ; 2 ; 2 2 ; 1 2 ; 2 2 ; ; 4 1 ; ; 2 2 ; 1 ; ; 1 ; 2 ; 1 ; 1 ; 1 ; ; ; ; 1 ; ; 1 ; 1 ; 2 ; ; 1 ; 1 ; ; 1 ; 1 1 ; ; 2 1 ; 1 ; ; 1 ; 2 ; 1 1 ; 1 ; ; ; 1 ; ; ; , 1 ; 1 ; 1 1 ; ; 1 ; 1 ; 1 1 ; ; 4 ; ; ; 2 ; ; < ; ; ; ; ; ; ; ; ; ; : ; ; ; ; ; = ; ; ; ; : = ; , ; = , ; ; = ; ; ; ; ; ; = ; ; : ; = ; ; . , ; ; ; : = ; ; . = , , . : ; = ; ; ; : = ; : , ; = = , . ; ; = ; , = . ; ; ; ; ; , ; ; : ; , = ; , = ; ; = ; = , ; = : = ; , = : = ; ; ; ; , ; ; = : , = = ; = ; ; = ; = ; ; ; = ; ; ; : , = = ; 1 g J r.m.*XcXFXJXFXpXoXl.r.R y 3 : ; ; ; ; , ; ; ; ; 1 < ; ; ; ; , , ; ; ; ; ; ; 1 ; 1 ; 1 1 ; ; ; 4 ; 2 ; 2 2 2 ; 2 ; 2 $ ; 2 @ @ 2 2 ; 2 2 ; ; 2 2 ; ; 4 2 2 2 ; 4 2 2 2 2 2 2 2 2 2 ; ; 2 ; 4 ; 2 2 ; 2 ; 2 2 2 2 2 2 2 2 2 2 2 2 2 2 2 2 2 2 2 2 2 1 2 2 4 2 2 2 2 2 4 2 2 2 2 2 3 u 2 2 u u 2 2 2 u u 2 2 2 2 D % 2 2 2 % 2 % 2 u 2 2 2 2 2 2 % u 2 u D 2 r 2 2 2 2 2 8 r u 2 u % u % 2 u u % u % u % % D D % u % u % r r % D r D u r r u % 2 D % % r % u r 8 u p u D u p u u 2 2 2 2 2 2 u 2 % r 2 2 2 2 2 u 2 2 u 2 2 2 u u 2 2 2 2 2 1 2 2 2 2 2 2 2 2 2 2 2 2 r u ; 2 % u 2 2 2 2 2 2 2 2 2 2 2 2 2 % 2 1 2 ; 2 2 2 2 ; < 2 1 ; 2 2 ; 2 2 ; > 2 2 2 2 2 ; 2 2 ; 2 2 ; 2 2 ; 2 2 2 ; 2 2 2 L ",
"; 2 @ 2 2 ; 4 ; ; 2 1 2 ; % 2 ; ; ; 2 2 $ 2 2 ; 2 1 2 @ ; $ 2 2 ; 2 2 ; @ 2 ; ; ; 2 < ; 2 ; 2 ; ; 2 2 ; ; 2 2 ; ; ; < ; 2 ; 2 ; ; 2 ; 1 ; 2 2 ; 1 ; ; 2 ; ; 1 ; 2 ; 2 ; 2 ; 1 1 ; 2 ; 1 1 ; 2 ; 1 ; 1 1 ; 1 $ ; 1 ; 2 ; ; ; 1 ; ; 2 ; 1 ; ; 1 ; 2 ; ; 1 ; 1 1 ; 1 ; 1 ; 1 ; ; ; ; ; ; , ; ; , ; , ; ; , ; ; 1 < ; ; ; < ; ; > 2 ; ; ; 3 ; ; 1 ; ; : ; ; = : ; ; : ; ; ; ; = ; ; = ; ; ; = , = ; , = , ; ; = ; ; = : ; , ; = ; = , ; ; , ; ; ; ; = ; , ; ; = ; ; ; ; = = ; ; ; ; : ; = , ; ; , ; = : , = ; ; = , ; = ; = : ; = : , ; ; ; ; , ; ; = ; ; ; ; ; , = ; = . , ; ; ; ; ; ; , ; ; : ; , , . ; , = ; ; ; ; ; ; ; 3 p j _ f.{.4XdXdXsX:XE.y.! V 4 , ; ; ; ; ; , ; ; ; : ; 1 ; ; 1 ; 1 ; ; ; 1 2 ; 1 ; ; 2 1 ; ; 2 ; 1 ; 2 ; 2 ; ; ; 2 ; 2 2 ; 2 % 2 2 2 ; 2 ; $ ; 2 ; 2 2 > 2 2 2 2 > ; 2 2 2 ; 2 2 2 ; ; 2 2 2 2 ; 2 > 2 2 2 2 2 2 2 2 2 2 2 2 2 2 2 1 2 1 2 2 1 2 2 2 2 2 2 1 2 4 2 2 2 2 2 2 2 2 2 2 D % u 2 2 % u 2 2 2 2 2 u u u 2 2 u 2 u u 2 D 2 2 2 u u 2 2 % D 2 2 2 % u D % 2 D u 2 r r % 8 2 % r u % D r u % D r u u % u % u u D r % D u r 2 % 2 % D % D r % u D D % % 2 3 u p h F R T J s p u u 2 2 D % 2 8 u 2 u u % u 2 2 u 2 2 u % % 2 2 u u 2 2 D u 2 2 u u 2 2 2 2 4 2 7 @ 2 < 2 % D ; 2 1 2 2 ; 2 1 2 2 2 1 2 1 2 2 2 2 2 2 1 ; 2 2 2 ; 2 2 2 2 ; 2 4 2 2 ; ; 2 2 2 2 ; 2 2 2 2 2 2 2 2 2 ; 2 2 2 @ L ",
"1 ; 2 2 2 2 2 2 2 2 ; 2 2 ; 2 2 2 ; 2 ; 2 ; ; 2 @ 2 ; 2 2 ; % 1 2 ; 2 2 2 ; @ 2 2 ; 2 2 ; 2 ; 2 2 2 ; 2 ; 2 ; 2 1 2 ; 2 ; ; 4 2 1 ; 2 ; 4 ; ; 2 ; 2 ; 2 2 ; 2 ; ; ; ; 2 ; 2 2 ; ; 1 ; 1 $ 2 ; ; 1 ; 2 ; ; 1 1 ; ; 1 2 ; 1 ; ; 1 ; 1 ; 1 2 ; 1 1 ; 1 $ ; ; 1 ; 2 ; 1 ; 1 1 ; 2 ; , ; 1 ; ; ; ; ; ; ; 1 ; ; , 1 ; ; 2 ; ; 2 ; ; 4 ; ; ; ; ; ; , ; ; ; : ; ; ; ; ; ; , ; : = ; , , ; = ; , ; ; ; , ; ; ; = ; ; = = ; = ; ; ; : = , ; ; , , ; = , ; ; = ; = : , = ; ; ; = : ; ; ; = = ; ; : = ; = ; ; , ; ; , = ; ; : ; ; = ; ; ; , ; ; , ; : = , ; ; ; ; , ; ; ; , ; = ; ; ; ; : = , = ; , ; ; ; ; , = ; ; , ; ; , = = , ; : 4 j V r.m.E.XXOX|.I.l._ B h 4 ; ; , ; ; ; 1 ; ; ; ; 1 ; ; 4 ; ; ; ; 1 , 1 ; 1 1 ; 1 ; ; 2 ; 1 ; 2 ; ; ; ; ; ; 2 2 ; 2 2 ; 2 ; % 2 ; 2 @ 2 2 2 1 2 ; 2 2 ; 2 ; ; 2 2 2 ; 2 2 ; 2 2 2 2 2 2 2 ; 2 ; 2 2 1 % 1 1 2 2 2 2 2 2 1 2 2 2 2 2 ; 2 2 2 2 2 2 2 2 2 2 u 2 u 2 2 2 2 2 2 2 2 2 2 2 u u 2 u % 2 D 2 % 2 u 2 % 2 u u 2 2 2 u u % 8 u % % u u u 2 8 2 D 2 2 2 u 2 % r u % u r % D D 8 r % D u 2 % 2 D % % u 2 r 8 % u % u 2 2 % 2 u D % u u r u D r % % 8 % r D D R Q Q <.1.! B c s u 2 2 2 % % D 2 2 r r r % 2 2 2 2 2 u D % u u 2 u 2 2 u 2 2 u 2 2 u 2 2 2 2 % 1 u Y % 2 2 y 2 2 2 2 2 2 2 2 2 1 1 2 2 2 2 2 2 2 2 > ; 2 2 2 2 2 2 2 2 2 ; 2 2 2 4 ; 2 ; 2 2 2 2 2 ; 2 2 ; 2 2 2 2 2 2 2 1 > L ",
"$ 2 ; 2 ; 2 2 ; 2 ; 2 2 2 ; 2 ; ; 2 ; 2 % 2 2 2 2 ; 2 2 ; 2 2 ; ; > ; 2 ; 2 2 ; % 2 ; 2 2 ; 2 ; ; 2 2 @ 2 ; 2 ; ; 1 < ; 2 ; ; ; ; 2 ; 2 ; 1 2 ; 2 ; 2 ; ; 2 ; 2 ; 1 2 ; 2 ; ; 2 2 ; 2 ; ; ; ; 1 ; 1 ; 1 2 ; ; 1 ; ; ; ; ; 1 1 ; 1 ; ; $ ; 1 ; ; 1 ; 2 ; 1 ; 1 ; 1 ; 2 ; ; 1 ; 1 1 ; 1 ; 1 ; 1 ; 4 ; ; , 1 ; ; ; ; ; < 4 ; ; ; ; ; 1 ; ; 1 ; ; ; ; : ; 1 ; ; ; , ; ; ; = ; ; ; . ; : ; = ; = , . : = ; ; ; ; , : ; , = : = ; ; ; ; = . ; ; ; = ; ; : ; , = ; = ; = : ; ; ; = ; : , = = , ; ; , ; ; = , . ; , ; ; = ; : , = : = ; : ; = ; = ; = ; = , ; = ; ; ; . , : ; = , = ; ; ; ; ; . = ; ; , ; ; , ; = ; . : ; ; ; ; ; 3 p h A @.k.l.m.k.k.~ V V p 1 ; ; ; , ; ; ; ; ; ; ; , ; < ; ; ; ; , ; ; ; 1 ; ; 2 ; 1 1 ; 1 ; 1 ; ; 1 2 2 2 2 % ; $ 2 2 ; ; 2 ; ; 2 2 2 2 ; @ @ 2 2 2 2 2 2 2 1 2 ; 2 2 2 2 ; 2 ; 2 ; 2 ; 2 2 2 2 2 2 1 2 1 % 2 1 2 % 2 2 2 2 2 2 2 ; 2 2 2 2 2 2 2 2 2 4 2 2 2 2 4 2 u 2 2 u 2 u 2 2 2 2 2 2 u 2 2 u u u 2 2 2 u u 2 2 2 u 2 2 % r r 2 r 8 r 2 2 % r 2 % 2 2 8 2 u u 8 % % u % r r 2 % u % r r u D r u 2 D r % D r u % 8 r % r D D % % u % u D 2 % u % D u 2 u f R <.<.u.u.j.4.<.<.F s u u % % 8 r 2 u % 8 % 2 D u 2 u 2 2 2 u 2 2 2 % 2 u 2 u 2 D 2 2 u 2 u 3 2 2 a ].].s r 2 % 2 2 1 ; 2 2 ; 2 2 2 2 2 2 2 2 2 1 2 4 1 2 2 2 2 2 ; > 2 2 2 < 2 2 ; 2 2 2 2 ; 2 ; 2 < 2 2 ; 2 2 ; % # 2 ; 2 3 > L ",
"> 2 ; 2 ; 2 2 2 ; 2 ; 2 2 2 ; 2 2 ; 2 2 2 2 ; ; 2 2 2 ; 2 ; 2 ; 2 2 ; 2 2 2 2 2 ; 2 ; ; 2 2 2 2 ; 2 2 2 ; 2 2 ; ; 2 2 2 2 2 2 ; ; 1 ; 1 > ; 1 ; 1 ; ; 2 2 ; 2 ; 1 ; 4 ; ; 2 ; ; ; 1 1 ; 1 ; 2 ; 2 ; ; 2 ; 2 2 ; 1 ; 1 $ 1 2 ; 1 ; 1 ; 2 1 ; 1 ; ; 1 ; 1 ; 1 1 ; 1 ; ; 1 1 ; ; 2 ; 1 ; 1 ; 1 ; 1 ; , ; ; ; ; 4 ; ; ; ; ; 1 ; ; ; ; , 3 ; ; , 1 ; ; ; : ; . ; ; ; ; : ; ; = , . ; , ; ; ; ; : ; ; ; = , . : = ; ; : = ; = , ; ; ; , ; ; ; ; = ; ; ; = ; ; = ; , : , ; ; = . , ; ; ; : ; ; ; , ; ; ; ; ; ; ; . ; , ; ; = ; = ; ; : = ; ; = , ; : ; , ; ; ; ; = , ; = ; , ; ; , = , : = = , ; ; ; . = ; = ; = ; = ; ; = ; ; ; 3 3 p J V _ <.r.A r.V h p 3 1 ; ; ; ; ; , , ; ; , ; ; ; ; ; ; 4 ; , ; ; ; ; 1 1 @ 1 ; 2 ; ; 1 ; 2 ; 2 ; 2 $ ; 2 ; ; 2 2 1 ; 2 2 2 2 @ 2 ; ; 4 2 2 ; 2 2 ; 2 < 2 2 2 ; 2 2 ; 2 2 2 ; 2 ; 2 ; 2 > 2 2 ; 2 2 1 2 2 2 2 1 2 2 2 2 2 2 2 1 2 2 1 2 1 2 2 2 2 2 2 2 2 2 2 u u 2 D 2 u 2 u u u u r 2 u 2 u 2 2 2 2 u % u 2 2 D % r % 8 % 8 % 8 % 8 % 2 u u % u u D r % D D % % u D % u D % u r u D % D % u u % D 2 2 2 D % % u u r D u % % u % u D r % 2 u % r % u u F R ~ 5.n.].{.{.N.j.3.Q D s u 8 2 r u 2 8 % 2 8 8 2 2 2 u 2 2 u 2 2 2 u 2 u u 2 2 2 2 2 u % 2 2 u 2 2 a ].[.r r 1 2 % 2 2 2 1 2 2 2 2 2 2 2 2 2 2 1 1 % ; 2 2 2 2 2 2 2 ; ; 2 2 ; ; 2 2 ; 2 ; 2 2 2 2 2 2 2 1 ; 2 ; 2 1 2 > 2 2 2 # L ",
"> 2 2 2 2 2 < 2 2 2 ; 2 ; 2 2 2 2 2 2 ; ; 2 2 2 ; 2 2 ; 2 2 2 2 2 2 2 2 ; 2 ; 4 2 2 2 2 ; 2 ; 2 2 2 2 ; 2 2 2 2 2 2 2 ; 2 ; 2 2 2 ; 2 ; 2 ; 2 2 ; 1 ; ; ; < ; 2 2 ; ; 2 1 ; < 2 2 ; ; 2 ; 2 ; 1 ; 2 ; ; 2 ; ; 2 ; 2 ; 1 ; ; 1 ; 2 ; 1 ; ; 1 ; 2 ; ; 1 ; ; 2 ; 1 ; ; 2 ; ; 2 ; ; 4 ; 1 ; 2 ; 1 ; ; ; 1 ; ; , ; ; ; 1 , ; ; ; ; 2 ; ; ; ; ; ; ; ; ; ; ; ; ; ; = : ; ; ; = ; ; , ; = ; = : = ; ; ; ; ; ; , ; = , = ; ; ; , = ; ; = : = = ; ; , : = ; , = : ; ; ; = = ; ; , ; ; ; ; ; = = ; , . = ; = , = ; ; ; = = : = ; ; ; ; ; ; = ; ; , . ; ; = . ; ; = ; : ; ; ; ; ; = ; . ; ; ; ; ; ; = : ; ; , ; = : : ; ; : : ; , ; ; 1 2 y g h B V E h j g h 3 ; , ; ; ; , ; ; 1 ; ; 1 ; > 2 ; 2 ; ; ; 1 ; , ; 1 ; ; 1 ; 1 ; 1 ; ; 1 ; 2 ; ; 2 2 ; 2 2 2 ; ; 2 2 2 ; 2 4 ; 2 2 2 2 ; 2 ; 2 2 ; 2 2 2 ; 2 ; > < 2 2 2 2 < 2 2 2 2 2 < 2 2 2 2 2 2 2 % 1 2 2 1 2 ; 2 2 2 2 2 2 2 2 2 2 3 2 2 2 8 2 4 2 2 2 2 2 2 % 2 u 2 2 % u 2 D 2 2 u r 2 2 u 2 u 2 2 2 u r % 8 8 r r r r r r 2 u 2 2 % D % u % r % r 2 r u u % u % u u % 8 % u u % u % % u r % u u % u u u % u % u u % u u 2 % u % u u 2 u u u u f Q 1.M.oX8XlXtX@XP.j.Q R s u % u % u 2 % r u % r u % u % u 2 2 2 u r % 2 2 2 2 u u 2 2 2 2 u u 2 2 4 4 $ r r % $ u u 2 2 2 2 2 2 2 2 2 2 ; 2 2 2 2 2 1 2 2 2 2 2 2 ; 2 4 2 2 ; 2 2 2 2 ; 2 2 2 ; < > 2 2 ; 2 2 2 2 1 2 2 2 2 ; 2 2 L ",
"; 3 2 2 2 2 2 2 2 2 2 1 2 2 2 2 2 2 2 1 2 2 2 ; 2 2 2 ; 2 ; 2 2 ; 4 2 2 2 ; 2 ; 2 ; 2 2 2 2 2 2 2 ; ; 2 2 2 2 > 2 > ; 2 2 2 4 ; 2 2 > ; 4 2 2 ; 2 ; 2 ; 2 @ 2 ; 2 ; 2 ; 2 2 ; 2 ; 2 ; 2 2 ; 2 2 ; 2 % @ 2 2 2 ; ; ; 2 ; 2 @ ; 1 ; ; 1 ; 1 2 ; 1 ; 1 ; 1 ; 1 2 ; 1 ; ; 1 ; 1 ; 1 1 ; ; 1 ; 2 ; ; ; ; 1 ; 1 ; ; ; ; 1 ; ; ; ; ; 4 ; 1 ; ; ; 4 ; , ; ; , ; ; ; ; ; , ; ; ; : ; ; ; ; ; ; ; ; ; ; 2 , . > ; . 4 1 3 3 ; ; 1 ; . 3 ; ; ; : 1 ; : ; ; : ; ; ; ; ; ; , ; , : ; ; ; : ; ; : ; ; ; ; ; ; ; : : ; ; ; : ; ; ; ; : ; ; ; ; , : ; ; ; : ; ; ; ; ; ; ; ; ; ; : ; ; ; ; ; : ; ; @ ; ; ; ; ; ; ; ; : ; ; : ; ; ; ; , ; ; 1 ; 1 3 3 4 p p p 4 1 1 1 1 @ ; ; ; 1 ; ; 1 , ; ; ; 1 1 ; 1 ; ; 2 ; 2 1 ; ; 2 ; 2 ; 2 % 2 ; 2 ; % ; 2 2 2 2 2 2 ; 2 > < ; 2 2 2 ; 1 2 2 2 2 2 2 2 2 2 2 1 2 2 1 2 2 2 2 ; 2 2 2 2 2 2 2 2 2 2 2 2 2 2 1 % 2 1 2 3 % 2 y 2 u 2 2 2 2 2 u 2 % u % u 2 2 % 3 1 2 2 2 2 u 2 u 2 % u 2 u u u 2 u u u % 2 u u u u 2 2 u r % u u % u r 8 % u D u r 8 u % u D % u u % D % r D D r 8 % u % D r u 2 r u 2 r D 2 % u u % u 2 u u u D u % u r 2 u % u u u r u u r u u u u c 4.j.U.8XVXFXDXlXXXn.4.Q F u u u 2 % u u % u % % r % 8 % r D % u u 2 8 u u r u u 2 u % 2 2 u 2 2 2 2 2 2 u u 2 2 2 2 u 2 2 u % 2 y % 2 2 2 y y % 2 y % ; 2 1 2 2 1 2 2 2 1 2 2 2 2 1 2 2 2 2 2 2 2 2 2 1 % 2 2 2 2 2 2 2 2 2 2 2 % L ",
"1 2 1 2 2 2 % 1 2 2 2 2 2 2 2 ; 1 2 2 2 2 2 2 2 2 ; 2 ; 2 2 2 ; 2 2 ; 2 2 2 2 2 2 2 2 ; 2 2 ; 2 2 4 2 2 2 2 4 ; 2 2 4 ; 2 ; ; > 4 ; 2 2 2 ; 2 2 ; 2 2 2 2 2 2 ; % 2 ; 2 ; ; 2 ; 2 ; ; > ; 2 2 ; 2 ; ; 1 2 ; ; 2 2 $ 2 2 2 2 2 ; ; 1 ; 1 ; ; 1 ; 2 ; 1 ; ; ; ; ; ; 2 2 ; 1 ; 2 ; ; 1 1 ; 1 ; 1 ; 1 2 ; 1 ; ; 2 $ 1 ; 1 ; 1 ; ; ; , ; ; , ; ; ; 1 ; ; 1 ; ; ; : ; ; , ; ; ; ; ; : ; ; : ; : ; 1 . 2 ; ; ; 3 3 E _ h p ; ; > , . 1 ; ; ; ; ; ; ; ; ; ; ; : : ; ; , ; ; @ ; ; : ; ; ; ; ; ; ; : ; ; ; ; ; ; ; ; ; ; : ; , ; ; ; ; : ; , ; ; ; ; ; ; : ; : ; ; @ : ; ; ; ; : ; ; ; ; , : ; ; ; : : ; ; : ; ; ; ; ; ; ; ; : @ ; ; 1 . , 1 3 1 4 3 1 1 1 ; ; 1 ; , ; ; ; 1 ; ; ; 1 ; 2 ; 1 ; 2 1 ; 1 ; ; 1 1 ; 1 ; 1 ; ; 2 2 ; ; 1 2 ; 2 ; 2 ; 2 2 2 2 2 2 2 ; 2 ; 2 2 2 2 2 1 % 1 ; 2 2 2 2 2 2 2 2 2 2 2 2 2 2 2 2 2 4 ; 2 2 2 1 2 2 2 2 3 2 % 2 2 u % 2 % 2 u r 2 u 2 2 u 2 2 2 u 2 D u u 2 u u u 2 2 u 2 u u 2 % r r u 2 2 u u u u u % % u u 2 2 D % u 8 r D % u % % 2 u % % 8 u % u % D u u % r % r % r D r r % D % D D % 2 D r 2 u u u u u u r u r r u u u u u u u u u 2 2 u u % % 2 u D Y 1.l..XpXFXIXPXvX=XJ.1.R F u 2 2 u D r r D 2 u r D D r u r 2 u 2 r u r u 2 u 2 u 2 2 u u 2 u 2 2 2 2 u 2 2 % 2 u u 2 % 2 u 2 u 2 % % u % u % % y % 2 2 2 2 2 2 2 2 2 2 2 2 2 2 2 2 2 2 2 2 2 2 2 2 2 1 2 2 2 1 2 2 1 2 2 2 2 2 2 # I ",
"% 2 1 2 2 2 2 2 2 2 1 2 2 2 2 2 2 2 2 2 2 2 1 ; 2 ; 4 2 4 ; 2 2 2 ; 1 ; ; 2 2 2 2 2 2 2 2 > 2 ; ; ; 2 ; 2 2 ; 2 2 2 2 ; 2 ; 2 2 ; 2 ; 2 ; 2 ; 2 ; 2 > 2 2 2 2 ; ; 2 2 ; 2 2 2 2 2 ; 2 2 2 2 2 ; 2 2 ; 2 1 2 $ ; 2 ; 2 ; ; 2 @ 2 1 ; 2 ; ; 1 $ ; ; 1 2 ; 2 ; 1 $ 1 ; 1 ; 1 ; ; 1 2 ; 1 ; ; 1 $ 2 ; 1 1 ; 2 ; ; 1 ; 2 ; 2 , ; ; , 1 ; ; 1 ; ; ; ; 1 ; 1 ; ; ; : ; : ; ; ; ; ; ; ; ; : : ; ; ; ; : ; ; . 1 3 _ 3XzX).3 1 ; ; 1 . ; : ; ; ; ; , ; : ; ; ; ; : ; : ; : ; ; ; ; ; : ; ; 1 ; : ; : @ 1 , ; : ; , ; ; ; ; ; ; ; 1 ; ; ; , ; ; : 1 ; ; ; ; : ; ; , : ; : ; ; ; ; : ; ; ; : 1 : ; ; ; : ; ; : ; ; ; ; , : ; : ; : : ; ; : ; : : ; ; ; ; 1 2 ; 1 ; ; 3 1 ; < ; 1 ; ; 1 ; < 1 @ 1 ; ; ; $ ; 2 ; 2 1 ; 1 ; 2 2 ; 2 ; 2 1 $ 2 2 2 2 ; 2 2 ; 2 4 ; 2 2 2 2 2 2 2 2 2 2 2 2 1 2 2 2 2 1 2 2 2 ; 2 2 2 1 2 1 ; 2 2 2 2 2 2 2 2 2 2 2 2 % % % u 2 % y u % % 2 % 2 2 u u 2 u 2 u 2 2 u r D u u 2 2 2 2 u 2 2 2 2 8 2 u u r 2 u u % u % u u % u u % u % % u r r % u % r % u r r u % 2 % r % u u 8 r r r 8 % % D 2 u 2 r D % r 2 r u u u u u u % u % r 2 u 2 u 2 2 u % u 2 u u u 2 % u r u p J <.j..XiXFXIXJXvXOXM.1.Q s D 2 u D 2 2 D % % D % u u % u % u 2 2 u u 2 2 u 2 u u r % u 2 2 2 2 2 2 2 u u 2 2 u 2 2 2 u 2 2 u 2 % y 2 2 2 2 % u % % % 2 2 2 2 2 2 2 ; 2 2 2 2 2 1 2 2 2 2 2 2 2 2 2 ; 2 2 2 1 2 2 2 2 % 2 ; ; 2 2 % L ",
"1 2 % 2 2 2 % 1 ; 2 2 2 1 2 2 2 2 2 2 2 2 2 2 2 2 2 2 2 2 2 2 2 2 2 2 2 2 2 2 ; ; > 2 ; 4 ; 2 2 2 2 2 2 2 ; 2 2 2 ; 2 2 2 2 2 2 2 2 2 2 2 2 2 2 2 4 ; 2 ; 2 2 2 2 2 2 2 2 ; ; 2 2 2 2 2 ; 2 ; 2 @ 2 2 ; @ 2 ; 2 ; 2 ; $ 2 ; 2 ; ; 1 ; 1 1 ; 2 ; 1 ; ; ; ; 1 ; 1 ; 1 ; 1 $ 1 ; ; ; 1 ; 1 1 ; ; ; 1 ; ; 1 ; 1 1 ; 1 ; 1 ; ; ; 1 ; ; , ; ; ; 3 ; , ; ; , ; ; : 1 ; ; ; ; : ; : ; ; ; ; ; ; ; ; : 1 , ; ; ; : [ lXAX X3 : 1 ; 1 2 ; ; ; ; @ : ; 1 ; ; : ; ; ; ; ; ; ; ; ; : ; 1 ; ; : ; ; ; ; ; : , ; , ; ; ; ; ; : ; ; : ; : @ ; ; : ; ; ; @ : , ; ; 1 ; ; ; ; ; ; ; : , ; ; 1 ; : ; ; ; ; ; ; ; ; ; ; ; , ; ; ; @ ; ; ; ; ; ; ; , ; ; , ; ; ; ; 1 ; ; ; ; ; ; ; ; , ; ; , , ; ; 1 ; 2 ; 1 ; 1 1 ; ; 1 ; ; 1 ; 2 ; ; $ 1 2 % ; ; 2 2 2 2 1 ; 2 2 4 2 2 2 ; 2 ; 2 2 2 2 ; 2 2 2 2 2 1 2 2 2 2 2 2 2 2 2 2 2 2 2 2 1 2 2 2 2 2 2 2 ; 2 2 2 % u 2 2 2 2 % 2 % 2 u u 2 2 2 2 2 u 2 % 8 1 u u ,.s u 2 2 u 2 2 2 2 u u r 2 u 2 u u % 2 D u u u % D r r 8 D u u % % D u u D % r D D % r 8 r D r r % u % u D 2 r r u 2 r u u r u u D 2 u u u % % u u u u 2 2 D r u r u u r u u u r r u u D 2 u u u Y Q 5.U.=XdXvXvX6X.Xx.<.Q D u u 2 2 % D % 2 u r u u % 8 u u r u u 2 u r u u % u 2 u u 2 u u % u u 2 2 % 2 u 2 u % u 2 u u 2 2 2 % 2 2 r r 2 2 2 2 y y % 2 2 2 1 2 2 2 2 1 2 2 2 ; 2 2 2 2 2 2 2 2 2 2 2 2 1 2 2 1 2 2 1 2 2 2 2 2 % L ",
"$ 2 2 2 2 2 2 2 2 2 1 2 2 1 % 1 2 2 2 2 2 2 1 2 2 1 2 2 2 2 2 2 2 2 2 2 2 2 2 2 4 ; 2 2 2 ; 2 ; ; 2 2 4 2 2 2 2 2 < 2 2 2 ; < 2 ; < 2 ; 2 < 2 2 2 2 2 2 2 2 4 ; ; ; 4 2 ; 2 2 2 2 ; ; 2 2 2 2 ; ; 2 @ 2 ; 2 2 ; 2 1 @ 2 2 ; 2 2 1 ; % 1 ; ; 2 $ 1 % ; $ $ 2 % ; ; 1 ; 1 ; ; 1 ; ; 1 ; ; ; ; 1 ; ; 1 ; 1 ; 1 ; 1 2 ; 1 ; ; , ; ; ; 3 ; ; ; , ; 3 , ; ; , ; , ; ; ; ; ; ; 1 ; ; ; ; 1 : ; ; ; 1 . ; ; 1 ; 3 N ).OXi.i , ; . = ; ; ; ; ; ; ; ; ; ; ; ; @ : ; : ; ; : ; ; ; ; : ; ; ; ; ; : ; : ; ; ; @ ; ; : 1 ; ; ; ; ; ; ; ; ; ; @ ; 1 ; ; ; : ; ; ; : @ ; ; ; ; ; ; : ; ; ; ; ; ; ; , ; : ; ; 1 ; ; ; ; : ; 1 ; ; ; : ; : ; ; ; ; 1 @ ; ; ; ; ; ; ; , ; ; ; ; ; ; , ; ; ; ; ; ; 1 ; 1 ; 1 ; ; 1 ; 1 ; ; ; 1 ; % ; 2 ; ; 2 < 2 2 > ; ; 4 2 ; > ; ; 2 2 ; 2 2 2 2 2 2 2 1 2 2 2 2 2 2 2 2 2 2 2 2 1 2 2 2 1 2 2 2 ; 2 2 2 2 2 2 1 3 2 2 u J D 2 2 r 2 y % 2 u 2 2 u 2 2 u 2 2 u 2 % u u ,.s u 2 2 % u u r % u u r u u u 2 u r % % % u % u r u u r r % % 2 u % u % r u u % u r u r D % r 8 % u 2 u u u u u u u r u u 2 u 2 u r 2 u u u 2 u u 2 u u u % u u D 2 u r u u % u u 2 r D u u 2 u f Q <.v.U.OX1X*X.XG.h.Q T u u 2 r 8 u 2 u u u u % u u r % D 2 D 2 2 2 u % u 8 r r D 2 u u 2 2 2 2 u 2 u 2 2 u 2 u 2 2 2 u 2 2 2 u u 2 2 y % 2 2 % y y 2 % % 2 2 2 2 2 2 2 2 2 1 2 2 2 1 2 2 1 2 2 1 2 2 1 % 2 % 2 1 2 2 2 ; 2 2 2 % L ",
"1 2 1 2 2 1 2 2 2 2 2 2 2 2 2 2 ; 2 2 2 2 2 2 2 2 2 2 2 2 2 2 ; 2 1 2 2 2 2 2 2 2 2 2 2 2 2 2 2 2 2 ; ; ; 2 ; > ; 2 ; 2 2 2 2 2 2 2 2 2 2 > 2 ; 2 ; ; 2 ; 2 ; > 2 2 2 ; 2 2 ; 2 2 2 2 2 2 ; 2 2 2 2 2 2 2 2 ; 2 % ; ; 2 2 ; ; 2 % 2 ; ; 2 2 2 ; ; 2 2 1 ; ; 1 1 1 ; 1 ; ; 2 ; 1 1 ; ; 2 1 1 ; 1 2 ; ; $ 1 ; 2 ; ; 2 < 1 1 ; ; 1 ; ; ; , 1 ; ; ; 1 ; 1 ; 1 ; ; ; ; ; : ; ; : : ; ; ; ; ; ; ; , @ ; ; @ ; : 3 3 3 3 3 , ; , ; ; : ; : ; , ; ; : ; ; ; 1 , ; ; ; ; ; ; ; 1 ; ; ; 1 ; ; ; ; ; ; ; ; 1 : , ; @ ; : ; ; : : ; ; ; , ; ; ; @ : : ; ; ; : ; , ; ; ; ; ; ; : ; ; : ; ; ; ; ; ; ; ; ; ; : ; : ; ; ; ; ; : ; ; ; ; ; ; ; ; ; @ @ ; ; ; ; 1 ; 1 ; ; , , ; 1 ; 1 1 ; , 1 ; 2 ; 1 2 ; ; 2 1 ; 1 ; 2 $ 1 ; 1 ; 2 2 % 2 2 2 ; 2 ; 4 > 2 2 2 2 2 ; 2 2 2 2 2 2 2 2 1 2 2 2 ; 2 2 2 2 2 1 2 1 1 2 2 2 2 1 2 2 2 2 2 2 1 2 2 2 2 2 2 2 2 3 ` J 2 2 2 2 2 u 2 u 2 u % u 2 2 u 2 2 2 2 u u s u % % u u 2 2 u u u r % r 2 D % u % D r D r D % % 2 2 % % r D r u u % 8 D % u % % D % D u u u 2 % u r u u % u 2 2 u u 2 u u r u 2 u u u u r 2 u u r r u u u u % 2 u 2 u 2 u u u r u u % r u u u u R Q r.j.n.M.M.l.4.<.B Y u u u r u % % u % % u % D % u u % r u r u u 2 2 u r u 2 2 u u % u u 2 2 2 2 u u % u 2 % u u 2 2 2 u u 2 2 y % % % r 2 2 % % % 2 y % 2 2 2 1 2 2 2 2 % 2 2 2 2 2 2 2 2 2 2 2 2 1 2 1 1 2 2 2 2 2 % 2 2 4 # L ",
"1 1 1 2 2 2 2 2 1 2 2 2 2 ; 2 2 1 2 1 2 2 2 2 2 2 ; 2 1 2 2 2 2 2 2 2 ; 2 2 1 2 2 2 2 2 4 2 2 2 2 2 2 > 2 ; 4 ; 2 2 2 2 2 ; 2 ; 2 ; 2 2 2 2 2 ; 2 2 ; > 2 2 2 2 2 2 2 2 2 ; 2 2 2 2 < ; ; 2 ; 2 2 ; 2 ; 2 ; ; 2 2 2 2 2 ; 1 ; $ ; 2 1 % % 2 ; 2 % ; ; % 2 ; 2 ; @ 2 ; 1 ; ; 2 ; ; 2 ; 1 ; 2 2 ; 1 ; ; 2 ; 1 ; 1 1 ; ; ; ; , , ; 4 ; ; ; ; ; ; ; ; , ; ; , ; , ; ; : ; ; ; ; ; ; : ; ; ; ; ; ; 1 ; ; . , ; 1 , 3 ; . ; ; , 1 $ ; ; : : ; ; : : ; : ; ; ; ; ; ; : ; ; ; ; ; ; : @ ; ; ; , ; ; ; ; ; ; : ; ; ; ; ; ; ; : ; : ; , ; ; ; ; , ; ; : ; ; ; : ; 1 ; ; : ; : ; , ; ; , ; : ; ; ; ; ; ; ; 1 ; : @ ; ; ; ; : ; ; ; ; ; @ 1 ; ; ; ; ; 1 ; ; 3 ; ; ; ; ; ; ; , ; 1 , ; 1 1 ; ; 1 ; 1 1 ; 1 ; ; ; ; 1 ; 1 ; 2 % ; ; 2 ; 2 ; 2 2 ; 2 2 ; 2 2 2 2 2 2 2 2 2 2 2 2 2 1 2 2 2 2 1 2 2 2 2 2 2 2 2 % 1 2 2 2 2 2 2 2 2 2 2 2 2 2 2 % 2 2 D !.a.1 2 2 2 2 u u % 2 2 2 u u 2 u 2 2 2 u u 2 2 2 u 2 u u u 2 u u 2 r 8 u 2 % u u u 8 r % % u u D u % D D D % u % D % r % r D u 2 8 % r 2 2 u u u r r u r 2 r u u r u % u 2 u 2 u u u 2 r u u r 2 u 2 r u % u u u u u u u r D r u u u r u r u u D F Y ! 1.<.4.y.~ ! R F u u u u u % r D r 2 u % r D r % % u % % u % u u u u u 2 u u 2 2 u u r 2 u 2 2 2 2 % 2 2 2 2 u 2 2 u % 2 2 2 u % 2 y 2 % 2 r % u 2 r y % 1 2 2 2 2 2 2 2 2 ; 2 2 1 2 2 2 2 2 2 1 2 2 2 2 2 2 2 2 1 1 2 2 2 2 L ",
"% 2 2 2 2 2 2 2 2 2 2 2 2 2 2 2 2 2 2 2 1 2 2 2 2 2 2 2 2 2 2 2 2 2 2 2 1 2 2 2 ; 2 2 2 ; 2 2 2 ; 2 2 2 2 2 2 2 2 ; 2 ; 2 2 2 ; 2 2 2 ; 2 ; 2 2 ; 2 4 2 2 2 2 2 ; 2 2 ; 2 < > 2 ; 2 2 2 2 2 2 2 4 ; 2 2 2 2 2 2 ; 2 ; 2 2 2 2 1 ; % ; 2 ; ; 2 ; 1 ; 2 2 ; 2 ; 2 1 ; 2 ; 1 1 ; 1 ; $ 1 ; 1 ; ; 1 ; 1 ; ; 2 @ 1 ; 1 ; 1 1 ; ; 1 ; ; ; , 1 ; , ; 4 ; ; ; 3 ; ; 1 ; ; ; : 1 ; ; , ; ; ; ; : ; , @ 1 ; 1 : ; ; > @ @ @ ; 4 ; . > ; ; ; ; ; ; ; ; ; ; ; ; ; ; : ; ; ; ; : ; ; ; : , ; ; @ : ; : ; ; ; : ; ; ; ; : ; ; 1 ; ; ; ; ; ; ; ; : ; ; ; ; ; ; ; ; ; ; : ; ; ; ; ; ; ; ; ; : @ ; ; ; : ; : ; ; ; : , ; ; : ; ; 1 ; ; : ; ; : , ; ; : ; ; ; , ; , ; ; 1 , ; 3 ; ; ; ; ; ; ; ; @ 1 ; 1 ; ; 1 ; 1 ; 2 1 ; 1 ; ; 2 ; 2 2 2 ; 2 2 2 2 2 2 2 2 2 ; 2 2 2 ; 2 2 2 2 2 2 2 2 2 2 2 2 2 ; 2 2 2 2 2 1 % 2 2 2 2 2 1 2 2 2 2 1 2 2 2 2 u 2 2 u J _.!.p y % 2 u % 2 2 u u 2 % u 2 2 2 u 2 % 1 2 u 2 u 2 u % u u u % u r 8 r % D r % u % u 2 u u % % u u r r 2 u % u r 2 u u 2 % 2 u r u r u u r u u u D % u u u 2 u u u u r D r r D r r u u 2 u u u u u u u u u 2 r u % u u 2 2 u u 2 u u u u u % u u f c Q Q ~ Q B Y c p D r % u u u D % D % r 8 r % 2 D D % u u % D % u r 2 2 u % u u r u 2 2 D % u u 2 u u 2 u u 2 2 2 u % u 2 u u 2 2 % y % y 2 2 y % u % y 2 2 2 2 1 2 2 2 ; 2 2 1 2 2 2 2 ; 2 2 2 2 2 2 1 % 1 2 2 2 2 % 2 2 2 % L ",
"; 1 1 2 ; 2 2 2 2 2 2 2 2 1 2 2 2 2 2 2 2 2 2 2 % 2 2 2 2 2 2 2 2 1 1 2 1 1 2 2 2 1 1 2 2 2 1 2 2 2 2 2 2 2 2 1 2 1 1 2 1 2 1 2 2 2 2 2 ; 2 2 2 2 2 2 2 2 2 2 2 2 2 2 2 2 2 2 2 ; ; 4 2 4 2 ; 2 ; ; 2 2 2 2 2 2 ; 1 2 2 2 2 ; 2 2 2 2 ; 4 ; 2 2 ; ; 2 ; ; 2 ; ; ; ; 2 ; ; 1 ; ; ; 2 2 ; 1 ; 1 ; 1 ; 1 ; 2 ; ; 2 ; ; 1 ; ; 1 ; ; ; ; , ; ; ; 1 ; 4 ; , 1 ; , 1 ; ; 1 ; ; 1 ; ; ; ; ; ; ; , ; ; ; ; ; ; ; ; , ; ; ; ; ; ; ; ; ; , ; , ; ; ; ; ; ; ; ; ; , ; ; ; ; ; ; ; ; ; ; ; ; ; ; ; ; ; ; ; ; ; ; 1 ; ; ; > ; ; ; ; ; ; ; ; ; ; ; ; ; ; ; ; ; ; ; , ; , ; , ; ; ; ; ; ; > ; ; ; ; ; ; ; ; ; ; ; ; ; ; ; ; ; ; ; ; ; ; ; ; ; ; ; ; ; ; ; 1 ; ; ; ; $ > ; 1 ; ; 1 ; 2 ; 2 ; ; ; ; ; 1 ; ; ; 1 1 ; 2 ; 1 ; ; 2 2 2 ; 1 ; 4 ; 2 ; 2 ; ; 2 2 4 ; 2 1 ; 2 1 1 1 2 1 2 1 1 2 2 1 1 2 2 2 1 2 2 2 2 1 2 1 2 2 2 % 2 1 2 u % 2 u 2 % y 2 2 c _ ,X_.R u 1 8 2 1 p u 2 3 2 2 2 2 2 u % u 2 % u u % u u 2 u u u u 2 2 u u % u r 2 u r u % r u u % u % 8 r u u u u u 2 u 2 u r 2 u u u u u u u u u 2 D u u u 2 r u 2 u % u u u u 2 u u u r u u 2 u 2 u 2 u u 2 u % u r u 2 u % u r u 2 u 2 u u 2 u u r u D F F F F F s s u r u 2 2 u r r r 2 u u 2 u u u u u 2 r 2 2 2 2 u % D r u 2 2 2 u r u u % % u u % u 2 u 2 u r 2 8 u 2 2 2 u 2 2 2 u u % 2 2 u 2 2 2 % % y % r 2 2 y % 2 % y % 2 2 2 2 2 r % y % % 1 2 2 2 2 2 2 1 % 2 2 % 3 @ I ",
"% 2 2 2 2 1 2 2 2 2 1 2 2 2 2 2 2 2 2 2 2 2 2 3 $ ; % 3 1 2 ; 2 2 2 2 2 2 2 2 2 2 2 2 2 2 2 2 2 2 2 2 1 2 2 2 1 1 2 2 1 2 1 1 2 2 2 2 2 2 2 2 2 2 2 2 1 ; 2 2 2 2 2 2 2 2 2 2 1 2 2 2 ; ; 2 2 2 2 2 ; 2 ; 2 ; 2 2 2 ; 2 ; 2 2 2 1 ; 2 > 2 2 ; 2 2 2 2 2 2 2 2 2 1 1 1 1 2 ; 2 1 ; 1 ; ; ; 1 ; 1 ; ; ; 1 ; 1 1 ; ; 1 ; 1 ; 2 1 ; 1 ; 4 ; ; ; ; ; ; ; ; ; ; ; ; ; ; , ; ; , ; ; ; , 1 , ; ; 1 ; , , ; ; , ; ; ; 1 ; , ; , 1 ; ; ; ; ; ; 1 ; , ; , 1 ; ; ; 1 ; ; , 1 ; ; , ; 1 , ; ; 3 ; 1 ; , ; 1 ; , ; , 1 ; 1 ; , ; ; 3 ; ; , 1 , ; 1 , 1 , ; ; ; 1 ; , ; ; ; 1 4 ; , ; , 1 , ; ; ; 3 ; 1 ; , ; , ; , ; ; 1 ; , 1 ; ; , ; 1 ; 1 , ; ; 4 ; 1 1 > ; , 1 ; 1 ; ; 1 ; 2 ; 1 1 ; 1 ; 1 2 1 ; 1 2 1 ; ; 1 2 ; 1 2 2 ; 2 ; 2 2 2 2 2 ; 2 2 2 2 ; ; 2 1 2 2 1 2 1 2 ; 2 2 2 2 2 2 2 2 2 2 2 2 2 1 2 2 2 2 2 2 1 2 1 1 2 2 u 2 % 2 % 2 i @ 2 B g.sX-Xr.h r % 2 2 2 2 u u u u u r u 2 u 2 u u u 2 u u 2 u u 2 2 u u r u % u 2 D % % 8 u % D % u u u u % u u % u 2 2 D r u 2 u u u u % u % % u % u u 2 r u r u u 2 u u u u % u r u u % u u 2 u u r D r u r r u u u u u u u u 2 u u u u 2 D r u % u u 2 2 u u u s u u u u u u u u u u u 8 r u u r u u % u 2 r 2 D u u % D % u r u % r D r 2 2 2 u u u 2 u u 2 u r u 2 u r r 2 r u 2 2 2 u 2 2 2 2 u 2 u u % 2 u % y 2 2 % u % % % y % 2 r 2 u % 2 2 2 % u 1 2 2 2 2 2 2 2 2 1 % 1 1 2 % L ",
"; 1 1 2 2 2 2 2 ; 2 2 2 2 2 2 2 2 2 3 2 2 2 1 2 4 1 2 2 2 2 2 2 2 2 2 ; 2 2 2 2 2 ; 2 2 2 2 2 2 2 2 2 2 2 ; 1 2 4 1 1 1 1 2 2 1 1 1 2 1 2 1 1 2 2 2 2 2 2 2 1 2 1 2 2 2 1 2 2 2 2 2 2 2 2 2 ; 2 2 2 2 2 2 2 2 2 2 2 2 2 2 ; 2 2 2 2 2 2 2 2 2 2 ; 2 ; 2 2 ; 2 2 2 2 @ 2 2 2 ; $ 1 ; 1 $ ; 1 2 1 ; 2 1 2 1 1 $ 2 1 ; 1 ; 1 ; 1 ; ; 1 ; 1 4 ; 1 ; 1 ; 1 ; ; 1 1 ; ; ; ; ; ; ; ; 3 1 ; ; 1 ; ; , ; ; 1 1 ; ; 1 ; 1 ; , ; ; 1 ; 3 ; ; 1 1 ; ; , ; ; 1 ; 3 ; ; , , ; 3 ; 1 ; ; ; ; , ; 1 ; , , ; ; , ; ; ; ; ; ; 1 ; , ; ; , ; 4 ; 1 ; 1 ; ; ; ; ; 4 ; ; ; ; ; 1 ; , ; ; ; 1 ; ; 1 ; , 1 , ; ; , ; 1 ; ; , 1 1 ; ; 1 ; , , ; , 1 ; ; ; ; ; ; 1 ; 1 ; , 1 ; 1 ; 1 1 ; 1 ; ; 2 ; 2 ; 1 1 ; 1 ; ; ; 2 ; 1 2 ; 2 1 2 2 2 2 2 2 2 2 2 2 2 2 2 2 2 2 2 2 1 1 2 2 1 2 2 1 2 2 2 2 2 2 2 1 2 ; 2 1 % 2 2 2 2 2 1 % 2 2 2 % u % % u 2 $ 1 2 y p B k.{.MXqXC.r.c s u 2 2 @ % u u % u % u u 2 u 2 u 2 u u 2 2 u % 2 u % u % u % D % u % u D r 2 % u D % D r % u r 2 r u u r u u u u y r % u u u u u u 2 u % u % D 2 u u u 2 r u 2 u u u u % u % 2 u u 2 2 u u r D 2 u 2 u 2 2 u u u u 2 2 u u r u 2 u u r u u 2 u u u u u 2 2 u % u D 2 2 u u u r D u u % u r u u 2 u % r D u u % u % u D % % u u u u 2 u 2 2 u u u u 2 u u u 2 2 u u 2 u u 2 2 u 2 u 2 2 2 u 2 % 2 2 2 % y 2 2 2 y 2 2 y y % % 2 % 2 y % y 2 % 2 2 2 2 2 2 2 % 2 1 2 1 3 % L ",
"1 2 2 2 2 2 2 2 2 2 2 2 2 ; 2 1 2 2 2 2 2 2 2 ; 2 $ % 2 2 2 2 2 2 2 2 1 1 2 2 2 2 2 2 2 ; 2 1 2 2 2 2 2 2 2 2 1 2 2 1 2 1 2 1 1 2 1 ; 2 1 2 1 2 1 2 2 2 1 2 2 2 2 2 ; 2 2 2 2 ; 2 2 2 2 2 2 1 2 2 2 2 2 2 2 ; 2 2 2 ; 4 2 2 2 2 2 2 2 2 2 2 2 ; < 2 2 2 4 ; 2 ; 2 ; 2 2 ; 2 2 1 1 1 2 1 1 % 1 ; $ 1 ; ; ; 1 ; ; ; 1 ; 2 ; 2 ; 2 1 ; 1 ; ; 1 ; 1 ; 1 ; 1 1 ; ; 1 1 ; 1 1 1 1 ; ; ; , ; ; ; ; 1 ; ; ; , ; , ; ; , 1 ; ; 1 ; , ; ; , ; ; , 1 ; ; 1 ; , ; ; ; 1 ; ; ; ; , ; < ; 1 ; ; , ; ; ; ; ; 1 1 ; , 1 , ; ; , ; 1 ; ; ; , ; ; ; ; ; 1 , ; ; ; ; 1 1 ; ; ; ; ; ; ; ; , ; 1 ; , ; ; ; 1 ; ; , ; 1 ; ; ; , ; ; , ; 1 ; ; ; ; , ; , ; 1 , ; 1 ; ; ; ; 1 ; 1 ; ; 1 ; ; 1 ; 1 ; 1 ; 1 1 ; 2 $ 1 1 1 $ ; 1 1 ; ; 1 2 2 2 1 2 2 2 2 2 2 2 2 2 2 2 2 2 1 1 1 1 2 1 2 2 2 1 ; 2 2 1 2 2 2 2 2 2 2 2 2 u 2 2 2 2 % 2 2 2 2 2 2 2 y 2 y d E i.E.6XGXMX1XN.r.R p 1 2 2 D 2 u 2 u u % u u r u u 2 r u % u u u u r u r 8 r u r u % D r % r D u 2 r u % r u u u u u 2 u u 2 r u r % u u u u 2 % u r u u u u u 2 u r u r u u 2 D 2 r 2 u u u u u r u u u u 2 u 2 u r u r u u r r u 2 D u r 2 u u u r u u u 2 D y r u % u u r u u u 2 r u r 2 u u 2 2 r u u u 2 u u u 2 u % % u 8 r 8 r u 2 D r u 2 u % u u u u r 2 2 u 2 % u u u u 2 % u % u 2 % 2 u 2 u 2 % 2 y % r 2 2 % % y 2 % u r % 2 % y y y % % % y 2 y 2 % 2 2 r 1 % y 2 % 2 $ 2 % L ",
"1 2 1 2 1 2 2 2 2 2 2 2 2 2 2 2 2 2 2 2 2 2 1 1 2 2 u 2 4 % 2 3 2 2 2 2 2 2 1 1 2 2 2 2 2 2 2 2 2 2 2 2 2 2 2 2 2 2 1 1 2 1 2 2 1 1 1 2 1 2 1 2 2 1 1 2 2 2 1 2 2 1 2 2 1 2 2 2 2 2 2 2 2 2 2 2 2 2 2 2 2 2 2 2 2 2 2 2 2 2 2 2 2 2 2 1 2 2 2 2 2 2 2 2 ; 2 2 2 ; 2 2 2 2 ; 4 2 1 1 1 2 1 1 1 1 2 ; 1 1 ; 1 2 ; 1 ; ; 1 ; ; 1 ; ; ; ; 1 ; 1 1 ; 2 ; 1 ; ; 2 ; 2 $ ; 1 ; ; 1 ; ; ; , ; ; ; 1 ; , , ; ; ; , ; ; ; ; ; , ; ; 1 ; ; , ; 1 ; ; ; ; ; ; , 1 ; ; , 4 ; ; ; 1 ; ; , 1 ; 4 ; ; 1 1 , ; 1 1 ; ; ; ; , ; 1 ; 1 , ; ; 4 ; , , ; ; , , ; ; , ; 1 ; ; 1 ; ; 1 3 , ; ; ; , ; ; ; 1 ; ; ; ; , ; ; ; ; ; ; 1 , ; ; ; ; 1 1 ; ; 1 1 ; 1 ; 1 ; 1 ; ; ; 1 ; $ 1 @ 1 ; 1 2 1 ; ; 2 ; ; 1 2 2 ; 1 1 ; ; 1 1 ; 4 2 2 2 2 2 2 2 2 2 2 1 1 1 2 1 1 2 1 1 2 1 1 2 2 2 2 2 2 2 2 2 2 2 2 2 2 1 2 2 2 2 2 % % % 2 % 2 2 r 2 2 2 % 2 S W W _ C.oXwXAXIXKXNX:X|.g._ K J u 2 u u u u u % u u u 2 u 2 u 2 u r 2 D r r u % % D % % u u % % u u 2 u u u u u u r u u r D 2 u u % u 2 u % u % u u u u u % y u 2 u 2 u u u r D 2 u r 2 2 u u 2 u u 2 u r r u 2 u 2 u r u % u D 2 u r r u u r u 2 u u r 8 u r 8 r 2 r r u r r % r u u r u u u r u u u 2 u 2 u u u 2 u u u u r u u % % % r % D u r 8 r 2 u 2 u 2 u u % % u u 2 u r r D u r 8 D 2 u u 2 2 u 2 u 2 2 % 2 2 2 2 % % r 2 2 % % y 2 % % 2 % % % y % 2 % % % y % y 2 2 y % 2 2 2 2 y u ; L ",
"1 2 2 2 1 2 2 2 2 1 2 2 2 2 2 2 2 2 2 2 2 2 2 h J 1 ; $ 1 1 u 2 1 1 1 2 2 1 2 2 2 2 2 2 2 2 1 2 2 2 3 2 2 2 2 2 2 1 2 2 1 2 2 4 1 2 2 2 2 1 2 2 1 1 2 1 1 1 2 1 1 1 1 1 2 2 2 3 2 2 4 2 2 2 2 2 2 2 2 2 2 2 2 2 2 2 2 3 2 1 2 2 2 2 2 2 2 2 2 1 2 ; 2 ; 2 2 ; 2 ; 2 ; 2 2 4 ; 2 $ 1 ; ; % ; ; $ ; 2 1 ; 1 ; 2 ; 1 ; 1 ; ; 2 ; 1 ; 1 ; 1 1 ; ; 1 ; 1 ; 1 1 < 1 ; : ; ; 1 1 ; 1 1 , 1 : 1 1 ; 1 ; ; 1 ; 1 ; 1 ; 1 , 1 ; ; , ; ; , ; ; ; ; , 1 ; ; ; ; ; , 1 ; ; ; ; , ; , 1 ; ; , ; ; , ; ; ; ; ; ; , ; , 1 ; ; ; ; ; ; ; ; ; ; 1 ; 1 ; ; ; 1 1 ; , ; ; , ; , ; ; ; ; 3 ; ; ; 1 ; , ; ; , ; 1 1 ; ; 3 ; , ; ; ; ; 1 , , ; ; , ; ; ; ; ; , ; 1 1 ; , : ; $ ; , 1 ; 1 ; ; ; 1 1 ; 1 2 ; ; 1 ; 2 2 ; 1 2 ; 2 2 ; 2 2 2 2 2 2 2 2 2 2 2 1 1 2 2 1 2 1 1 2 2 1 2 3 1 1 1 2 1 1 2 2 2 2 2 2 2 2 2 2 2 2 y y 2 u y % 2 $ u 2 u F { !.).'.qXwXZXIXUXIXSXNXqX>X_.^.~.W u 2 % u % u u u 2 2 2 r u 2 8 r u u % r 8 2 D r u u u u 2 u u u % u r 2 u 2 2 u u 2 2 u 2 u u 2 u u u u u u u u u r u u u r u r r u r 2 u u 2 u u u D r r u u u r u u 2 u 2 u u u r u u u u 2 u u u u 2 2 u u r u % r r u 2 D r u 2 D 2 u % u u u % u 2 2 u u 2 u % u r u u u 2 u u % u u 2 2 u u u u r 8 r 2 u % u u r u 2 u 2 2 u u u 2 2 r 8 2 2 2 u r r 2 u % 2 2 2 2 u 2 u D 2 u u 2 u y 2 u 2 y 2 % 2 y y 2 2 % y 2 2 % y y 2 % 2 % % 2 2 % y 2 2 2 1 3 ; I ",
"1 3 2 2 3 2 2 3 2 2 2 2 2 3 1 1 2 2 3 2 3 2 2 OX^.s 1 1 2 1 ; 2 4 2 3 3 2 2 2 3 2 2 2 2 2 2 2 2 2 2 2 2 1 2 3 2 2 1 4 1 4 1 1 1 2 2 1 2 1 1 2 2 2 1 2 1 1 ; 1 2 1 2 2 1 1 2 1 ; ; ; 1 ; 2 1 ; 2 ; 1 ; ; 1 1 1 2 2 ; 2 ; 2 2 1 ; ; 1 ; 2 ; 1 1 ; 2 1 1 4 ; ; 4 2 1 2 2 1 ; ; 1 1 ; 2 4 2 1 1 1 ; 4 ; ; 1 2 ; 1 4 2 ; 1 1 1 1 < ; 1 1 ; ; < ; ; ; ; 4 ; , ; 3 ; ; : 1 1 : : ; 1 , 1 ; : ; : : ; ; ; 1 ; , ; 1 ; ; < ; ; 1 1 ; ; 1 ; 1 1 ; ; 1 ; 1 1 , ; ; ; ; ; ; 1 , ; ; ; , ; ; ; ; , ; ; , , ; ; ; ; ; ; ; ; ; , ; ; 1 ; ; ; ; ; 1 1 ; ; ; ; ; 1 ; ; 1 ; ; ; ; ; 1 ; ; , 1 1 , ; 1 1 ; ; ; ; , , ; 1 ; 1 ; 1 , ; ; , ; ; , ; , , ; , ; ; ; ; ; : ; : 1 , ; ; 1 ; 1 1 ; 1 2 2 ; ; 2 ; ; 1 1 1 2 2 ; ; 2 ; 2 ; 2 ; 1 4 1 ; 1 ; 1 ; 2 ; 1 2 2 ; 2 2 1 1 1 3 2 3 1 2 1 2 1 2 3 2 3 3 2 2 1 2 3 2 2 2 2 2 2 y 2 y u u 2 % % p G W [ V.|.qXVXIXJXgX:X|.g.` K G p 2 u u u u 2 u u u u u u 2 u r u 8 u 2 u u u u u 2 u u 2 u u u u u u 2 D u u 2 u D u u u u u r u u u u u u u u 2 u u u u u u 2 u u u D 2 u 2 u u u 2 u u u u D 2 u u u u D u u u D u u 2 u 2 u u 2 u u u 2 D u u u u D u u u 2 u u D 2 u u u u u u u u u u u u u 2 u u u u u u u u u 2 u D 2 2 u u 2 u 2 r D 2 u D 2 2 u u u u u D u u u u D u 2 u u 2 u 2 2 u 2 2 u u 2 2 2 u u 2 2 2 2 2 2 2 2 2 u y 2 2 2 2 u 2 u u y 2 2 y 2 2 2 y 2 u 2 2 y 2 y u 2 2 2 u ; I ",
"% 2 2 u 2 2 u 2 2 3 3 2 2 2 2 3 3 2 2 2 3 2 2 A 1.1 3 1 4 2 3 2 2 1 2 2 1 2 2 2 2 4 2 2 2 2 2 3 4 2 2 2 2 2 2 2 1 1 2 1 2 2 2 2 2 3 4 2 1 1 1 4 2 1 1 2 1 1 2 1 2 1 1 2 1 1 2 1 1 2 1 1 ; 2 1 1 1 1 4 2 ; 1 ; 4 2 1 1 2 ; < 1 1 1 2 1 4 ; 1 2 2 2 ; ; 1 2 1 2 ; 4 ; 2 ; 2 2 1 ; 1 ; ; 1 ; 1 ; 2 1 ; 1 1 ; 2 ; 1 ; 2 2 ; 1 ; 2 ; ; ; < 1 ; 1 4 ; ; ; 1 ; , ; ; 1 1 : ; ; 1 : ; 1 ; 1 1 : ; 1 : 1 ; ; ; ; , ; ; , ; 1 , ; ; , ; ; , ; ; , ; ; ; , ; ; 1 ; ; , 4 ; ; ; 1 ; ; ; 1 ; 4 ; ; ; 1 ; ; 1 1 ; , 1 ; , 1 ; ; 1 , ; ; 3 , ; , ; ; , , ; 1 , ; ; , ; 1 ; , 1 ; ; , ; ; ; ; ; ; ; , ; ; 1 ; ; ; 1 ; ; ; ; ; ; ; 1 ; ; 1 ; ; 1 1 ; 1 ; 4 2 1 ; : 1 ; 1 : 1 1 ; 1 ; 2 2 < ; 1 ; ; 1 1 1 ; 1 ; 4 1 1 2 4 1 2 ; 1 2 2 ; ; 1 1 2 2 2 2 < 1 ; 4 1 1 1 2 1 2 2 2 2 p 3 1 1 1 2 3 2 2 2 2 3 1 2 3 2 2 2 y y 2 2 y 2 % r 3 u 2 3 u 2 l B r.I.5XSXMX;Xm.E J D 2 3 2 2 2 2 2 2 D 2 2 2 u u u u u u u % r u u 2 2 D 2 u u u 2 u 2 D 2 2 u 2 u u 2 u u % u 2 u u u D r u u u u u 2 D 2 u u u 2 u u D u 2 u u u u u u 2 D u u 2 u u u u 2 u u u 2 u 2 u 2 u 2 D u u u 2 D u u u u 2 u u u u 2 u u u u u u r u u u u D u u u u 2 D u 2 u D u D u u 2 u u 2 u u u u 2 2 D 2 u u u u 2 u u 2 u u u u 2 u 2 2 u u 2 2 u u u u % u % u u 2 2 2 u 2 u u % % 2 2 u % u u % u u 2 2 2 2 u y 2 2 2 u 2 2 2 u 2 u y 2 2 u 2 y 2 2 % y 2 2 y u 3 % L ",
": u 1 u u 1 u 2 2 u u 3 2 2 u 2 y 2 u y 2 2 1 2 1 2 2 y y 2 2 2 3 2 2 2 2 3 3 2 2 4 2 2 3 2 2 2 3 2 2 3 3 2 3 2 3 2 2 2 2 2 2 3 2 3 3 2 3 2 2 2 1 2 2 1 1 2 1 2 1 1 2 2 1 2 1 2 1 1 2 1 2 1 1 1 ; 1 ; 1 1 1 1 ; ; 1 ; 1 1 2 2 ; 1 ; 1 1 4 2 2 ; ; 2 2 4 ; 2 ; 2 2 ; 1 ; ; 4 1 2 1 ; 2 ; 1 1 ; 4 ; 2 ; ; 1 < 2 ; ; 1 ; 4 1 ; 4 1 2 ; ; 1 ; 4 1 ; 4 ; ; < 1 < 2 ; ; 4 ; 1 ; < 1 ; ; 1 1 : 1 : : ; ; , ; ; ; , ; ; ; 1 ; ; 3 ; , ; ; ; , ; ; , 1 ; 1 ; ; 1 ; 1 ; ; ; ; ; ; ; , 1 ; ; ; , ; 1 , ; 1 , 1 ; , 1 ; , ; , 1 ; , 1 ; ; 1 ; ; ; ; , ; ; , ; 1 ; ; 1 ; , ; , ; ; ; ; 1 ; ; ; ; ; ; ; ; 1 ; ; 1 ; ; ; 1 ; ; 1 ; ; 1 ; 1 ; ; ; ; ; ; , ; ; ; ; 1 : ; 1 1 ; ; < ; 1 4 ; 1 4 ; ; 4 1 ; 2 ; 1 ; ; 4 2 ; 2 2 2 1 ; 4 ; 2 1 ; 1 2 1 ; 1 1 4 2 2 1 2 1 2 3 2 2 2 2 2 3 1 3 2 2 2 4 2 2 3 2 2 3 3 u u y 2 2 2 u 2 1 2 1 u 2 u 2 2 u p h <.).MX<Xm.R J u 2 u 2 2 8 r u 2 u 2 u u 2 u u u u u u % r 8 2 u u 2 2 u u u u u u 2 u 2 D u u u u u u u u u u u u 8 r r u u u 2 u u 2 2 u u u u D u u 2 u u u 2 u u u 2 u u u % D u u u 8 D 2 D u 2 u u u u u u u u u u u u u u u D 2 u 2 u u u r u u u u 2 u D % u 2 u u u u u u u u 2 u u % u D 2 u u u 2 2 u u 2 u u 2 u u 2 u 2 D u 2 u u u 2 u u 2 u 2 u u u u 2 u u u u 2 u u 2 u u 2 2 r r 2 2 2 2 2 2 u 2 u 2 2 u 2 2 2 u 2 u 2 2 3 2 3 2 2 2 3 2 3 2 2 2 2 3 2 3 y 2 2 u 2 u 2 I ",
"1 2 y u 2 u 2 2 2 3 2 2 u 2 u 2 2 2 2 2 2 u u 1 u u 2 2 2 2 u 2 2 2 3 3 2 2 2 2 2 3 3 2 2 2 2 3 2 2 3 2 2 3 2 2 2 3 3 3 3 3 2 2 2 2 2 2 2 2 3 2 2 1 1 2 2 1 2 1 1 2 2 1 2 1 1 2 2 2 1 1 1 1 1 1 4 1 1 2 1 ; 1 1 1 1 1 1 ; 4 2 1 2 1 1 ; 2 ; 4 ; 1 2 ; ; 1 1 2 4 2 4 1 1 2 1 ; ; ; 4 2 ; ; 1 2 ; 4 ; 1 2 ; 2 ; 4 4 ; 2 1 ; 2 ; ; ; 4 1 ; ; ; ; < 4 ; 1 ; ; , 1 ; ; 4 ; , ; 1 ; ; : : ; 1 ; 1 : ; ; ; 1 : ; , 1 ; < ; ; , ; ; ; 1 , ; 1 ; ; 1 ; ; ; ; ; , ; ; , 1 ; , 1 ; ; ; ; , , ; ; ; ; ; ; ; ; ; ; ; ; ; ; 1 ; ; ; 1 ; , ; ; ; 1 ; 1 ; 1 1 ; ; , , ; ; ; ; ; ; 1 3 ; , ; ; , , 1 1 , 1 , ; , , ; ; , , ; ; , ; ; ; ; , ; ; ; ; ; 1 1 ; 1 ; : @ : 1 ; 1 ; 1 1 ; 1 ; , ; 2 1 ; 2 ; 1 2 2 4 ; 2 1 ; ; 1 ; 4 ; 1 1 1 ; 2 1 1 1 < 1 1 ; 1 2 2 1 2 1 2 1 2 2 3 2 2 2 2 2 4 2 2 2 3 3 2 3 3 2 2 2 2 2 2 2 u 2 u 2 u u 2 1 u 2 2 u r 4 p B N.qX>X1.p p u 2 2 8 r % r 2 D u u 2 u D 2 2 r 8 u u u u u 2 u 2 D u u 8 u 2 u u u u u 2 u u u u u u % u u u 2 u u u D % 8 u D 2 D u D u u u u 2 u u u u u 2 D u u u u u u u u 2 u u u r r u u u u 2 u u u u u u u u 2 u u u u u r u u D u u 2 D u u u u u u u u u D 2 u u u 2 2 D u u u u u u 2 u u u u u u u D 2 u u u u u u u r 2 u u u u 2 D 2 u u u u u 2 u 2 u u u 2 D 2 u 2 u u 2 2 u % 8 2 u u 2 u u 2 2 u u % y 2 u 2 2 3 2 u y 2 u 2 u 2 2 2 u 2 2 u y 2 2 u 2 u 2 2 2 y 2 2 I ",
"1 1 1 u y 2 2 u 2 2 u u 2 u 2 2 2 u 2 u 2 2 u u 2 2 u 2 u 2 u 2 2 3 2 2 3 3 2 3 3 2 2 2 2 2 2 2 2 3 3 2 2 3 2 3 2 3 2 2 3 2 3 2 3 3 2 3 2 3 2 3 4 3 2 2 3 2 1 1 2 1 1 1 1 1 2 1 1 2 1 2 2 1 2 1 2 ; 1 ; ; 1 1 1 ; 4 2 ; ; 2 ; 1 2 ; ; 1 2 ; 1 1 1 1 1 1 1 ; 2 ; ; 1 ; 1 2 2 ; 2 2 1 1 2 2 ; 1 ; 1 1 2 ; 2 ; 1 ; 2 ; 1 ; 4 ; ; 1 1 ; < 2 4 ; ; 1 ; , ; ; 1 ; ; , ; ; < ; , ; ; 2 1 1 ; : : 1 ; : : 1 : ; 1 : ; 1 ; ; 1 ; ; ; ; , ; 1 ; ; ; ; , ; ; ; ; ; ; ; ; ; 1 ; ; , 1 ; ; ; ; ; ; ; , ; , ; ; ; ; ; , ; 1 ; ; ; ; ; ; ; ; ; , ; ; , ; ; ; ; 1 ; ; ; ; , ; ; ; ; ; ; ; ; 1 ; ; ; ; 1 ; ; ; ; 1 , 1 ; ; ; ; @ ; ; ; , 1 ; ; @ 3 ; ; , ; 1 ; 1 1 ; : $ ; 1 ; ; < ; ; ; 1 ; 2 1 ; 1 2 ; ; 1 4 ; 2 ; 1 1 ; 1 2 2 4 ; 1 1 2 ; ; 4 2 2 2 2 1 2 2 1 2 1 2 3 2 1 1 3 2 1 2 1 2 3 3 2 3 2 2 2 3 2 2 3 y 2 2 y 2 2 2 2 1 2 2 u 2 u 2 r 4 2 f _ -X_.F u y 2 2 u 2 u u u u 2 u u D u 2 u D 2 u 2 D 2 u 2 2 u u u 2 u D u u u u 2 u 2 2 D u u 2 u u 2 D 2 u u D u 2 u u u 2 u u r u u u u u 2 u u u u u 2 u u u u 2 u u 2 2 u u u u u D r u u u u D u % u u 2 u 2 D r u 8 r u u u u 2 u u u u u u u 2 u u u u u u u u r u u u u u u u u 2 u u u u u u u u u u 2 D u u D u u u u 8 2 u 2 u u u 2 u u D 2 2 u u D 2 D 2 u 2 8 u u u u 2 u 2 2 2 u 2 2 2 2 2 2 2 2 2 2 % 2 u u 2 2 u 2 2 u 2 2 2 2 2 u 2 u 2 2 2 2 2 2 2 % y y 2 2 y u ; I ",
"1 y y 2 u u 2 2 u 3 2 2 2 2 2 u 2 y 2 2 u 2 2 2 2 i 2 u 2 3 2 2 2 u 3 2 u 2 y 2 u 2 3 u u 2 3 u 2 u 2 1 u 2 2 u u 2 2 u 2 u 2 1 u 2 u 2 2 u 1 2 2 2 2 u 2 2 2 1 3 1 1 1 2 1 ; 2 1 1 2 1 1 2 2 2 2 2 2 2 2 4 2 1 2 1 2 2 2 1 1 1 2 2 3 2 1 2 1 1 2 1 2 2 2 3 1 1 2 1 2 1 1 2 4 1 2 ; 1 < 2 4 1 1 1 ; 2 4 1 2 1 1 1 2 ; 1 2 2 1 2 4 1 1 1 ; 1 ; 4 1 ; 1 4 ; ; 2 4 1 ; 2 1 1 4 1 < ; $ 1 ; : 1 1 : ; : ; 1 : ; : ; 1 ; ; 1 3 1 ; 1 ; : 1 1 1 ; 1 : , 1 : , 1 1 : 1 , 1 : 1 ; 1 1 : 1 1 ; 3 1 , 1 1 1 : 1 1 1 ; ; : 1 1 ; 1 , 1 : 1 1 ; 1 ; , 1 ; 3 : ; 1 : 1 1 , 1 3 ; 3 ; 1 , 3 ; ; : 1 @ ; 1 1 : ; ; ; 1 : 1 1 : 1 , 1 1 : ; 1 : 1 , 1 , 1 ; 1 : : 1 1 : 1 1 ; 4 1 ; 1 2 < 2 1 ; ; 1 < 1 1 ; 1 ; ; 4 ; 2 1 1 ; 2 2 1 1 2 2 2 2 1 ; 3 2 1 2 1 2 1 y 2 2 3 2 u 2 2 2 u 2 p 2 2 u 2 2 y 2 u 2 u 2 u 2 2 u 2 y 2 u y u u 1 2 2 u 2 y 2 2 i J (.!.F u u u u u u 2 2 D u r 8 u 2 u u u u u u u 2 u r 8 D u u 2 u u 2 2 u u 2 D u u u 2 u u D 2 u u u u u u 2 u u u u u u u u u u u u 2 u u u u u u 2 D D u 2 u D u u u u u u u u 2 u r u u u u u 2 u u u u u D u u u u D u u u D u u u u D u u u D D r u u u 2 u r D u u 2 u u u 2 D u 2 u u u u u 2 D u u u 2 u 2 2 u u 2 u u u u 2 D u 2 D u u 2 u u 2 u 2 u 2 u u u r u u 2 u 2 u 2 2 u 2 u 2 u u 2 2 u u % u u 2 2 % u 2 2 u 2 2 u u u u u 2 u 2 u u u u y r y y 2 2 2 2 y 2 2 I ",
"1 y y y r 2 u u y 2 y u u 1 u 2 u 2 y y 1 u u 1 2 2 i 2 2 2 u y 2 2 u 2 2 2 u 2 2 2 2 u 3 3 2 2 1 2 u u 2 u u 2 2 2 u 2 1 2 u u 2 u 2 u u 2 2 u 2 u u 2 u 3 2 2 2 3 2 1 1 2 2 3 2 1 2 1 2 2 2 2 1 2 2 2 2 2 2 2 2 1 2 1 3 1 2 1 1 4 2 1 1 2 1 1 1 1 2 1 2 1 1 2 1 1 2 1 1 1 2 1 1 1 1 2 ; ; 1 1 ; 1 1 1 ; 1 ; 2 ; 2 ; 1 @ 2 2 1 ; 2 ; 1 ; 1 ; ; 1 ; 2 2 4 1 ; 4 2 2 ; 1 4 ; ; 2 1 ; 1 1 ; ; 1 ; 1 ; : 1 @ : 1 $ ; : ; 1 , : ; 1 . 1 1 : 1 : ; 1 1 1 ; : @ : 1 @ ; ; : 1 : ; 1 ; ; 1 @ : ; ; 1 : 1 ; : : 1 @ : 1 : 1 ; : 1 ; : : : ; ; 1 1 ; : 1 1 . 1 1 1 1 1 : : 1 1 ; , : 1 ; ; 1 : 1 ; 1 : 1 1 , 1 : 1 : 1 1 , : ; : 1 ; ; 1 ; : 1 1 1 : 1 1 : , , 1 ; < 2 ; ; 1 ; < 1 ; ; 4 4 2 1 2 ; 2 1 1 1 1 2 2 2 ; ; 3 2 2 1 1 2 1 1 2 1 1 1 1 1 2 2 2 2 2 y y 2 2 2 u u 2 1 u u u 2 3 u 2 2 2 u 2 2 2 u y u u 2 u 2 2 2 2 2 2 u 2 u 2 2 2 u F g.` u 2 8 u D u u u u u u 2 u 2 2 u D r 2 u 2 u u u 2 u 2 u 2 u u u u u u 2 u u u u u u u 2 u u u u u 2 u u u u u u u u 2 D 2 u D u 2 u u u u 2 u u 8 u 2 u u 2 u u u u D 2 D 2 u u u 8 2 u r D r u u u u u D u u u D u r s u D s r u u u D u u r s u u D 2 u u u D u u u u u u u r u u 2 u u u 2 u u u u u u u u u D u r u u u u u u u D u 2 u 8 u u u u u u u 2 u 2 u u u 2 u 2 u u u u 2 u 2 u u u 2 D u u u u u u 2 2 u 2 2 2 2 2 u 2 u 2 u 2 u u 2 2 y 2 u 1 u y y 2 y y r u $ I ",
"$ y 2 r y 2 2 u r u 2 2 y u u y 2 y u 2 u u 1 u u 2 u 2 y 2 2 2 u 2 3 u y 2 1 u u y 2 2 2 u 2 u u 2 1 2 u 2 2 2 u 2 2 3 u 2 1 2 3 2 2 2 1 2 y 2 2 2 2 2 2 u u 3 1 u u 2 2 2 u 2 1 2 2 2 3 3 2 2 2 2 2 2 2 2 2 1 ; 2 1 2 2 2 1 2 ; 2 2 2 2 1 2 2 2 1 1 2 1 1 2 1 2 1 1 2 2 1 1 ; ; ; 2 ; 1 2 ; 4 2 2 2 ; 4 2 1 2 1 1 ; 4 1 1 1 ; 2 2 1 ; 2 2 1 1 1 2 ; < ; 1 2 ; < 1 1 ; ; 1 1 ; ; 1 1 ; 1 , : 1 : 1 @ : 1 : 1 : 1 1 : : ; 1 1 : 1 : 1 ; @ 1 : : , : . 1 1 : 1 : : 1 : 1 1 : : $ : : 1 1 1 : : ; : ; 1 ; : : 1 @ ; : ; 1 1 1 1 ; 1 1 : : , 1 ; : : ; 1 ; : : @ ; 1 @ : : 1 ; 1 : : 1 ; : : : ; ; ; 1 ; : 1 @ : @ ; 1 1 : 1 : : 1 1 ; 1 , @ : : @ 1 1 ; ; 1 1 ; 1 2 ; 1 1 ; 2 2 ; 2 ; 1 ; 4 ; 2 ; ; 4 < 1 2 1 1 2 1 2 2 1 1 2 2 1 1 1 2 2 2 2 2 u y 2 2 2 i u 1 2 1 1 u 2 2 2 2 u 2 2 u 2 2 2 y u u 2 2 r u 2 u y 1 u u 2 u 2 % y u 2 3 p W ^ 2 2 % u 2 2 u 2 D 2 2 D u u u u 2 r u u 2 D u 2 u u 2 u u u u u u u u u u u 8 u r D u u u u u u 2 D u u 2 u 2 % D u u u u u 2 u u u u u 2 D r u r u u u 2 D u u u u u u u u 2 u u u u u u u u u D u u u u u r D u u D u u u u D u D u u u u D u u D u u u u u u u D u D u D u D u D u 2 D u u u u u u 2 u u 2 u 2 u D u u 2 u u 2 u r r u u r u u 2 8 u u 2 D u D 2 D 2 D u u u 2 D u D u u 2 u 2 D 2 u 2 u u 2 u 2 2 2 2 u u u 2 2 2 u 2 2 u 2 2 u 2 u u y 2 y 2 y u % 2 y u ; I ",
"$ u 2 u y u 2 y u 2 u y y 1 2 u % u y u 1 y u 2 2 y 2 u 2 u u 2 2 u 2 2 u 2 2 2 2 2 u 2 2 2 3 u 1 u 1 u 2 2 2 u 2 u u 2 1 u 1 u u 2 y 2 2 u 1 u u 2 2 u 2 u 2 2 2 2 u 2 u 2 2 2 3 2 u 3 2 y 2 u 1 u u 2 2 u 3 2 1 1 2 1 2 4 1 2 1 1 1 1 1 1 2 1 1 2 4 ; ; 1 2 1 1 2 1 2 1 2 2 2 1 1 2 2 ; 2 2 2 4 ; 1 1 2 ; ; 3 1 2 2 2 1 1 2 , 2 1 1 < 2 ; 1 2 ; 1 ; 1 2 ; ; 1 1 ; ; 1 2 2 ; 2 1 ; ; 1 1 1 1 ; 1 : 1 : 1 ; : ; : 1 1 ; : 1 ; 1 1 ; : 1 : 1 1 @ : 1 1 1 1 ; : 1 1 : @ 1 1 ; 1 1 1 ; 1 : ; : 1 ; 1 : 1 : 1 ; 1 : 1 : : 1 1 . : ; . 1 : 1 ; $ 1 : : 1 1 : ; : : 1 ; : 1 1 1 ; ; : : 1 ; $ 1 ; : $ : : 1 1 : : 1 1 : $ ; ; : 1 : 1 1 : ; 1 1 1 : ; : @ ; 1 ; 1 1 < < 2 1 ; 1 1 1 2 2 2 1 ; 1 2 2 1 2 1 2 1 1 2 1 1 2 2 1 2 1 2 ; 1 1 1 % 2 % y 1 y u 2 2 y 2 2 2 y 2 u u 2 2 2 2 u 2 y y 2 y 2 2 y 2 2 y y y y 2 2 u u 2 2 2 2 u 2 r r D 2 F D 2 2 u r u u u % 2 u 2 u 2 u u 2 u 8 u 2 u 2 2 u u u u 2 u u u D 2 u u u u 2 % u u r u u 2 u u u u u 2 u u u u u u u u u u u 2 D u u u u 2 u D 2 u u u u u u u 2 D u u u u u u u u r D u u D r s u u D u u u s u u u D u r D u D s u u u D u u u u D u u s D u D u u u D u u u r s r u u u u r u 8 % r D r u u u u u 2 u u D u u D 2 u 8 u u r D u u r 2 D u 2 u u u 2 2 u 2 2 2 u 2 r 8 u 2 2 u u u 2 u u 2 2 u u u u u u u u 2 u 2 2 u u 2 u 2 2 u u u y u u u u y y 2 u r 3 % I ",
"1 y y u 2 u u u 2 u % y y u 2 y y u 2 % y y y 2 u u 2 y y 2 u 2 2 2 2 u 1 2 u u 2 u 3 2 u u 2 2 2 u 2 2 2 y 2 y 2 2 y 2 2 u 2 2 2 2 u 2 1 u 2 1 u 2 3 u 2 2 2 u u 2 2 2 u 2 u 2 u u 2 2 2 y 2 2 2 2 2 y 2 u 2 1 1 2 1 2 2 1 2 1 2 1 2 2 1 2 1 1 2 2 2 2 2 1 1 2 4 1 2 1 1 2 1 2 ; 4 < 1 1 1 1 ; 1 ; 1 ; 2 2 1 1 2 1 1 2 1 1 1 1 1 ; 2 2 < 1 ; ; 4 ; 1 1 ; 2 < 1 ; 2 4 ; 1 ; 4 1 ; 2 < 1 ; 3 ; 4 : ; : 1 : 1 : 1 : @ : ; 1 ; 1 : : ; 1 @ : 1 : 1 ; : ; 1 : 1 @ : : ; 1 : : ; 1 . 1 : ; : 1 $ 1 : ; $ : ; 1 : 1 : @ ; 1 : : ; 1 1 1 1 ; 1 : : 1 ; 1 ; : ; $ 1 1 @ : 1 : ; : $ : 1 ; : 1 : 1 : 1 : 1 ; : ; 1 ; ; : 1 : 1 : $ ; ; : ; ; 1 : : @ 1 1 : 1 1 ; 1 2 ; 2 1 1 ; 2 2 < 1 ; 1 ; 4 1 1 1 ; ; 2 ; 1 ; 2 1 1 2 1 1 2 1 2 1 1 1 1 2 1 y 1 2 2 2 2 y 2 2 2 u 2 u 1 2 2 2 u u 2 2 u 2 2 2 u 2 2 u y u u 2 2 u u 2 2 2 2 y u % 2 u D 8 u % u r 8 D u u r u u 8 2 u u u u 2 D u 2 u u u u u D u 2 u u u D 2 u 2 u u D 2 u u u u u u D u D u 2 u u u u D 2 u u u u 2 u u u u u 2 u u 2 u D u u u u u 2 u u u u u 2 u u u 2 u u u u D u u u u D u D s r D u D u u u D u u s u u u r D u s r D s r D u D u u u s u u u u u u u u D u u u u u u u u r D u u D u u u u u 2 u 2 u u u u u u u u u 2 u u u u u 2 u 2 u 2 u u u u u u D u u r u u u D 2 u 2 u u u 2 D u u 2 u 2 u 2 u y u 2 2 2 2 2 2 2 2 u 1 2 2 2 2 1 1 y u 2 2 y u % I ",
"2 2 u 2 2 2 u u u u 2 u % u % u u u y r u u y % u u 2 u y 2 u 2 u i 1 2 2 1 i 2 2 y 2 2 y 2 2 y 2 2 2 2 u 2 1 u u 2 2 2 u 2 u 1 2 u 2 y 2 1 u 2 2 2 y u 2 y 1 2 u 1 u 2 u u 1 2 2 1 u 1 2 u 2 y u 2 u 1 u u 2 3 3 2 2 2 2 2 2 1 2 1 2 1 2 1 1 1 1 2 1 1 2 1 2 1 2 ; 2 1 2 2 1 2 2 2 ; 1 ; 1 1 2 1 2 2 3 1 1 1 1 1 y 1 y 1 1 u 1 1 1 1 1 1 1 1 @ 1 1 ; 2 ; 1 2 ; 1 1 2 1 ; 1 4 ; ; 1 < ; 2 ; 1 ; 1 @ 1 : ; 1 : $ 1 ; : @ 1 : ; 1 : , 1 : 1 1 @ : 1 ; : $ ; 1 @ 1 @ 1 ; : 1 1 : 1 @ 1 : @ 1 : : 1 ; : 1 : 1 1 : 1 ; 1 : 1 ; : 1 : ; ; : 1 : 1 @ 1 : @ : 1 ; ; : 1 : 1 : : 1 ; : ; : . 1 1 : @ 1 ; @ 1 : 1 : 1 1 : ; : ; 1 : ; 1 : 1 : ; 1 1 : ; ; : 1 : 1 1 1 ; ; ; 4 2 ; 1 ; 2 ; 1 2 2 ; 1 1 4 2 2 1 ; 2 2 1 1 2 1 2 2 1 2 1 2 1 2 1 2 2 1 2 u u 2 u 1 u 2 2 2 u u 2 2 2 u 1 u 2 1 2 i 2 u 2 y y u 2 2 y u u u 2 u 2 2 u 2 u % u 2 u u u u 8 r 2 D 2 u u u u 2 D D 2 u u u u u 2 D u 2 u 2 D 2 2 8 u u 2 u u 2 u u u u u u u u u % u u 2 u 2 u u u u u 2 u u u D 2 u u D u u u u u 2 u u u 2 r u u u u u u 2 2 u u u u u u u u u u s u u r s u D u D u D r u D u D r s u D u u u D u u D s u D u u s u u s r D u u u D u s r D u D u u u u u u u u u u u 2 r u D 2 u 2 u u u 2 u u u u u u % D 2 D u u 2 u u 2 D 8 u u u 2 D r 8 D 2 u u u u 2 2 u D r D 2 u u u u 2 u 2 u u u 2 2 2 u 2 2 2 u 2 u % 2 2 2 % 2 u u 2 2 u 4 2 I ",
"2 u % 2 u 2 2 2 % u u 2 u 2 u 2 u 2 2 u 2 u 2 u 2 u y 2 u u u r 2 1 p u u u 1 u 2 2 u 2 u 2 2 u 2 y u 2 2 u 2 2 2 y y 2 y 2 2 2 2 2 2 u 2 u y 2 y 2 2 2 2 2 u 2 2 u 1 2 1 2 1 u u 2 2 u 2 1 2 y u 1 2 1 2 1 2 2 2 3 3 2 1 1 1 2 1 2 1 2 1 1 1 1 2 1 1 2 1 2 1 2 2 2 1 2 1 1 1 1 3 ; 1 2 ; 1 2 2 1 1 2 1 y 1 1 y 1 1 u 1 1 u 1 y 1 1 1 1 1 1 2 2 1 ; 4 ; ; 1 ; 4 4 ; ; 2 1 ; ; 2 1 1 2 2 ; 1 ; 1 1 : @ : : : : ; : 1 1 : ; 1 1 : 1 1 @ : ; : 1 1 : ; 1 : ; : : 1 1 : 1 1 ; : : @ : 1 1 : ; 1 ; 1 : 1 @ : : @ : ; $ : ; : ; 1 @ : : 1 ; : ; : : 1 : 1 ; : : 1 : 1 ; 1 @ 1 1 : 1 ; 1 1 : ; 1 1 : 1 : : ; ; $ : ; @ 1 1 : 1 1 1 : ; : 1 ; : 1 : : 1 : ; ; : ; 1 1 1 1 ; ; 2 1 1 1 1 4 ; 1 1 ; 1 ; 2 ; 1 1 1 ; 2 1 1 2 1 1 2 1 2 1 2 1 2 1 2 u 2 2 1 2 1 u 2 2 y 2 1 2 2 u 1 2 u 2 1 u 2 u 2 2 2 u 2 y u u 2 2 2 % 2 % u 2 2 2 2 2 u u 2 u 2 u u u u u u 2 2 2 u u 2 2 u u 2 u 2 u 2 2 u u u u u u u % u u u u u u u 2 u u u u 2 u 2 u u u u u u D 2 u u u 2 u u u 2 u u r 2 2 u u u u u u u u u D 2 2 u u u u u D u u u u u D u u D D r D u D u u u s r u s s u u u u u u u r D s r r s u u r D u u u r D u u D u u D s r u u D u u u u u D u u u u u % 2 D u u 2 2 D u u u u u u u D 2 u u u u u u 2 u u u 2 u u r r u 2 u u r u u 2 u 8 u 2 D u u u 2 r 8 u 2 D 2 u u u u 2 D 2 D u 2 2 u u 2 2 2 2 2 u 2 2 u 2 r 2 2 2 2 2 % I ",
"$ 2 2 u u 2 2 u 2 2 u 2 2 2 2 u u y u y 2 u y u 2 u 2 u 2 2 y y p i u u y $ 2 u u y 2 u y u 2 2 u y 2 2 2 u y 2 2 2 u 2 2 2 u u u 1 2 1 2 u 2 2 u 2 2 u u u 2 2 2 2 u u u 1 2 u u 1 2 2 y u 2 2 2 2 u u u 1 u 1 2 2 3 1 2 1 2 1 2 1 2 1 1 2 1 1 1 2 1 1 2 1 2 1 2 2 1 1 1 2 2 1 1 2 1 1 1 2 ; 2 3 u 2 1 1 2 u y y y u y y y y 1 1 1 1 y 2 2 2 1 1 2 1 ; 4 2 ; ; ; 1 2 < ; 2 1 ; 2 ; 1 1 1 4 ; 1 ; ; ; 1 ; 1 1 1 : @ 1 : : : 1 1 : : ; 1 : ; : @ : 1 1 : 1 : 1 1 ; ; : 1 @ : 1 ; : ; 1 : : : 1 1 1 1 @ 1 ; $ 1 ; : 1 1 @ : : @ 1 ; 1 1 : ; 1 : ; 1 1 : 1 1 @ @ 1 1 : 1 : ; $ : : ; : 1 1 @ : 1 : 1 1 1 : ; 1 : 1 : 1 . 1 ; : 1 1 ; 1 1 : $ ; : ; 1 1 1 1 2 ; ; 1 ; 2 1 ; < ; 2 ; 2 1 ; 4 ; 2 1 1 4 ; ; 1 3 2 1 2 ; 1 1 1 2 1 1 1 2 1 1 2 u 1 1 u u u 1 1 1 u u 2 2 u y 2 1 2 y u 2 u 2 2 u y 2 y 2 y u u u 2 2 u 2 u 2 2 u 2 2 u 2 u D 2 u 2 u u 2 u 2 D D 2 u 2 2 u 2 D u 2 u u u u 2 D 2 u u 2 u u u u 2 D D 2 u u u 2 u u u D D 2 u u u u r u u u u D u u u % s D 2 D u r r u r u u u u u u u u u D 2 u u u u D 2 u u u u u u u u u D D u s r u D u r u u D u u D D u s u D D D u u D u u u u D u u D u u D u u u u D u u s u u u u u r s D u u u u r u u u u u u 2 D 2 u u u u u 2 u u u u u u u u u D u 8 r u u u 2 2 u 2 u u 2 r u u 2 8 u 2 u 2 u u u 2 u u 2 u u 2 u 2 2 8 2 8 u 2 u 2 u u 2 2 u u 2 2 2 % u 2 u 2 % I ",
"2 y 2 u 2 2 u % u 2 2 2 2 u u 2 2 2 2 2 2 y 2 2 u 3 u u y u 2 u c d.a.h u y u 2 % y u y 2 u y 2 2 2 2 u 2 1 u 2 y 2 2 2 u 2 2 2 1 u u 2 3 2 1 u 2 y 2 2 2 2 2 u y 2 1 2 2 2 u 1 2 2 y u 2 2 y 2 u 1 1 2 2 u 2 2 2 u 2 2 1 2 1 2 1 2 1 2 1 1 2 1 % 1 1 1 1 2 1 2 1 1 2 1 2 1 1 2 1 1 1 1 4 2 2 3 2 2 u u i y y y y 2 u y y u y 1 2 u u 1 1 2 2 1 ; 1 1 1 ; 2 1 1 2 ; ; 1 2 ; 4 1 ; 2 < ; 1 ; 2 ; 1 1 : 1 : : ; : 1 ; : 1 1 ; $ ; ; 1 1 : 1 1 : 1 1 @ : 1 : ; ; : : 1 1 . 1 1 1 : 1 ; : 1 1 ; . 1 ; : : 1 1 : 1 : ; 1 : : 1 1 1 : : : ; $ : 1 1 1 ; : $ ; : : 1 : @ : 1 @ : 1 ; 1 : 1 ; : 1 : ; 1 @ : 1 : ; : ; 1 : @ 1 : ; 1 : ; 1 1 : ; : ; 1 1 . 1 ; 1 ; 4 ; 1 4 1 ; 2 2 2 1 1 ; 2 ; 2 2 4 ; 1 1 2 1 2 1 2 2 1 1 1 2 1 2 1 1 1 1 1 u 2 2 1 u 2 1 2 2 u 2 2 u 1 2 u 2 2 u 2 2 2 2 2 2 i 2 y u 2 2 u 2 u u 2 2 u 2 2 2 D 2 u 8 u u u 2 u u u 2 u u u u u 2 u u u u u u 2 D 2 u u u u u 2 u u u u u u u u u 2 u u 2 D D % u u u u 2 u u u u 2 D u 2 u u u u u u r u u 2 u u s c D u % D u 2 u u u u u 2 u u u r D u u u D u u u u D u s r u u u D u u u D u s r D u s r u u u u u u u s r s r D D D u u s r D u u D u u s r D r D D s r D D u u u D r u u 2 u u u u u u r D 2 u u D u u u u u 2 D u u u u u 2 u u u u u 2 D u u u u D 2 u u u r u u u u u 2 u 2 u u 3 u 2 u u u u r u r u u 2 D 2 u 2 2 u 2 u u 2 2 2 2 2 u 2 I ",
"2 u u u u u % u 2 u 2 2 2 2 2 2 2 2 2 2 u 2 2 u 2 u 2 2 u 2 3 f a.zXlXa.a i 1 y 2 u 2 2 u 2 2 u u 2 2 r y u y 2 % y u y u 2 u u u 2 2 y u u y 2 y u 2 2 u 2 2 u 2 y y u u y 2 2 2 u 1 1 y 2 2 2 2 u u 2 2 2 2 u 2 2 u u 2 1 u 1 1 1 1 2 2 2 2 3 2 2 2 1 1 2 1 2 1 2 1 1 1 1 2 ; 1 2 1 1 1 1 3 2 1 y u u i i u i y i i i i y y u y y y y y 1 1 2 2 2 1 1 ; 1 ; 4 ; 2 4 1 1 4 ; 2 1 1 ; 2 1 ; ; 4 2 ; 1 ; 1 1 1 . 1 1 ; ; 1 1 : 1 1 1 1 : : : 1 ; @ : 1 @ : 1 ; 1 : ; 1 : : @ 1 : : $ ; ; : ; 1 @ : ; ; 1 : : ; : : 1 @ 1 : ; 1 ; 1 ; @ 1 : 1 . 1 : 1 1 : 1 1 ; : 1 1 : 1 : ; 1 : 1 ; : 1 ; : ; : 1 ; : 1 : 1 ; : 1 1 : 1 ; 1 : 1 : ; 1 ; : 1 1 : : ; , 3 1 4 ; 2 1 ; 1 ; ; 1 ; 2 1 1 4 2 ; 2 2 ; ; 2 2 2 2 2 1 1 1 2 1 4 2 2 3 3 3 2 2 u 2 1 1 2 2 u u 2 u u 1 u y 2 u u 2 y y u y 2 1 u y 2 u u u y % u 2 2 u 2 u % u u u u 2 u u u 2 u u 2 u 2 u u 2 u u 3 u u u u 2 u u u u u 2 u u u u u 2 D u D r u u 2 u u u u u u u u r u u u r u r u r u u u u r u u u D D r % 2 r D ,.Y D u D u u r % u D u u u u u u u D u s D D r s D u u u u D r u u r D D u D u u D r s u D u D u D u D u D u u u u r u u D s u u s r u D u u u u u u u u u D u u u u u u r u u u u u D r u D r u u % u u u r D u r 2 u r D D r u u u 2 u u u u u u 2 u u 2 u u 2 u 2 u 2 u D u u 2 u u 2 u u 2 u u u u u u 2 u 2 u u r r D u u 2 u D 8 r r u 2 I ",
"u u 2 2 u 2 u u u 2 u u D u u u u u u u u u 2 u u u u u u u u s s.zXzXs.u 1 u 2 y u y u y u y y 2 u u y u 2 1 u u y 2 u y y 2 2 2 u y u u 1 y y 2 u u y 2 y u y y y 2 1 1 u y u 2 u 2 u 2 2 y u 2 1 2 1 i 2 3 2 y 2 2 1 u u 2 2 2 y 2 2 3 2 u 2 2 2 2 y y 1 2 1 1 1 2 2 1 2 2 4 2 1 2 u 2 u 2 y u u u i u a u a d i a i a a i i u y y r y y y 1 2 2 2 1 1 2 2 ; 1 2 ; ; ; 1 2 ; ; 2 4 ; < 1 2 ; 2 1 ; 1 ; : 1 1 . 1 1 : : : ; , ; : @ 1 @ 1 1 : 1 : 1 : @ 1 : : 1 1 : ; 1 : ; 1 1 : 1 : 1 1 : : 1 1 : : ; 1 ; 1 ; : : 1 1 1 : : 1 : : 1 : ; 1 1 @ ; : ; ; : . 1 : @ ; : 1 : 1 @ 1 : ; 1 : 1 1 : : 1 $ : ; 1 : 1 ; : : @ : 1 1 ; 1 1 : ; : 1 : ; 1 1 ; ; 1 ; 1 ; ; 2 1 4 4 1 1 1 1 ; ; 2 ; 1 1 ; 1 4 2 1 2 2 1 1 2 1 2 2 2 2 2 u u 2 2 u 2 u u u 3 2 1 2 1 2 2 y u % y % u u 2 2 2 u u u 2 u 2 u 2 u % u u u 2 u u u 2 u u 2 u u D u u u u u u u u u u u u u u u u u u u u % D 2 u u u u D 2 u u u r 2 u u D u u u u D r u u D r u u D u r D r D u u r D u u u u D r D u r D ~ F s r u u u u D u % u u u D u u s u u u u u u u u r D u D u s D u s u u u r s u u D u u u D u u u s r u s r D u s s u D u r D D r s u D u s r D u r D u s D u u u D u u D D r u u u u u u u u u s u u u r u r u u u u u u u u u u 2 D u u D % 2 u u u u u u u u u u u u 2 2 u u u u u u u u u u 2 2 D u 2 2 u u u u 8 u 2 u 2 D 2 2 u u u u % U ",
"2 u 2 D D 2 2 u u u u 3 u 2 2 u u u 2 u 2 u u u 2 u u u u 2 2 u f b.d.h p 2 i u y 2 2 u 2 u u 2 y u u 2 y 2 u u u 2 2 y 2 u 3 u y u u 2 2 r 2 y y 2 u 2 y u u 2 r 2 u u u u 2 2 2 2 u 2 2 u y 2 y 2 1 u u 2 u 2 u 2 1 u 1 2 u 1 2 u 2 u 2 u 2 2 % y 2 1 2 2 1 2 2 1 2 1 1 2 2 2 1 2 u 3 2 u 2 y y y i p s i a a a f l a a a a d a i y y y 1 y 2 2 2 4 1 1 1 1 2 1 2 2 1 2 ; 1 ; 4 ; ; 1 2 ; ; 1 ; 1 1 ; 1 ; ; : 1 : 1 $ @ 1 1 1 1 : : ; 1 1 ; : 1 ; : 1 1 : : ; @ : : 1 1 . : 1 1 ; : ; : $ ; 1 $ : : ; ; 1 : 1 1 1 : ; : @ : 1 : : 1 1 1 1 : : 1 : : 1 1 ; 1 1 : 1 1 : $ ; : 1 @ 1 : : 1 $ ; ; ; : ; 1 1 1 ; 1 1 : 1 1 ; : : 1 : : 1 $ ; 1 . 1 ; : ; 1 2 ; 1 2 ; 2 1 1 2 ; ; 1 4 2 1 1 1 2 ; 2 1 2 1 2 1 2 2 1 1 2 2 2 2 3 3 2 2 2 2 2 u y 2 2 u 2 2 y y 2 2 u u y 2 u 2 y y 2 y u y 1 y 2 y u 2 u u u 2 2 2 u 2 u u u D 2 u u 2 u u u u u u u 2 u u u u u 2 u D 2 u u u 2 u u u 2 u u u u u u u u D u r r u u u r u r u u r r u u u r u u u u u u r u r D u r u r s D s r r u u r u u u D u u u u u u s u u D r D u u u D D u s D r u u u D u u u r s D u D r D u r D r s s u u u u r s u D r u D r s u u u s u D r s u D u s s D u r s D u s u u u u u u u D u u u u r D r r u u u D u D u r u D r D u u r u u 2 u u u u u u u 2 D u D u u u u u u D 2 u u u u 2 u u u u u u u u u u u u u u u r 2 u u u u u r % 2 u u 7 I ",
"u u u u 2 u u u 2 D u D u u u D 2 D u D u u u u 2 D u u 2 D D u s p s a r % 2 2 u 2 u r y 2 2 u y 2 y 2 y y u 1 2 y u u % y u u y 2 2 u u y 2 u u 2 u r y 2 y 2 u u 1 u 1 2 y u u 2 2 2 y 2 2 2 2 u u 2 1 1 u 2 1 u 2 2 1 u 2 1 2 2 2 u 3 2 2 u y 2 y % y 1 2 1 1 2 1 2 1 1 2 1 2 2 2 2 2 u u y y u u a u s d z f f f a f a a d y a y y y y y 1 2 2 2 2 1 2 1 1 1 ; 1 ; 2 4 1 1 ; 1 1 ; 2 2 2 ; 1 ; 1 ; 1 : 1 1 1 : ; : 1 : 1 2 1 ; 1 : ; 1 . 1 : 1 @ : ; 1 1 ; 1 1 ; 1 1 1 : ; : ; 1 : 1 ; : 1 1 ; 1 1 : 1 . 1 : @ 1 1 : 1 ; $ 1 ; @ : : @ 1 ; 1 1 $ 1 : : 1 1 ; 1 : ; 1 : ; 1 : 1 $ ; ; : : 1 : 1 ; : . 1 : : ; 1 @ : 1 : ; 1 1 ; 1 : : 1 1 1 : 1 1 ; 1 2 < ; 4 ; 2 ; 1 2 2 2 2 ; ; 1 1 1 4 2 2 1 2 1 1 2 2 1 2 1 2 1 2 3 2 2 2 u u 2 1 u u 1 y 2 u 2 2 2 1 u 2 y u y % u 2 u u 2 2 u y y r 2 u u 2 u D 2 u 2 D u 2 u u u 2 u u 2 u u u u u 2 u u u 2 u u u u 2 u u u u u u u u D u 2 2 u u u D r u u u D u u u D u u s r D D u u u D u u u D r D D u u u u u u u u u u u u u u D u r u r u u D u r D r D u u s u u D u s r u u u s u D u r s D u D u u u u s u u s u u u r D u D u D u u u D u u u u D u u r D u u u D u u r u u u D u u D r u s D u u D u r u r D r u u D u u u u u u u D r r u r u r u D u u D 2 u u u u r u u 2 u % u 2 u 2 D u u u u u u u u u u 2 u u u 2 u u u u u u 2 u 8 u u u 2 u % D 8 u u u 2 I ",
"2 D 2 2 2 D 2 u 2 u u 2 u 2 u 2 u u u u D 2 u u u u D 2 2 u u u u u u 2 u u 2 2 u 2 u 2 u 2 u 3 u u u u u 2 u 2 u u 2 u 2 u u 2 % u 2 y 2 u 2 2 y u y % r 2 u u 2 u y 2 u u 2 y u u 2 y % u y u 1 2 y 2 2 2 u u 2 2 y 2 2 2 u u u u 2 2 2 u 2 2 2 2 u 1 u 2 2 1 1 1 1 4 1 2 1 1 2 1 3 u u y y u i u a s a a c d B B Q R c f h f a t a i u y y % y 2 y % ; 1 1 1 1 2 2 ; ; 1 1 2 ; 1 ; 1 ; 1 4 1 1 1 < 2 1 : 1 1 : : $ ; 1 : @ . : 1 1 : 1 ; : : 1 @ 1 : 1 ; : $ : : 1 : 1 : @ 1 ; : $ ; ; 1 : : : : ; : ; : 1 1 : : 1 . ; : 1 : : 1 1 : 1 1 1 3 : 1 1 1 1 1 ; : 1 ; : : ; : 1 : 1 @ 1 : : ; 1 . 1 ; 1 ; : : 1 . 1 : ; ; : 1 ; 1 ; 1 1 1 ; $ ; : 1 ; ; 1 2 ; ; 3 2 ; 2 ; 1 < < 2 2 1 ; 1 1 1 1 % ; 1 1 1 2 1 2 ; ; 2 3 2 u 2 2 u 2 2 u 2 2 2 2 2 2 u p 2 1 2 y u 2 y u u 2 y 2 y u 2 u u u u 2 D u u u u u r D 2 u u 2 u 2 u 2 u y u u 2 r u u u u u u u u u 2 u u u u D 2 u u u u u 2 D u D r D u u u u D r u u u D r D r r u u r D r D u r r D u u u u u D r u u D r r r D r r u u s r D u u s u D u D r u u D u D r u u D s u s r D u u s u D u D u u D r s u D r s D u u u u u u D r u u D u D r D u D u u u u D u r s u u D D u u s D u u u u D r s u u u D s u u u u D r u u u s r u u r D u u r u u r s u u D r u u u D r u u D r u u 2 D u u u u 2 u u u 2 u u u u 2 u u u 2 u u u u u u u u u u u u 2 u u u u r u % I ",
"r u u u u u u u D 2 u u u u u u u 2 D 2 2 u u 2 u 2 2 u u u u 2 3 u u u u 2 u u u u u u 3 u u u u 2 u 2 u 2 u u u 2 u u u u 2 u y u 2 u y u y u u 2 y u y 2 u 2 u 2 u y 2 r u 2 2 y 2 u y u 2 2 u 2 u 2 u 2 2 2 u 2 u 2 u 2 2 2 2 2 2 u y 2 1 u y 2 2 u 2 3 u 1 2 ; 2 2 2 1 2 1 1 2 2 2 1 y y y i a a f a f c R R Q Q R R c B z a a i a i y y y y 2 2 1 2 2 2 ; < 2 1 1 2 1 ; 4 1 2 2 1 2 1 ; 2 4 ; 2 ; ; 1 : @ 1 1 1 : : 1 1 : 1 ; 1 ; : 1 1 @ 1 : ; 1 : ; 1 : @ 1 1 @ 1 : 1 : : 1 : 1 1 1 1 ; ; 1 1 1 $ 1 : ; 1 ; 1 1 : 1 ; 1 $ : 1 3 : 1 1 1 : 1 1 $ 1 1 1 1 $ : 1 ; 1 1 : ; : : 1 @ 1 1 1 1 1 : : 1 1 ; 1 1 ; $ : 1 ; 1 1 : ; : 1 . 1 : 1 1 1 : 1 ; ; 2 1 2 4 ; 1 1 ; 2 1 ; ; 1 1 1 2 ; 1 1 2 1 2 1 1 2 1 1 1 1 2 2 u 2 2 i i u 1 2 u u 2 u 2 2 2 y u 2 2 2 u y % y 2 u u 2 u y 2 2 2 2 u u u 2 2 u 8 r 2 u u 2 u u 2 D u u u u u u u u y u y u u 2 u u u u u 2 u u u 2 2 u u u u 2 u r u u u r u u D r D u u r u u u s r D u u u u u D u u r D u s u u r D u r u D u r D u u u u r r u u u s r u D s u u u D u s u u u r D u D r D u r D u s r u s u D u u u u u u r D u s u s r D s s r u u s u u r s r D u s u D u u u D u s u r r u D s u u D u u D s r r D D u u r D u u u u r u s r u u u D u D r u u u u r s u u u u u u 2 r u u u u u u 2 D u u u u D u u u u u 2 u u u u u u u 2 u u 2 u 2 u u u u u 2 u y u 2 I ",
"3 u 2 u 2 u D u 2 u u 2 u 2 u u u u 2 u u u u 2 2 u u u 2 u 2 u 2 D u 2 u u u 2 D 2 u 2 2 u 2 u 2 u u u u u u u u 2 2 D u 2 u u u 2 y % y 2 2 u 2 y 2 u y u 2 u y 2 2 y 2 y u y r y u 2 u 2 y 2 2 2 1 2 y 2 2 u 2 u 2 1 u 2 2 u y 2 2 y u 2 2 1 2 1 2 y u 2 2 1 2 1 2 1 1 2 1 3 1 2 u u u y u u p a a a f B R Q ~ ~ ~ ,.~ Q Q c f d a a i y r y y 1 2 2 1 ; 1 ; 4 1 ; 1 ; 2 1 1 ; 2 ; 4 ; 1 4 1 ; 1 2 ; , : : 1 1 1 1 : : ; ; $ 1 : , : ; : 1 : : 1 : 1 : 1 1 : : ; : 1 1 @ : ; ; 1 ; : 1 . : 1 1 : . 1 ; : : @ 1 : ; 1 : ; 1 1 ; 1 $ $ 1 1 2 3 y y y 1 y 1 1 1 : 1 1 : : : $ 1 1 : : 1 : 1 ; : 1 1 : @ 1 : 1 ; 1 : : ; : ; 1 1 : 1 1 1 : 1 $ : 1 ; 1 1 2 ; ; 1 1 1 2 ; 2 ; 1 1 4 ; 2 ; ; 1 1 1 1 1 2 2 2 1 4 2 1 1 2 2 2 2 2 2 2 2 2 y 1 u 2 2 3 2 1 2 p y 2 u u 2 2 u u u 2 u 2 y u u u u u 2 u u u u u u u u u u u u u u u u u 2 u u u 2 u 2 2 u u u u u u u u u u u u u u D u r u u 2 u u u u D r u D r r u r D u r u u D u u D u u D r r r u u u r r D u u u D u u s u u r D r u D u D u u u D r u u D D r u u u u D u u u u u u u u s u u u D u r u D D r u D u u s u D r s u D u u D u D u u D u D u s u D r D u D D r u u u u D s u D r D u u u r D u u u u u s D r s u u D u D u u r u u u u r D u u u D r D u D u D u 2 D u D 2 u u u u u u u u u 2 D u 2 u u u D % u u u D 2 u u u r u u r u y u u i u u u r u 2 I ",
"u u 2 u u u 2 2 u 2 D u u 2 u 3 2 u 2 u 2 u u u D u u 2 u u u u u 2 u u u 2 u u 2 u u u u u u u D u u 2 u 2 u 2 D u u 2 u u 2 2 u u y u u 2 u u u u % y 2 u y 2 u u 2 u u y 2 % 2 2 u y y 2 u 2 2 i 2 u 2 2 y 2 u 1 2 u 2 y 2 2 2 2 u 2 1 2 u u u u 2 2 2 u 2 1 1 2 1 2 1 1 1 2 3 2 2 u y y u i s d f z c T Q ~ 1.a.s.a.p.1.1.B B f a d a u y y y y 1 2 2 1 1 1 ; ; 2 1 2 4 ; 1 1 1 ; 2 2 2 ; ; 4 1 ; 1 1 ; 1 ; : : @ 1 1 1 : : : ; 1 1 1 : ; ; ; ; $ : 1 @ : ; 1 1 : ; : ; 1 : : : ; 1 : 1 ; ; : 1 ; 1 : 1 1 1 : ; 1 : 1 ; : : 1 1 1 $ y y y y u y y y y 1 1 1 1 1 ; 1 ; 1 ; : 1 @ ; 1 : ; 1 : : @ 1 : : ; 1 : : ; 1 1 1 1 : ; : 1 : ; 1 : 1 : : 1 ; 1 ; 4 ; 1 ; 2 1 4 2 1 1 2 2 2 1 2 1 2 2 1 1 2 1 1 1 2 2 2 1 1 u 2 2 u u 2 u 2 2 u 1 2 2 1 2 u u 2 1 2 u y 2 y u u 2 y y r 2 u 2 u 2 u u u u 2 2 u 2 r 8 u u 2 u 2 2 u 2 u u u u u u u u u u u u u u 2 u u u u u % u u u 2 2 D u u u u u u u u u u r r D u r D u D u u r u r r u u s r D u D r D r u r r D u u u s u u u D D u r D u u s r u u s u u u u s s r D D r s u D u s u u D u s r u u u D u u u s u u s r u u u D u D u u u u u r D u r s r u D u u u u u u u s u D u u D u u u u r s u D s u D u u D u u r D u u D r r D u D D u D u D r r u r D u u r u r u r u u u u u u u u u u 2 u u u u u 2 u D r u u u u u u u u u u 2 u u u u u u u u u u u u y y u 2 I ",
"2 u u u u 2 u u p u u 2 u u u u u u u u 2 u 2 u 3 u u u 2 u u 2 u 2 u 3 u u u u u u u u 2 u 2 u 2 u u u 3 u u u 2 u u D 2 u u u u 2 u u 2 u u 2 y 2 % u y u y u 2 y 2 u y 2 y u u u u 2 y u y u u u u y 2 y y % 1 u 2 y u 2 y 2 u u y 2 y u 2 2 2 1 1 2 y 2 u 2 1 1 1 3 2 3 2 2 u 2 u y u i u a d a s c R Q ~ p.s.~.!.!.g.a.( ~ B f f d d i i y y 1 1 1 $ 2 1 1 2 2 ; 1 1 < 2 ; 1 4 2 ; 2 1 1 1 ; 2 ; 1 1 1 , 1 1 $ 1 : 1 ; ; : $ 1 ; 1 : 1 : $ : 1 ; : 1 1 : 1 : $ 1 ; : 1 1 1 1 : : 1 : 1 1 : ; 1 1 . 1 1 ; : 1 ; 1 : 1 1 1 1 1 $ 1 i u i i y i i p i y y 1 1 y 1 1 @ 1 1 $ : : : $ ; 1 1 1 ; : $ ; 1 1 1 1 : 1 $ ; : : ; 1 : ; 1 $ : 1 ; : 1 1 1 4 ; 1 1 ; 4 ; 1 1 1 2 1 ; 2 3 2 1 2 1 2 1 2 2 2 2 2 1 2 2 2 2 2 y u 2 y 2 2 u y 2 u y u % u y 1 u u 2 y u 2 u 2 u 2 y 2 2 u y u u 2 2 D 2 2 2 u u 2 D u u 2 u u 2 u u u 2 u u y r u u 2 u u u u u u u D u u u u u D u u u u u u u u r u u u u u r D D u D r u u D u u u s r D u u u D r u u D u u u s u u u D r u r u u u s r r D s D s r D s r u s D D s r u D s u r D s r D s r D D s r D s r u s D s D r D D s s u s D s u r D s s r s s u s D u s D u D r s D s r D s r D D s r s s u s s D r s u r s u r s u r u s D u s s r s r s D u D u r s D s r u r u u u r D u u r u u u D r u r u u % D u u u u r u u u u u u r 2 u u u D 2 u u u u 2 u r u u u u u u u D 2 I ",
"u u 2 u u u u u u 2 u u u u u 2 u u 3 u u u u u u u 2 u u u u u u u u u u u 2 u 2 u u u u u u u u u u 2 u u u u u 2 2 u u 2 u % u u u 2 2 u 2 u u r y u y % % u u r r u u u 2 u u 2 2 u y 2 2 u u 1 1 u 2 y u 2 2 y y y r y u 2 u 1 y 1 y 2 u u 2 u u 2 2 u 2 3 3 2 u 2 2 2 u 2 u 2 2 y 2 y i i d f c m Q ~ t.g.!.!.(.!.!.~.a.1.Q B x a a i u 1 y y y 1 1 1 2 1 2 1 1 2 2 2 1 1 2 ; 2 < ; 2 ; 2 1 1 1 1 1 ; 1 ; 1 : 1 : 1 : $ : 1 ; 1 : 1 : 1 1 : 1 1 : $ : $ 1 ; 1 : 1 $ : 1 1 1 $ ; 1 ; $ : 1 1 : 1 : : 1 1 : 1 : : ; 1 1 1 : 3 y y i y i i i i s d p y y y y 1 1 1 : : : ; 1 1 1 1 : . 1 : 1 1 1 : : @ : 1 $ : 1 : 1 1 1 1 1 1 : ; 1 : 1 1 1 1 ; 2 1 2 ; ; 2 2 1 ; 2 1 1 1 1 2 2 2 1 2 1 2 1 y 2 2 3 2 3 u 3 u 2 2 2 2 1 u y 1 u y 2 2 u y y $ 1 y u u 2 y y y % y r r u u 2 2 u u u u u u u u u u u u 2 u u u y u u u y u u u u 2 u u u u u u 2 u u u % r u u u u u u D r u u u D r D r u u u s r u r u s u u u r u u u u r r s u u u u D r r u u u u u r D u r D r D u u u D s D r r s s u u s D r s r D s s r r s s D u s u D r s u s s u u s D s s r s s u s r D D s r r D s s r D u u D D s r s s u r s D u s r s u s D s r s D r D D r r u s D D s s D s D D s D r s s r D r D s D r s D u s r s r D u s u D r u u u r u u u D r r s u u u u u u u D r r D u u u u u r u u u u u u u u u u u u u u u u u u 2 u u % I ",
"% u u r u u u u u u u u u u u u u u u u u 3 u u u u u u u u 2 y u u u u 2 u u u u u u 2 u 2 u u u u u u u 2 u 2 u u u u u r u D 2 u 2 u u u 2 u u y r u u u 2 u u u r u y r u u 2 2 y y r u 2 2 y u 1 2 u y u y u u 1 2 2 2 u u 1 1 u u r u 2 2 u u 1 1 2 2 y 2 2 2 u 2 u u 2 2 2 2 u u y i i d a a z B Q ~ a.!.!.!.(.(.!.~.g.t.~ B f a a i u y r y 1 1 1 1 1 1 1 1 2 1 2 2 1 ; 2 2 ; 1 1 1 1 2 ; ; 2 ; 1 3 1 1 1 1 : ; 1 : 1 1 : ; 1 1 ; $ 1 : 1 1 1 1 ; 1 : : : : $ 1 1 1 : . 1 : 1 $ : 1 1 ; 1 1 1 ; 1 $ ; 1 $ 1 : 1 ; : 1 $ 1 y 1 i i f c h R h f f a i y y y $ 1 1 1 ; : 1 $ 1 1 : : 1 1 $ ; : 1 1 : 1 ; : : ; 1 1 : 1 : ; ; : 1 : 1 1 2 ; ; 1 1 4 2 ; 1 1 ; 1 ; 4 1 2 2 1 1 2 1 2 1 2 2 1 2 2 u 2 2 3 2 2 2 y 2 y y 2 2 u 1 u u 2 u 2 y u a d y % u u % u u u u u u u u u u 2 u 2 8 r 2 u u u u u 2 u u u u u u y 2 u u u u u u u u u u u u u u u 2 D D 2 D r u D r D r u r u u u D r D u u u r u D u r u r s r D u D u D r r D r u u r D u u r s r D u D D r D u r u r s s s s r D D s D D s D s r s s r D s s D D s u D D u s D s r D D D s D r r D u D s r r s s r D D r D D r r s s s D r r s s r D s s s s s s u r s s r r s u D D u s D s u r s r s s u s r s D s r s D s s s u u s s r D s D r D s s r D r D s s r u u u u u D u r u u u u u D u r u u r D u D u D u r u u u r u u u 8 u u 2 u u u u 2 u y u 2 I ",
"u u y u u u u 2 u u u 3 2 u u u 2 u u u u u u u 2 u u u u u u u u u u 2 u u u y u u u u u y u u 2 u u u u u u u u 2 u 3 u 8 u 2 u u u u D 2 u u 2 u u % r u y r % y u 2 % y u 2 y u u 2 2 u u y 2 u u y y % 2 u u 1 u y u u 2 y u u 1 u 2 u u 2 1 2 2 u y 2 2 u u 2 2 u 2 2 2 u 2 y u i u i i s a a c B Q ~ d.!.(.(.(.(.(.!.~.4.! c x a a a a y y 2 y $ 1 1 $ 1 2 1 1 2 2 1 1 2 ; 1 1 1 1 ; 4 ; 1 4 2 2 1 ; ; 3 ; 1 1 1 ; 1 ; : 1 1 1 : : 1 : ; @ : : $ : 1 1 ; 1 1 ; : ; : 1 1 : ; 1 : 1 : : $ . 1 : 1 1 : : 1 ; : 1 1 1 1 1 1 y y i i p B E W ! W E f s i i r y 1 1 1 1 : ; 1 : : ; 1 1 ; : : 1 1 : ; $ 1 : 1 1 $ : : ; 1 1 1 1 1 1 1 1 1 3 1 1 1 ; 1 2 2 4 ; 2 2 2 1 2 1 1 2 1 1 2 1 1 2 1 2 2 y 2 2 u u 2 u 2 u 2 2 y 2 1 u u 2 y u y 2 u s Q ~ s y 2 u % y r y 2 r u 2 2 u u u u u u u r u u u u u u u u u % u u u u u u u 2 u u u u u 2 u % D u 2 D r u u u r u r u u D u u u D r u u r r D u D u r u u u r D u u u r r D u D u u u s r u r D r D u u r r u u r u r D r D u r D s u s r u s r D u s D u s u s r u s r s r s s s r D r s u s r u s s s r D D u s D u s u s s u s s s D u r D s D u s D s r r D u r D D s D u s D u s s r s s r r s D D D u s r D D u s s D r u D u r s D r s D s r s s D r D r s s D r D r D r r D r D u D u u u r u r u D r D u u u r u r D D u u u D r D r r u u u u u y u u u u u 2 I ",
"% u % u y u u u 2 u u y 2 u u u u u u u 3 u u u u u u u 3 u u u u u % u u u 2 u u u u u u u 2 u u u r y u u u u u u y u 2 u u u u 2 2 D u u u u u u u u u u r y r u u u u y u r u u 2 y y 2 2 u % y y u u 2 2 u u % 2 y u 2 2 u 2 u y y u 2 u u y 2 y 2 2 3 2 3 u 2 2 2 y 2 1 2 u 1 i u i s i a s s z Q Q ~ a.!.~.(.(.(./.!.g.1.~ B l a a a i i y y y y 1 1 1 2 2 1 2 1 1 1 2 ; 1 ; 1 ; ; 1 ; 1 1 ; ; 2 1 1 1 1 , 1 : 1 ; 1 1 1 1 1 $ 3 : $ ; 1 ; $ 1 : 1 : : @ : 1 1 : $ : : 1 1 ; 1 1 1 : 1 : 1 : : 1 : 1 1 1 1 1 : 1 1 1 y 1 y i a f h E ( ` [ [ ` h B d i u y 1 : : 1 $ @ : 1 1 : $ 1 : $ 1 1 : 1 1 : : 1 1 $ 1 ; 1 1 : 1 . 1 : 1 ; : 1 1 1 ; 1 2 ; 1 1 1 1 1 1 1 2 1 2 2 1 2 1 2 ; 1 1 1 2 2 y 2 2 y u 2 y 1 2 u u 1 2 2 y y y 2 u u y % a XXOXc u y u 2 y y r u r u u u 2 u 2 u u u u 2 u u u u u u 2 u u u u u u u u u 2 u u u u u 2 u u u u u u u 2 u u D r u r u u u s r u u D u D r r u u u D r D r u u u D u D r u u u u D r u D r D r r u u D u D r u u u D r u u D r u D s r s u r s u s r s s r D s u D D s r s r s z z u u u s u D D D s r D s r D r s D s r r s u s r s r D s u D s D r s D D r D r s D s u s r s s r s u D s D s u s r s s s u D r s r s u r s u s r D r s s u D s s s u r s u D r s u D s r s r u u D u D r u u u r D r r u s u u u r u u u D r s u u u u u u u % u u u u u u r D 2 u u % I ",
"r u y u u u u u u u u u u u u u u 2 u u u u u u u 2 u u u u u u u u u y u u u u u 2 u u y u u u 2 u u u u 2 u u % u u u u u u u u u u 2 2 u 2 u D 2 u 2 2 2 u 2 u u 2 r r % u y 2 r u 2 u u u 2 u u 2 % u y u 2 y y u u 2 u u 3 y y 2 1 u u 2 2 u u u 2 2 u 2 2 2 1 u y 2 2 u u 1 u 2 y i i u s f d l R Q <.a.~.~./././.~.~.s.1.Q B d a s u i u y y $ 1 1 1 1 1 1 2 1 1 1 2 2 1 4 1 1 1 2 1 1 1 1 2 1 1 ; 1 ; , 1 1 1 1 1 1 1 . : : 3 $ 1 1 : : : : 1 ; @ 1 1 1 $ : 1 ; 1 1 ; 1 : $ : : ; $ 1 ; ; 1 $ 1 $ 1 : : 1 . 1 1 ; 1 $ 1 1 i a f R W [ ~./.{ [ _ R p i i y y 1 1 ; 1 ; 1 1 : ; 1 1 : ; : @ 1 : ; $ ; 1 : : 1 : 1 : ; 1 : 1 1 1 : 1 1 , 1 1 1 1 2 1 ; ; 2 ; 1 1 1 2 1 1 2 1 2 1 2 1 2 1 2 2 2 y 2 2 2 u 2 u 2 1 2 1 u 2 y 2 u y 2 2 y u a 1.s.i u 2 y u r u u 2 u u 2 u u u u 2 u u 2 u u 2 u u u u u u u u r 2 u u u u r u u u 2 u u u u u 2 2 u u D u u u u u D r D r D u u u r u u r D r D u u u u r D u D r r u u u u D r u u r D u u D u u u r u r D u u D r u s r s s s s r s D D s s D D u u D r s s r r s u s D u u D r D D r u s s r u s s u u s D u s u s D s D D D D u s D r s s r u s s u D s u s s u r D D u u D D u s r r s s D D r D r r D D u D s s D s D D D r s D s u D D r r D D s s D r s s u D r D u u u u r u r r s u u r D u D u r u u u D r D r D u r u u u s u u u D u u 2 u u u u u u u u % I ",
"y u y u u 2 u u u u 2 u u u 2 u u y u u u u 2 u u y u u u u 2 u y u u u u u y r u u u u r u y u u u u u y u u u u y 2 u u u 2 u u u u u D 2 u 2 2 2 u u u u u u 2 y 2 y u 2 % u y r y u 2 u u u y 2 u y 2 y u u 2 u u 2 u y 3 u % y u u 2 u u u 2 u y 2 u 2 2 u 1 u u 2 u 2 2 2 2 u i 2 u i u a a a f c R Q 1.s.~.!.!.!.!.g.p.~ Q c f f a s i u y y 1 1 1 1 1 1 2 1 1 2 1 1 1 1 ; 1 1 1 1 2 1 ; 1 ; ; 1 1 1 1 1 1 : 1 ; 1 1 1 : 1 1 1 $ 1 . : 1 1 1 : 1 : 1 1 : ; 1 : $ : 1 1 : 1 : : 1 : 1 1 : : 1 @ : ; : $ ; 1 : ; : : 1 1 y u y i f R _ g.!.!./.{ _ R h i i y 1 : 1 1 @ 1 1 1 . : 1 @ 1 : 1 : : 1 1 ; 1 ; : : 1 1 : 1 $ 1 1 : $ $ 1 ; 1 1 1 ; ; 1 ; 1 ; 4 ; , 1 2 1 1 1 % 1 1 2 2 1 2 1 1 1 2 $ y y 2 2 2 2 2 u 2 u 2 u 2 y u y u % u 2 u u u u u y y 2 2 u u % 2 u y 2 u 2 u 2 u u u u u u u u u 2 u 2 y r u y u u 2 u u u u y u u u u u D D u u u u u u u u u u u u r D u r D u D D u u u u u r u u u r s u u u s D D r u s u D r u u s u r r r u u r u D u D D u u s u D D u u D s r s u r D D s D s s s u D D s D s s u u u u z z D D u D s u r D u D D r s r s r D s u r s s r u D D r D s u s r s r s r s s D D s D s s D s u D s s D r u D s s s s s r s s s r D s u u s s u s r r s s s u s s r u D u D D r s s r u r r u D u D u u u u D u u u u u u s u u u r u r u r u D u u u u r u u u 2 D u % u 2 u u u 2 I ",
"r u u u u u u u r y u u u u u u u r u 2 u u u u u u u 2 u u u u u u u u u 2 u u r y u 2 u u u u u u 2 u u u u 2 u u u u u u u u u u u 2 u u u u u u 2 D 2 u u 2 u r u r u u y u u u 2 u y 2 3 u u u 2 y u 2 2 u % y 2 y u 2 u u u u 1 u u 2 3 u u 1 u 2 u 2 2 y y 1 1 1 y 1 y 2 u 1 u u u u i i s a f c c Q 1.] s.g.g.~.s.p.t.Q R c f f s i i y y r y y : 1 1 1 1 1 1 1 1 1 1 1 ; 1 ; 1 1 ; 1 1 1 1 1 1 1 ; 1 ; 1 1 1 1 : , 1 1 : 1 1 1 1 1 1 ; 1 : 1 $ : 1 : 1 1 : 1 1 : ; : ; ; 1 ; $ 1 : 1 : : 1 1 : 1 1 : 1 1 ; 1 $ : 1 : i y i i d J ] { } !.} { _ R d i y i 1 1 1 : 1 1 ; 1 1 1 : : 1 1 : 1 1 $ : : : $ 1 ; : 1 1 1 : : ; 1 1 : , 1 1 , : 1 1 1 1 1 1 1 1 1 3 1 1 1 1 1 1 2 1 2 1 1 2 1 1 1 1 2 1 3 2 1 u 1 y 1 1 y 1 1 u 2 2 u y y 2 u u u 2 u u u y 2 u r y u u r u r u u D 2 u u 2 u 2 u u u u u u u u u u 2 u u u u y 2 u u u u u 2 2 2 u u u u 2 D r u u s u D r r u r u u r u u u u D r s u D u u u u u u u r u r s u r D r u u u u u D s u s D u r u s r u D r u D D s r s D D u s s u s r r r D u s s r D D r u s D r r D s u r s s r D s s s r s s D s D s u r s s D u s s r s s r s D r s D u s D s r u s r r s r r s D u s r D s s u D u r D u s D r D s u r s D r s D D u s D r s D r D s D r s r s s r D s u D D u r r D u u D r r u D r D u u u u u u D D r u D u r u u u 2 u u D % u u u s u u u i D 2 / ",
"u u u u u u u u u u u 2 u u 3 u u u u u 2 u u u u u u u 2 u u u 2 u u y % y u u u u u u u u u u u 2 u u u u r u u u 2 u y u u u u u u u u u 3 2 u u u 2 y u p u u u u u u u u u u u u u p u 3 2 2 u 2 u u u 3 3 u u 3 u u 3 u 2 2 3 u 2 2 u 2 2 u y u 2 2 u 4 2 1 1 y 1 1 y 1 y 1 1 y u u y i s p a a f c V Q ! 1.1.p.1.t.~ Q R B f f d s i p u y u 1 1 y 1 1 2 1 2 2 2 1 1 1 3 1 2 1 1 3 1 1 , 1 1 ; 3 , 1 1 1 ; , : 1 , 1 1 : 1 1 1 ; 1 1 ; 1 ; ; : 1 1 , 1 ; ; : ; 1 1 ; 1 1 1 1 1 1 , : 1 1 1 ; 1 1 ; 1 : , 1 ; 1 ; , 1 1 3 y i d d j W a.~.!.{ [ W R p i i y 1 3 1 ; 1 ; 1 1 1 1 ; 1 1 1 ; : ; 1 1 1 ; 1 1 1 , 1 ; 1 1 ; 1 ; 1 1 : 1 1 1 1 3 ; 1 ; ; 1 ; 3 ; 3 1 2 3 1 1 u 1 3 3 2 2 y 2 1 1 1 1 1 1 y 1 2 y 1 y y i 2 2 2 u 2 u 2 u 2 u 2 D u u 3 u 2 u u u u u u y u u 2 2 u 3 u u 2 u y u u u r u u u 2 u 2 u u u u u u u u u u u u u u u u p u u u u u u u u p u u s u s u u u u s u s u u u u r s u u u u s u u u p u u u s u u u u u D s u s u D r s D r s u u u D u r u r s u u u u u D u u s D u u D r s u u u r s T  .T r D u s u D u r D r D r s u u D u u D u s u u u D u u u D u s u u u D u D u D s D r s s s s s u s s D s u s D s s D s s u u u D u u D u s r s u u u D u u u u u u r u u u u u u D u u u u r u u u D r u u u u u u r u u s u D u u s u p u D r s u u s D u u u u u u u u u u 4 u u D % / ",
"u u u u u u u u u u u u u u u u u 2 u u u u u u 2 u r y u u u u u u u r u u u u u 2 u u u u 2 u u u u u y u u u u u r y u 2 u r u 2 u u u 2 u u 2 u u u 2 u 3 u 2 u 3 u u 3 2 u u 2 u 2 2 u u u u u u u u 2 u u u u 2 u u u u 2 2 u 2 u 3 p u u u 2 p y u 2 u 2 1 y y 2 y 1 2 1 1 y u i y u i u s d d f l B R Q ~ ~ W ~ ! ~ B c f f d d s i i u 1 y 1 y 1 2 1 1 1 1 1 1 y 2 1 1 3 3 1 1 1 1 2 3 ; 1 ; 1 1 1 : 1 1 1 1 1 1 1 : ; ; 1 1 1 1 : : 1 1 1 ; 1 1 ; : 1 1 1 , 1 , 1 : 1 ; : 1 ; 1 ; 1 ; ; 1 1 : 1 , 1 1 : 1 1 : 1 1 1 $ y y p d h E _ ] ' ` ` E B s i y y 1 : 1 1 , 1 ; 1 ; : 1 1 , 1 , 1 1 , ; 1 1 ; : 1 : 1 1 1 1 : 1 1 : , 1 1 ; ; 1 1 1 1 1 1 1 1 1 1 3 2 1 1 1 1 1 3 2 2 1 3 2 u 1 1 3 1 1 1 1 1 y 1 1 2 1 1 1 i u 2 u 2 3 2 u 3 2 p 2 2 u u 2 u u 3 u u 2 2 u u u u u u u u u u u u 2 u y u u u u u u u u u u u u u u u u u u u u D u 2 u u u u u u p u u u u u p u u u u u u p u s u s u D r s u p u u u u s u u u s u u u s u u r u u r u u u u u u u D D s r u u s D u r D D u u u u D u u r D u u u u D s u s ,.,.T r 2 D D s u u s u u u u u s r u u u u u r D u u s r D u u u r D D u u r s s s u s s D u D D u D s s u r s r u D r D r D u s r u u D u u u u u s r u u s u D D u s u s u s s u D u D D u s u s r D u s s u s u s u s u u u u p u u u u u u u u u u u u u p p u u u u u u u D u u u u % / ",
"u u u u u u u u u u u u u u u p u u u u u u u u u u u u u u u u u u u u u u u 2 u u u u u u u u u 2 y r 2 u u u u u u u u u u u u u u u u u u 2 u u p 3 u u u 2 3 u u u u u u u u u u u u u 3 u u u 2 y u u u 2 3 u u u u 2 u u 2 u u 3 u 2 u 2 3 u 2 u 2 u u u 1 1 1 y 1 y y 1 3 2 1 i u u u i s u i f f d c B B B Q T B B B f f f i s i u i u y y 1 1 3 1 1 1 1 1 1 2 1 1 1 3 2 2 1 3 1 1 2 ; 1 1 3 1 1 , 1 : 1 1 1 ; : 1 1 : , 1 1 1 1 , 1 : ; 1 1 1 : 1 ; 1 1 , 1 ; : 1 ; 1 , 1 , : 1 1 1 , ; 1 ; 1 : 1 , 1 1 ; 1 1 , 1 1 : 1 i i d d h E E E E h B d d i u y 1 1 ; 1 ; 1 1 1 : 1 , : 1 ; : 1 ; 1 : ; 1 1 1 1 1 1 1 , 1 : 1 1 1 : 1 1 1 1 1 3 ; ; 3 1 , 3 ; 1 1 1 1 1 1 1 2 2 2 1 1 1 1 1 1 1 y 1 u 1 1 1 1 2 y y 1 1 u y 2 u u 3 u u 2 u p 3 u u u u 2 3 u 2 u 3 u u u u u u 2 u u u u u u u u u u u 2 u u u u u u 2 u 2 u u u u u u p u u u p u u p u D u u u u u u u u u u u u D u u u u u u u s u u u u u s u u s u u s u u u u u u u D u D r D D u u D u u u s u u u u u u u u s u u r D r s u u s s u u D s u r s r u z T D s u u s u u u u u u u s D u D s u D r u D u r u u s u u D u D u u u u u s s r u D s D s u s s s u s s u s s s s D u s r s u D D u r s D u s u u D D u u r r s u u r D D u D u u u r D u u u u u u u r u u u u u s u u u u u u u u u u u u u u u u u u u u 2 u u p u u u u u u p u u 2 I ",
"2 u u p u u p u u u u u u u u u u u u u p u u u u u u u u u u u u u u 2 u u y u u u u 2 2 u u r u u u u u u u u 2 u u u u u u u u u u 2 u u u u 3 u 2 u 2 u u u u u u 2 u 2 y 2 u u u 3 2 u u u u 4 u u 3 u u u u u 3 u u u 2 3 u 2 u 2 2 u 2 u 3 3 2 u u u 3 3 y u 1 1 1 u 1 1 1 1 y 2 u u i i p s i d f d c c c c c z z x l f a f i d d i 1 i 2 1 y 1 1 1 1 2 1 y 1 1 1 1 1 2 2 2 3 2 2 3 1 3 , ; 3 1 1 1 1 1 ; 1 1 : 1 ; 1 1 1 1 1 : 1 ; 1 , 1 1 , : 1 , 1 : 1 1 1 : ; 1 1 1 : ; 1 1 : ; 1 1 1 : 1 , 1 ; 1 1 : 1 ; : 1 1 1 1 3 i $ t d d f R V j h d d i y i y 1 1 1 , 1 ; 1 , 1 ; 1 1 ; 1 1 1 1 1 , 1 : 1 , ; 1 , ; 1 : , 1 1 ; 1 1 1 : , 1 1 3 1 4 1 1 1 3 3 1 1 2 y 1 3 1 2 2 1 1 2 1 3 1 1 2 1 1 1 1 2 y y 1 1 y 1 1 1 3 3 2 u 2 4 u 2 p 2 u p 2 2 u 3 u u u u u 3 u 2 u u u u u u u 2 u 2 u u u u u y u u 3 u u u u u u u u u u u u D 3 u u u u u u u u D u u u p u u u u u u u p u u u u s u u s u s u u u s s u u u u u s u s u s u s u u D u u u u s D s u r D D D u s D u D D u s D u s u u D u u D u u D u u D s u r r u s D s u u D D D u s D u u u D u u D s u u D s D u u D s u r D s u D s u D D s D s s u D s D r D s u D D D u D u D s s D u u s u u D u u u D u D u s u D D D u D u s u D u u u D s r s D u D s D u s D D u s u u u s u s u u u u p u u D u u u u u p u u u u u u D u u u s u u u u u u / ",
"u p u u u u u u u u u u u p D u u u u u u D u p 2 p u p u 8 p u u u u p u u u u u u u u u u u y u u u u u u y r 2 u u u u u u u u u 2 u u u u y u u u u u 2 u u u u u y u 2 u u u u u u 3 u 2 u 2 u 2 u u u u 3 u u 2 u 2 u u 3 u 4 u 3 u u u u 3 u u u u 2 u 2 u u 2 3 1 1 y 2 1 y u u y u y y i i a s d d f f f f a l d f s d d d s i u u u u u y 1 1 1 1 i 1 2 3 1 u 3 1 1 1 1 1 3 1 u 1 1 1 1 3 3 1 1 ; 3 ; 1 1 : , 1 1 1 ; , 1 1 1 ; : 1 1 1 : 1 1 1 ; 1 1 ; : : 1 1 1 1 : 1 1 1 1 : 1 : 1 1 , ; 1 1 1 , 1 1 ; 1 1 1 1 1 1 : i 3 i i i t d s d d y i y y $ 1 1 1 1 1 1 1 , 1 1 1 : 1 1 1 , : , 1 1 ; 1 1 1 1 1 ; : 1 : 1 1 1 1 1 1 1 1 1 1 1 3 1 ; 3 3 2 2 1 1 1 2 1 1 1 1 1 1 2 1 1 1 1 1 1 1 y 2 y 1 y y 1 2 y 1 2 u u u u u u u p 2 u 2 u u u u 2 3 u u 3 u u u u 2 u y u u 2 u u u y u u u u u u u u u u 2 u u u u u u u u p u u u u u u u s u u u u u u u p 2 u 2 2 u s u u u u u u u u u u p s u u u u u u u s u u u u s u s u u u s s D s r s D s s u D s D D s s s r s D u s s s s D u D s s D u D s s u D D s s s u s s s D u s D s s D s D s s u u D s s D u D s s u s r D s D s s s u s s s u u D u D s s D u D s r s D s r u s s s u D s D s r u D s s D s D s u s u s D D s D s D s u D s s D s D s s D u s u s u s u D u D u D p s u u u u u u u s u s u u u u p u u u u u u u s u u u s u u s s u s s 2 / ",
"u u u u u p u u p u u u u u u u u u p u u u u u u u u u u u u u u u u u u u u u u u 2 u u u u u u u 2 u u u 2 u u u u u u 2 u 2 u u u y u u u r 2 u u u u u u u 2 u u u u u 2 u 2 u 4 u 3 u u u u y u u 3 u u u 3 u u u u u u u u u u u u 2 u 3 u p 2 u p u u 3 2 u i 2 y 2 1 y u 3 3 y y y u y u i i u u d d a f f f d f f d d d i u i i u 2 i y 1 1 y 1 1 1 1 1 1 1 1 1 1 1 1 1 2 1 1 1 1 1 1 1 1 ; 4 1 3 3 1 ; 1 1 1 : 1 1 1 1 1 : 1 1 1 1 , 1 ; 1 , 1 : ; 1 1 1 1 ; 1 ; 1 1 : 1 , 1 ; 1 ; 1 : 1 1 1 : 1 ; 1 1 1 : 1 1 , 1 1 1 $ y i i i y a a i i i i 3 y 3 y 1 1 1 ; 1 1 1 ; , 1 1 ; 1 : 1 1 1 : ; 1 1 1 : , 1 1 1 1 ; 1 ; 1 : , ; : , 1 , 3 ; 3 1 2 2 1 3 1 1 1 i 1 1 1 1 1 1 1 y 1 1 2 1 1 1 1 y 1 1 1 1 y 1 1 y 2 u 2 u 4 u 2 3 u u u u u 3 u 3 u u 3 u y u u u u u u u u u u u u y y u u u 2 u 2 u u u u u u u 3 p u u S u u u p u u u u u u u u s u S s u u D T z s s u s p s u s u s u s s u p u u s u s u s p u u s u u u u s s D r u s D s s u D u s s u s s r D u s s D s D u D r s s s D u s s D r s s s u s u D D u D u s s D u s r D u s r s D s D r s s s s D s s D s u s u s s D u D u D D s s s s u s u s u s D D u s s D D u D s D s u s s s s r s s u u s s s D s r s u s u s D D u s u D r s D u s s s D D D s D D s s s u u p u u s s u u s u u u u u s s u D u u s u s p u D u u u u p u u u i u 2 I ",
"u u u u u u u u u D u u u u p u u u u u u p u u p u u u u u u u u u u u u u u u u u u u 2 u u 2 u u u y u u u u u u u u u y r u u u u u u u 2 u u u y u y u u u u u u 2 u u u u u u 3 u u 2 u u 3 3 u u u u 2 u 3 u u u 3 2 u 4 u u 3 2 p 2 u 2 u 2 u u u u 2 u u u u i y 1 1 y 1 u y 2 2 y u y u y i a i s d a f d d d d d d d s u i i y u i 1 y 1 1 i 2 1 1 2 1 2 1 1 1 1 1 y y 1 1 2 1 1 1 3 ; 3 1 1 ; 3 1 ; 1 1 1 1 1 1 1 1 ; 1 1 1 1 1 1 ; 1 1 , 1 1 , 1 1 1 1 : 1 ; 1 1 , 1 ; 1 ; 1 : 1 1 1 ; 1 1 1 , : 1 1 : 1 1 1 1 ; : 1 1 y 3 y y t y u i y i y y 3 $ 1 1 : 1 : 1 1 : : 1 ; 1 1 1 1 1 : , 1 1 1 : 1 1 1 1 1 1 1 1 , 1 1 ; 1 1 1 ; 1 1 1 3 3 3 1 u 1 1 y 2 1 1 2 1 1 2 y 2 1 1 y 1 1 y 1 1 1 y 1 y y 1 y 1 1 y y y u 3 u u u u u 3 3 u u u u u 3 u u u 2 y u 2 u y u u u u r u 2 u 2 u u u u y r u u u u u u u u u u u u u u u u u F u u u u u u s s s 2 u s s % p s u s u u u s u u u u u u u s u s u s u u u s u s u u s u u D u s s s u s D r s s u u D s D s s s s s D u D u s D s D s r s D s u s D D u D D s u D D s s D r s s s D s D s D s u s D s D u D s D u D u u D s u s u D u s s s s D s u s D D s D D s s u s s D s D s s u s s D u D u D D D s D D D s D u u D s s s u u D s r s u s D s u s u s r u s D r u s s r D u D u u u u u u p u u u u s u s p u u u s s u u u s u u u u s u i s u s u D 2 I ",
"1 i u p u s u p u u s u u u u u u p u u u u u u u u u u u u u u u u u u u u u p u u 3 u u u u u 2 u u u 2 u u u r y u 2 u u u u u 2 u u u u u u u u r u u r u u u u u u u u 2 u 2 u u u u u u 3 u u u 3 u 2 u u u u 3 u u u u u 3 u u u u u u u u u 2 3 3 u u u u 3 u 2 u 2 y 1 y 2 3 i y u 1 y u i y p p i s u u a p s i d u u y i s u y 1 u y 1 u 1 1 1 y 1 1 1 y 1 1 1 1 1 2 1 1 1 1 1 1 y 1 3 1 ; 3 3 1 1 3 : 1 , 1 ; 1 , : 1 : 1 , , 1 1 : 1 : 1 1 1 1 : 1 1 , 1 1 1 : 1 1 1 1 : 1 1 1 , 1 1 1 1 : : 1 1 1 ; 1 1 : : 1 1 1 1 : : 1 y $ 3 3 1 i 1 1 : 3 3 1 1 1 1 1 1 1 ; 1 1 1 1 1 1 : 1 : 1 1 1 1 1 , 1 : 1 : 1 , : 1 1 1 : 1 : 1 1 1 1 , 1 ; 1 ; 1 1 1 1 1 1 1 2 3 1 1 y 1 1 1 1 1 2 1 2 1 1 u 1 y 1 1 y 2 1 y 2 2 3 u u u 3 u 2 u u u p 2 u 3 u u u u 2 u u u u u u 2 u u 2 y u u u u u u u u r u u y u y 2 u u u D u u u u u u u s u u p s u s u u u u p p u s p p i s s u u s u u u s s u s u u u u u u p u s u u u u u u u D s s D D D s u D s D D s s s r s D u u D s u s s D u D s s u s D u s D s s s u s D u s s u s s u D s D u s u u s D u s D u s s s u s u s s s s D s D D s s s u D r s D u D s r s s u s r s D u D s u u s s D u D s D s s u s u s u s s r D s s D u s D s s s s s D s u s D D s s D D s D s s s D s s s u s s D s u s u u u s u s u u u u u s u s u u u s u u u s u u s u u u u a D % / ",
"u u u D u u u s u p u u p u u u u u u u u u u u u D u u u u u u u p u D u p u u u p u u u u y u u 2 u u u u u u u y u u u u u u u u u u 2 u u u u u u 2 u u u u u 2 u u u 2 u u u 3 u u u 2 3 u u u u u 3 2 u u u 2 u 4 3 p u u u 3 u 2 3 u 2 u u u u u u u u u u u u u u y 3 2 1 y 1 u 1 y 2 i y u y y i i u i i p s p i y y i u y y y u y y 2 y 1 1 2 1 1 1 1 1 1 1 3 1 3 1 1 2 3 1 1 2 1 1 1 3 ; 1 1 1 ; 3 1 1 1 1 1 : 1 1 1 1 1 : ; 1 1 1 ; 1 ; 1 1 1 : , 1 ; 1 1 1 1 : 1 1 1 , : 1 1 1 1 , : , 1 ; 1 ; 1 : 1 1 ; , , 1 1 : 1 1 : 1 1 1 3 3 3 $ 1 1 1 1 1 1 1 : 1 ; 1 ; 1 1 1 : 1 1 1 1 , ; 1 1 ; 1 1 1 ; 1 ; 1 1 1 : 1 : 1 1 , 1 1 1 , 1 1 1 3 1 1 1 1 1 1 1 3 1 1 2 y 1 1 1 1 1 2 1 y 1 1 1 1 y 1 1 y 1 1 y 1 1 y 1 y u u u u u 2 u 2 u 2 2 u 3 u u u u 2 2 u u u 2 u u r u u y u 2 u u u u 2 u u u u u u u u u u p u u p u u u u s u u u s u s u u u u u u s s R 1.2.Q s u u u u u u u u u u D u u u s u u u u u u s u s s u u D s s u u s s s s s s s u s u s D D s s s s s u D s u s u u s s u D s u D r s u D s D u s D u D s r s s s u s s D s s u D s r s u s s D D D s u D u D s r D s s s u D D s s s r s D s D s u s u s D u s u s s s u D s s u D u s u s u s u D s s u s u D r u D s D u s s r D r s s u s s u s s u s D s u s D u D u s p s u u u u u u u u u u u u u u u s u u p s u u u u s u u u a u 2 / ",
"2 p u s s u u u u s s u u s u s u s p D u s p u u u u p p u u u u u u u D 2 u u u u u u u u r u y u u u u u r y u 2 u u u u 2 u 2 u u r u u u u y u u u u u u u u u u u u u u 2 u 3 u 2 u u u u 4 2 u 2 u u 3 p u 2 u u u u 2 u u u u u u u u u 2 u 2 p 3 4 u 2 u 3 u 3 2 y u u 2 y y 1 y u 3 u u 3 u y i u u i y i y y i i u u y u 2 u y 1 1 1 1 2 1 1 1 1 y 1 1 1 1 u 1 u 1 1 1 1 1 y 1 3 2 1 1 1 4 1 1 3 3 ; 1 : ; : 1 1 , 1 , 1 1 1 : 1 1 1 1 1 : 1 1 1 1 1 1 1 : ; 1 , 1 1 1 1 1 1 ; 1 : 1 1 1 1 1 1 1 1 1 : 1 1 1 1 1 1 ; 1 1 1 1 1 : 1 1 3 3 3 1 1 1 ; 1 , 1 1 1 1 1 : 1 , 1 ; 1 : 1 1 1 1 ; 1 : : , 1 1 1 : 1 , 1 ; 1 ; 1 1 1 : 1 , 1 1 1 ; 3 1 1 1 1 y 2 1 y 1 1 1 1 1 1 3 y 1 2 1 1 1 1 1 2 y y 2 y 1 y 1 y 1 2 y 2 u 3 u u u u 3 u u u u u u 2 u u u u u u u u u u y u u u % u u u u u u u y y % % y u u u u u u u u u u u p u u u s u u u u s u u z $ 3 T n.6XiXG.F s u u s s u s u s u u u u s u u u s s p u u u D D p s s D u D s u D u r D u s D D s u D D u D u D u D s D u D s D s s r s u s s s D s s u s D s s s s r s s D u D s r D r s u s D D s D u r s s u D s s s D D s D u u D D s s u D u s s s u u s s D D s s s s D u D u D r s s D s u s D u D s s s r s D D D s s s s u s D s D s s s D u u D s D u D s D s u s D s s s u D u s u s u s u u s u s u s u s u s u u u s u u u s u p u s s u u u I ",
"y i u u u s u s u u u s u s u u s u u u s u u u u u u u u u D p u u u u u u u p u u u u u 2 u 2 u u u u u u u 2 u u y u u u u u u u u y u u 2 u u u u y u 2 u r u u u u u u y u u u u u u 3 2 u u u u u u 2 u 2 u u u 2 u 2 u 2 2 u u u 3 u 4 u u u 2 u u u u u 2 u y p u u 2 3 y 1 1 1 2 y 2 i 1 i i u y y u u 2 y y u u u y y y 2 y y y 1 y 1 1 1 y 1 2 3 2 1 1 1 1 1 1 2 1 1 1 1 2 1 1 1 1 1 3 ; 1 , 3 1 1 1 1 , 1 : 1 ; 1 : : 1 , 1 1 1 : 1 1 : 1 1 ; 1 : 1 1 1 1 1 , 1 ; 1 1 ; 1 , 1 1 1 1 1 1 1 : 1 1 1 , , 1 : 1 : 1 1 1 1 1 , 1 1 1 : $ $ : 1 ; 1 , : 1 1 1 1 1 1 , 1 ; 1 , 1 : ; 1 1 1 1 1 1 1 1 1 ; 1 1 1 1 1 1 : 1 1 1 : 1 ; 1 1 1 , 3 ; 1 3 1 1 2 3 1 1 2 1 1 1 1 2 1 3 1 1 1 1 y 1 1 3 1 1 1 1 u y 1 1 y 2 2 y u y u u 2 u u u u 3 u 2 2 u u u u 4 2 u 2 u u u u u u u u u u u u u u u u u u u u u u u u u u u p u u u s u s u s u u u s u s u u b 2 4 b ].AXAX^.c s u u s u u s u u s u s u u p u u u u u u u u p s D s D s s s D D s D s s D u D s u s D s r s D s r s u s s s D u D D s D s D r u D u D D s s s s D s D D D D u s s u s s s D s u s u s D s D u s D u D s u s s s s D s D s s s s s s D s s u D s s u s s r u s D s s s D s u s s s D s D s s D s D s u s u s s u D s D u u D D s s u s D s r u D s u s D s D u s u D s D u u s u u u s D s u u u u u u u u u u u u u u p u u u u u s s u u I ",
"i u u s u u p u s u u u u u u s u u s u u u u s s u p u u u u u u u u p u u u 2 u u u u u u u u u u 2 u u u u u u u u u 2 u u u u u u 2 u u u y % u u u u u y y y u 2 u u u 3 u u 2 u 3 u u u u 3 u 3 p u u u u 3 p u u u u u 3 u p 2 u u u 3 u 3 u u u u 3 u p u u 2 u y 2 u y 1 2 y i 2 1 y 1 u 1 1 u y 1 y u u y y u 3 u u u y y y 1 1 u 1 1 1 1 1 1 3 2 3 1 u 1 1 1 1 y 1 1 1 y 1 1 1 3 1 3 1 3 1 3 ; 1 3 ; 1 1 ; 1 1 1 ; 1 1 1 1 1 : ; 1 1 ; 1 1 : , 1 1 ; 1 : : 1 1 1 1 : : 1 1 1 1 : 1 : ; 1 1 1 ; : 1 1 1 1 1 ; 1 1 1 1 1 1 1 : 1 1 1 3 : 1 1 1 : 1 1 1 1 : ; 1 1 : 1 : 1 1 1 1 1 1 : , : 1 , 1 1 1 : 1 1 ; : 1 1 , 1 1 1 1 1 1 1 ; 1 1 1 3 3 2 1 1 1 1 1 1 y 3 1 1 y 1 1 2 1 1 1 1 2 1 y 2 y 1 1 y 1 1 y 2 1 y y y 2 u u 4 u u u 2 u u p u u u 3 3 u u u u u u u u u 2 u u y u u u u u u u 2 u u u u u u u u u u u 2 u u s u u u u u u u s u u u u u s u u s d.OXOXl.F s u u p u u u u u p u u s u u s u D s u s u s u u u s u r s D D u s D s u u s s D s u u s s u s D s s D r s D u s u s D s u D s s s s u s r D u r D s u u s s s D u D s u D u s s D s D u s s s r u s s s D u r s r s u s r u D u D u D D u D s u D D u s D D D u s s r D u s D D s r D u s r s D u s D s u D r D s r s s s s u u D D s D s s s u u s D u s s s s D s u s s u D D s s D u s s u s p u s u s u u u s u s u s u s u s u u s 2 / ",
"y u u s u u u u s u p u s u s u s u p u u u u s u u u u s u u u u u u u s u u u u p D u u u p u u s u u u s u u u u u u u u u u u u u u u u u u p u u u u u u u u y % u u u u u 2 u u u u u y u u u u u u 2 u u u u u u u u 2 u u 3 u u u u u u 3 2 u u u 2 u 2 u u u 3 u u 3 2 u 1 2 y 3 1 y 1 y 1 y y % y y u u y y y u y y 3 1 2 1 y y 1 y 1 1 y 1 1 y 1 1 y y 1 1 y 1 1 y 1 1 1 1 1 1 1 2 1 1 2 3 2 1 $ 1 3 $ 1 1 $ 1 1 1 1 1 1 1 1 : 1 : 1 1 1 1 : 1 : 1 1 , 1 ; : 1 , : 1 1 ; 1 1 : 1 ; 1 1 1 : 1 1 1 ; 1 : 1 , 1 1 ; 1 1 ; : : 1 1 ; 1 : 1 : 1 , 1 1 1 : 1 1 1 1 1 1 : 1 1 1 1 1 1 1 1 1 ; 1 1 : 1 1 1 1 $ 1 1 $ 1 $ 1 1 1 : 1 1 1 1 1 1 1 y 1 1 1 1 1 1 1 1 y 2 y 1 1 y 2 1 y 1 1 y 2 1 y 1 2 y 1 2 y 1 1 y 3 u u u u 2 3 u u u u u 2 u u u u 2 u u u u u u u y r u u u u u u u u u u u u u u u u u u s u s u s s u s u u u u p u p u u u u u u s u s u u u s f Q R B u u u u u u u u s s u s u s u s D D u r D s u s r s D D s u s u s D u s s r s u D D s D s D s D s u s u D s u s D s u s u u D u D u s r s u s u s s D s s r s s u s D u D s D s u s s D u D s s s r s u s u s D s D u s D s s z r s s D z s D s s D s s r z s s D z D s s s r s s s r r z D s s u r D s r s s s s D D D s D s u s u s s s s u u s D D s u D s r D D r s s u u s D D u s u s s s s D s D u s D D s s u s u s u s u s s u u s D I ",
"y u u u u u p u u u u s u u u u u u u s u s p u u s u s u u u s p u s u u u u s u s u u s u u s u u u u u u s u u s s u u s s u u u u s u u s u u u u u u u u 3 u u u u y u u u u u u y u u u 2 u u u 2 u u u u u 2 2 u u u u u u u u 2 u 3 u 3 u u 2 u u 3 u u 2 u u u u 2 u u y u u y u u u y 1 1 1 y y y 2 y u 2 u p 1 y y 2 1 y y 1 1 2 % y y 1 y 2 2 y y $ 2 y y 2 1 y 1 1 2 1 y 1 1 1 y 1 1 2 2 1 1 3 3 $ $ 3 1 1 : 1 1 1 $ : 1 1 1 ; 1 ; 1 , 1 1 ; 1 1 1 1 1 1 1 1 ; 1 1 1 : ; 1 1 1 : 1 1 , 1 ; : , 1 1 1 1 : 1 1 1 1 : 1 1 , 1 1 1 1 1 ; 1 1 1 1 : 1 1 1 , : 1 ; 1 , 1 1 : , : ; 1 1 : 1 1 1 , 1 : ; 1 1 1 1 1 $ 1 1 1 1 1 $ 1 1 1 1 1 1 1 1 1 2 i 3 2 1 2 1 y y 1 y 1 1 y y 1 1 y y 1 1 1 y 1 y y 1 1 y 1 u u p 2 u u 3 u 2 u 3 u u u r y u u u u u 2 2 u u u u u u u D u u s u u u s u s u u s u u u u u u u u u u u u s u s s u u s u s s u u u u u p u s s f f s u u s u s s u s u u s u s u s r u r s s D u D s s u s u s D s s D s u D D u s s D r s u s s r s u D s D s s D s u D s D s D s s s s D s D D s D s s u D u s D D s s u s s u s D s r s u s u s D u s D u D s D D s s s s z s s D s s D s r s z r s s s s s D s r s r s s s D z s D D z s s s s s D s s z D D D D D s u s u u u D u s D u D s D s s s s s D u s s s s s D u D s s D s u s D u D r s s u s s u s r s r s u s u s u i s s u u s % I ",
"u s u s u s u u s u s u u u s u s u s u u u u u u s u u s u u s u p u u s u s u u u u u u s u s s u s u u u u u u u u u u u u u s u u u u s u u u u u u u u u u u u y u r u 2 u u y % u 2 u u u u 2 u u y r u u u u y u u 2 u u 2 u u u u u u u 2 u u u u u u 3 u u 3 u u u 3 u u i 2 y u 1 3 1 % y y 2 y y 2 y i u 2 y y u u 2 1 1 1 2 1 y y 2 2 1 y y 1 1 2 1 1 1 2 1 y y 1 1 1 1 2 1 1 1 1 1 2 1 3 1 1 1 $ 3 3 $ 3 1 : 1 : 1 1 1 1 : 1 : 1 1 ; 1 ; 1 1 1 1 1 1 1 1 1 1 1 , 1 1 1 , 1 : ; 1 1 1 1 ; 1 1 1 ; 1 : 1 1 1 , : 1 1 1 : 1 1 1 1 1 , 1 1 1 1 1 1 1 ; 1 1 1 , 1 1 1 1 1 ; 1 : 1 1 1 1 : 1 1 1 1 1 1 1 $ 1 3 : 1 3 3 : $ 1 1 1 1 1 1 1 1 1 1 1 i 2 1 1 1 1 1 2 2 1 y 2 y 2 2 y y 1 1 y y 2 y 1 1 y 1 y 2 y u 3 3 u 3 u u u u u u 2 u u u u u u u 2 u u u u u 2 u u s u s u s p s u s u u s u s u u u u u s u D u u s u D u u u u u u s u u s p s u s u u s u u p s i s s u s u s u s u s u s u s u u s s s u s D s D D s s s s D s u s D s s D D u D u s u s D s D D s u s u s s s r D D s u D s D r s s D s D s u s r s u s u s u u s s s D s s r s u D s D s D s u s r s s D r s r s s s s r r z s s s r s s s r s s s r z s s s z D s s r s s D s z s s r s s s s s s D D z s s s r s r D s s u D s s D s u D u s D u s D s s D s s s s u s s s r s s s D s s s D D s D D u s D s r s u s u s u u u r s u s s u / ",
"y u u s u s u u u u u u p s u u u u u u u s u s p u u D u u p u s u u s u u u p u s u s u u u u u u u p s u s u s u s u u s p s u u u s u u s u u u u u y u u u u 2 u u u u u u u u u u u u u u u u u u u u u 2 u u r u u u y u u u u 2 3 u 2 u u u 3 u u 2 u u 3 u 2 u 3 u u u i 2 y y i u y y y 1 1 y 2 y y y 2 i 2 y y 1 y y u y 1 y y 1 1 y 1 y 1 1 y y 2 y y 1 y y 2 1 y 2 y 1 1 1 3 2 y 1 3 1 1 1 1 $ 3 $ $ 3 : 1 1 1 1 1 1 1 1 1 1 , 1 1 1 : 1 1 : , 1 1 1 : 1 , : 1 1 1 1 1 : 1 1 1 1 , : 1 1 1 1 1 1 : 1 1 1 ; 1 1 1 : 1 1 ; 1 ; : 1 1 1 : , 1 ; 1 : 1 ; : 1 1 1 1 : ; 1 , 1 1 : 1 1 ; 1 1 1 ; 1 : : 1 $ 3 3 $ 3 $ $ 3 1 : 1 1 1 u 1 1 1 1 y 2 1 1 1 1 1 1 y y y 1 1 y 1 y 1 1 2 1 y 1 y 1 2 y 1 1 1 u 1 y u u 2 u p u u 3 2 u u u 3 u 2 u u u u u u y y u u u u u u u u u u u u u u u u u u u s p s u u u p u u s u p u u u s s u u u D u u u u u u u u s u s u D s u u s u s u s u s u s u s u s s u D u s D u s s u D u u D u s u D s r s u s s s s s D s u s u s u D s s D u D s s s r s s r s s D s u u s s D D D D s D s D s D u u D D r s s D D D u s u s D D s s s s D s D z D z r s s s D s s D z s s D z D z s s D s r s s s s D z s s s r s s s z D s D z r D z r z s s s s s s u s s D u s s u D u s s D s u s s r D u u s D u D s u u D s D s r D u D s u s u s D u s D s s s u s u s s i D s u r z % I ",
"y i s u u s s u u u u u s u s u s u u u u u p u u s u u p u u u u u u p u u s u u s u s u u u s s u u u u s u s u p u s u u u u u u s u u u s u u u u u u u u u u 2 u u u 2 y u u u u u u u 2 u u y u u 2 u u u u u u 2 u u y % u y r u 2 u u u u u u 2 u u u u u u 3 u u 3 3 u 2 i u u u u 3 u 2 y y y y 2 1 y 1 1 1 y 1 u y 1 1 y y 2 1 y 1 1 1 2 1 y 2 1 y 1 1 y $ 1 y 1 2 y 2 1 2 1 y 1 1 1 1 y 1 3 1 1 1 3 1 1 1 : ; 1 ; 3 : 1 1 ; : 1 1 1 1 1 , 1 : 1 : 1 ; 1 1 1 : 1 : 1 1 : 1 ; 1 , 1 : 1 1 , 1 : 1 ; 1 , 1 1 1 ; 1 1 ; 1 1 1 , 1 : 1 1 , 1 1 1 1 : 1 1 1 ; : 1 1 1 1 1 : 1 1 1 1 1 1 : , : 1 1 : 1 1 1 3 3 $ 3 3 $ 3 $ 1 1 $ 3 $ 1 1 1 1 1 1 1 1 1 1 1 1 2 y 1 y 1 2 y 1 y 1 y 1 2 y 1 1 1 y 1 2 y 1 1 1 y y u 2 u u u u u u 3 u u u u u u u u 2 u u u u u u u u u u u s u u u s u s u u u u s s u u u u u p s s u u u u s u u u s u u s u s u u u u u u u s u u u u u s u s u s u s u s s u s u s s s s s s u D s u s r s D u s s D s D s u s u s D u s s s D u u D D s u D s s D s D s s u D s u D u u s u D s u D s D r s s u D s D u s s s u s u D D s s s u s u s s s s s s s s s D s s r s s s D s r s D D s s r s s s D z s s s r z D s z r s s D z s s s D s s s s D r s D r s D D s u u D s s s s u D s u D u D u s u D s s r s u D u D D s s s u D u D u D u u D D s r s u D u s u s s u s u s D u u D r I ",
"y s u s s u u u s u s p u u u u p u u s s u s u u u s u u s s u s u s u u s u u p u u u s u u u u u u s u u u u u u u s u p u s u s u u u s u u s u s s u u u u u u u u u u u u u 2 u 2 u u u u u u u u u u y u u u u u u u u u u u u u u u 3 u u 4 u u 4 u 2 u 2 u u u u u u u i u 3 3 1 i y y y y 2 1 1 1 y 1 1 y 1 y 1 1 1 1 1 1 1 y y 1 y 2 y y 1 1 y 1 2 y y 2 2 y 1 1 y 1 1 1 1 1 1 1 2 1 1 1 2 1 1 1 $ 1 1 1 $ 1 1 1 1 : 1 1 1 1 1 ; 1 1 1 : 1 1 1 1 ; 1 : 1 1 1 1 ; 1 ; 1 1 1 1 1 1 1 1 1 1 1 : 1 1 1 1 ; 1 1 : : 1 1 , ; 1 : 1 1 , 1 1 1 1 ; : 1 1 , 1 1 1 1 1 ; : , 1 1 , 1 ; 1 ; 1 1 1 1 1 ; , 1 1 1 3 $ 3 $ 1 $ $ 3 1 1 3 $ 1 1 1 1 1 1 3 2 1 2 1 3 1 1 1 y 2 1 y 1 y 1 y 1 1 y % y y 2 1 y y 1 1 y u 1 2 y u u u 2 u 2 u u 2 p u 3 u u 2 u u u u u 2 u u 3 u u u s u u u s u u u u s u u u u u s u s u u u u u u s u u s u u u s u u u u u u s u s s u u u D u r s u s u s u s u s u s s u s u u D u D s D u s s D s D s D D u D u u D D s D s D s u D u u D s s s D s s r s D u u D u s s D s s s D s s D s D s u s s D u s D s u D D u D D s s s u s u D D s D D s D D z r s s D s s D z D z r z s s s s z r s s s D s s D s z r s s s s D s s D s r s s r z s s z r s s s z z D s s s D s s u D D u D s s D s u Y s s u D u D s D D s s s u D u u D s s s s s s s s D s u s s D s u s u u s u u s r u u z u I ",
"y u s u u u u u u u u D u u s u s u u u u u u s u u u u u u u u u u u u u u u u u u s u s u p u s u s u u F u u s u s u s u s u u u u u u u u u u u u u u u u u u u u u u u u u u r u u 2 u u u u u u r u u 2 u u 2 u u u r u u u u 2 u u u u 2 u u 3 2 u 3 u u u u u u 2 u 3 3 u 3 y u y y 2 i y 2 y y y 1 y 2 y y 1 2 y 1 1 y y 1 2 1 2 1 y y 1 y 2 y y 1 1 y y 1 2 y y 2 1 1 1 2 y 1 1 1 1 1 1 1 1 1 1 1 1 1 1 1 1 1 1 1 1 1 1 $ 1 : 1 1 , : , 1 ; 1 ; : 1 1 1 1 1 1 1 : 1 1 ; 1 : 1 1 1 1 ; ; : 1 : ; 1 1 : 1 1 1 1 1 1 1 1 1 1 1 1 1 1 ; : : 1 1 1 1 ; : 1 1 : 1 , 1 ; : 1 1 1 ; 1 : 1 ; 1 1 1 1 , 1 1 $ 3 1 $ : 1 $ 3 1 1 1 $ 1 3 3 1 1 1 2 1 1 y 1 1 1 1 1 1 % y y 1 y 1 % 1 y 2 1 y 2 1 y 1 2 y y 1 1 u 1 1 i u p 3 u u 4 u u u 3 u u u r u u u y u u 2 u u u u u u u p s u s u u p s u u s u s u p u s u s u s s u s u u p u u u u p u u p s u s u u u u u u u s s s u s u s u s u s u D u u D s s s D s u r s r s D u s u u s s r s s s s u s s r D u D s s D s s r s u D s s r s s s s D u D u D s s s s r s s u s s s s u s r D u D s s s u D D u D r s s u s r r z D s s r z s s z z r s s r s s s r s s s s s s D s s s r z r D s s D s D s s r z s s z D s D s D s s s s r z s s s s s s D u s s D u s u s u u J s.F u u s u D D s r u s s D D s s s D s u s r s r s u u D u D u D u u s s u s u s s u a s u / ",
"u a u s s u u s s u u s u s u u u u D u s u u u s u s u u s s u u D s u u s u s u s u u u u u s u u u u u u s u u u u u u u u u u s u s u s p s s u u s u s u u u 2 u r y u u u u y u u u u y r u 2 u y u u u u y u u u u y u u u y u u u u u y 3 u u u u u u 3 u 2 u 4 u u u u u y y y 2 u 3 u y y 1 2 y 1 1 y 2 1 y 1 1 y y 2 1 y y 1 1 y 1 1 1 2 1 y 1 2 y 1 1 y 1 1 y 1 y 2 1 1 1 1 2 3 1 y 1 2 1 y 1 1 1 1 1 $ $ 1 1 : 1 1 1 1 1 1 , 1 1 1 1 1 : 1 1 1 1 , 1 , ; : 1 , 1 1 , 1 1 1 , 1 : 1 1 1 1 , 1 1 1 ; : 1 1 , 1 ; : 1 1 : 1 : ; 1 1 1 1 1 ; : 1 1 ; 1 , 1 1 1 : 1 1 1 1 1 : 1 1 , 1 1 ; 1 1 : 1 1 : 1 $ 1 1 1 1 $ 1 1 $ 1 3 $ $ 1 1 i 1 y 1 1 1 1 1 u 1 1 y 1 y 1 1 y y 1 1 y y 1 1 y 2 1 y 1 1 y 1 1 y y 2 i u 2 u 3 3 u 2 u u u u 2 y u 2 u u u y u u u u u u u s u u u u u u s u u u u p u s u u u u u u u u u u u s u s u s u s u u s u u u p u s u s u s i u u s u s u s u s u s s s r s r s D u D s D s s D s D s D s D s s D u u D s D s s s s s r s u D u s D s u D u s D D u u u s s s u D u D u s D D u s r D u D s s s s s s u s r s s u s s D D D s s s s s s s s D s s r D s s s D s s D z s s s s D s z z r s s D s s s s s s s r s s s s s r s s z s r s s s s s D s s D s s s s s u r s s s D s u s ~ ~.F s D s u z D D s D s u s s r s r D u s D s D s D s D s s s s s s s u u s u u r s y u D u I ",
"u s r s s u s u u u u s u s u u u s u s u u u s u u u u u u u u u s u s u s u s u u s u u u u u u p u u u s s u s u s u u u u u u u u u s u s u u u u s u s u u u u s u u u u u u u u u u u u u u u 2 u u u u u r u u u 2 u u u u u u 2 u u 2 u 3 u u u 3 u 3 p u u u 3 3 u u u u 2 u u u y 2 y u 3 2 1 y 1 1 1 1 1 1 1 1 1 1 y y 1 y 1 2 y 1 2 y 1 y 1 1 y 1 1 1 1 y 1 1 y 1 1 2 1 1 y 1 1 1 1 1 1 1 y y $ 1 1 $ 1 1 3 $ 3 $ : 1 1 , : 1 1 1 1 1 1 1 , 1 : 1 1 1 1 ; 1 : ; 1 1 : 1 1 1 1 1 : 1 1 1 1 : 1 1 1 1 1 : ; 1 1 ; 1 : 1 1 ; : 1 1 1 1 1 ; 1 : 1 ; : 1 1 1 : 1 : 1 1 1 1 , 1 1 1 1 , : : 1 : 1 1 1 1 : 1 1 1 1 $ 1 : 1 1 1 1 1 2 1 1 1 1 1 1 1 2 1 1 y 1 2 y 1 1 y % 1 1 1 y 1 1 y 1 1 1 r 1 1 y 1 1 y 1 y y 3 u u u u u u u u u u u u u u y u u u u 2 u 2 u u u p u u u u u u s u p u u s u u s u s u s u u u u u s u p u u u u u u u u u u p u u u s u s u s u s s u u u s u u s r s u D s u D u D s r s s s s u s s s s u s D D s s s s u D s r s u D s s D s r s u s s r s D s s s s D s r s s u D s s D u D s D s D D r s D s s s D D u D s s D s u s s s u z s s r s s s r s s s s s z D s s r z s s s z D s s r D s s s D s s D s s s r s r z s r s s s s s s z D s s s s s s D r s r z D s s r u u u D D s c g.-X_ f D s u z u s u D s u r D s s u s s s u s D s D u s s s s u s u s u u u u u D s r u a r U ",
"y s u s u s u s s p u u u u u p u u u u s u u u u s u s u s u s u u u u u u u u u s u u u s u s s u s u u u u p u u u p s u s p s u s u u u u u s u u u u u s p u s u u u s u u y u u u u 2 u u u u u u 2 u u 2 u u u u u y u r u u u u u u u u u u 3 u u u u y u 2 u u u p 2 u u u 3 y 3 u u 3 3 2 u 1 y 1 1 y y y 1 y 1 u 1 y y y % 1 1 1 y y 1 y 1 y y 2 1 y y 2 2 y y 1 y 1 1 1 1 1 y 1 1 1 1 1 1 1 1 1 $ 1 : 3 $ 3 3 $ 1 1 1 : 1 1 1 ; : ; ; 1 : 1 , 1 1 1 1 1 : 1 1 1 1 1 1 1 : 1 1 ; 1 1 1 : ; 1 1 1 : 1 1 1 1 1 1 1 1 1 , 1 1 1 1 1 ; : 1 1 1 1 1 1 1 1 1 ; 1 1 1 1 ; 1 : 1 ; 1 1 : 1 1 1 1 1 ; 1 ; 1 1 1 : 1 $ $ 3 3 $ 1 1 1 1 3 1 1 3 3 1 1 i 3 1 2 1 y 1 1 y y 2 y 1 y y 2 1 1 1 y u y 1 1 y 1 y $ y u y y y u 3 2 u u 3 u 2 2 u u y 2 u u u u u u u u u u u u u D u u s u s u u u s u u u s u u u u u u u s u s p u s u s u s u s u u D s u s u u s s u s u s u u s u s u s s u s D s s s D s s s r s D u D s D u D u D D D s r r s u D s s s D s D s u s u D u D s D D u s D r r s s D D D D s u s r s u s s D D s r s s D s s r D s r s D r s u s s s s s s D s s z s D s z s s s D s r s s s s D D z s r s s s s s s z r u s r z s s D z s D D s z D r s D z s r s s z r s D r z D z s s s s D D F s u D u s E }.uXs.T D D D D s s D s u D s u s D s D u D D u D u s D s u D u D s D D s s u u s s s u s s u / ",
"y s s s s u u u u s u s u u s u u s u u u s u s s u p u s u u u u s u p u s u u u u u u s p u u u u u s u u u u u u u u u u s u u u u s u p u s u s u s u u u u p u u u u u u u u u u u u y u u u 2 u r u y u u u u 2 u u u u u u r u u u u 2 u u 2 u 2 u 2 u 2 3 u p u u u u 2 y u y y y u y y y p u u y y y 1 1 y y 1 y 1 1 y 1 y 1 y y 1 y 1 2 y 1 % % y y 2 1 y y 2 2 1 y 1 1 y 1 2 2 1 1 1 1 y 1 1 1 1 1 1 1 1 1 $ 1 : 1 1 1 1 1 : 1 1 1 1 1 1 1 1 1 1 : 1 , 1 1 1 1 1 1 : 1 : 1 ; 1 1 , 1 1 1 : 3 , 1 1 1 ; 1 1 : : 1 1 1 1 1 1 1 1 : 1 : : 1 1 , 1 1 1 1 1 1 1 ; 1 1 1 $ 1 1 : 1 1 1 1 : 1 : 1 1 1 1 1 1 $ 3 $ 3 3 $ 3 3 1 1 1 y 1 1 2 1 2 1 1 2 1 u y 1 1 y y 1 1 2 y y 2 y 1 y y 1 1 1 1 1 y 1 y 1 2 i 2 y u y u u u u 3 u u u u u u u u u u u r u u u r y u u u u u p u u p u s u s u u u D p u u s u s u s u u u u u u u u s u u u s u u u u u s u s u s u s u s u u s s s u u s r s u s s r D u s D D r s D D s r s s s s r s s D r u s u s r D u s D u D D s s D r s D D s s s D u r D s u u s s s D s s r u s D r s s s u u s r D s s u s u s s u s r s s s D s D D s z D D s s s s D s s D z s s s r s s r D s s z r D s s s s s D z s s s z s s s D z D s r s D r D D s r z D u s r z s s s s r s s f s c Q v.2XBXoXj.T z u s u s D s s r s s D r s s r s s r s D s s r D D s s u D s u u s u D s r u a z u U ",
"u u u s u s s u u u u u s u s u u u s u p u u u u u u s u u u u u u s u u u s u u s u F u u u s s u u u s u s u u s s u u D u u s p u u s u u D u u u u s u s u u u s u u s u u u u u u u u s u u u u u u u u r u y y u y u u 2 y 2 y y y y u u u u u u u u u y 2 u 2 u u 2 u 3 2 y 3 u 1 u 4 y y y 2 3 u 1 u 1 y 2 2 y 2 y 2 y y 2 y 2 1 y 1 1 y 1 1 y y 1 y 1 1 y 1 1 1 y 2 1 y 1 1 1 y 3 u 1 1 2 1 1 1 1 : 3 1 1 $ 1 1 3 1 1 1 1 1 $ 1 : 1 1 1 : 1 : 1 1 $ 3 1 : : 1 1 1 1 1 1 1 1 1 $ 1 : 1 1 1 1 1 1 : 1 1 1 1 1 1 1 1 1 1 1 : 1 1 1 1 1 3 1 $ 1 1 : 1 1 1 1 1 : 3 1 : 3 1 : 1 1 1 1 1 1 $ 1 1 1 1 1 : 1 1 3 $ 3 $ $ 3 $ 1 $ 1 1 1 1 1 1 y 1 1 1 1 1 1 y 1 2 y 1 2 1 y 1 1 1 1 y 1 2 y y 1 u 1 2 y 2 y 2 u i u 3 y 3 u 2 u u u u 2 u u 2 u y y y 2 y y u u u u u u u u s u s u s u u u u u s u u u p s u u u u u u u s u s s u u u s u u u s u s u u u u u s u s u s u s u s u u s u s s s D s D s s s s D s s s D s D s s s D s s D s s D z s D D s D z D s s s s s s D s s D s s s D s D s s s s D s D D s D s D D s s s D s s s D D s s D s s D D s D s D s s s s u r z s s r s s s D s r z s s s r s s s D s D s s s s D s s s D z r s s r s s s r D s s s s s s s s s s s s s s s s s s s D s s s z D s a s T 4.B.OXBXGXeXoXd.Z R s D s u D s D s s D D z D s D s s s D s D s s s s r s s u s s u s u s s u u s r U ",
"y a u s s u s u u s u s u s u s u s u s u s u s s s u s s u s s s u s u u s u u u u u u u u u u u u u u s u s u u u u p u s u s u s u u u s u u p u u u u s u u u s u s u u u u u u s u u u u u u u u u y u y y u y y 2 u y y y r u u u u 2 u u u u u 2 u u u u u 4 u u u u 2 u y u u u y y 3 u 2 y y y i u y 3 y u y u u i 2 3 y 2 y 1 y 1 y y 1 2 y 1 1 1 y 1 y 2 1 y 1 2 y 1 2 1 y 1 y 1 1 1 1 1 1 y 1 1 3 $ 3 1 1 $ $ 1 1 $ $ 3 $ 3 3 $ 3 1 1 1 $ 1 $ 1 $ $ $ 1 1 1 $ 3 : $ : 3 $ 3 1 1 : 1 1 1 1 $ $ 1 1 1 : 1 1 1 $ 1 3 : 1 1 1 3 $ 3 3 $ 1 1 1 1 1 1 3 : 1 $ 3 $ 3 $ 1 $ 1 1 3 : 1 1 $ 3 1 : 3 3 1 1 : 1 1 1 1 3 $ 1 1 1 1 3 $ 1 1 2 1 1 1 1 2 y 1 y 1 1 y 1 1 y 2 y y 2 y 2 1 y 1 1 y y u y u 3 u 1 i u u u 3 2 u 4 y y u 2 u 2 u u u u y r y y r u i u u u s u u u s u u u u s u u u D u u p u s u s u s u s u u s u s u s u s u s u s u s u s s u s u u s u s s u s u u s u s D s s D s s z r s s s r s s s z s s s D D s r s s D s s D s s s s s r z s s D s s D s s s r s r z D r z s D s s s s s s s s r s s s z r s D s s s r z s z r s D s s s s s s s a s s r s s D s s z D s r z r s D s D r s D s s z z r s D s s z D s s D s s s D s s s s s r z s r z D s s s z z D s s s s z r D s D s s r Y ( !. X<XfXZXPXUXHXNXsX>X_.s.W s s s D s r s s s s r s s s s s s s s r s s D s s s D s u s u u D s r s s u U ",
"u a u s u s u s s u s u s u s u s u s u s u s u s u s u u s s u u s u s s u s u D u s u u s u s s p s u u p u u u s u s u u u u u u s u u s p u u u s u u u s u u s u u s u s u u u u u s u s u u s u y y u u y y y u y y y y 2 y y y y u y u u u u u u u 2 u 2 u u u 3 3 u u u 3 2 i 3 y u y y y y y y u 1 u u y 2 2 y y 1 i u y 2 y 1 1 2 1 2 y y $ y 1 y y 2 1 y y 1 y y 1 1 1 y y 2 1 1 y 1 1 1 1 2 1 1 $ 3 $ $ 1 1 1 1 $ 3 3 1 3 $ $ 3 $ $ 1 1 $ 1 1 1 1 3 1 1 $ 1 3 3 1 1 1 $ 3 $ 1 1 1 $ 1 1 $ 1 1 1 1 : 1 1 $ 1 1 $ $ 3 $ : $ 1 3 $ 1 $ 1 1 $ 1 3 $ $ 3 : 1 1 $ $ 3 1 1 $ 1 $ 3 1 $ 3 $ 1 3 $ $ $ 1 1 1 $ 1 $ 1 1 1 1 : $ 1 1 1 1 y 1 1 1 1 1 1 y 1 2 y 2 y y 1 y 1 1 y 1 y y 1 u 1 1 u y 3 u y i u u 3 3 u u i u u u 2 u u u u u u r y y u u y y u u u s u u u u s u u s u u u s u u u u s u s u u u s u s u s s u s u s u s u s u s u s u s u u s u s s s s u u s u s s u u s s s r z s s D s s s D z D z s r r s s s s s s s s s s s s s D s D s s s s s z r s s D z s s s s s s s s s z r s s s r s s s z D s s D s s s s s D s D s D s s z s D s s s s s s s s s D r z s s D s s s D s s z s s D z z r s r D s s z s s r s s s z r D s z r s s D z s D s s s s D s s D r s s s s D D s s s s s D z D Y ~ ~.`.<XMXPXUXSXqX>X).a.^ T s s D z s s r z s s z D s s s D s s D z s s s s s s s u s u s u s s u u z u / ",
"u s u s s u u s u s u s u s u s u s u s u s u s u s u s s u s u s u s u u s s u u s u s s u u u D u s u u u s u s u u u u s u u u u u u u u u u s u u s u u u p u u p u u u u s u u s u u u u s s u u u y y y u r u y u u y y u 2 y y y u y y r 2 u u u u u u y u 2 u 3 u u 3 u u u u u y y 2 y 3 u y u 3 y u i 3 u y u y u u y y u 2 y 1 y y 1 2 y 2 1 1 2 1 y 2 1 y 1 1 y 2 y y 2 1 y 1 u y 1 1 2 3 1 1 $ 3 $ 3 $ 1 1 $ 3 1 3 1 $ 1 1 3 $ 1 1 1 1 1 3 1 1 $ 3 $ 3 1 $ 3 $ $ 1 1 1 $ 3 1 $ 1 1 3 : 3 $ $ 1 $ 3 $ 3 1 $ 1 1 1 : 1 1 1 $ : 1 1 1 1 3 $ 1 $ $ 3 $ 1 1 $ 1 3 $ 3 1 1 1 $ 3 1 $ 1 3 $ 1 $ 3 1 $ $ 1 : 1 3 $ $ 1 $ 3 $ 3 3 1 1 1 1 1 y 2 y 1 1 u y 1 1 1 1 2 1 1 1 1 2 1 2 1 1 y 1 y 2 i u u 2 i y y y y y y 2 u u u u u 3 u u u u y u 2 y u y y y u u u u u u u u u u s u s u s u s s u u u u u u s s u u s u s u s u s u s u s u s u s u s u s s u s r s u s u s u s s s s z D s s r z s s s r s s s r s s s D s s s s D s s s s D s D s r s z D s r s s s r s s r s s D s s r z s s s s D r s z D D s s s s r D s s s s r s s D s s s s r D z s s s z T b s D u z s s r z r s D z s s s r s D s s s s z r s s r s s s z s r s s s s D s s r s s r s r z s s D s r s D s s r s s z s s z D s s r s s s s Y Q j.{.xXCX5XE.p.v f a s s D r z s D s D z D s D D r r s D z s s s s s s u s s s s u u p r s u r s u U ",
"u s r s s u s u s u s u s u s u s u s u s u s u s u s u u s u s u s u s s u s p u u u p u u u s u u u u u s u u u u u s u u s u s u s u u s u s u u u u s s u u u s u u s u u u s u s u s u u u s u i a 2 y y y u y y u y u r y u y y y y u y u u y u u u u u 2 u u u u 2 u u u 3 u 3 y u 2 p y u i 2 i 1 u 1 y u i 2 i 3 u y 1 u 2 y 1 y 1 2 y 1 1 y 1 y y 1 1 y 1 1 y 1 2 y 1 1 y 1 1 1 i 2 1 y 1 1 1 1 3 $ 3 $ 3 1 : 3 $ 3 $ $ 1 1 1 : 3 1 $ 1 : 3 $ 1 : 3 $ 3 $ 3 1 $ 3 1 $ 1 1 3 1 $ 1 1 1 $ 3 $ 3 $ 3 3 $ 3 $ 3 1 1 1 1 1 1 1 1 1 1 1 1 $ $ 1 3 : 1 3 $ 3 1 1 1 1 $ 3 : 1 1 1 1 $ 1 1 $ 3 1 1 3 1 $ 1 1 1 3 $ 3 3 $ 3 3 $ 3 1 $ 1 1 2 1 1 1 y 1 y 1 1 y 1 y 2 y y $ y y 1 y y 1 y 1 y 1 u 3 u 3 y y u i 2 2 p y y 2 u 2 u u u u u u u u y y u y y u 2 u u u s u s u s u s u u p u u u u p u u u s u s u u s u s u s u s u s u s u s u s u s u s u s s u s u s u s u s u s u r s D r s s s s D s D z D s s s s s D s s s s r s z D s s r z r z s s s r s s z D s s z D s s s D s s s s D s z r s D z s s s z r s s D z s s s D s s s s s r s s s s s r D z s Q 1.1.T s D z r s s D s s s r s s s s s z r s s s D s s s s D D r D s z D s s r z s s z D s s s s D s r z s s r z s s z D s r s s r s s s D l s s s s c B 9.:XcX{.@.D s D D s s s s s s s s s r s s z s s s s s r s s u s s a s s s s u s s u s s s s s u U ",
"y a u s u s u s u s u s u s u s u s u s s u s u s u u s u s u s u s u s u s s u u s u u u s u s u u s u u u u s s u u u p u u s D u u s u s u u u s u s u u u u s u s u u s u s u u u p s u s u u s u s u u u y u 1 y u u y u 1 y u u y u u 1 u u u u u 2 u u u u u u 3 u u u u 3 y u u 1 y y 2 y 3 u u y p 2 y u 3 u 1 i 2 y y 3 u 1 1 1 1 2 u 2 1 1 y u 1 3 1 y 1 1 y 2 1 y u 2 1 y y 2 u 2 2 1 1 1 1 3 y 1 1 3 3 : $ 1 1 1 1 1 1 $ 1 1 1 1 1 1 1 1 1 1 1 1 1 : 1 1 1 1 $ 1 1 1 1 1 1 1 1 1 1 1 1 1 1 1 : 1 1 1 1 1 1 $ 1 1 1 1 1 1 1 1 1 $ 3 1 1 1 : 1 1 1 1 1 1 1 1 1 1 1 1 1 : 1 1 1 1 1 : $ 1 1 1 1 1 1 1 1 3 $ 3 $ 3 $ 3 : 3 $ 3 1 1 y u 1 1 y 1 1 y y 1 y 2 1 y 1 1 y 1 y i 1 1 1 y 1 y 2 i u y 2 y p 2 u 1 u 3 y u u u u 2 u u u u u y 1 y u u y u u u u u p u u u u u u u u u s u s u s u s u u u u s u s u s F r F u s u s u s u u s u s u s u s u s u s u s u s u s s s s s D s s D s s s u s s s u s D s s s s u s s s u s s s s s s s s s s s s s u s s s s s s s s s u s s s s s D s s s s s s r s s s s s s u s D s s s s r z s s r s s s D s s z t.@X@X1.s s s s u s s s s r s s s D s s r z D D s s s s s s s r s s s s s s s s D z r s s s D s D s s s s D s r s s D s s D z r s s s s r s D s s u s s s T _.6Xs.z F z s u s s s u s s u s s s s s s s s s s s s s s s s s s s s s s u s s p s D u u z u / ",
"u i s u s u s u s u s u s u s u s u s u u s u s u s s u s u s u s u s u s u u s u p s u u u u u s u u u s u u u u u u s u s p u u u u u u u s u u u u u s u u s u u u u u u u u s p u u u u u i u i u i u u y u y u y y u u y u y y y u y y y u 3 u u u u u u u 3 u u 3 u 2 u 3 u y 1 i 2 3 2 3 3 u u 3 y 2 y y u u y 3 u y y y u y i 2 1 1 3 2 2 i 2 1 1 1 1 y y 1 1 i 1 y 1 1 i 1 1 1 1 1 3 2 1 1 1 1 1 1 1 1 $ $ 1 1 1 $ 1 1 $ 1 $ 3 1 1 1 : 1 1 1 1 1 : 1 $ 1 1 1 1 $ 1 1 1 1 : 1 1 1 1 : 1 1 $ 1 1 1 1 1 $ : 1 1 1 1 $ 1 1 : 1 1 1 1 : 3 1 1 1 1 1 1 1 $ 1 1 : 1 1 : 1 1 1 1 1 1 1 1 1 1 1 $ 3 1 1 1 : 1 1 1 $ 3 $ 1 : 3 $ 3 $ 3 $ 1 2 1 1 1 1 1 y u 1 1 1 1 1 y 1 1 u 1 1 1 1 1 y 2 3 y u 3 u u 3 y y y y y 3 i u y 1 3 u y i u u 1 u y u u u y u u u u s u s u u s u s u s u s u u u u u u u D u s u s u u s u s u s r s u s u s u s s u s u s u s u s u s u s u s u s s s u u s s s s s s s s s s D s s s D s s s s D s s s s s u s s D s D s s s s u s D s s s s s s D s s D s u s s s s s s D s D s s s D s u s s s s s s s D s s D s D z D z r z s r f s.=X@X1.z s s s s D s s s z D s s z r s s s s D s s s z r s D z s s D r s D s s s D s s s s s s z r s s s s s z s s z r s s r z D s s s s s s s s s s D s Y a. XR r s z s s s s s s s s s s s u D D s D u z D s s D D s s z r u s s s u D s u s s u s s r I ",
"u s s s s s s u D s s s s s p s s u s u s p s u s s s s D u u s p s s D u u s u s u u u s p p D D u s D u D s p s u u D D s u u p i u i i u u u u s u u u u s u u u s u u s s u u u u u u u u s i u u u u u y u i u u u y i u y u u u y y y u u u u u p u 4 u u u u u u u u u 3 3 u y u u i 2 y i 2 u 3 y y y y y u 3 u i u 3 u 3 u 2 i y 2 3 y i 2 i 2 2 i y y u 2 2 2 1 u y 3 i 2 3 2 1 1 1 1 2 1 1 2 3 3 3 1 3 3 $ 3 y 1 1 1 1 1 1 1 1 1 1 1 1 1 1 1 3 1 1 1 , 1 1 1 3 1 3 1 1 1 1 1 1 1 1 1 1 1 1 3 3 1 1 1 , 1 1 1 3 1 1 1 1 1 1 1 1 1 1 1 $ 1 1 3 $ 1 : 1 1 1 1 1 1 1 1 3 1 1 1 1 1 1 1 1 1 1 1 3 1 1 1 1 $ 3 $ $ 1 y 1 3 $ 3 $ 3 3 1 1 2 1 1 1 3 1 y y u 3 u y 1 y 2 u y y 3 y 2 2 y 2 u u 2 y y y y u 3 i u u y u 2 y y y y u y i u u u y i y y y u i u s u u s u u u s u u u s u p s u u p p u u u s u s F u u F f s s s u s u s D s s s D u s u s s s s s s u s s D s D s s s s s s s s u s s D s s s s s s s s s s D D u s s s u u s u s u s u D s s s s u s u s s u s u s s s D u s r u s s s D s u s s s s u u s s D s s s s s D s s s s r D z s s s T s.4.T s s s s s s s s s D s r s s s s s s s s u s s D s s z D s r z z D s s s s s s s s D s s s D s s s s s D s s r z D s s s s r z D s s s r s u s s u u E ~.z r s D s s s s s s u s s u s u s s u s s s s s s s s s s D s s s s s s s s u s z s i s u I ",
"u a s s s u s s u s p u u s s u p s s D s u s s u D u s s s p s s s u u s s D s s D p s u s u u p u p u u p s u u p s p u p u s u s u s u p s u i u s i p u u i p s u p u i u u u u p u p y u u u p y i y y p u u u i u u u p y u y i u p y u y u 3 p y u u y u u u p u 4 p u u u u 3 u i u y y u y y u y y 2 u 3 u u y 2 u 3 u u y y 2 y 3 u 2 3 u 3 y u 3 3 2 1 i i 3 i 3 u 3 3 3 2 1 3 1 1 1 3 1 y 1 $ $ 3 3 $ 3 3 3 1 3 3 : 3 1 : 3 3 : 1 1 1 : 1 1 , 1 1 1 1 3 1 3 1 1 1 : 1 : 1 1 1 1 : 3 1 1 1 : , 1 1 1 1 3 1 3 : 1 3 1 1 1 : 1 1 1 1 1 1 : 1 1 : 3 3 1 1 1 1 1 1 1 : 1 1 1 1 1 : 1 3 1 1 3 : 1 , 1 1 y 3 3 3 3 1 1 1 1 3 3 $ 3 1 1 1 1 3 1 1 2 1 1 1 1 i 2 3 u 3 y 3 3 1 3 u y u 3 y 3 y y y y y 2 y u u 1 y 3 i y y p 3 p u i y u p u u u y u i u u u i u u u a p u u p s u i u s u p D s u s F u p s s u s s s $ f u s u s s s u u s u s u s s s u D u D u s u s p s s s u s u s s r F s u s s s r s u s s r s u s p s s u D s s s s s u s u s s D u s u s D u s s u s s u s s u D s s s s u s u s s u s u u D s s s s r s s s s s s D s s s s s s s F f s s f F s s r s s s s s D s z D D s s D z r s s s s s s s r s s s s s s D s z r s D z r s s z r z s r D s s s s s s s s s s r s s D D s s s s s D s s s u R ~ z s s s r u s u u s D D u s s s u s s s s u s r s s u u s r s F u s u s u u D D s u s s D U ",
"u s z s s u s u p D s s u s s s s s u s s u p D s u u s s p s s u s s s u s F u s u u s D p u s F u u s s s s u s s u s u s s u i u u u s u a u s i u u u i s u i s i s i u u i u p y u u i u y u u u y y u u u y y y i u u u u u p y u u y y p y p u y u p p y p u u p u p y p u y y 3 2 y u 3 3 u y y 2 y u 3 y y 2 i y 3 u u u 3 u y u 1 u 3 2 y 3 2 i 3 y 3 3 3 i 1 1 3 u 3 1 3 1 y 3 1 3 1 1 1 1 1 3 $ 3 3 3 $ 3 $ 1 i 1 1 1 1 1 1 : 1 1 1 1 : 1 1 1 1 1 1 1 1 1 1 3 $ 3 : 1 1 3 1 1 1 1 1 : 3 1 : 1 1 1 1 3 $ : 1 3 1 : 3 1 3 1 : 3 : 1 : 3 3 3 : 3 : 3 1 1 1 3 , 3 : 1 1 1 : 1 1 $ 3 : 1 1 3 1 1 1 1 : 1 1 3 3 3 3 1 y 1 3 $ 1 1 y 1 1 3 1 1 1 1 1 1 1 i 1 i 3 3 3 i i 2 i 1 2 i 2 3 y y u i y u p u y 3 u i 1 u u 3 y y u y u y u u u y y p u u u p i i s u i s i u p a i u u a u i u s s u s u s s s u s s s s s ~ c u r s u s s s s r s u u s u s s u s s s u F s s u s p u D s s u s s D u u s u u s s s u s s u u s u s s u D s u u s s s u s u s s s s u D s u s s u D s s s s u u u s s u u u s u s s u s u s r D s s s s z D s s s s s s s s s r r s z z s r r s z D s s s z s s s s s s r s D z s s s s s s s s r z D s s s s s D s s s s s s s D s s D s s s s D s s r s r z D z D s s D s s s u s s u u s s F F s s D s u D s s s D s s u s u s u u s u s u D s p u s s u s u s s u s D s s u s s s s s r / ",
"y s D s s s s s s s u s s D u u s u F u s s s s F s s s u s s u s p p s s s u s p s s u u u p s u s s p s p s D u F s u s s p s s u a i i u u i u i u d s u i i u i u u i u u i u y u u u y p u i u u u p u i i y u u u p y p y u u i y u u y u u p 3 u 3 y u u u y y y y y y 2 4 y y u y u y u y y u u y u i 2 u y y 2 y y y 1 u 3 u 3 i 3 u u y 2 i 2 3 u 3 y u i 2 i 3 y i 1 y 3 3 2 2 1 1 1 1 y 1 3 3 3 3 $ 3 $ 3 3 3 $ 3 : , 3 1 : 3 1 : 3 1 3 1 : : 1 1 3 : 3 : 1 : : 3 3 , 3 1 : 3 : 1 : 1 1 1 3 1 : 1 3 1 : 1 1 $ : 3 $ 1 1 1 1 3 : 1 1 1 : 3 1 1 : 3 : 1 : 1 1 1 : 1 1 1 3 , 3 : 3 1 1 1 : 1 1 1 1 1 3 3 $ $ 3 3 3 1 1 3 3 1 1 1 1 1 1 1 3 1 1 1 1 3 u i 1 2 i 1 2 3 3 3 y u 3 3 u 1 u 3 2 y 3 2 y u u y u u y u u p u p u u p p u y y i u y u i u u u i u i u s u i u u i u u a p s u s s s u p D p s u s u D R @X~.s s s s D s s D D s s s s s s s u s p u s s u s u u s s s u D u s p s s s u F s s D u D s s s s u s u s D u s s s u D u s s r u s u s u s s u u s s u s u r s s s s s u D s s s D r s s D s s s z D z s s s D D s D s s s s s s D s F s D z z D s s D s s s D s s s s D s s s s D z s D s D s s s s D s s s s D s s s s D s D s s s s s s s s s D s s D z s s z D s D s s s s s s D s u s D s u s s s z D u u s u D u u s s s s s s s s s u s s s u s s D s D s s u s F u u p s p s s s s z u / ",
"a a u D s s D s s u F s s u s s u u s s u u s u u s F u u s D u s D u s s u u s s D s s s u D s s s s s s u u s s u s u u s u u u i s p i s u s u u i s i u u p u u i a s u u p i u s i u d i u s i i s u p u p y u y p u y y u u y u u u y u y u y u u u u i u u y p 2 u 3 p u u y u y y u y r u y y 2 u u 1 i 3 u u i 2 i y u u y p y u 1 p 2 3 3 u i 3 i 2 1 3 1 3 1 i 2 1 i 2 3 3 u 3 2 1 2 1 1 3 $ 3 $ 3 3 3 3 3 1 : 1 3 3 1 3 3 3 1 3 3 3 1 1 3 3 3 1 : 1 3 $ 3 3 1 y 3 $ 1 3 $ $ 1 3 1 3 1 1 $ 3 3 1 1 : 3 3 3 $ 3 3 3 3 1 3 3 1 3 $ 3 3 3 3 3 $ $ 3 1 1 1 y 1 3 $ 3 3 3 3 3 1 1 $ 3 $ 3 1 3 : 1 1 3 1 3 3 3 3 y $ 3 3 : 3 3 $ $ 1 1 y 1 3 3 1 i 3 i 1 i u 3 2 i i 3 2 i u y u y u 3 y i u y i u 3 u y u 2 y y u y y p u 4 p u y u i y u u p y y i u i u u i u u u i u i a u i s s u p s p D s s s s u s s u s s ~ @XB.s s s s D s r s s s s s s s s s s u s u s u u F s s s s u s u s s u s s D s s s u s s u u p D s s s u s s s s s s D s s s s s s s s s s s D s s s D u s s D s s s s s s s u s s s s s s s s s r z s s s s s s s s s s s D s s s s s s z s z D D s s s s s s s s s D s s s s s s s s s s s s s s D s s s D z s D s s s s s s s s z s D s s s D s s s s D s D D s s s s s z s s s s s s s s s s s s D s s s s s r z s s s u s s s D s s s s s s u u s s s p s u u s s p s p s s s D s D r r s D / ",
"r s s s s s s u u s u u s s u s F s u s s F u s s u u s s p s s u s s s u F s s s u p s s p s u s u u D s s p s s u s F u s s u u u u u u u u i a u u u i u a u i s u u u i a u u i u i u u u a u i u i p i u i p u u y u u i u p y p y y u u p i y u p y y y u p y y p y u p y u u u y u y y u y u y y 3 y y u 2 y u 3 i u u 3 y y 2 y y y u 3 u 3 3 1 y 1 i 3 1 i u 3 3 3 i 2 i 1 y 3 3 y i 1 1 1 3 $ 3 3 3 $ $ 3 3 1 y 1 $ 3 3 $ 3 $ 1 1 3 $ 3 1 $ 3 3 1 3 1 3 3 $ 1 1 1 3 $ 1 3 3 3 1 1 3 3 1 1 3 3 1 1 3 1 $ 3 3 3 3 $ 3 $ 1 : 1 1 3 3 $ $ 3 $ 3 3 3 3 3 1 1 1 1 : 3 3 $ 3 $ $ 3 3 3 3 3 3 3 1 3 i 1 1 1 1 3 $ 3 $ : 3 1 i $ 3 3 3 1 1 1 y 1 y 3 u 3 2 i 1 3 3 i 1 3 u i i i 1 i 2 y u u 1 3 u 2 i u i 2 y i u u u y u p y u y y y y p y y u u i u u u u i s p u a a u u u i u i u u p u s s u s p u s s u s s s a s B f s s s s s s s s s s s D s s D s u D s s p s s u s F u s p s s D u s u s p s u p s u s s s s u s s s s s s s u s s s s s s D z r s s s s s s s s s s s s s z r s s s D s s s s s s D s u s s D s s s s D s s s D z z D s z D s D z D r s D r z z D s s s D D s D z D z z D s D s s D z D s z D s z s s s s D s z s s s s D z D s D s s D z s z D z D s s s z z D z s s s D D s D s z D D s u s s s s u s s s s s s s s s s s u s s s s D D s s s s D u s u s s D u u D u s s u s u s z s s z u / ",
"u s s s s s u s s s s s u s s u D s s u s u r s s u s u D s s u D s s s u s s u p D u s s u s s u u s u s p s D s s p s D s s s s u s p p i u s u u a u u i u u i p u u u a i u u i u u a u u s u i u i u i u p u p u i y u y u u y y i y u y u y u y p u y u u u y y y 4 u 3 u 3 p 3 u y u y y y u y 1 3 u i 2 y y u 3 u y u y u 2 u i i _ {.W t 3 y 3 2 y y 1 i i 3 u i 1 3 i 3 u 3 2 1 1 i 2 y 1 1 1 3 $ 3 : $ $ 3 3 $ 3 i 3 $ 3 y : $ 3 y : 3 $ 3 $ i 3 3 $ 3 3 3 3 $ 3 3 3 $ 3 3 3 3 3 3 3 i 3 : 1 i $ 3 $ 3 3 3 $ 3 3 3 3 3 1 i 1 $ 3 3 : i Z Q y : 3 1 1 3 3 3 3 $ 3 $ 3 3 $ 3 3 3 3 3 $ 3 3 3 $ 1 3 y 3 1 3 $ 3 $ 3 3 1 1 1 1 1 y 1 1 1 3 2 1 2 3 1 3 3 1 1 3 3 y 3 3 2 1 3 i u y y u i y y u i u i 2 y y u 3 u u y p u y y y p u y y y u u y u u u u p i u i u u u i u u u i u s u u s D s s u s u D s p s u F s u s s s s r s D D s s s s D z s s s r p s s s s s s u u s s u s s s u s s u u s u D s s u D u u s r D s s s s s s s D s s s D s s z D s u z D s s s D s r z s s r z D s s s u r z D s s s s z z D s D s D s s D s z D s s z s s D s s s s s s s s s s D s z D s s D s s s s D s s s s s z s s D s s D s D s s D s s D s s D s s s s s s s s s D s s D s D z s D s s D z s s D s s z s s s s s s u s s s s D s z D s s D s r s r s D s D s s u s u u s s p s u s D s u u s s u D s s p s s u u s D / ",
"a s s s s s s s s u s D s s s s u u s s s s s s p s s u s p u s u s u s F u u F s s s s s F u u s F s s u s s u u s D u u s p s s s s u u i u i i u i u i s s i u u a i u p u u u s i s u i u i d u u s s u i u u y u y p u i u u u u u y y p u i u u u u p y p u u y p y 3 u 3 u y y u y 2 y u y y u u u 3 2 y p y y u y 1 u y y 2 y 3 i ^.lX! i 2 p 2 1 i 1 i 3 2 1 3 1 y u 3 y 3 3 i i 1 1 1 2 1 1 1 3 $ 3 3 3 3 3 $ 3 3 3 $ 3 3 $ 3 3 3 $ 3 3 3 3 $ : 1 3 3 $ 3 $ 3 3 3 3 $ i 3 $ 3 : 3 $ $ 1 3 y 1 : 3 3 3 3 $ 3 3 $ 3 $ 3 i 1 1 1 1 3 1 : i B ! p 1 3 y 1 $ 3 $ 3 3 3 $ 3 3 $ 3 $ y : 3 $ 3 $ 3 3 1 3 1 1 3 3 $ 3 3 3 $ 1 1 1 1 y 1 1 1 1 3 i i 1 3 u i 1 3 y u 3 i 2 y 1 i 3 u 1 u u y 2 u 1 i 2 y 1 y y 3 u i u 3 p u 3 p y u p u u p u u p y p y y u i u i s u d u i s i s s u p s u F u s p s s s u s u s s u u s u s s s s s s s s s r s s r D s s s s u D u u u s s u s s u p D u s D u s s D s u s s s s s s s s z s D D s s s r s s s r z s s r s s D r s s s s r s s D s D s r s s s s s s s s s D s s D s s s s s s s D s s s s D s D s s s s s z D D s z D z D s s s s D s s s s s s z z D D s s D D s s s s s s z s z s s s z s D z s s D s D s s s z s s s z s s s s s s s s D s s s D s D s D s s s s s s D s s r s s s D z s s z s z s s s s s s s s u D u s s u s s p s s s s u s u s s D z s s s l u I ",
"u s u s s s s u s s s D s s s u s s u s u s u D D s u s u s F s s u s u s u s s u s s u u s p s u s u s u s s s s p s s s p u s s p s y i u i u u a s u u u u u s i u s i u u a i i u u a u i u i u u u i d u u y u u u u u y i u y y p u u u u y u y u u y u u u p u 4 p u 4 p p y p 2 y u r y u y y y i 2 y u 2 y 3 3 2 y y y 1 y p i i h t.h u 1 p 2 i y y 1 3 u i 2 u 3 2 y 3 u y 3 2 3 1 1 1 1 2 y 3 3 3 $ 3 $ 3 3 3 $ $ 3 3 $ 3 3 3 3 $ 3 3 3 $ 3 1 i $ i $ 3 3 3 : 3 3 3 : 3 3 $ y $ 3 3 3 3 1 1 $ 3 3 3 3 3 3 $ $ 3 3 $ 1 $ 3 : 3 1 y 1 3 a i 3 , 1 1 1 3 3 3 3 3 $ 3 3 3 3 : 3 $ $ 3 : 3 3 $ 3 3 1 3 1 $ 3 3 3 1 3 1 : y 2 1 1 1 1 1 i y i y u 2 3 2 y y 3 1 i 3 3 y 3 1 i y u 1 u u y y 3 u 3 u y u u i 2 2 y y y p y u 2 i y y u u u u y i u y u u u s u a i u i u i i u u u u p s u s u u s u s s u D s u s u s D s s s s s s s s s z D s s s D D s s u u s D s r s s u D s s s s s u s s r s u s u u s s u D u r z s s s r r s s z s s s s r s s s s s s s z r z D s s s s s s D s s s D s s s s D s s s s z D s z s s s s s s s s z s s s s D D z s s s s s D s s s s s s z s z s s s s s s s s s s z s s z s s s s s s D s s s s s s D s s D z s s s s D s s s s D s s s s s s s s s s s s s D s s s s s s D s s D s s s r s s r s r s D s r s s s u s u u s s s u s u s D u u s s u s r s u s u z D s u z D / ",
"a s s s s s u s s s s a s s s s s s s D s s z s s s s s s s s u s u s s u s s u u s u s F u s s s D p s s D p u u s s u s u s s u s i s s u u i i p u i i u a i i u i u i s i p u s p i u u i s s u i d u u u i i y p y u y u u i y u u u p y s i u p y u i y p u y u y y y u y u y y u y u u y y y u 3 u i 1 u y u u u i u 3 u p u 1 u p i y y $ y y 3 3 y y 2 1 3 3 i 3 3 i 3 1 3 i 2 i 1 i 2 1 1 1 1 3 $ 3 3 3 3 3 $ 3 : i 3 3 3 $ 3 3 $ 3 3 $ 3 3 3 1 1 1 : 3 3 $ 3 y $ $ 3 $ 3 3 $ 3 3 $ 3 $ $ 3 3 3 3 $ $ : $ 3 3 i : 3 3 3 3 3 3 1 1 1 1 1 y $ 2 1 1 y 1 3 $ 3 $ 3 y : 3 3 $ y 3 3 3 3 3 $ $ 3 3 1 1 i 1 3 3 3 $ $ y 1 3 1 3 1 1 3 1 1 1 1 1 y 3 i y y 3 3 2 i 3 2 i 3 u i 2 3 u y y y u u u y u y 1 u u u i u u u u u y y p u u p y u i a u u u p i u a i u u u s s s u p i s i s u u s s s s D p s u s s s s s s s s s s a u s r s s s s s s s s s z r s s s s s s D z s s s s D u s s s s s s s s s s s s s s s s D s D s s s z s s D D s s z z D D s D s s s D s s s D z s s s s s s s s D s D l r s z s s D D s s D z D z s D s s D s s D s s s s s s s D s s s s s D s s D s s D s D s s D s s D s s D s s D s s D s D s s D s s D s s z s s s s s s D s s D s s D s s s s D z s D D s D z s s z s z s D s s s r s l r D s z D s s z D s s z D s s s s s F u s r s s s D s s s s s D s s s s s s u s s r s s r / ",
"u s u s s s s s r s a s s a s s s s s s s s s r s s z r s s D u u s s u s p s s s D s u s u s u s u u D s s s s s s s u s s s D s s s s p a u s s s p s i s s p s s d u u s p s s s s u p s i u i s u u u a i u u u u i u u i u u p i u p i u i u u s u u u u y u y p u u y y y y p u u u y y u y y y u y 2 u y u y y y y u u : y u u 1 1 1 u y y u i 3 2 i 1 y y y y y 1 i y 1 i 3 3 y 1 i 1 3 i 1 1 3 1 1 3 3 3 y 3 : 3 $ 3 $ 3 3 $ 3 3 $ 3 3 3 $ 3 $ 3 3 $ 3 3 3 $ $ 3 3 i $ 3 3 3 3 3 : y 3 3 3 3 3 $ 3 3 3 i $ $ 3 3 3 $ 3 3 3 3 3 1 1 1 : 2 i y 3 1 : i 1 $ 3 $ 3 $ $ 3 3 3 3 $ $ 3 3 3 3 3 3 y $ 3 3 i 1 3 $ 3 3 $ 3 3 3 3 3 1 i 1 3 1 4 4 3 3 2 3 4 u 1 y y y u y y y 1 3 y 1 u y u 3 3 y 1 u i u y y r y u y y u u p u u u u u u i u s u p i i u u s i i p u a i p s a s s i s u s u s p D s s u D s s s s s s s s s s s u s s s s s s s z D s z D s s s s s s z D s r z r s s s s u s s s s s s s s s D s D s s s D s s s s s D z D s D s s D z s D s s s s s s D s s D s s D s s D s s s D s s s D s D s z D s s s s s D s s s D s s s s D s s s s s r z s s D D s s s s D z s s D s z s s D s s D s s D s s s D s s s z s s z s D s s s s s s D s z s D s z s s s D s s D D s s D s s s s s s s z s l s z s s s s s s D s s s s s s s D s s s s s s s s s s r D s s s D s r s s s s s D s s s s s s z r s r s D ^ ",
"u s a s a s u s s s s s u s s s u s s D D z s D s s D s s s s s s D s s s D s u s p s s p s D s p s s p s p u s p D u s s u u s s u i s s p s a s u a s s u a p s u p s d s a u p i s i i u u i u u i u u u u u p i u u u i u s u i u u u u u i u d u i y u y u u i u i p y u u u u i y u y y y y 2 y y u r u u y u u 1 u 3 u i y 1 1 u i u p u y y y 1 y y y y y y u y 1 u u 3 i 2 3 u i 2 i 1 i 3 1 i 1 y 1 1 i $ i $ 3 3 3 3 $ 3 : 3 3 $ 3 $ 3 3 3 3 1 3 3 3 3 1 3 3 $ 1 : y 3 $ 3 $ 3 $ $ 3 $ 3 $ 3 3 3 3 $ 3 3 3 3 y : 3 3 $ $ 3 1 1 3 1 : 1 1 1 3 1 1 1 1 3 3 3 3 3 3 $ 3 3 $ 3 3 $ 3 $ $ $ 3 : 3 $ 3 y $ 3 i $ i 3 3 $ i y 1 i 2 3 u i 2 2 2 u y y y i y u 1 1 y u y 1 y y u u i y 2 u u i u 1 y u 1 y y y 1 y y u y y y y u i i i u u i a u u s d i u u u u a p s s s p u a s p s D s p s u s p s u s s s s D s s s u s a s a s a a s s s r s s r s s s s D s s r s s s D s s s s s s s s s D s s D s s s s s s s s z s s D s s s s s s s s s s D s s s s s D s s s s s s s s s D s s s z s z s D z z z s s s s z s s s z s s z z s z s D z s z z D D z z z D z z b s z z s z s s s z s z s z s z s z s s z z F z s z z z D s z s z z s z D D z z s z D s z s D z s s z s s z z D s z s s s z z D z D s z s D s z D D s s s s s s s D D s s s s D s s D s D s s s s s s s s s s s s u s s s s s s s s u z D s s z u / ",
"a s a s s a u a a a s u s s s u s s s s s r s s r s D s s D s s s s s s s s s s D u u s u s s s s u s s u u s p s s u F s s u p s s u p u s p p i p d p s p s s u a s i s p u d a s s p u i u i s i a u a u s i i s a u i u u u u u i a a i u s a i u u y u u i y u u u u y y u y y p 2 y 1 u y y u r u u y y i y u u y y u y 1 y i u y i y : u u y y y 1 y y y y y y 1 i y 2 i 3 i 3 3 3 3 3 y 2 1 i 1 3 $ 3 i 3 3 3 3 $ 3 $ $ 3 3 i $ 3 3 3 $ $ 3 $ 3 $ 3 $ 3 1 y $ 3 3 3 3 : 3 $ 3 $ 3 3 3 $ 3 3 3 3 $ : y 3 $ 3 $ $ $ $ 3 $ 3 3 3 1 1 1 1 d 1 : : 1 3 i t 1 3 : 3 $ y : 3 3 3 3 3 $ 3 3 3 : 3 3 3 3 3 $ i 3 3 3 i 3 y 3 $ 3 3 i 3 1 y 3 1 1 u i i h B h x i i u 1 y i 1 y y y y 3 y y p u u 2 i 2 u y i u y u u y y y u u u u i u p d u u a i u u i u u i u u a u s s d a u s p p s s p s s s D u s s s r s s r s D s s s s a s u s s s s s s D r s s s s s s D u s s s D z s s s s s D s s s D s s s s s D D s s D s D D s D z s D s s D s z s s s s s s s D z s s s D z D z s s s z s s z D s z D s z z s z s s D z s s z F s D z D z z D z s z s s z z s s D D s D z s D D s s D D z s s D s z s D s z s z z s s s z z D s s s D D s s D s s s s s s s s z s s s s s z s l s z z z z l s s s z D s z z s D z D s s s s s z D s D z D D z z D D z s s s s s s s s s s r s s s s s s s s s s r s s u s s u s z i a s r / ",
"u a s s s s s s s s s a a s a s s u s s s s s s s D s s s s s s D s s u s s s u s s s p s D u p s D u s s s s D u s s u D p s s p D s s a s a s s s u s i s d u s p s s i s s s s u u s i s u u u i u u i p u i u u i p s u i i i s u u u u s i u s p i y p u y u p y y u u y p u y u u u y y y 1 u u u y y y y u y u u 3 y u i 1 u u 2 u 3 y 2 u y 1 u y y 2 y u 1 y y y y i 1 y 2 1 y 2 i u 3 i 3 3 2 i 3 i $ $ i $ i 3 3 3 3 3 $ 3 3 3 $ 3 i : 3 3 3 3 3 $ 3 1 : i 3 $ 3 3 $ 3 3 3 3 3 $ 3 3 3 $ $ 3 3 3 $ 3 3 3 3 3 3 3 3 3 $ 3 1 1 1 1 1 y y 1 1 : 3 1 : 3 $ y 3 3 $ 3 3 $ $ 3 3 3 3 $ 3 3 3 $ $ 3 3 3 y 3 y $ $ 3 $ i 3 i u 2 3 i 1 3 i i i d V E <.r.@.h i y y y u i 1 u y y 1 u y y 2 3 i u u i u i u y y y u y u u u y p u i u u u i u s u i s u i s u i u s i s s s s s p s s u s u s p s u s u s s s D z s u s s s s s s a s a s r s s s s D s D u s D s s s D s s r s s s D s s u s s s s s z D z s s s s s s s z s s s s s s s s s D s s D s s D s s s s s s s s s D s s D s s D s s s z z s s D s z D z z D s s s z s z s s z s s z s D z s D z s s z z z s s z s z z s z z s s z z s D z z s D z s D z s s D s s z D z s z z s z z z D z z D z s z D z z D z z D D z D D s s D z z s D z s D z s D z z z s s D s s s s s s s s s s s s s z D s s s D s s s D z s s D D s s s D s s s D s s s s s s s u u z D / ",
"u s u s s a a u s a a s s s s s s D s s s s r s s s s s s r z D s s s s s r s s s s u s s u s s p s s s s s s u s D s u s u s s s p u s p a s i s s p s u s s p s p s d p a s i s s s d u u i u i u u u i u i i s i s u u i u s s s i i i u s u u a i u u u y y u u u i i u u u u u y u u u y y u y y y y r u y u y y u 2 u 3 y y u 1 i 2 i 2 i u y y y y u y 1 u y i u i u 1 i y 3 3 u 1 3 3 i 3 i i 1 1 3 $ 3 3 $ $ 3 3 3 3 3 $ $ 3 3 1 1 1 1 3 3 3 3 $ 3 $ 3 3 3 3 3 $ 3 $ 3 3 $ 3 3 $ 3 3 3 3 3 3 3 $ i 3 $ i : $ 3 3 $ 3 $ 3 3 3 $ 3 3 $ $ 3 3 3 $ 3 3 3 $ 3 3 3 3 $ 3 $ 3 3 3 : i 3 3 $ $ 3 $ 3 $ 3 3 3 3 3 $ $ y $ 3 1 y 3 3 2 i i 3 u 3 2 c 9.U.=X=XJ.A h i u u 1 i i y u y 2 i 2 y y y u y u u y u y 2 y y y u i y p y u u y y u u a y y i a u u p p u p s i s d p s p s s p a s p s D s u s p s u s u s u D s u s i s s s s i s a s s D s s s r z z D s s z D s r s D s s r D s s s s s D s s D s s D s s s z s s s s s s s s z s s s s s s s s z s s F s s s s s F s s D s s s s D z s s D z z D s z z z s l s l z D s D z s s s z D s z s l z D s s s s D s s b z D z z z z z s s D z D s l s l D z s s z D s l D z z D z z s s z s s z s s s z D s z D z s s s z D z s s z D l s D z D z D s l z D z D s s s s D z s s s s s s s s s D s s D z s D D s s s D s s s s z D D s r r z D s s D s s s r z s s s s s / ",
"a s a a s u s s s s s s u s a a s s s s D s z D s s D z s s s s s D s s D z D u u s u s D s s u s s u D D u s s u p s s s s u u u s s u s s p s p i s i s i s s i s s u s p u s d p u s s i i u s u i s a u s u u u i u p p s i i u u u u u i i u u u s y u p u y u p y u u i i u p y u u u r u y y u y y u u y u y u r u u y u 3 u y u 3 u i u i 2 u 3 1 y y y i y 1 y 1 y y 1 2 i 1 3 i u 3 2 2 2 3 i y i 3 i i 3 i i $ $ 3 $ 3 3 3 $ : 3 3 1 $ 3 $ 3 3 3 $ 3 $ 3 $ 3 $ 3 3 3 : y 3 $ 3 3 3 $ $ $ 3 $ 3 : 3 3 $ 3 3 3 3 3 3 3 3 $ 3 3 3 $ 3 3 3 $ 3 3 3 $ 3 3 $ 3 $ 3 3 3 3 3 $ 3 3 $ 3 $ 3 3 3 3 3 3 $ $ 3 $ 3 3 3 3 i 1 i 1 1 i y 3 1 3 3 i p V m.3XDXVX:Xy.B u 2 y y y 2 y 1 i i u i 2 y y i 1 u 2 u y y y u u y y u u u u u y u p i u u s i s u y i s y i y s s u u s i s i s s u u s s u s s s u s D s s s s s s s s s a s a s a s s u s z r s s s D r s s s r s s s s s s s s z s s s D s z s z s s z s D s s D D s D s s D D s D s s D z F s s u F s D s s D s z D s s s s s s s s z s z s l D s s z D D D s D s D z s s z z s s D z z s D s D D z z s z s z z D D s s s s z D z D b D z s s D s D z s z l D z s D z s s s s s D z z D D z D z z z D z s s D l D z s s D l z D z D s z s s s D s s D z D z s s D s s s D s D s s D D s s s s s s s s s s s z s s s s s D r r z s s s s D s r s s s s s F s s u s u I ",
"u s s s a s a s u a a u a s s s s s r s D s s s r s s r D z s s u s s s s s r s s u D s s u u s u s s u u s D u s s u s u s s s s s s s u d u s s i s s d p s i s i p a i s s u u a s i u s u a u i u i u u s p u i u s s s s p u u y u s u i u i s u i i u i u y y u y u u u p y i y i u u y y y y y r 2 y y y y u y y u y 1 u u i 3 u u 3 y 1 i 2 y y 1 i 2 y 1 y y 1 y y u 3 i 3 2 i 1 i i 3 i 3 i 1 1 i y $ 3 $ $ 3 3 3 3 3 i 3 3 3 y 1 i $ 3 3 3 3 3 $ 3 3 $ 3 y 1 3 $ 3 3 3 $ 3 3 3 $ 3 3 3 3 3 3 3 $ $ 3 3 3 3 $ $ 3 $ 3 3 3 3 $ 3 3 3 3 3 y $ $ $ 3 3 : $ 3 1 1 $ $ 3 3 3 $ 3 $ 3 3 1 1 $ 3 $ 3 3 3 3 3 $ 3 i 3 1 i 3 y 1 3 2 i 2 i y u p V M.pXIXFX3Xi.Z i u y i i 1 y y y 2 y u i u 1 2 i u y y y y u 1 u y u u y u y i u u i i s i r f s u p i y s u u s a p d s i s s i s i u s u s u D s s s u s s r s s s s u a s s u s s s s s s s s s s s r z s s z D s r s s s s D s z s D z s s s s D s s s s s s s s s s D s s s z s s s s z u D s D s s r s s s F s s s s s s D D z s D D z D z s z z D s s z D s z D z s s z D D z z z z z s z z z s D z z D z z D s s s z z s r b z s s z D l D z z D s s D z s s z D D z z D D z z z D z s z D z D z s s D l z D z s s z z D D l s z z s z s s z s s s s z s s s z s s s s s D s s s z s D z s D s s s z s s s s s s D s s s s D s s s s s r z s s s s u s s u s l D I ",
"a s a s a u s s s s s s a s a s s s s s z r s s z D s s s s r D s s s s s s z u s s s u u s s s D s p s s u s s s p s D u s u s D u p s u s d p u s u d u s s i p s s u s s i s s p p s s i u u i s u u p i i u u p s f p f f s p i u y u i s u i u u i p y u u p u u u p y i u y u u u i 1 y y u u y u y y y y 2 y y u 1 3 u i 1 y u i y u u y u i u 1 u y i y y y i 1 u y y i i 1 3 i 2 3 2 i 2 y 1 y 1 1 3 3 i 3 3 i 3 $ $ 3 $ $ y : 1 1 : 3 3 $ 3 $ 3 y : 3 3 3 1 1 3 3 3 $ 3 3 3 $ 3 3 $ $ y : $ 3 3 3 3 3 3 $ 3 3 $ 3 3 3 3 $ 3 3 $ i : $ 3 : 3 3 3 3 $ y 3 1 y : 3 3 3 $ 3 3 3 3 1 1 y 1 : 3 3 3 3 $ 3 1 3 3 $ 3 3 1 1 y y i 2 3 3 i 2 d p V v.=XvXdXoXr.V i 1 y i u 2 i y 2 y y i 2 i u 3 u y y 2 u u y y y u u u p u p u u i u u u i s D y y u u r l u i s u s u s s p s s p s s D s u s p s u u F u s s s s s s s s s a s a s u s s s s s D s s s D s s r s s z s D s D s s D s s s s s D s s D s s D z D s s s s z s s D s s s D s D s s s u F f f c f s u F F y D s z s s z s z s s l D s l D z l D s l s z D z l D s s z s s s D s s z D s s z s D z s s z s z z D D s D D s z D s s s z s s z l D s s s l D z s z z s s z s s s s s z s s s z z s z D z s D l z D z s s s s z D s z D z z l D z z z D s s s s D s s s z s s D s s s s s s D s s D D s s D s s s D z r s s s D s s s s D s s s s u z s u s z u ^ ",
"u s s s s a s a a s a s a s s s s a s s s s s s s s s s s s s s s s s s s s s u u D u D s s s r u s u s r s s u u D s u s s r s s u s s s p s s s s u d s d u s s d i s p s d p s p u s d i u s u s i d a u u p u p c B B R c B f p s p u i a s u u u i y y u p u i u u i u u u p u y y u y u y 2 y u u u y y u y y y 1 y 2 y y u u y 2 2 u y y i 2 y y u 1 1 i 2 u 1 i y 2 i 2 2 3 u 3 3 u 3 1 i u 3 1 i 1 1 1 3 i $ 3 3 3 3 3 i 3 $ 3 3 $ $ 3 $ : $ 3 $ 3 $ 3 3 3 $ : 1 1 1 1 3 : : 1 3 $ 3 3 $ 3 $ 3 3 $ 3 3 3 3 3 $ 3 $ 3 3 $ 3 $ 3 3 3 3 3 $ : 3 3 3 3 3 3 3 3 $ 3 1 : $ 3 $ 3 : 3 $ 3 : 1 y 3 3 3 : 1 1 1 $ $ i 3 3 y 3 1 3 y 3 u 3 3 3 : p f A k.].P.j.V d i u y i y i 1 y 3 u y 1 u y y u 2 u y u y y u y u u i y i u u u i u i u s u u u i s i u s u i i s p s u s s u p a s u s s u s D u s u s u s s s s s a s s s s r s s s s s s s s s s D s s s s z s D s D s s s s D z s D s s D s z s s s s D z s s s D s s s s s D s s D s s s s D s s f a a i s c u s D r D z s z z s z s z s s D z s l s s z s D z D l s s z z s z z s s D s z l D z s D z D s z D s s z z s z s s z s s z s D D l s s D z z z D l s l s s s s s z s z s z D s z s s z s l z s s D s s l D z D l s s D z l s D z s D z D s s s z D l s s s D D s s z s D z D s s D s s s s s z s D z s D z z z s s D r s s D s s s s s s s u D s s u z D / ",
"a s s a s a s s s s a s s s a s s s a s s s s s a u s s r s s s s s s u s s s s s s s s s s s s s s s s s s s s s s s s s D s D s s s s a s a u d p s u p s s p s u s s s i s u u d s i u p u i i u u u u u i i f x B B B R B V B c p s u u u i u d s u u u i u i u u i u i u i u u u p u y y y i u u i y y u u y y u u u i y u 2 u u y u y u 2 y y y 1 y i y u i y y y y y y 3 i 3 i 1 y 1 3 y 3 3 1 i 1 i 3 i $ 3 3 i 1 1 $ i $ 3 3 3 3 3 : 3 i i 3 3 i 3 $ 3 $ 3 i 3 1 y 3 y y y 3 i 1 i $ 3 i 3 y 3 3 i 3 $ 3 $ 3 i 3 3 i $ $ i 3 i 3 $ $ 3 i y 3 $ y $ i $ $ 3 i 3 y i 3 3 3 i i 3 $ i i 3 y $ $ y i $ y 1 3 3 $ 3 1 y 3 y u 3 y 1 1 y y 3 u p g V @.>.j f i y y 3 1 i 2 u u u y y u y u 2 y y u y y y r u y y u u y u u i s u a u u i u y a a y i i p u s u s s i d p d s s s u a s s s s s s s s s s s D s s u s a u a a s s s D s s D s s s s s s s s s D s r s s s s s s s s s z s z s s D s z z s s s l D s s z D z D z z z z s z s z s s D F s z n.^.l z Y u r z z s D s D s z D z D s z z s D z D z s z s l D z z D z D D s z D z z D s s z l z s s s z z s z D s z z s s D D z D z z z D s s l z D D z s s D z D z z D D z z D z D s z D z D s z D s l z z s D z s s s l D z s D z s z s z D z z z s l z D D z s z z z s D D b s s s l z s s l D z z s s s s s s D D r s s z s s s s s s s s D s u s z s s s D I ",
"a s a s s a s a a s s s s a s s a s s s a a s a s s a s s s r s s a s s a u s s s s s s s s s s s s s s D s s s s s s s s u z r s s s u s u a s i s s i s i p s p s s u s p s s d u s s s s s s d u i s s p p s h B B 1.j.b.u.<.A B B s d i i u u i i u u p u s u s s i u p i u u y u u u u u i i i u a i u a u y y u y y 3 3 u r u y y u y u y y u 3 y y u i y i 1 1 y 1 y y 1 u 1 u 1 i y i 2 i 2 i 3 3 $ 3 i i 3 $ 3 y 1 : i i $ i i 3 3 3 i 1 3 $ i $ 3 i 3 3 i 3 $ i 1 2 3 $ $ i $ i $ i i 3 i $ i 3 $ 3 i 3 i 3 $ i 1 3 $ i $ i $ i i 3 i 3 $ i 3 i $ 3 $ i 3 3 1 1 y i 1 $ $ 3 $ 3 $ 3 $ $ y 3 i 3 3 i 3 3 1 i 3 y 1 3 2 3 3 u i i 3 2 1 2 y u 3 d p 3 d y 3 y 1 i i i y i y u u y y y y y y y y y u i u u i u u u u u a i i s u u s i d a Z <.a a u s u i s s p u s s d s s a s s s s s s s s s s s s s s a s s s a s s s s s s s s s s D s s D D s s s s s s s s s D s D z l D s s l s z s s D D s z D D z s s s z D z s z z D s z s D s s s r r ,.=X8XQ r D s D T r b z s D z s D z s s s D z D z l D z s s z z D D z s s D s z D z s z D s s z l z z s D s s s D s D D z s D z z D s z z z s z D D z s s D z D z D z z z D s s D z z D z D z s z D s z D s l s z z s D s s z D l s D s z z z D z D s z D s l z z s s s s s s s s s z z D s s z D s D D s D s l s s z s s s s s s D s s s s D s s s u z s u s s D / ",
"s s a s s a s z s s s a z s a a s a s a z s s s s a s s a s a s u a s a s s s s s s u s u s D D s s D u s s s D u s s s s s D s s s s D a s s p s p s s s u a u s i p a p a u d s s p s i u i p p s s s u d s f c Q 4.m.{.}.{.b.y.B B f s u u d u s u i y y u i i i u u a u u p y u i y u u i p u a i u i i i u u r y y u u y u y y y y y u y u 3 u u y 1 y 1 y u y y u y u y y i y y i 1 y u 3 3 3 i 2 i 3 $ 3 $ $ 3 i 1 1 1 3 3 3 3 $ y $ $ 3 3 i 3 3 i i $ 3 $ y 3 i 3 3 3 2 i 3 3 3 1 3 1 3 $ $ 3 3 i $ 3 $ 3 $ 3 i 1 $ i 3 3 3 3 3 $ 3 $ 3 3 i $ 3 3 3 3 i 1 $ i i 1 1 $ 3 3 i 3 i 3 i i 3 i 3 3 $ i $ 3 $ 3 : i $ 1 1 y 3 1 i 3 1 2 i i 3 3 i s 3 4 3 s p 2 1 2 y 3 i 2 y y y y 2 y u u y y u y u y u i p u y y u p y u u u p u i a u s i c XXkX2.a s u i u s i s i s u s i s s s u s s s D s s s u s s s s a s a s s a s s s s s D s s s s s s s s s D s D s s D z s D l z s s z D z D z z D z s z z s z z z D s l D z s s D s s D z s z Y s s Y c s 4.n.l z s z D z D z s z z s z s z s D s l D s s s z D s z D s s z s z s z z z z D s s s D z D s s D s D b z s z s D z s s b s s z s D D s z s s z z D l D z s s l z s s z s z s s z s z s s s z s s D z s D z D D z z z D z z D s z D z s s s D z l D z s D z D s l D s z z D z s s D z s l D z l D s s z D z s s D z z D s z D z s s D s s s s s s F s s s z r / ",
"s s s s s s z s s a s z s s s s s s s s a s s s s s s a s a s s a s s u s a s i s a a s z r s s s s s s s s r z D s r D s s s s s s s s s z D u i s s i s p s d s p s u s s u s i s p s u u s i p s u u s i s p c Q u.{.#XyX,X}.d.Q B c s p i u u u i i u u u u u u u u a i u u p u u y y p u i i u s i u u y u y u u u u 1 y u u y y y y u y y y y 1 u 1 u 2 y 1 i 1 i y u i 1 1 u y 1 y 3 1 i u 3 3 y 1 1 y 1 3 3 y 3 3 $ 3 $ $ 3 3 3 3 i i $ $ 3 $ i 3 i 3 : 1 1 1 i 3 : p V d i 1 1 y i 3 i 3 i $ 3 i 3 i $ 3 $ 3 $ 3 i 3 i 3 3 1 $ i $ i $ 3 $ 3 3 $ $ i 3 3 $ i $ i 3 3 i i $ 3 $ $ i $ i 3 3 i 3 3 3 $ i 3 $ i $ i 1 1 i 3 u 1 3 3 y y 1 y y 3 y y y y u i y y i y 1 y y y y y y u y y u y y y u y i u a i p i i u u i u i u s i u i i i z n.XX .s c s u d u s a p s p a s s z r s s s s s s s s a u s s s s a z s a s l a s s s D s f f s s s s s s D z s z D s s s D s s z s s z s z s s D z z s s z s s z D l D z D s s s s s s D z l z s s z s s z s z D l D z s z D z D s l s l D z z z s z s z z D D z s D z s s s z s z z s l D z z z z s z z z s s z D s z D s b b r D z D z s z l s D l z D l s D z z s s D s D s l z D l D z s s D s z s s z s D z z D z z s s z z s s s D z l s z D s z s D z s s z D s s z D z z D z D z D s s z s s D z z D z s s l z z D z z s z s s s z s s D s s s s D s s s s s D z I ",
"s s s s s s s s z a s a s a l s a z a a s s a l s a s a u s s a s s a s s s s a s s s s D s s D s s s s s s s D u s z z r s s D s s s s s r s s s s p s a s p s s a p d p i s p s p d s d s s s a p d s s s p B Q <.B. XyXuXyX@XN.~ E f s p u s d u u s u d i s u d i s u p u u u i y u u u a u u i i u y y u y u y r y u u y y y y u 2 y y y 2 u u i y i y i y y y u y y 1 y y y y y y u y y 3 i 1 3 u i 1 y 3 $ i $ i 3 i i $ 3 i $ i 3 $ 3 3 $ i y 3 3 $ y 1 1 1 y $ i a J @Xg.d $ 1 1 $ y $ $ 3 3 i 3 $ i 3 i $ i 3 $ 3 $ i i 1 i i 3 3 3 3 3 i i $ i 3 $ 3 3 i 3 3 i $ $ 3 3 3 i 3 3 3 3 3 i $ $ 3 $ i 3 3 3 i 3 3 1 y i 1 1 3 i u 1 u y y y y u y y 1 1 y 1 u 1 u y y 1 u u 2 u u y 2 y u u y u y y u u i u i u u u u u s s u i u u s u i a l m t i u s s p s p s s i s u u r z s r s s s s s s r s s s a a s s s z a s s s s s s s s s D s D D s c D s s s l z z z z z z D z D z D s D z z s s s s l D z z D s s z s l s s z z s s z D s z D z D D z z D z D s s s z s s D z s D s D z s l D s l s D D z s s z s D z l D D z D D s D z s s D D s s D D s s z z s s z s s D z z z z s z D D z z D D z D z s s D l s z s z s D z s s z D z z z z D D z z D s s s s l D l D s D s z s z D s s z z s s z z s D z D z l D D z z s s s z s l s z D D z s s s z z D D z z s s s D s s s z D D s s s s s s s z f F s s u s s I ",
"u s s s s s a z s s s a s s a a s s z s z a s s s s a s s a s a a u s s a u d s a u a s s s r z s s D D s s s s s s r s z s s z u s s s D s s u d u d s p s u i i s p s a p s d i p s u a s p s s s s i p s p d m <.b. XuXuXyXXXg.1.B c s u u a i u u u i s i u i s i u u i d u y u p y u u i i d u i i u i u y y y u y r y y y u u u y r y y u y u y y y 1 i y y y y i 1 y y u 1 i 2 y y 3 1 u 3 y 3 3 3 1 1 1 3 3 3 $ $ 3 $ 3 i 3 3 $ $ i i 3 1 3 3 3 y $ 1 1 1 i $ 3 : t h {.a.i : y 1 $ y 3 3 $ i 3 3 $ 3 $ i 3 i 3 3 1 i 3 $ 3 $ 3 $ i i 3 3 3 $ 3 $ 3 i 3 y $ i 3 3 i 3 i 3 $ $ i 3 y 3 $ 3 i 3 3 3 i $ i 3 $ 3 1 y y y i i 1 y 3 i y u i y y y i y 1 y y y y u 1 u i y y y y r u u y y r 2 r u y u i a i i u u i y u i i u i a u i s p u a i y s p u u s i s d u u i s d s u D s z D D s s s s a s a s s a s a s s s a s s s s s s s s D s c s s s s s s s D D s s D s z s z z s l s D s z D D z z D s l s s z D D z s l s D z D s z D s s D z s z z z s s s z D D z D l l s D z z D s s s z z D z D l s D l s s z s s z l s s s z D l s s s D z b D z z z D D D z D s D D z s z z s s z z z D z D z l s D l z D z b s z D z s s s z s D s D z s z z s z D l s s s z s z s D z D s z D s s s s z s D z D D z l s D z s s D z z D l s z s D z z D l s z s D z z D s s z l s z s D s z z s s D D s s D D f s s s s D z I ",
"a f s D z s a s a s z s l s s s s l a s s s a s a s s s s s s u s s a s s s s s s s s r D s s s s u s s D D z r s D z s D s s r s s D D s s s a u s p u s i s s s u s u a s u s s s i s p p s i i s p s d u s f B >.4.^.+X#X+XI.u.Z B c d i u u u s i i u u u i u u u i u u p u y u u u y i p i p i i i u u 1 u y 2 y u u u y y r y y y u u u y 1 y 1 i u y 1 u 2 y y 2 u y i 1 u y i y 1 i y 3 1 y 2 i i y 1 y $ i 3 i 3 i i 3 3 $ i 3 $ 3 $ 3 i 1 i $ 3 1 y 1 3 3 i 1 r : i d i i y 1 3 i y 3 i 3 3 $ i 3 i 3 3 $ 3 $ i $ 1 3 y 3 3 i 3 1 $ 3 $ i i 3 i i $ 3 3 3 $ 3 3 $ 3 $ 3 i 3 3 i $ i 3 3 $ $ i $ $ 3 3 i $ 3 i 3 1 3 1 3 i 1 3 i 2 1 y 2 y y 2 y u y y y 1 i y y 1 u y y u y y u y y u y y y u i u i s p i u u i u u p u u u u i u u u u s i u u F u s s u s s s s s p s s u s s s s s s s s s s s a a s s l s a s z s s s D s D s p s s D s s s s D s s z z s s z s s z D s z D z z s z s s z D z s D s l D z z s s D z z s D z z z s z s s z D D z s l D z s z s z D s s z s s z l D s D D z D z s s z z D l D l z D s s s l D z D z l z z s s s z s s z z b s b s b b s z z D z z z D l l s l z D z z l D z s D s D s z l D z D z s z s s z s D s s z z D l s D z D z z s s s z z s s z s D z s s z l D z s z z D s z s s z D z D z z s s l D z D s s z s s D z D s D s z z s z D s s s s s s s s s F z D p z D U ",
"s D s D s s z s s a s s s z s s s s a z a s s s a s a s s s s a s a s a s a i s a s a u r z D s s s s s s r z D s r z s s s s s r s s s s s r s a s p s s i u d d p d u p a p i s p d s s u s s s s i s s p s p R Q <.u.B.^.B.u.! B R f u s u i s i u s u i i u u i i u i i u u p u u u u i i u i u i i i u y y u y y y y 2 y y y u y 2 u y y u u y y y u i 1 y u y y i i y y u y y u i i 2 i 2 y 1 $ i 1 y $ 3 $ 3 3 3 i 3 i 3 i i 3 $ 3 3 y 3 $ i y 3 3 i 3 3 3 $ i y i : 3 3 i 3 3 1 i $ 3 i 3 3 3 3 $ i $ 3 i 3 3 3 3 i 3 i $ 3 $ i i 3 $ 3 $ y 1 i 3 i 3 3 3 i $ 1 $ 3 $ i $ 3 $ 3 i $ 3 $ 3 $ 3 $ 3 $ i 3 3 $ 3 $ 3 2 2 y 2 u 3 1 2 i u y 1 u y 1 y y u y i y u y u y u r u u y u y u y y y 1 y u u a u a u i u u i u u u a i u s i u s s 1 u u % i c s s i s s p s i s i p s s s D s s s r s s a s s s s s a a z s s a s s s D f s s s s D s s D f s D z s z s s z z s s s D z s s D D l s s D z z s D z D z z D l s D z s z z s s s z D z s z z z s s s D z z s l D z s D D z D D z s z D z s s l z D z s s D D s s D z D s D b s D b D D s b D s s z D z z z r z z s z D b D s D z z D s z z D s z s s D l z s D z s l z D l z b D s b z D l D s z s s s s D D z s s z s D z s s s z D z s z z s s s s s s s z D z D l s s D z s z s D D l z s s D l s s l z z z D D s z s D z s z D s s D s s s D s s s s D s s s I ",
"u s s z s s s s s s z a a s a a a s a s s z a z s s s s a u s s s a s u s s s s s s s s s s s s D s s s s s s s s s D s s D s s z s s s s s s s p s s i p s s u u s s s s u s s d s u p i s s i p a s u p d s s f c B A <.y.8.<.B c f f p i s u u i i u u u s u u u s u s u u p u y y i u u u i u a d u u u u y y y u u u y y u u y y u y u y u y y 2 y 1 y y y y y 1 u y 1 1 y 1 y y 1 y y 3 3 1 y 3 3 3 3 $ i i 3 i $ $ $ 3 $ 3 $ i 3 $ i $ i 3 3 $ 3 y $ y 1 i 3 3 1 1 i $ i 3 1 3 1 3 3 $ 3 $ i $ i 3 3 3 i $ 3 $ i 3 $ 3 $ i 3 3 3 $ 3 1 i i 3 3 $ 3 $ i $ $ 3 1 i 3 i 3 3 3 i 3 i 3 $ 3 i i 3 i 3 i 3 $ 3 i 3 i 3 y 3 i 3 i 3 1 i 3 y 1 i y y y y y 1 1 y 2 y 1 i i 2 u y y r u 2 2 y y u y u y y i i i u i p u i u u i a u p u i u u i s y u i s s s s u s p i s s s p s a p s s s s s r s s u s s a a s z s s s s a z s a s s s s D s F s s s s D s s z D z s D D z D z s z z D z z z z z D s s s s z s D z z D D s z s s D D z s D z z z s D s z D z z s s D l s z D s z z s l s s z D l z D l s s l D s l z z D z s s b s s s z s s z z z s s D b s z z s D z s D z s s s z s z s s z z s s z z D b s z D D l l D z D D z l D s z s D z s s z D z z D z z z z s z D s s z z s s D z z z D D s z D z D z s s l l D z D s z s z D s s l s s s s z z D z D z s s z s z s s z s z D s z s s z z D s s s s D s s p z D I ",
"s s s D s s z s s a s a s s s z a s s s s a z s s a u a s s a s u s s a s u a s u s a s s s s s r s D s s s s s s s s s r z D s D s D s u s s u a u i s s i s s s d i s s d s s u s i s a p p s s p p s a u u s s J B Z Q Q V B B f s p u i u i u u i s d u s i a u s i i s i u u y i p i u i s u a u i u i 2 u u y 2 y r y u y u y y u y u y r y y u y i y i 2 1 y y 1 u y i y u i i 1 2 i 1 i i 1 $ 3 $ i 3 i $ 3 3 i 3 3 i 3 3 $ 3 $ 3 3 $ 3 3 i $ i $ 3 $ 3 y $ 3 1 i : i 1 y 1 y i i $ $ 3 i 3 y $ i 3 $ 3 3 i 3 1 $ i i 3 3 i $ i 3 i 3 $ 3 3 i 3 i $ 3 $ 3 i 3 $ i 3 3 $ 3 i $ i i 3 i 3 3 $ $ i $ 3 i 3 y 1 3 1 1 i 1 i i 2 i 3 2 i i u y y u y y y y y i y i 1 1 y y y y y u y y u r y y y u u i u u a u i u u p i u u i u i u u a u a s i y a s y s p u s s i p a u s s u s s s s u s s D s a s s s s a s a a s s a a s s s s s D s s s s s z s s D s s z z z s s s D z z s s s z z D z z D l D D z s l D z s z D z s z D z s z z z D D s D s s D D s z z s l s z l s z z s z D l D z s s z D s z s s z D z z z z z z s b D b D z D z z s z s s z z s D z b s z D D z z D D z D s D b D z l s z b D z l z D s z D l z z l s z s s z s D z D z z D z D s D D s s D D z z D D z D z s D s D z s z D z z D s z D s D z z D z s s z s D D s z D l D l s D z s z s D s z D D z s s z s s s s D s s s z s s s s z s z s I ",
"u s s D s s s s l s s s z a a s s s l s s a s a s s s s a s i s s a s s s a s s a s a s D z r s D z s r s D z r D z r s s D s r s s s s s s s s s p s p s s i s p u s p p s i u a p s s u s u d s i s i s s s f i s s c c Y f B f s u u s u a u d u u u i u i u i u u i u p u u u u u u i u i p i u i p u u u y u r y u u y u y u r y y 2 y y 2 y y y y 1 u y y y y y i 1 i 2 y 1 y y u y 3 y 3 i 1 i 3 3 3 $ 3 i 3 $ 3 $ i 3 $ i 3 i 3 $ i 3 i 3 $ 3 3 i 3 i $ 1 y 3 y y $ 1 2 y y : 1 3 1 i 3 i $ 3 3 $ 3 $ i $ y 3 i $ 3 $ 3 $ 3 $ 3 $ 3 i 3 i $ $ 3 3 3 3 i $ i 3 i 3 $ i 3 $ 3 $ 3 3 $ 3 $ i 3 3 i 3 i 3 $ 1 y 1 i 1 1 3 u 3 3 i 2 i 1 y 1 y y y 1 y 3 u y 2 y y u y y 2 y y y y u y u u y u y u u i a u i i u i i u u i u s u i s u i u s y p y s s s 3 s d s p s s u s i s s s u s s s s s s s s a u a s s s z s l s s s a s s s s s s s D s s D s s z s s z D s z D l z s D z s s D s s s s z D z z D l s s z s s z D l s s z s s s D z l s z z s z z s D s s D z D D z D D s s z s z s z D z D s z D s D z s D s s D s z D s s z s l z D z z D z z D z z s D s z z z s z z s z b s s s z s D z D D s s D z z z s l D z D D z D s z D s l D s s z s s l s z z s z z s z s s z s z l s z z s s z s z s s z s D z s s z s z s D z z s z z D z z D z D s z D s z D s s z z z s D z s z D z s s s s s D s s f D s u s D I ",
"s s s c s c s f f s f s f f d s f f f f f d f f a f s f s s d f f d f d s s s d d s s p f s s a s d s s s s a a u s a s u s s a a s s s s a s s a a s d i s a s i s s s d p a s s i s p a s a s i s u d a u s d u s s d p s p d d u s a u s i s i u s i i s i u s u i u i i u a p i i u a i p a a i y i y i p u y p u y y i p y y p i y p y i p y y y i 3 y i : t i i $ i 3 i i i 3 i i i 3 y y 3 y t 3 i 3 i 3 3 $ i 3 3 y 3 y i $ i 3 3 y 3 $ i 3 i $ i : i 3 $ i 3 3 i 3 t 3 3 y y i $ i i 3 y $ i 3 $ t $ i 3 1 i 3 3 : t 3 i 3 3 : t 3 y $ $ t : 3 i 3 y $ i 3 : i t 1 i i 3 i i 3 : i $ i 3 i $ i 3 t 3 y t i i 3 t $ i 3 y t y t $ i 3 i i 3 t y i y i $ i i $ t i i $ i y i p y i u p u y u y i y a i a i u i s i u a i p i u u d u s i s s i s i s i i s i s d u a s s s a s a s s s s f p s s f f z a f f d f s a s z s f f z s f f f z s s f f s f l f s s s s f s f s s s f z s f s f z s s f s z s s s l s f z s s z s s s s f s f s z z s f f s f s s f s f s s z s a z s s s l s s s l z z a l z z s z z z s s c s s c s s c s z c D s z s s z z z s c c s z z s c s Y z s c s c D z z z s s z s s c s Y s z c D z c s z z z s z s z z s z s s z z s z a z s z a z l s l z z D s s s l a s l s z z s f s a s s s z a s f f s f z f s f z f z s f s s f z s f f s s f s f f s s f s s f z s f s s z z s s z D ^ ",
"s f s s s f D z z s f f f f f f f f a f f s f s f f f f d f s p s s f f s d f p s s d s s d s a u s s a a s s s a s s s s a s s s s a u s s u a s s d u s d s d s a d u s a s i s i i s s i p s s i i s p d d u p d s p s s s i u d d p s i s u s d d s s u s i i i u d s i i u i u u i i u i i y i y a u y y y y i i y y y u y y u y u u y y u y y u i y y i i y i i i $ t i $ 3 t $ y 3 i $ t i 3 $ i t y y : i 3 : t 3 y y : : i $ y t : 3 i $ i 3 3 1 t : t i 3 t : $ 3 : y i $ : y i : t 3 3 : 3 i 3 3 3 i : t 3 i i $ 1 i i 3 i 3 1 y 3 i i 3 i 1 i 3 3 t 3 i 3 y : 3 3 $ $ 3 3 i t y i 3 i 1 3 i i $ i i $ 3 t y 3 i 3 i i $ 3 i i 3 i $ i $ 3 y $ t 3 t i i i y 3 i i i y u u y p y i y y p y y i y y y i i u i u i i u i s s d d s u d d u s i s i s s p s d s d s s a s a u s a s s s a s d d f z s f f s f f z z s s l s s s s f s z f s f z s f s s s f z f z s f s z f z s f f s f s s f f s s f f f f f f s s f f s z z l f z f s s f s f s z f s s s f f f s s l s z s z s s z z z l s s D s s z s z z s s c z z z z s z z f z s s z z Y z z c s s c D z z s s c s z z s z s z s z z F f z z z z z s z s s z s z z s c s s z c s s z s s s z l s s z s z s z s z s s z z l s s l l s z z s s z s s f s f z z s z f s f s s f s s s f s s s s f s z f s s f z s s z s f z s s f f z f s s f s f i z s f a z D / ",
"s f s z s s z s f s f f d f f s s f f f f f f d d f d s f f d f d f s p f f s s f d s d s s d s s a u s s u s a s a u d s a u d i s a s a s d s s s s a s s s a d d s a s d a p i s s i i d s i i s s i u s u d a i s d s d s i d u p d d u s d i s p s s d s i u i i p i u i u s u i p u i u i a y a y y i u y p i p u p u u p y u y p i y y y u i y y i i i $ t y i i y 3 i y $ 3 i t $ t 3 i $ i i 3 $ i 3 t i $ 1 i t : y 3 i 3 t 3 $ y i 3 t 1 i 3 i i 3 3 i 3 1 i 3 y 3 3 3 y 3 3 3 i : y 3 t : i 3 : y 3 i : $ i 3 i t : 3 1 i 3 t $ i : : i $ y $ i i : 3 3 t : 3 i i 1 t 3 i : 3 3 3 3 : t $ 3 3 3 y 3 $ i $ 3 3 i i 3 3 y t 3 i $ t 3 3 i $ i i i i i 3 i i i 3 i i y y p y y u i p y i y y i a i a i a i i i p i u d u i i s p s i u p d d u a s s i a s a u u d i s s s s a s s s a s s s d d s f s d f f f f f s s f f s f f s s s s f f s s z s f z f f s a f z f f s s f s f a z f s s z z f f s s f s s f s s z s s D s s s f s a s f s f s s s s f s z s s f s z s z s z z l s D s s s s z s s s s s z z s z D z s c D z z z s c s c s z D s z z s z z f c D s s z s z z z s z f c s z z c s c s c c s z z z s z s s z z s s z c z f z l s s s s s s z z a z s l s D s l s s D z z D s z s a z l s s z s f a s s f z f s z s f z f f s a f z f f s a f s f z f f s s s f s s l f s s f s f f s z z s s l D / ",
"s f s z c s s z s f f f s f f f f s d f f s f f s f f f p s s f s p d s s f p d f f p s s s u s s s s a a s s s s s s s s s s s s s s s s u s s s u d s d u d s s u d s i s s a s i s s s u i s s d u s d u d s u s d u i u i s s u a s u d i s s i s i i s i i i a u i p a u i i i u a i u a i i y i y i u i y u y y y i y y i i p y y p y u p i u y 3 i 3 y i $ y i 3 y y 3 : i i i : 3 y 3 i t y 3 i i 3 i $ 3 3 i 3 3 i $ 3 i 3 : y i : t 3 : 3 3 i 3 3 $ i 3 3 i $ y : t i t : 3 y 3 $ y 3 3 i i $ 3 t $ i 3 t 3 3 3 i 1 3 : t $ i : i 3 i i 3 i 3 i : 3 3 i i $ y i $ 3 t 3 3 $ i y i $ t 3 i 3 t i i t $ t 3 i i i i $ i i 3 $ i t y i 3 3 t i y i 3 $ i t $ i 3 i y y y y p y y y y u y p p y y y y i i i u u a a u i u i i p s a u s d a s i s p s i s s i s d s s a s u a s s s i s s d s s s d f f f s f z z z f z D s s f s f z f z f s s f s f f s f s s f z s s s s f f z s s s f s f f s f s s f z s f z s f s z s l s s f z s f z f s f s f s f s l s s z f s z s z a z l s s D s l l z s z l s z s c z s c s c c z s c D c s c s z s z s c z s s c s D z s z z c z s z s z z z s z s z s D z s z z D z z s s c s Y s z z s Y s D z z s s z s z z s z s s z s z s s l s s s l z s D z l s l z s z s s f z s z s z s s f s f f z f s s f z s s f s f s f z s s f s f f s f z s f s f f s z s s d z s s s l D ^ ",
"s f s z s f s s f s f s f f f f f f f f a f d f f f f f s s s p f p d f d d s p s s d f f s a s s i s i s s a u s a a u i s a s s a s a s d s a a s s a s i s d s a s d s a s i i s s i i s s i u d u d s u a u u d i s s i s u d u d u p d d u s i s i s i s u p i i u i u s i i u i u s i p i i i i i i i y u y y u y i y y y u p y u u i p u y y u i 3 i t : i 3 t $ i 3 i t i 3 y 3 i i : t 3 y 3 $ i $ i 1 : t 3 y $ i : y i $ y : 3 3 $ t 3 3 t $ 3 t i 3 : t $ t : y 3 $ : y 3 3 t 3 y $ y y i y i $ : t $ i i $ i 3 $ i 3 i $ 3 y i 3 $ i 3 t 3 $ y : t $ i i 3 3 : y : 3 i i 3 : y 3 $ i 3 $ 3 3 i $ t 3 i 3 i 3 i t y i i t 3 3 y $ i t y y y $ t i i $ i 3 i i $ i i y i p i p i u p u y y i i i i u i i u d u i p a i u s i s d p s u s i s i s i s s i s d d s i s a s s s s s s s s f d s f f f z l l c c z b D b z l f f a s s s s s f s s s z f s s z f f s f f f s z f z s s s z a f s f s a z f s s z z s s a z s f s s f f s s s f s f s f s s a z s D z s s z s s z s z l z z s s z z z D s s z z D s z s z s s s z s c z s z z s z c z s c z z f c c D z s s z z z F z s F f z s c z s z c c s s f z s z s z z f z s z s c z z z s z z z s s s z z s s s z l z z D s a s l a z s s l s z z s z a z a z s s f s s z s f s s s f s f l s s s f f s f s z f s s s f s s f s z f f s f f s z u z z s s s z I ",
"s f s z s s Y s s f f f f a f f s f d s f f s f s f f a s d d s f s s f s s s f d f s p s u s s s s s a a s s s s s s s s s i s s s s u s s u s a s d s s s u d a p a s a s d s s i i s s u d s d u d u u d p s s u s d u d s a s u u d a s u d i s s i u s s i i s s i i a i p p i s i i u a i a u y a i u i y p y p y u p u p y y y p y y y y y i y i y i y i i i y y i i 3 i i $ t i i 3 y y t 3 y t i i y t i 1 y : 3 3 t 3 3 y 3 t 3 i 3 3 3 i : y 3 $ 3 3 y 1 i 3 i 3 i 3 y 3 y y : y 3 i : 3 : i 3 i 3 3 i 3 : t 3 3 i 3 3 3 i y 3 3 3 i $ y : y i 3 y 3 : 3 3 i 1 t 3 i i $ 3 : t y i i 3 i i i y i 3 y i 3 t $ 3 y : i 3 $ 3 i 3 i 3 t : y i y i 3 i i i i i $ y y i y y u u u u y y y y y i y i i i a i p i u i u u i u i i s i u a i s i s u i s s i a p a s s d a s s s i s d s i s p f s f f l x x c m  .m ..D b b c b z f z s a f z f z s f z f s f s f s s f s z s f a s s s z f f s f z z s f s s f s f s s z s z s f l f s s f z f s f s z f z z s s z s z l l a z z s z a s l s s l s z z z l c s s c c s c z z z c s F s z s z D c s s z z s s s s z s s c z c s s f z s c s z z s z z f D s z D z z z Y s c z s z z s c z z s D c f z s s z c s z s z z z s s D z l z l s s l z s s s z s s z s z s s z s z s f s f f z f s s z f s s s s z s z s s f s s f z f s f f s f s s z a s s f f a z z s s l s ^ ",
"s f s f f f f f s f a f f s s f f f f f f f f f f f d f s s p s d s s p d f d s s p s d s d s a s s i s s u s s s a a s i s s s s i s a s a a s u d s i d u d s s d i s d s u s i s s i i s d u s u d s d d p d d p s u s a i s p a d u u d s u s s i s d s i u u a i p u i u i i u i u u a u i i i i y i u i u u i p y y p u y i y y i y y y i y u y i y y i i i i t 3 $ 3 t i 3 y 3 i 3 i $ i i i 3 t 3 i y : 3 3 i t t 3 y 3 3 t 3 3 i $ 3 y i $ t 3 3 y $ i 3 i 3 i 3 i 3 y y t t : y 3 3 t 3 i i 1 3 i $ i 3 : i 3 y : y 3 t : t : $ i t : y 3 3 y 3 3 i 3 i 3 t $ y $ i : 3 : 3 t 3 i i 3 : 1 $ 3 t $ i 3 y 3 i y t 3 i i t 3 $ i i $ 3 i 3 y i $ i i i $ i t y t y 3 i y y p p y y y i u p u y y u i i u a u u i i p i u u d p d s u d s d i s d s i s s u s i s d s s s i s a s s s a d f p d f c c c m m m  . .........m b c c a f f s z s f a f s f z f s s z f s f z s f f s s z s z s f s f s f z s s f f s s z s s a s s s s z f z f s s z z a s f z s s s s l l s z s z a s z s s z s s z z s z D s z z z s z c D F z z z z z z z f s s c z s s Y z c s z z z s z D s c z z z s z s c c D c s c z s c s z s z z s z s z D s D z s c s z z z s z z s z D c c s s z l l z s z s s z s s l z z s z s z s s z s s a s s f f s f s s f s s s z s z s s s f z f f s s f z s z f z f s a s f z f f s s u z z s s z D ^ ",
"s s s z s l s s f s f f f d f f f s d s f f s f f f s f d s f d d s d s s f f p s d s s s s p s a s s s s a s a s u s s s s a s s a s s s u s s s s a s s d s a s u s a s d u d s s i s u d s i p a s i u s a u u a i s i p s i d s u d u s d u i s s i s i s i i u u i i p a u i a d u i u i i i i i i i y u y y y u y y i y y u p y u p y u p y y y $ t y i $ $ i 3 i i i 3 $ $ t $ t y i 3 i $ i 3 i $ i 3 i i $ 3 3 : y $ i i : i i : i y : y 1 : y i : i 1 y $ i : 3 $ t : 1 : 3 i $ 3 y : 3 i $ t : 3 3 i $ i i 3 3 t $ i $ y 3 3 i 3 3 y 1 t : i : i 3 $ i 3 : y 3 y 3 i 1 t i $ 3 $ t 3 t 3 i i i 3 i 3 $ t 3 i $ i i $ $ y i i 3 t 3 y 3 t i i i 3 i 3 3 3 y i y i i y i y u y p y y y y p y i d i i i i i a u i i u d i u i s u d u d u s i s i s s i s i s a s i s a s s s s a u s d f s f z c m b  . . ...X...,..... .m b c f f f s f f s f s f s s s f s f z s s s f s f z a z s s f z s s f s f s f z s f s z s l s z z s f s s s s f f s f s f s s s z l s s s s s z s z z s l s s l z s z z z s z z s s Y s z s z s s z z s s z z z z z s z z s z D c s c s z z z z s z s z c s z D s z s z z s z s c z s z z s s c s c z c s c s z s s c z z s c s z z s z z s s s s s s s l z l s s z s z a z s s l s z s z s f z s f s s f f l f s f s s l z z s f s z s f s f f a s s s z z z s f s z s f s z s f s z D / ",
"s f s c f s f z s z l f f f f d s f f f f f f f f f f d f f s a f s f f d s s p f s d s s s d d s s s s a s i s s a u s s s i s s u d s a s d u u a d s s u s s d s a p d s a u s a u d s i s s u d s u u a i s f d s i s d u s s u d s i s u d u d s u s u i p s i i u u d u i u i a u i s i i y a i a i y i i y y i y y u y p y p u y i u y y i i i i i $ t i y i 3 i $ i : i i 3 3 i 3 $ t 3 i $ i t 3 i 3 3 $ 3 t : : t $ 3 $ 3 i 3 t : 1 $ i 3 t : i 3 i t y y 3 3 $ y 3 3 i 3 i 3 i i 3 : $ i 3 y 3 i 3 3 $ i : y 3 i 3 $ i i 3 $ t 3 3 : i i : t i 3 : i 3 y y i i i i $ i 3 $ i 3 i 3 y 3 t 3 i 3 i t $ y 3 3 $ 3 y t : i t 3 y 3 y t i 3 y t $ i y i t y $ i i y y y y p y y p u y y u i y y y p i u i u i i u i a u s d u s d u s s u s u i s p s i s d s i s s d s s s s s a s s a s d f c c m m ..O...*.-.*.*.*.*...$...m b c f c D s z s s s z z s s l s s z f s s s s s z s s z s s f f s f f s a s l s l s s s s s z s l s z z s z f s z a z f s s l z s s l z D s l s s s z s z z z s z z z s s z c s z z z s z z z z s z s z s f s s F z z z s z z s z z s z s z z s z z z s f z s z s z s z z z s z s z s z z z s z z z s z s c s z s z c s z z s z s z z z z l s z s l s s z z z s s s s s l s l s s l z z D s s a z f z f s s s s s l z s s f s s s f s z f s s z z s s s s f s s s z f s f s z s s s s / ",
"s s s s s f s s s f s f f s f f d f f a f s s d d s f f f s f d p f f f f f f s d s f p d s s s a i s d s s s s s s d s d s s s s d s s s u s s s s s s s a s a s d s a u d s d d p s s i s s i s u d d d s p a d u u d i s s i i s s i d u s i s s i a d a s y i i p i i u i p a p p i u i u i i y y y a y i y y u p p y p y y y i y y y p p y y y 3 i i 3 3 i t y i i i y t 3 3 i t $ y i i 3 3 3 3 : $ 3 i $ i i 1 3 y 3 i 3 i 3 i $ 3 3 y i 3 3 $ y $ 3 3 : : : y 3 i : t 3 $ y $ 3 3 $ 3 t i : t : $ 3 i $ i 1 t 3 3 : t i 3 3 3 t $ 3 3 y y $ i 1 $ 3 t 3 t i : : 3 : 3 3 i $ 3 3 t : i $ i i $ i t : y 3 t i i t y y y y i 3 i $ i i $ i i y i i 3 i $ i y t 3 i i i y y u y y y p y i p y u i u u u i i i s s i u a a i u s d u p d i s i d s i a i s d s a d s a p a u s a s u s a z f a f z b m ..| | *.*.6.7.6.6.-.*.$... .m b c c z l s s z s s a s f f z a f s f z s z s s s z a s z s s z s z s f s z s s l s s s s s s s s s s s f s s s f s s z s s z s D z z s s s z z z s z s s z s z z F z z z s c s s z c s s s z z s c s z c z c s z s z z s z z s s c z s s D c f s z F z s c s c F z z s s c s c z s s z s c s s z c s z s z s z z s c D c D s c c s f z z z s z s z s s s s z l l z z s s D s l s D z l f z s z s s s f l s z s s D s s s f l s s f f s s s s s s z z s s f z s f s s d z z s s s s / ",
"s f a z z f f s f z f s f f s f f f f f f s f f f f s f d f f f s f f d s f f s d s f s d s s s s s p f s s p s s s s s s s s s f s s s f s s d s s s u d s s a s d a s a s u d d s d u s a s p d p d u u d a s s d u s s i i s u d i s s p a s i s d p u d s d s u i s s i d y u i s u i p i a i a y y i y a a i i y y y p y y u p i p y y 3 i i i y y i i y i $ i t $ i 3 i i y i 3 i i 3 3 y t $ 3 t i 3 i y i i 3 i i 3 $ i i i i : 3 i y 3 y 3 i i y y y y t i $ i i 3 i i i i i y i 3 i i 3 i $ t i 3 i y i 3 3 3 y y i 3 3 t i 3 3 i 3 y $ i i 3 i i $ i $ i 3 y t $ i i i i $ 3 i $ i 3 $ i t i y i i i $ 3 3 y y t 3 i i $ i 3 i 3 i i i $ 3 i $ i 3 i 3 i i y y u y i u p p u y i u i y i i u i i u i u a i p u i u s s i p s a u s i s i u s s i u s s a s d s d d s f f s s s s f f f z c m m ..X.*.-.F.G.[.Y.G.F.-.$.X.X. .m m c s z D s D s s s z s s z s s z s z l z s z z s s z s l s s z s z s s s s z z s s l l s z s z a s s s z a z s z s z z s s l s s l l z s z s s z s z z s z z f s z s z s D z z s z z c s z z c s D c D z f z s z s z F z z s z s c z c s s z z z s z z z z s s z z s s z F z z z s z c D s z F z s z c z s z s c z s z f z s D s z z z z a s z s a z s D s s s s s s z z s s l l z s s z s s s z z s z s l D s l z l z s z s s l s z s l l s z s z s z s z s a z s f z s s s z s ^ ",
"s f s z f s s f s s s f d f s f f s f s f d f f f s f f f s f f f f s f d s f f f f f d f f f f s s s s d s d s a s d s d s s d f f p d d s s s s d d s s a p a d s u d s d s s u a s d d s a a s a u d s s p a a s s i i s i s s i s d i s u d s i s i s u u d u a s i s s s u i u i i u i u i y i a i i y i y i i y y y u u p y y y u y y u i i i y y $ t y 3 i 3 i y 3 i i $ t $ i 3 i i $ t y 3 y 3 i i : t i 3 i i $ i t y 3 3 y t i $ t i t i 3 i : t y 3 y y t y 3 i $ i i 3 : t i i i $ i 3 i y i i : t 3 i t i $ i 3 i i $ i y i $ t i i y 3 i 3 i i y i 3 i i 3 i 3 $ 3 i i t 3 t 3 i i 3 3 $ i $ 3 i i i i i 3 $ i 3 i 3 t i $ t y 3 3 t y i t i y i i $ t i y p y y y y i y u u i i i i i i i i a u i u u i i a p d d u a i u d d s s s d s a s a s d s d u d s s f f p s d f f f f f z m m ..X.-.:.F.[.%X%X%X%X[.Y.:.X.X...m b z z z l a z l s z s s z s z z s z a s s s z a z z s z s s z a z s z z s z s z D l s s z s z s z s z z s z s z a z s z l s s l s s s s z s z s z z s z z z z z z z z z z c z z z z F z z z z z F z z z z z z z s c z s c z z z z F z z z z z z z z z z z F c z z z z z z z z F z c z c z z z z z z z F z z z z z z z z z z z c z z z z z z z s z z s l z l s z l s z l s l l s s s s z a z s z a s z s l s z l s D s a z s z s s z s l s s s s z a z s z a z z s s f z s s l z s / ",
"s f s s s f s s f s s s f f f d f s f d f f f f f f s f f f f f a c a Y f s f f f s f d f s f d d d s p d s s d p s s f s s p f d s p s s d p s f f f d d i s s s i i s a s s a s d s d s d i s a u s d u s d s d s a s s u d u s i s u p s i s d i s i u d u u s d u d u s i i i u u i a i u d a i y a a y a y i a i u y p u i y i u y y i y i 1 i y i y y i i i i i i y t : y 3 i : i $ 3 t 3 t 3 y i i $ 3 i $ 3 3 i i 3 t 3 y y 3 y y : i 3 $ i $ i 3 i y y $ i 3 i i y : y i 3 t y 3 i 3 i t $ i 3 3 i i i y $ 3 i 3 i 3 $ 3 i $ i 3 i i 3 t 3 $ i 3 i t : 3 $ i 3 3 i i t i $ 3 i i t $ i $ 3 i i i $ y i 3 i t 3 i 3 y i 3 i i i 3 y i i i i $ i i 3 $ i i $ i y : t i u y i u y i p u i i a i i u a i i u d i p u p s i s u d s u s i s d s i s s a u d u s s d s s p f s s s p f f s z c c b  ...X.-.F.[.%X=XiXiX=X%XY.F.-.-.....m c c z s s z s z s D s l s s s z s z z s s l s s l a s z a z z s z s l s s z s s z s z a z s z D s z l s z s s z a z s l s D a z s z l z s z z z z c z z z z z z z z z z z z z z s z z z z z z z z s z z z z c z z z z z z z z z z z z z z z z z z z z z z z z z z z z z s F z z z z z z z z z z z z z c z D z z z c z z z z z z z z z z z z s z s z l s s z s l s s l z z s l s s z l s z s s z a z l s s s s l s z l s s z z s l s s s l D z s z s s a z s s z s a z D s r z z / ",
"a f s z f s l f s f z f f s f s d f f f s a f f f d f f f d s f a p s ~ E s f f f f f f f f f f s s s f f f p f f s d f d s s d s s f f p s f d s p s s s s s d a s s d s d d u a s a u s u s d s d d s a s s d s d u d s d i s a p i s a i s s u s s s a p s d d u i s d s s i p i a p i u i i y i i y i y i i i i i i i y y y u p p y u p u i i i y y i $ i $ i $ t : 3 i y y i y t i i i i $ 3 i $ i t i i 3 i t i $ i $ 3 y t $ i i y t $ t i 3 t y y 3 t : i i t 3 3 i t y 3 i $ 3 t $ y 3 y 3 3 i y 3 i $ y t 3 i i $ y t i $ t 3 i 3 $ t i 3 t 3 $ i i 3 y t 3 i $ t 3 y 3 t y 3 i 3 i 3 t i i 3 3 t 3 3 i $ i 3 3 i t $ $ i i $ t y $ t y 3 t y i i t y i i i 3 y u y y u p p y y u i i i i i u i i i u i u i i s d i s i s u d d i s d s d s a d s d s s d d s f p s d s d d s f f f f f c b  .o.-.-.G.XX=XdXvXvXzX=X%XY.6.X.X. .b c c z s s l s l a z z s z z z a z s z l s s l s z z z s z s s z a z D l l s z l s z s z s z z l a l s z s z z s z s s l l z z s z s s s s z z z z z z z z c z F z z c z z z z z c z z Y z z z z z c F z z z F z z z z z z z c z z z c z z s z z z z z z s z F c z z z z c z z z z z z z z z z z z z z z z c z z z D z z z z z z z z z z z z z z z s s z s s z s s z s s D s z s l s s z s z z s z s s l l s l D z s s z s s s z s z l s z z s l s s z z s z z s z s z z s a z D / ",
"s f s z s f s f f s f s f f f f f f f f f f s f s f s f f s f s a f p !.p.f s f f f f s f s f s d f d s s p p s f d d p s f s d s d d s f f s s s s d s s d p d s i s s i a s d s a s d d s d s s d s i s d s d a s s s s a s d i s s i s i s i s s i s s d d s u s s p s i d s a u u i u i u i y a y y y i i i i i i i i y y u y i p y y p u i 3 y y t i 3 3 t i i y i 3 i 3 i i $ y $ i y i 3 $ i 3 i 3 3 $ i i $ i i 3 y i $ 3 i y 3 i i 3 y 3 $ i 3 t 3 i y t y $ i i 3 3 i y t 3 i y 3 t $ 3 i y 3 t $ y y 3 i y t y t i $ i 3 $ i $ 3 3 3 y t 3 y i t 3 i 3 i y t y y y t i 3 $ i i 3 3 y i 3 t 3 i i t 3 i 3 y $ t $ 3 i t i i t $ i y y t i i y $ t 3 y i t $ i i y y u y i p y y p u i i i i i i i i i u i p s i p s a u d d u s i u f s d d s i s a s d s s s d s p f s p f s f f f f c c b  .*.*.:.Y.%XiXjXjXVXvXiX%XG.6.X.X...m c c z z s s s l l z s z z s z s s s s s z l z z z s s l s z l s z s z s s l s z l s s s z s s s a z s z z a z s s z z s s l s z l s z s z z z z z D z z z z z z z z s z F z z z z z z z z z z z z z z z z z z z z z z z z z z z z z z z F z z z F z z z z z z z z z z z z z z z z z F z z c z F z c z z z z z z z c z z z z z z z z z z z z z s z s z D s l s s z s s l D z s s a z s z z a z s s z z D l D s l l s z s s l s z z s s l s s z s s z s z z s z s z a z z s s z s / ",
"s f s z f z s z s f s f s f a f s f d f s f d f f f d f f f s c s f f ^.~.B f f s d f f d f f f s f f p f s d d s s s s d f p s f f p s d s s d d d f p s d s s d s s a s s d s d s d s s a s a a s a s d u a s s d i s d s a p s i s s i s i s i i s i u d u u d d u a i s u i u i a u i i s i y i a i a y a i u a u i i i y p y y u y y y y i i i i : i t y y i $ i i i $ t 3 i i y y 3 t : i y 3 t i $ i t 3 i 3 t 3 t 3 i y i 3 $ t $ i i 3 y t 3 i $ i 3 i $ 3 i 3 $ t y 3 i $ i $ t i 3 i i $ t i 3 i t : i i 3 $ 3 i 3 t 3 t i i i t i y $ i 3 i i 3 $ i y 3 i $ 3 y y : i y t y 3 i $ t i $ 3 i i $ i $ y 3 t i y 3 i $ 3 i 3 y i i y i $ i 3 i i i i 3 i 3 i i i y u y y y u y y i y i u u i a a i i u i s i s u d s u s i s s i s i s a s s i s d s d s i d s s f f f d s f d f f d f c c b ..X.*.6.Y.XXiXjXjXDXvXiX%X[.6.*.2. .m b D z l l D z z s s z s a z s z s l s s z a s D s z s s z s s z s z s z s s z s s z z z a z s z l s z s s z s s l s s z s s z s s z s s l z z c z c z z z s z z z z z z z z z z z z z z z s z z z z z z z z z z z z z z z F z z z z z z z z z z z z z z z z z z z z z z z z z z z z z z z s z z z z s z z z z z z z z z z z z F z z z z z z z z z z s l z s z l s z l s s z l s z s z s s z s s l s s l s z s s s z s z z s z s a z z s z z a z l s z s a z s z s f z l s a b D / ",
"s s z s s z a f s z s s s l s f s s d s f f d s f f a a f s s i z D V  X_.V s a f f f f s f f f f f d s f d s s p f f f s p f f f d s f f f p f f s s d f f d d d s a s u d s s s d d s p a s d u s s d s d s d s i s s a p s i s i s d u s i s s u d s u d u d u d u s d u s i i u a p i u i i i i u i i i y a a i i u i u u y i u y y y y i i i $ 3 i i i i i 3 y $ t 3 i 3 i $ i y i $ 3 3 i 3 y t 3 i 3 y y 3 t $ i $ i i 3 3 i $ t i 3 y 3 i 3 3 $ i i t y i 3 i 3 i t $ i t $ i i $ i i i 3 i 3 $ i i t : i i 3 y 3 y 3 y $ i i $ 3 i $ t 3 i y 3 $ t 3 y t 3 i 3 3 t $ 3 i $ t 3 i $ i i 3 i 3 $ i 3 $ i 3 y t $ i i i t i $ y y $ t y 3 3 i i i i 3 $ t i i i u u u u y u i u i y i i y a i y a i i i i u i i s s i s d s d p d u s s d s d s d s s a u d s f f s d s s p d s d s f f f s z b  .X.*.:.G.%X8XzXvXvXdX=X%XF.6.*.X...b x s z s z s s l z s a s z s l z z s l s l z s l s z s l z s s l s l s z D s s l s s s z s s l s l s s s l l z z s s l s s l s z z z F z z z z z z z z z z z z z s c z z z z z z F z z z z z z z z z z z z z z z z z z z z z z z z z z z z z z z z z z z z z z z z z z z z z z z z z z z z z z c s F z z z z c D s c F z z z z z z z z z z z z z z s l z s z r b s z s z s s z s z D D s a z s s z z D l s l s l s s z s s z s l z s s l z s s z z D s z s l s s z s z z D s z s / ",
"a s s s f s z s a z s z f f f s s f f f f f f a f f f f f f f f z c r. X+Xy.Y a d a a f a s s f s f d s p s s d d s p s d s s d f p s p s d s d s d p s p s s s s d u d d s a i d s u a s s d u s d s i a u a s a s s d s a a s a s i s d u u d i s u d d u s i s u d u p a s i u i u i i a u i i a i i a y i i y i y y y u p y y y u u y 3 i i 3 t i i $ i 3 $ i i i 3 i $ : t i i t : i 3 : y i 3 $ i t y y t y y i 3 3 t 3 t y i 3 y i $ t i $ i i t 3 3 $ y 3 i $ t 3 y i 3 3 i 3 i 3 i 3 $ t 3 t 3 i 3 i y $ y t 3 $ t i 3 i i 3 t i i 3 i i $ t i i y y y $ i t y y y i i i i $ i 3 i t 3 i $ y t 3 i t y i 3 3 i $ 3 3 i i i y i i y y t y 3 t $ y i i y i y 3 y u i u y y u i u u i u i i i y i a u u i u i u a i s s u u d a u s d d s a u a s i s s d d s d p s f p d s s s f f d f s c Y c  .X.*.2.F.[.%X=XiXuX4X%X[.F.*.X... .b b s s z a z s s z s s z s l s s D s z l s s s s z s s s z D l s s l l z l s z s z s l s s z z D l s l s s s s D D z s l s s z z D z z z z z z z z z z z z z z z F z z z z z z z z z z z c z z z z z z z z z z z z z z z z F z z z z z z c s z z z z z z z z z z z z z z c z z z z z z z z z z z z z z z z z z z z z z z z z z z z z F z z z z z z z s s z s z s z s z s z s s l s l z z l z l s l s s s s s z s s z a z z s l s z D s s l s s l s s z a z s s l s s l z s a l s / ",
"s z a f s f s z s s s l s s f f f s z f f f f f f a a s f s a d f B m.<X<Xb.Q z f f f f f f f f f f f s s d d s s f d d s f s d d s f f s s d s f p f f s d s s a u s s s a d s s i a s a s s a d s a s a s s i s d s d a u d p p u d u s i s i u d i s s p a s d u s d s i p i s i u i u d u i u i i a a y y i i y a y i u i y y y y y i i i $ i i i i i i i t i $ i 3 t 3 $ 3 3 i i i 3 i i y $ i i 3 $ i 3 : i 3 3 y i 3 i 3 t $ i 3 3 y 3 i t 3 3 y y t 3 y y i 3 y y y 3 i i 3 t i t i i t $ i i i 3 i $ i t 3 $ 3 i 3 y i i 3 y 3 $ i i 3 3 y i 3 3 i : y t y $ i 3 y i i 3 $ i i : i 3 y 3 t 3 $ y i 3 3 i i i 3 3 t $ i i i t y i 3 i 3 y t i i y t y i 3 i i y y i i i p u u i i u y a a y y a i i d u i i u u i s d p d u u d d s a u a s u s s d s d s s s s d s p f s d d s f f f f s c b m ..X.*.6.F.[.[.XXXX%X[.F.6.*.X.X.m b z s z s z s z s s l s s l z s l D z s l z s z s s l l z s D s z z s D z s s z s s s s s l z z z s s z D D z s z s z s z z z s z s l c s z z z z z z z z z z z z z z c s z z z z z z z z D z z z z z F z z z z z z c z z z z z z z z z z F z z z z z z z z F z z z z z z c D z z z z z z z z z z z z z z z z c z z z z z z z c z z c z z z z z z z s s z s z s z z s r s z z z s l s s l l s z l s s l s l z s z z s l s s l l s z z l z D s z l l s s z s z s z D a z z s a b D ( ",
"s s s z f s z s s z s s f s s z s f f f f f f f f a f z f d s d B r.E.aXpXC._ B z f a f a f a f f f l p f p s s p f s s d f p s s s d p d s p f f s s d s d s i d s i s d s a f a s s i s d d s s i s d p d s s d u a s s d s a s a s d s s d s a p s d i s u d p a d u a s s i i p i i i u i d a i u i i y i a a y i y u i y y y y y i i y i i $ i $ 3 t i 3 i 3 t y y 3 i i i i $ 3 i i $ t y t y 3 i i 3 i y 3 i $ t i $ i i i 3 i 3 $ t i $ 3 i i i 3 $ y y t $ i 3 i t : y i $ 3 3 3 $ 3 i i 3 $ i y i 3 i 3 i i t 3 i t $ 3 t i 3 3 t i $ $ t $ t y 3 t y $ 3 i 3 y t : 3 t 3 i 3 t i $ i i i i t t $ i i i $ t y i i i i t 3 : y i i i i i $ i 3 i $ i y $ i i y y u u i i i i u i i y i i i y i i i i i s i s a s i s a s u d s u d s d p d s d a s d s i s d f f p s d s s f f f s a f s c b m  .X.*.*.6.F.Y.Y.G.Y.F.-.-.X.X. .m b x f a z s z z l s s l l s D s l s l s s z s s z s s s s l z s l D s s l s l s l s z z z s l s z z l l l s z l l s l l z s z z z z z z z z z z z z z c z z z z z z z z F z z z z z z z z c z z z z z z z z z z F z z z z z z z z z z z z z z z z z z z z z z z z z z z z z z z z z z z z z z z z z z z z z z z z z z z z z z z z z D s z c z z z z z l s z z z s l z l b l s z z z s s s z s D s s l s s D z s l s z z s l s s s D l s l s l z s s l z s z a l z s s z z s s z z / ",
"a s z s s a z s z s z s a z s z s z s d f f f f f s c F f f z B r.k.E.MXnXQ.i.@.B z f s s s s f s f f f s f s d d s d s s s d s d s s s s s d s f d s s s d d s s d s a s d s s f f a s a s d d d s s a a s d u a s d s s a d u d s d s d s a p s i s u i s a u u d s i u s a u s d p s d u u a a i a y y a i y y i y y a i i u p u i i y y y i i i : t t 3 i i i i i i i 3 i i i $ 3 i i $ i 3 i 3 i $ y 3 i $ y t y $ t 3 t $ i $ i t i i 3 t i t 3 i i 3 i t y t i 3 $ 3 i 3 t 3 y i i $ 3 i 3 i $ t t i i 3 i i $ 3 i 3 y y $ 3 i t $ i i 3 i 3 i $ $ i 3 3 i 3 3 i 3 t i i i $ : t y 3 y i i i 3 y i i y y 3 i t 3 i 3 i 3 $ i 3 i $ i 3 $ 3 $ i i i y a y i y i i i i i a i a i i y y a a a y i a y a a u u d a p u i s u i s d u s u a s a s s d s s s a s d s s s d s s d s f f s f f f s c c c  . . ...-.-.7.-.7.6.*.-.X.X. .m b c s z s z l s z s s z s s z z D s s s s z s z l z s z s l z l s s z s l s l s l s l z z z z z s z z z z z z l z z z z z z z z z z z z z z z z z z z z D z c z c z z z z z z z z z z z z z z z z z z z z z z z z z z z z z z z z z z z z z z z z z z z z z z c z z z z z z F z F z z z z z z z z z z z z z z z z z z z z z z z z s z c z c s z z z z z z s z z s z z s z z z z z z z s s l z l s l s s l z s s l z l s z D s s l z s s l a z z D l s s s z s z s l s f z z s a b s / ",
"s s z s s z z z a z s z z s z s z s a f d s d s s f s s s l B @.h.I.1XAXCX1XL.i.<.m c z f f f f f d f s f f f s s f s f f f l p f f d s f s f f s f d f f s f f d s d s a s s a s a s d s d u s s u d s s a s d s i s i d s s d u a s u u d s a d u i s s i s s s u d s a p u d u d a u u d s i a a i i i y a y i a a i y y i i i i i i y y t $ i i i y i i $ i $ i $ t y i $ t i t y 3 3 t 3 i i i 3 t t i 3 t i $ i 3 3 i 3 y 3 i 3 3 $ i i 3 y $ i 3 3 i y : 3 : i i i i $ t 3 i $ i i i i $ i i 3 y $ 3 t y 3 i i i 3 t $ y i i 3 $ i i 3 t 3 i t i t y i i 3 i i i i $ $ 3 i i y y i i y y i $ i y 3 $ t i y y i i y y $ t i i t y t i i i i i i i y i i y t y i i y i y y i i u i i a i y y a a i a i i s d s u d d s s d s u s d d d s d s a a s a f a f f f f d s f f f f f d f f a f f z s z c b b  . .-.-.-.*.*.-.*.*..... .b c z z z z s s z s z l s z l l s l a s z z s z s s s z s s l s s z l s z l s s s l s s s z s z s l z l s l s z s z z s z z z z z z z z z z z z z z z z z z z z z z z z z z z z z z z z z z z z z b z z z z z z b z z z z z Y z b z T z z z z z Y z z z Y z z z z F c z z f z z z s c z z z z z z z z z z z z z z z z z z z z z z z z z z f z z z z z z s z z z z z z z l l s l s z s l z l s D s l s z z s s s z s s s s s s l s s s l s z s D l s s s l z a z s s s z s s z s s b r / ",
"a z z z s s z s z s a z s z s l z s f f s f s d f f c x B @.r.l.U.:XxXJXGXlX1XE.m.r.A B c s s f f f f f d f f f f f f d f f f f s f f f f f f s f d f f f f s s a f s a f d s a s a a f d u s i d s u d s a s d d s u d u d d s d s s d u d a p i s a p s i s i d p d u u d s d d u u a d u a a i a y a y i i y y y i i i u y a i u i i t y t y 3 i i $ i $ i $ i 3 i y t 3 i y i 3 i i 3 i y t y $ y i $ i 3 y 3 i $ i i t 3 i 3 3 i y 3 i i i i 3 y 3 t $ 3 i y y $ i i i i 3 $ i 3 i 3 t 3 t $ i i 3 t y $ 3 t $ 3 i i y y 3 t i i i i 3 y i t i 3 3 i 3 t y i t y $ 3 $ i t 3 i y y i y y t y t 3 t i i i 3 t 3 i $ t i 3 i $ i $ i i y i $ y t i 3 y a a y i a i i y a i i i i i i y y y a y i y a i a i i u s u s u a i s s d u d s d a s d d s d a s l a s f s f f d f f d s f f f d f a f f l c b n m  .......,...,.X... .m b c z z a l s l s s z s s z z l s s z s s z s z z s z s s l z s s D s l z s z s l D z s s z z s z l z l s z s l z s s z s z z z z z z z z z z z z z c s c z z z z z c D z z z z z z z z z z z z z z z z b z z z z z b z z b z z z z z z z z z b z b z z z b z z z z z b z z z z z z z z z z c s z z D c z z F z z z z z z z z z z z z z z z z z z z z z z z z z z s l z z z r z z z b r s s l s z z z s z a s z D l s z s z l l s D s z D l z r s s s s l z z s z a z s s s D z s s z D / ",
"s z a z z z z a s s z s z s s z z z f f f s s d p c B ~ r.N.{.oX2XxXSXIXUXSXxX2XoXE.N.t.! R c s f s f d f s f d d f f f f z p f f d f s f d d f f f s f f d f d s a f s l s a z a s d s s a s s s i d s a p a s s d s s a s s u s a a s d s a s s i s s i s i s u a u d s u a p s i s p d s u a a a a i a y a i i a y i a i i i i a i i y y y y i i i i i i 3 t i t 3 y $ i i 3 i y $ t y 3 i $ y t : 3 i 3 i 3 i 3 t 3 y $ i 3 i t i $ y t : $ i i $ t y 3 i $ $ y 3 t 3 $ i i y 3 t i $ 3 i 3 3 t i 3 $ 3 i i 3 y i $ t 3 y t 3 $ i 3 $ t 3 3 3 $ y i 3 i $ 3 y : y i i i i 3 $ i y 3 i y t $ y 3 i i i $ i i $ i i i $ i i y i i 3 i 3 i i i y : i i y i i i y y y i i i i a u u i a i a y y a a a i a i a a s d d u d s p a a s d s a s f u u s f a s a s f d f f d f f s f f f f s f f f f s z f z c b b  .................m v b l z z s s z s z s a z z s D s s l z s s l z s s l s z s s s s l z l s s a s s z z z D l l z z z s z s z z l z z z z z z z z z z z z D z z z z F z z z z D f z z z z z z z z z z z z z z Y z c z T z z z Y Y b z z Y z z z z b z z b z b z z z z z z b z z z z Y b z z z z z z z z z z z z F z c z z z z z z z c z z z z z s z z z z z z F z z z z z z z z l r z b r z b D z z z z z z z z s s D l s s s z l z s a l s z s s s l z l z s s z z s z l l s D s z s z s z z s z z s s z s / ",
"s z z s f s z s z s s z s z s z a a z s a z f d ] ~.g.^._.>XqXgXMXGXIXUXUXIXGXBXgXpX<X X!.g.^.1.B s s f f f f f f f s f f s f f a f f f s f f f f f f f f f f s f f a f a a s f s f a a d s s d a s s i s a s s d s i s s d s d d d s d d s a u s a u s s i s s p i i l s a p p d i s d s i i a i i y a a i i a y y y y a i y y u a i $ i i 3 y i 3 i i i t i y i 3 i i $ i y i y t i y y i : t t 3 y i 3 t $ i i i t y i i i i $ t i 3 : i i y t $ i 3 y t y t i 3 3 y y $ i t 3 t $ i 3 t 3 i 3 $ i i i 3 y i 3 i y : i i i : 3 i 3 i i i 3 t i : i y i 3 3 i i i y y 3 i 3 i i i i t 3 $ i i 3 i y i i 3 $ i i t i 3 i $ 3 i i i i 3 i i i t y y t y t y y a a i i y i i y a u a i y a i a i i a i i d u i s i s i s i a s a a s d s d s s d s d a a s d f f f f f d f f f d s f f d s f f f f f s f f z z v T b T T b b b z x c c z z s s z s s z s s l s z s s z s z s z s s l z s z s l s a z s z s l z z s z z z a z z s z z l s l s z a z l s l z z z z z z z z z z z z z z s z z z z z F z z z z z z z z b z z T z z b z z z z z z b z z z Y z z b z z z z z z z z z z z z z z z z z z b z z z b z b Y z z z z z z z z z z z z c D z z z F z z F z D z c z z z z z z F z z z z z f z z s z z a z s z z z z z z z z z r z s z s z s z s s z s z z a z s s z z s s z s l z z z D s z z s s l s z s z l s z l s s b D ( ",
"a c z z f z z z s l z s z s l s s z s z z s s f R ~ 1.s.B.}.;X5XwXZXHXUXUXHXZXeX5X;X}.g.a.p.1.Q f a f f f f a z f f f f f d f f f f f f d f s f s a f f f a f d f a f s s f a d a s s f s a a s s d a s d u d u s a s d i s a s u s d u s d u d d p u d i s i s p i f B T c u s u s d u s i a i i a y i u i y y t y y a y y i a i i y i i i $ t i $ i $ i 3 y 3 y i i $ i y y y i $ y y $ i i y 3 i $ i y 3 t y 3 3 $ 3 3 $ i : 3 3 1 t t 1 3 1 3 i 3 i i $ 3 i i t t 3 3 t i 3 y 3 i 3 i i $ i i y t : 3 i t $ i 3 y t $ 3 3 i 3 y i $ $ i 3 3 i i u y i y i i 3 $ t y i $ t i i i $ i i i i i i i t $ i i i i 3 $ i i i i i i 3 t i $ i $ i 3 i y y y y y y y i y a y a y y i i i i i y y y i a i a a i a u i s i s s s p a p s s u d s a a s i s f f a f f s f s f f s f f f f f f f a f f f f f z l l z z c b b b b z b b b c c z z z s z s z l s z s s z s z z a z s z a z s s s l D l z s z s z s s s s z z l s z z z z z z s z z z s z z z z z z z z z z z z z z s z z z z z z z z z c z z z z z z z c z z z z z z z z z z b z Y z Y c z b z b z z z z z z Y b z z b z b z b z z z b z z z z z z z z z z z z b z F s z z z z z z z z z z z z z z z z z z F z z z z z z c z z z z z z z a z z z z z l z s z z s z z s z b s z a z s z s l z a z s s z s z l s s l z s z s s D z l a l s s s z z s z a s z z b s a z z ( ",
"a z s z s s z s z s s l l s z s s z z s z s a f s a c T E r.d.C.oX5XMXKXKXMX5XQ.C.k.r.B c s s s a s f f f f f a s f a f f f s f d s f s s f f f f f d s f f f f f s d a a f s a f d a f d d s d s a s d s d s u s d a s s a s s s i s a s u s i p d d u i s a s a y f >.>.c i s a p u s a i a i i a a i u i i i i a y a a i a y i a y i i $ i i y t i i 3 t $ i y t i i i i : t i i y y t y 3 i $ i t i 3 $ i 3 y t i i i 3 3 y 3 : : $ d i 3 i 3 i i 3 3 y t 3 i $ $ i i 3 3 t 3 t i $ $ i i i y y y i t $ 3 i $ t y y 3 t i y t 3 i t 3 i t $ i u $ $ 1 y i y i i t 3 i $ i 3 3 i i i 3 i 3 t $ i y 3 $ i i y i i $ i i i y y $ i i t t 3 $ i y y y a y y a a y y y y a y y a i u i i a y y a i i a i a i d s i i s i i s u f s i s i i d s a s a f s s f f d f f f s f f s f d s f f f f f s a f z s f f z z D b b b c c c z z z s z z z s z s z z s z s l s s z z s z s z s z s z z s z s z s z s a z s z z z z s z z z f z z z l r z z z z l s z z z z z z z z z z z z z z z c z z s z z z z z z z z z F z b z z Y z z z z z b z b z z z z z z b z b z b z b c z b z T z z z b z b z b b Y z z z b z z z z z b z z z z z z z z z z z z z z z z z z z z z z z z z z z z z Y Y z z z z z z s z l z z z s z z z r z z r z z z l s z z z z z s s z s z z s s s s z z s a s s z s l z s s s s l z s z s s s z s z s s s b s / ",
"s z s z z a z s s z s s s z s z z s s l s z s l z a s f f l Z &.k.Q.2XSXSX2XW.m.y.@.m x f c F s s f f a f f f f f f f f f s d f f f f f f f f a d f f f f s f f f a s f f a s f s a f s u s d u d s i s d s d a d s s i d s i a s s d s d s a s a s u d s i s s a d f c c a a p u s i d s i i a a i a y i i a u y i y y y y i i y y y y i i i 3 i 3 i i y y i i i $ y t : i i i 3 i : t : y y 3 i 3 3 $ y t 3 i 3 $ 3 i $ t 3 t t y i i 3 : $ i i i $ i i 3 $ i i i i 3 i $ y 3 $ 3 i i 3 t 3 $ y 3 i 3 y 3 i $ 3 y y 3 i i $ y $ i y 3 i 3 i i 1 i t y i i i 3 i $ 3 i i i $ t t $ i 3 i i i $ t y y i i i : t y 3 t y i 3 i 1 i i 3 i $ i i i i y y i y t y y a i a i i i y i a i i i i i a i u a i i a s u s s s i s s a p a d s a s s s a p d s a a f f f f s f d f f s d f f f f f f f s f f s s z s s z l D b D b z z c s s l z z z s z s z s a z s z s z l s s z a z s z s z r l z s z s z s z z s z a z s l l z z s z f z z z z z s l z z s z z z z z z z z z s z z z z s z z z c z z z z z z z z z z z z z z b b z z b z z z z z b z z z z z z z z Y z z z z z z z z z z Y z z Y z z z b Y z z b z z b z Y z z z z z z z z z z z z z z z z z z s c z z z z z z s z z z z z z z z z z z l s z s l z f z z z b z l z z s z s z z l s z s l s s l s z l s z s s z s z z s l s s s s s z z s z a z s z s z b s s a b D ( ",
"s l s z f s z f z a s l s s s s s l s s z s s f z z f f s x R  .u.H.oXmXnXQ.M.@.>.m z a a f a f f f f a f f f z s d f s f f f s f f d f s d f f f f f s f f d s f d f a s a f s a f a a s d p d s i p d s a d s u d d u d s d s d s s a s a s i u s s s i s s a u d d a a i s d d u u d d i i i y a a i i i i i y a i y y a a y y i y i i i i 3 i 3 i $ i i i $ i 3 y y i t $ 3 i y i i y y y t 3 i 3 i i 3 t 3 i : y i 3 y 3 i d a d g i i a y i 3 i y i 3 i : 3 t i 3 y i i i i i 3 3 y y 3 i t $ 3 i : t 3 t i i t y i 3 i 3 3 3 3 t y y i y 3 i y y y : t i i 3 i y $ i i y $ i i 3 i y y y y i y i 3 i i y y y t $ i 3 i i y i i y i i y i y y i i i i u i i i i i y y y a a i a a a i a i a i i a i s u i i p a p u d u d d u s d i s d p s s a f d s f s f a f f f f f a f s f s s f f z s s z s s s z s a z z z z z z s s s z z s z z s a z a z z s l s s z s z a z s s s z z s s s z s f f s s s f f z z z z z f z z z z z z z z z z s z z z z z z z z F z z z z z z z z z F z z z z z z z z F z z z z z z z z z z z z z z z z z z z c z z z b z b z z z z b z z z b z z z z z z z b z Y c z z z z b z z z z c z z z z z z D z z z z s z z z z z z z z z z z z z z z z z z z c z c z f z z z z z z z f z z z z b z z z f z s s z s z s s s s z s z s z s s z s f s z s s z z a l z D s s z s s z s s f z z D l z s ( ",
"s z f z f z z f s z z s f z f f z s f f s z s d f f d s z s f b Q 9.E.gXaXI.j.>.b c z s f z a z s l z s z f s s s f f f f a f f f f s f f f f s s f f f f f f d a f f f f a f f d f a f i s a s s s d s i s d f a s s d s a u d u a i s d s d s u d i s s i i i s u d f a i i a s d d i a i a i a i a i u i a i y i a y y i i y y y i y i i i i i y i i i y i t 3 t t y 3 i i i i t : 3 i 3 $ 3 3 t t 3 : i $ i i t $ i i i i d <.b.r.t : t a y i 3 : t i i 3 t 3 3 t : t 3 $ 3 t 3 t 3 t : 3 t t 3 i 3 3 i 3 t t 3 : i i y t : i t 3 3 : t i $ i i t t a t i 3 t 3 $ t t y i 3 t y i i : t i y i 1 i 3 y i 3 i i i i i i y i i i i i 3 i i i y i y i i u i a i a i i a a i i a i i i u i a i i i a i a d i d s s a s s d s s s s d d s s d s s i s s a f f f f f f f f s f f f l s l f l l s s s z z z f f s z s f s f l s l z f f a z z z z f z s z s s f s f z a a s f f z a l s a z l s s l f l z z l z f z z z z z c z z z l z z z z s z z z z z z z z z z z z z z z z z c z c c s z z z z c z z c z z c b c z c z z c c z z b z c z b b c b z c z z z c z c z z z b z z z z b b z z c c z c b z c z z z c c z z b c z c z s c c s z c c z z z z z z z z z z z F c z z z z z z s c c s x z z z z z z f c f z z z l z z z l l z z l z l z f s l l s f f z s l s s l f f a z a f s f s l s l f f z f s z s f z z s a b s ( ",
"s z z z f f z f z z f f z z f f s z f f z z f c f f f f f a a Y f >.v.6XuXm.! c f a a f f z a s a a z f f z a a l f f f f f f d d s s f f f f f f f f d f f f a f f a f f a f d a f f f s d d s s s d d s f s p s d s f s s p d d a i d i d a u d i a i i s d u s s i p s i d u i a i d u a i a i a a i a i s i a i i i i i y i t y i i i i i i y i i y 3 i i 3 t y 3 y i i i i i i 3 t i 3 i i i 3 i i t i i i i i t i i i y A  XNX>Xr.t 3 1 i : i i 3 3 t i i i i i i 3 i i t 3 3 i 3 i 3 i i 3 3 i t i 3 i 3 3 i i 3 i 3 i i i 3 i i i 3 i 3 i d d ~ B.B x i i 3 i i t 3 i i i i y y t : i i i i i i i i i y 3 i i y i y i i i i y i i y 3 y i y a i a i i i u i i u i i i a i a a i a i i s s i a i i s a p a d d a a d d s d s s d s d s d s d f f f s f f f d s f f f f s s f f f f f f a f f s z f f f z z z f f z z z s f z f f s z z f z f s l z f f z z f z z f z f z s z z s s z l l f z z f z z z z z z z z f z f c z z l z z z z z z z z z z z z z z z z z c z z z c z c c c c c z c c z b z z c c c c c z b Y c c c z b Y Y z c c c c Y z c c b c c Y c z c c c Y c z c c c z c c z z c z c c c Y b c c c c Y z c c z c c c c c z F z z z z D z z z z z s z z z z z z z s z f x f z z z s z c z z z z z z z l z z f f f f f z z f f f s z f f z f f f z s f z f z z z z z s z z s z f f f z z z c z z s l c s ( ",
"l z a z f z c f l s f z f f f l l f f l l d f z z f f l f a c c i B h.-X#Xu.j f f f z z s f z c z s f f a z z f s f f s d f s f f f f f f a f s d f s f f f f f f a a f a f f a f a d f s d d s d s s s s s d s s s p f d s f d d d s d s d i d i d p a d i i s f d d u i a a d d i s i d i a i a i i i i i i i i i a y y a y a y y i i y y 3 i y i y y i i i y 3 i i i i $ t i y 3 i i i 3 t i i i 3 3 i i 3 i i i 3 i i y y 4.3XGX<X@.v i , i t i i i i 3 3 3 t 3 3 i i 3 i 3 i i i t i i i 3 i i i 3 i i i i i 3 t 3 3 t i 3 3 t i 3 i i i i 3 d d d.=X<.t 3 i t 3 i 3 i i i i 3 y t y i y i t $ i i y i i i y y i i y i y i i 1 i i i i i i y y i i u i i d i a i d u a i i d d u d i s d i a d i s d s u a d a d i s a i d f f p s s s s d s s f f f f f f f s f f f f f a f l s l s s f f f f z z c z f f f z f f l z z z z z z z f z f f f z z s f f z f f z s z f z f z s z z s s z z z f c z c z z x z z z s l c z f z z z z z z z z z z z z s z D z z z z z z F z Y z c F c f z c f Y b z c c c Y c c b z Y c c c b z Y c c c c z c z Y c c z c z Y c c z c Y c c c z c Y c c c z Y c b z c z Y c b z z Y c z c z c c c Y f c c f F z z z z c c c c z z z z z z z z z z z z c z z z z l z z z z f c f f c z z s z z D z f z z f f f f z z f z z f f f z f l z f z f f f z s z z a z z f f z z f f s z b l s s b z ( ",
"f z z s f f c s f s s f f s f s s c c f s c c f f f a f f l a f x x R  X}.~ c f a z f f s f s l f a z f f a z z f f f a f f f f f f f f s f d s f f d s s f f a f f f f f a f a d l d a d d f d f p s s s d d f s d d s s s s d d a d s d s d d i a i d a p d a i d i d s i a p s i a p i d p a d i i i p d i d d u a i i i i i i i i i i i i y i y i y i i i 3 i i i 3 i i i i 3 t 3 3 i i i 3 t 3 i i i t 3 t 3 3 i i 3 t 3 V m.|.N.) i 3 i i 3 3 i 3 t 3 i t 3 i 3 i i 3 3 t 3 i 3 i 3 i 3 i 3 3 3 i t i 3 i 3 t i i 3 i 3 3 i i i t i i 3 i 3 t d p B p d i 3 i i 3 i i y t y i i i i 3 i i i i y i i i i i y i i i p i i i i i i i y i 3 y i y i i i u d u u i p a u i d a d i i d i d i a d i a i a i i d u i a p u d d s s f d s f d s f f f f f f f f f f f f f a s z f a s l f s l f z z f z f f f z f s f c c s f z s z f z f f c s c s f f f c c s f f f f f f s s f c f c s f f Y s z z z c f c z z c f z f z c c f z z z z z z z z z D z z f c z z s c z f s Y c c c s c s F c c z c Y Y z z c c F Y z c c c Y c Y z c c c c Y z c z c c Y z c c Y c Y z c c Y c Y z c c Y z c Y c c c c Y z c c c c c c Y z c Y s c c c c z F c z f c z z z z z z z c z z z z z z z z f z f c f f z z c f z z z c c f z f z c z f f f z f f s c c f f f f s s c f f f D c s f f c s s f c f s c c f f c s f s z f s z c f z s ` ",
"f z z Y F f z c c f c c c c f c f f s s f f s c z z z z f s z f a z R {.^.J x f f z s l z a f z f s l s z s f a s f f f f f f f f s a f f f f f f f f f d f f f f s a d a f a f a f f f d s f p f s d d p s s f p s s f p d s d s i d a d i a i d p a i i a i p d u a i i a i d i d i a s i a i u d u a i i u i i i i i i 1 i i i i i y y i 3 i y i i i 3 i i i i i i i 3 i t 3 i 3 i i i i i i 3 i i 3 3 3 i i i i t 3 i i i t N A N t i i i 3 t i i i 3 i i 3 t i i 3 i i i 3 i i i i i 3 t i i t i i : i i i i i 3 3 t i i t i 3 3 3 i 3 i i 3 i t i d i i i i 3 3 t 3 i t : i y i 3 i i i i i 1 i y y i 3 y i i y i y y y 3 y i y y y y i i y i i i i a i i d i i i a i i p p a s i s i d u a p p a d s a i d d i a d i a s p f d s f p s d f d s d f a f s f f f s f z s f z f s f f z s z z f f f z f c f c f s f s c s Y z f z f s c f f s c z f s f s c f c c f f c c c s f c f s c s z z z z f f z z c z z z c f f z f z c z z z z z z z c z z z z z z c s c c c c f z c Y c c z f c z c c c c c c b z c c z c b z c c c z z Y c c c c b Y c c c c b z c z b c z z c z b c z z c c z b z Y c c z b z Y z Y z c c z c c z s Y s c c f c Y c z z z c s z z D z c z z z z z z z f z z z c f c z z c f z f z f z c f f f c z f c f c s f s c s c s c f c s f c c f s c f s f c f s f c f s f z f s f Y f s c f f f c s ( ",
"f z c f c f s f f s s f s f s f c s f c f c f D f z f s s z a s a z c !.s.f z z f s f z f f s a z a f f l f a f f f f f s f s f f d f f d f f f s f f a f f f f f f s f f f f a f a d f d s f s d s f f f f s p f d p f f d s d d i d i a i i s i s i s d i i a i s i s d i i a d i d i i d a d d i p i i a s i i u i i y i i y i u y i i y y i y y i 1 y i i y i i i i i i i i i i i t 3 i i 3 3 i t 3 i i t i 3 t 3 i i 3 i i i p i i t i 3 i 3 i t 3 i 3 t i 3 i 3 t t 3 i i t 3 i 3 i i 3 i i i 3 i i i t 3 3 i 3 t 3 i i i i i i i i i i i i i i t i 3 i 3 i t 3 t i t 3 i i i i i y i y 3 i i i i i i i y i i 3 i y i i i i i y i i i y i u i i i i i i s i i u d p i u d a i s d d i d i i a i d i s i s i a d i d a d s s s s s d s d x d f s f f f f f f a f s a a z l f f a z f a f f f f z z f f f f c s c f f f f f f f f f s f c f f f c z s c f f f f f f s s c D s c s f s f c f z z c c z z c f z z z c z f z c z z z z z z z z c z z z z z z z z c z c z c Y z z c z c c c c Y s Y s z z z c c b c c c c c Y b z z b c z b c c c c Y b b z c c c c z c c z b c c Y c c z c c b z c c c c Y c z c c z Y c z z s c f c c c c Y z z z z z z F z z z z z z z z z z z z z c c f z z z z z f f c c f z c f z z f z f f c f f c f s c f f f f f z f F f f f f f f c c f s c f f s f c f f c c c f f f z c f l c s ( ",
"f z s c f f c f f c c f s c c f f f s c f s f c f f f z a f z s c c p ] E f l f f l s a s l z f a f z s s f z f a z s f f f d f f f s f f s f s f f f f s f f f f d f f a d l d a a f f p f d s d s p s s d s d s s s d s s s i d a a d s d a d i d d a i s d i i d d d u d d u d s i s a i p a s i i d u i i i i d i i y y i i i y i y y y i i i y i i i y i i i 3 i i 3 t i 3 i 3 i : t i i i i i 3 i i 3 3 3 3 3 i 3 i 3 i 1 3 i i i : 3 g i i i 3 i i i 3 i 3 i i i i 3 3 i 3 i i i : t i i t 3 i i i 3 3 i 3 i i i i 3 i 3 3 : t 3 t : 3 i i i i 3 i i i i 3 i i y i i i i i 3 i i i i i i 3 i y i i y i i y i y i i i i y y y i y y i i y i a i i p i a i i s i i d i i i i a d i i a p a d i s i d i d i s i d s a d i s d f p d s s s a f d f f f f s d f f f f z f f s s l s f z s f f z f f f f c f f f f s s c s c s c z f z c f s s c s F s f f s c z f f f c f f f f f s c c f s s c z f z c f c z z s c s z c z z z z z z z F z z z z z z c s z z c s z Y f c c z Y f Y f c z z c c c c c b Y c c z z Y c c c z z b Y c c z Y c b c z z z c Y z c Y c b c c c Y c c b z c Y c c z b c Y z z c c b c b z c c Y c c z Y z Y c s c z z z z z z z z z z z z z z z z F f c f c z z f c c f c f z z f z z f c z z c z f f f f f D c f f s c s c z z s z f f c f c s s f c f c s c s f D c s s f f f f f z z f f c s ( ",
"f f z f c f c c s s c f z z f f c c s f f f c s z z f f f f f s s z s R B s z f f s l s z s s s f z f a s z f f f l z s f d s f f f f f f f f f f d f f f d f a f f f f d a f a f a f x d s s d s p f d d d s s p p f f d s d d a d d a d i d i a a i d s i a s a i d i i s i d i s i d a i s i d u d i a i i i i i u a i i i u i i i i i y i y i i y i i i i i i i 3 y t i i i t i i 3 3 i i 3 i 3 t i i i y t i i 3 i i 3 i 3 i 3 : t i i i 3 t 3 i i 3 i y t i 3 i 3 i 3 i i i 3 t 3 i i 3 3 3 i 3 i i t 3 i t i i 3 3 i i 3 i i i 3 i i 3 i i 3 i i i 3 3 i i i i 3 t y i 3 i i y t i $ i y y i i y i i y y y y i i i i i i i i i y i i i i i i i u d d d i s d d u d i i d d i i a s i d i i d i d d i i d i d u d d s d d d p d d d d f a f f f f d f s f f s z l f z f z z f s l f f f z f s s c f f s c f D c c s c c f f f D c f s f c c s c f c s c f f f f c f f z f c f f f c s f c z f f c f f z z s c s c s c c z z z z z z F z z z s z z s z z z c z z c c Y z c z z c c c Y z c c c Y c c Y z c c c c b z Y c c c c c c Y z Y z c z c c c Y z z b c c z Y c b z c z c c Y z Y z c b c c c Y z b c Y z c f c z Y c c c F z c c z z z z f z z z z z z c z z z z z c s c s f z z z c z z z z z c f z c f f z f f c f f s f f f s f f f z f f f f z f f f f f f f f f D f c s f f c s c c f f f f f s z Y f c s ` ",
"f c f c F f f s c f D f s F f z s f s c f f f f f f f z z f z f z s s f f s f s f f f f f f z s f s f f a f f f f s f f f f s f f f d s d f s f f s f s f s f s f f f a f f l d a f a a d s d f f f f f f f d s l f f f f f s d s i u d s d d s a p d a i d d i i s i s a i d i a i a i i d i d i i p i u i s i i i i i y i 3 i i u i u y i i y i y i i 3 y i i 3 i i i t $ y t 3 i i i i i i i i y 3 i i i i : 3 i t 3 t i i i i i i 3 i i t i y i i 3 i i i : i t i i i i t 3 i i i i 3 i i t i i t i i 3 i 3 3 i i i i i t 3 3 i i 3 3 t i i t t 3 3 3 t t i 3 t i i 3 i 3 t 3 t 3 i i t i i y i i y y i y i i a u i y y i y y y y a i i u i i i i a s i i s d i i d u d s a a d s i d a d s s a a s d s a i i a d d d d d a d l a f f f a f d f s f s f f a f f f s s s z s z a f f a s f f c c f f f c s f c s f f f f s f f f c f f c s c s c s f s c c z f c z z z f c f c s z c s c z f z c z z z c z c c c c z c z f s z z z z z z z z f c z c c s c Y c Y c c c c z c c c z Y c c z c c z z c c c b c z c Y z b c c z Y c c b b z c z c z Y c c c c c z z c Y z c c z Y c c b c c c c c z Y c c c c c c z b c c c z c c z c z z F c c z z z z z z z z c s c z s c c s f c z c c z c f f f c f c f z z z f z c z c z z c c c z z c c z z c z f z z z z z f z c z z c z f c s c s c f s f f s s s c s F c z f s c s ( ",
"s c f c f f s c c f c f f c s f z s f c f c f c f f f z z f f f s s f z z f f l z f f z z f c f z f f z z f f f f z f f f l f a a z f z s f l f f f s d f f f d f d f f f f d f d a f f d p f f f f f f a f d l f d f f d f s d d d d s d i s d i s u d d a d d i d d i s d s i s i p a i s i d d i a i a i i y y i u i i i i i i u i i i i i i i 3 i i y i i y i i i y i i i i i 3 3 i y y t i i i 3 i 3 i i y t i i i 3 i 3 : 3 i i i i i 3 i i i 3 i i i i i 3 i i i 3 i i i i 3 i i i i i i i i 3 i i i t i i i i t i i t i i i i i 3 i i i 3 i i i i i 3 i 3 y i i y t i i y 3 y i i i y i i y i 3 i i y i i i u i i i i i a i i a y y i a u i a i i i s i i d i i d i s i s d d d d a a d d i i d a d a s s a d d s s f f f f a d f f d a f a l f a f f z f f f f z z c s f f z z z z f f s f D c s f c f c f c s c f c s f f f f s f s s c c c z c s s c z z f c z c f z c z c s c s c f c f f z z z c f c s c s c s f c c Y c c F z z z c c c Y z c Y c c c c F z c b z z Y z c c z c c c Y b c c b z c c Y c z c c c Y z z c z c Y z c c c z b c c c c c Y c Y c z c Y z c c z c Y z c c Y c z z c c Y c c c c F z c c z z c z c c z Y c c c c z z D c f c f c s c c z c s c s c f f c f z z c z f c f z c f z c f z z s c z c c z f c z f f c z z c f z c z f c f f f f f c f f f c c c s f c f c z f s z f l c s ( ",
"s c f f c s c f s s c f s f c c z z s F f f f f z z f f f f z z f z c f z c a f f z f f f z s f f z z f z z z z z f z f f z s f f z a s z a s f f f f f s f f f d f f d a d a f f f d f d s d a a a f d f f f d a a f a a f f d s s d d s d d a d d a d a p a i d i s a i d i d i a i d d i s i i i s i i i a i a a y i i i u i i a i i a i i i i y i y i i i y i i t 3 i 3 i i i i i i y y t 3 3 i t i i i i i i 3 i i i i i t i i i 3 i i i i y 3 t i i i i i i 3 t i t 3 i i i t 3 i t $ i i i 3 i i i i 3 i 3 i i 3 i i $ i i i 3 t i i i i i i i i 3 i t 3 i y i i i y i i i i t y i 3 i y i i i i y y i y u i i i a i i p y i y y i a i i a i i a a d i d s i a s i d d a d i s a i d s i d a s d d u d i d d i s d d f d f f f a d f a f l a s f z z s f f f c z l z f c z f f f z f f z s c f f c c s f s f f f c s f s c f f z c f c c c s s c z c s c f c z z z f c z s c s c z c c s f z c z f x z z z c s c z c c z c f c f f c c F c z c s c c z c c c z z c Y c c c z c c z Y c b z z z Y c z b Y c b z z Y c c c c c c Y c c c c z Y Y c z b z Y c c z c c b c c b c Y z c z b c z z Y c b c z z z z Y c z c z c b Y c c c c z c f z Y f Y z c c c z z Y c z Y z z z z c f z z z c z f c z c f z f c z f c z z z c s c s s c c s f c z f c f c z z f c c z z z f c s s f c s s f c f f f f f f s c c f a b s ( ",
"f c s c f f c f c s f f c s s f f f f f c f f c s f c c s f c f l f z f s f c f c s c f f f c c s c c f c f f f f f z f f s z f f f s z s l s f f f f f s f f s f f f d f a f f a d f f d f f f f a d f a f a x a d f d d d d s d d d a d d a d s d a a s i i s u d i s d d a p i d i d d i i s s d i i d i i i i d i u y i d i a a i i y y a i i i y i t $ t 3 i y y i 3 i i i i i y i i t i i i i 3 i 3 y 3 y 3 t i i y i 3 i i t 3 i 3 y i t i i i i i i i i i i 3 i 3 i t $ i i i i i i 3 y t 3 i 3 i 3 y i i t 3 i y i y i t i i y 3 i i i i i i t $ i i i i i 3 3 i i i i i i i y i i i y i i i y y i y y a i a i y i y a y y a i i i i i i d p a a i d d d u i d s i d s a d s d i s i d u d d i s d s d s d d d f a f a a f a a f f l s f f l f s z f z s z z z f f f f s c c f f c c s f s f c c f f f s f s c s f c c D f s f f c s c z c c s c c s c z c f f z z c f c z z z z f z f z z c f f z c z f z f z c c c c f c c Y s c c f f c Y c c c b c z b Y z z c z b Y z b c Y z z z b c Y z z b c c Y b c c c c Y b z Y c c c c b z b c z c c z b c b c c Y z z z b c c Y c b Y z c c b c Y z c c z c c b z c c B c c b z b c z m c z c f F z c c f c F F z c c f z z c f f z z c f f c f z z c f z c c f z c f z z z c c ..B p c c z z f z z z z c z f c c f z z c c z c s f s f f f f D c Y s c f z z f f c s ( ",
"s Y z f f c F f f s c s c f c f f z z f f f f f c f s f s c D c f f z f c f s f D c s f f f s f f f s s D s c f f z f f f f l s l s f a f f a f d s f a f f f d a f f a a f a d d l a f d l f a f a a f d f a f f a f a d f d p f p f i u d s i i d d i i d a i d i d a i a d a s i a u p a a s a i d i i i i i i y i a i i f p i i u i i i i i u y i y i y i i i 3 t i i 3 t i t i 3 t i $ 3 i i 3 y t i i t y y y i y t i y t 3 i i i t i i $ i 3 i i i i i 3 i i t i y i i i i i 3 i i i t y i i i i y t i i y i y i : i 3 i $ i i i i i i y i 3 i i i i i 3 i i i t i i i i i i 3 i i y i 3 i i y i a i a i i i y y y a y i i i i t i i u a s i a i i s i u i i d u i a i i d u i d a i i d d a a d d a d d d d d d a f a a a a f f d f f f f s s f f a f f z s f f f z f f f f s f s s f f f c f s s f s c c f s f c c s f c f c c f s c s c s z c s c c z z f z c f c z z f f c f c c z c c f z z c z f z c f z z s c F z Y f f c c z z F c z z z c z z z c Y c c c c c Y c z c c c z Y c c c z c Y c c c z z Y c c b z z b c z c Y c c Y c c c z c Y c c z Y c c c b Y c z c z c c c c c c z c c z Y z T z a b T T 4.{.4.b x c z c c c c z Y c c f c c z c z c c z c F c z f z c f c z z z z f c z f f z f z c z z z c s T Z l.XXb.m c z f c f c c f z f z f f z c z z f s c s c c c f f s c f f f f s f f z c f c s ( ",
"s c s f c f z s f c c s s c s s z z f f f c f f c s f f f s f f f f f f z f s f s f c f f c f z f c f c c f f f f f z z f s f f z f f f s a f f f f f f f f f f f f f f a x a f l d f a a a a f a d f a a f f a f f a f d d d d d d i d a d d a d a a d a i d d u i a d a d a i i d i d a i s i i d i i i i i i i a i i t x <.c a y i a i i i i y i i y i 3 i i 3 t y i i i i i 3 i i y 3 i i i i t i i y y i i i i t 3 3 y 3 y i 3 i i i y 3 t i 3 i 3 i 3 $ i t 3 i i i 3 i i y y y t 3 i y i i i i i i i y t y i y i t i i i i i t 3 i i y y i 3 i 3 i i i i i i t $ y : t i i i i i i u i i y i i y i y y a y y y i a y i y a i i i i i t a i d d d d u i i d u i d d i a d d a p a a p s a d d d a i a d d i s d f x f f d x f f f f d f a s s z z z a s z f Y f f z z f f c s D c c f c f c f c s s c c f z f c f f D f c c s f s s c f c z s c s z z s c z c z z f c f f z z f c f z f z z z c f f z c z z z c f s c Y c z f Y c z z c c Y z z c Y z c Y c c Y c b z c c c c c c c Y z c c z b c z c Y c Y c z c z z c c c c T z z z z c Y b c Y c c Y z c c z Y c z c c c Y b c z c Y z c b z c c c c z z c T c ,.=XZX].Q l m z z T s f f c Y c c c c F c Y z f c f z z z c z z z c f f c z z z z c z f z f f z f f z c f @.7XAX*X>.d f z z z z f f c f z c z f f f z f c c c z D c f c f s f c f f f s z f f f z s ( ",
"s c z c f z z z c D f f f f f c f f f z f D c f f s c f f c c s z z f z f f c c c f c s f z f f f s f z f f c f z f f f s f l s a z s l z f z f f s f f s d f s s f f a f f d d d a f d f a f a d l f f d d a f d l d a d s s d d d s d d s i d s i d d p a i s d d s d d d s i s i d s i d i d s i s i i i i d a a i y y l 4.p a y y i i i y y i i i i i 3 t i y y 3 t y i 3 i i 3 i i t i i i i i 3 i t 3 i i y i y i i i i i i t i 3 i i y y i t i i i i t y 3 i i i t i i i y y t : t 3 i i 3 i t 3 i i y 3 3 t i i y i i i i i 3 i i i y t i t i i 3 3 t i 3 i i i i i y i i 3 i i 3 i i i i i y y a y y i a i a i i y i a i i i i y a i i s i u d i d d i i d d i s a d s a d a d d a i d i s a i s d i s d d f a f a d f a f f a f a f z l f f a f f f z f z f f f f f c c f f c s f s f s s c f f c D f f f c s f c s s c f f c s f s c f c z c z z c s f c f f z z z c f c z f c z z f f f c z c z f f c f c z c z z f c c z z c Y f c c c c z z c c c z c z b c Y c z b z Y c c c b c c c Y c c c z c z c z c Y c c z c c z c c c c c z z c c Y c b z c z c c c Y z c c b z z Y c c c c z Y c c c c Y z b c a T ].8Xn.m c T z z T f c c z z f c D c c f c z c c c c z f f c f f z z c f f f c f c z c c z f c c z c a x B XXzX}. .c z c f c f z c z z f c z c z c z c c s s c f f f f c c f s f c f f z c f f l s ( ",
"s z z f f f c f s c f f f f f z f f f s s s c f f s c c c f f f f f f f c s f s f s f s c f z f c c s f f f c f z f f z l s l f s f a s f s s f f f f d s f f f f f f f f a f a f f l d f f f d l d d a l f f a a f f f s d d i u d d u i d d i i d a u d d i a i d d u i d a i a p a i i d a i i a a i i i i i i i u i i a l a i i i a u u y i i 3 y i i i i i i y t i i t $ i i i y i 3 i i y i t $ i i y i i t i i i i t 3 i i i $ t i i i i i y i i i i 3 t i y y i 3 i i i i i y i i i y t i i i 3 y y i i i y i y i i 3 i 3 i i i y i i y i i i i i t 3 y y t 3 i i i i i i i i 3 i i 3 i i i i y a i y a a y a y y y i i i i i a i i i i a i s i s i a s d d i a s d a i d a a p a s d a d i a d d f p d s f f d a d f f f f a d d s f a z s f f f f z f f f f f z s Y f s s f f s f c c f f c s f f c s f c f s c f c f s c s f f f f c c z z f z c f f z z c c f c f c z f z z z z c c c f c f f z f z f z f c c F c c z Y c c c Y s z z b c Y Y c b z b z Y c c z z b c c c c z Y c b c Y c Y c c b c b c c c z c c Y Y b c c c c z c Y c c c z z c c Y z z c c b c z c Y z b c Y z c c c c c Y z c f c z b m B Q B  .l c Y z z z c c f Y z c s c Y f z z f c f c c s z z c c z z z z z z c f z c f z f z c f z z f z m c B j.Q f c z c z z z c z c f z f z z z f f c z s c z z f f f s f f c s f f f c D f f z f ( ",
"s c s Y f f c f f f s c z z f f Y s c c c f s f c f f D f f f c f z f f c f f c f c f c c s f f s f s c z f f f f z f f f f f s f l z f a f l f s f s f f d f d d f a d a f a f a f d a d a d f d a f f d f f d f f a a d d s d d a d d a s d a s d d d i u d d s a d d s i i s i d i a a a i d a t i i t i i y p u u u i i i i y i i i y i 3 i i y i i i y 3 i i 3 t $ i i i i 3 i i y i i 3 t i i i i i i i 3 3 y t $ 3 i i i 3 i i i 3 i i 3 i i 3 i 3 i i i i 3 t i i i y 3 i 3 i i y y y y 3 i i i t 3 t 3 i y t 3 i i y i i i 3 t i i : t i t $ i i y i i i i y i i y 3 i i i y i i i u i 1 i i y y y i y i y i i i a y i i i i i d i s d i d i d i d d i u d i s i d d i u i d a d i i d d s d s d f d d d f d f f f a x a d f z f f s f f z a z z f z f c f f c z z s f f c s c c f f s s c f s s c f s f s c s c s s f f f s c f c c s f f c z z z c z f c f z z z z z c f f c z z f z c z z z c z c z f c c f c c z z z c f c f c c c z Y c c z c c z c c z c c Y c c b z Y z c c c z b z b z c z z z c c c z z Y c c z z Y c c z b Y c b z z c c z Y c c b c c z Y c z c c c c c z b z Y z c c b c c c c c c l l l l c c z c c s f c c c z c c c z c c Y c z Y z c c f c f z z f l z f c z f z f c f c z f z f c z T s z T m Y p c z f f c f f z c z f c c f f c z z f c s c f f c f c f s c s c f f z z c f c s ( ",
"c c z f f f c F s c f f f f z f s z f f c s c f c s c s f f f f f f f f D f s s s f s s f s z z s Y f c z f f f f z z f z a s l f s z s z f s f f f f f f f f f s f f f a d l f d d f f f d f f f f f a a f a d a f d d d s s d d a a d d a s d d a a d a p i s d a d a a i d i s i d s p a d i i i i i i i i y i a i y y i a i y i i i i i i i i i i 3 i i i i i i i i i y 3 i i i y y : i y i 3 y i i : t i t i i i i i i i $ i i i i i i i i 3 i $ i i i t i i y y i i i t i 3 t i i i i : t i i i i y t y y t 3 i i i i t i t y i 3 i i i i 3 i 3 y i i i y y i i i y t i i i i i i i u u y y i y i a i y i y y a y a y a t i a i i i i d u i a a p s i a p d i d a d a a d d d a d d a a s d a d p d d d s a a f a l d f f f f f f f f f z a f f f f f f f z f f f f f c s f s f c c s f f f c f c f f c c c f s f f c f f f s f c f f f c z z c f c z f z f z z f c f f f f c z z f z z z f c f f f f z f z f c c f c f Y c f z z c c c c c c c Y c z c Y c Y b c c c c Y Y z c b c c Y z c Y z c c b c Y Y b c Y b c Y b Y c z c c Y z z c z c Y z z b c b c c c c Y b c c c c Y c z z c z z b c c z z c c c z b c Y T T b c f c Y f f c c z f c c F c z f c Y z c z f s z z z f c f z z z z z z z z c z f f z f z z z f s c z a c f c z z f z c f z f z z z f c z c f z z z c z f z f f s s f f f s z f z z f f z s ( ",
"s z f c f f z f f f c f f c f z z s z f f f c s f s f f c f z f c f f c c f c f c f c f F z z f z f f s f f z z f f f z f f s f z a f f l s a f f s d f f s f l f f s f f a d f f a f a f a a x a f a f x a f f d f f s d d d s i d d i s d a i i d s a i a i d i d d i s d i s i d i i a i i a i a a y t i i y y a a f i y y i a y i i i 1 i i u i i i 3 y i i i i 3 i i 3 t i i i t y t y i i i i i i i y 3 i i i i 3 i i i t t 3 y i i i 3 t t y t i i i 3 y 3 t 3 t y i y 3 i i i i 3 i i i i i t $ i 3 i i 3 i i i i 3 $ i 3 i i i 3 t 3 i i i t y i y 3 t 3 t y i y 3 i i 1 y i i i y u y i i y y y i a y i a i y i y y i i i i i d u i i s i d a i d i a i s i d s i d i s i i d s i d d i a d d d s d l d f a f a f a l d d f f f f s f a z f f z z f z f f z z f z f s c c f s f s c f c D f f c s s f D c c f f s s c c c f s f f f z f c z z f f c z c z f c z z c z z z f c l z z z z z z c z c z c z c f c c Y c f Y c F c c z z F c c z c c b c c c z z z Y c c z c z c Y c z c c c c z c Y z c c z z c c c c z z z z c c c c b Y c c c c b Y c c z Y c c z z z Y c c z z b Y c c c c Y c c Y b z c c b z z z z z z c c c c f c c z F c c c z c z F c f c c z Y c f f c c z z z z c f c f c f f z z c z c c f c f c c a s b b p f c z f c z f c z f c z z z f c z z f z z z f f f f c c s f Y s f c z f f c s ( ",
"s Y c z f c c f c f z c s c c s z z f z z c z z c c f z z z c z z z z z z f z f c z z z z z z f z z z z z z c z z c z z f f f f z f f f c s f z f f f s l f f s a f l f a f l a l a f d x a f d d d f f f f f f a x a d f a d d d d d s d i d d d d d a a d a a s a d a s d i i s i i d i d i d i d i i i i i i i i i i t y i i i y a y a y a i t i i i i i t i i i i i i y i y i i i i i 3 i i $ t i i i 3 i y i t y i y i 3 i y t i i i i t i i i i 3 i y 3 t y i $ t i t 3 i 3 i i i y y i i i 3 i t $ i i i 3 i 3 y 3 i y i t y y i i 3 t i i i i i a t i i t y i a i i i y a i i i a i y t i i i d i i y i i d i d i i i d d i s i i i i d a s i d u d i d s d a i d d i f d d s p d d d f f d x f f a a d f a f f f d f s s f f s f z f z z c f c f z z c f z c f z f z c s c z c f z z z z f z f f c f c z f z f z f f c s s c s s c z z z z z c f f f z c f z z z c z z c f z c z c z c z c z c c z c c c c Y c Y b c c z c c c c c Y c c z c Y z c c c c Y z c c Y c Y z c c Y c Y b z c z c c c c c z z c b z b Y b z b c T z b c c T z b b b c b c z b c c z c c c c c z c c c c c c b z c c Y c b z c c z Y z c z c c z z c z b c Y z z z b c Y z z c c z b c z c z c c c z z c z c c z c z z c c z c z z c z f z f z z z z c f f c f z c f z f z c f c f c f z c f z f z c c f f c z f f c f c c z z c z a z z ( ",
"s c c z f c c f s c c s c s z c z z c f z f f f f z c z f c f f c f c f c c z c f f c f c f c c z z c z f c f f z f f f c f z f f f c s c f f z z f l s s f s f f f f f x f d f d f f d f a f a f a f a d l a d f f f f f a f d f f d d d s s i i s i d i d s d a d u d d a a d i a s i d i d i d i d i d i i i a i t i i a i i i t i i i i y y i i i i i i i i i i i i 3 i t i y 3 i y i i 3 i t 3 y i i i i 3 i 3 t $ t 3 y i i : i y i i 3 i i 3 t i i 3 i i i i i i i i i i t y i y t 3 i i i i i i i i i 3 y t i i t i i t i y 3 t i i 3 i i i i i i y y t i i i i i i i a u y i u y i i i i i i i t i i d i d d i i d i a i a i d i s u i i d d i i d a d d a d s a s d d s d d d d s d a d f a a a f f f d a a x f f z a l s l s a z f f f c z z f c c z f c z f z c z f c z c s s c c s z c z f z z z f c c z c z c z z c c z c c s z z f z z f z c c z z z c f f f f c f z c z c c c z c z c z z c z c c z z c c z c z z c z F c b z c Y b c c z c z Y c c b c z z c c b c z z z c c c c Y c b Y z c Y c c Y c z b c b b c z b Y b z b b c z b Y z c c z z c Y c c b z Y z c c b z Y z c z Y c z c c z Y c b c b z Y c c Y z c Y c c c c b Y c c c c b c z c Y c z c z c z z c c z c z z c z c c x z c z c z z c c z c z z z z z f z z c z z f z c z f z z z z f c z z z c z f z z z z z c z z z z f f b c z f b s { ",
"z z z c f z z x c c s c s c c s z z c s c z c c z f f z f z f c f z c f f z z f z z f c f z f z z f f z f z f c c z c c f f f f s c f f s Y s z z a f f s l l s s l f f f f f f f f a l f a d f d a a x a d f f a a d f d d f f d p d f p d f d s a s d d s d s d s d d d i i d s i d d i d i d i d a i i i i t i i i i i i i i i i y a y y a i i i i i i i i i i i i 3 3 t i i i t i 3 i i t i i i i 3 i 3 i t i i i i i i i 3 i i i i i 3 $ i i i i i t $ i i i i 3 i i 3 i i 3 i i 3 i 3 $ t t 3 3 i i i i t i i y t i 3 i i i 3 y y i i y t t y i i i i i a i i i i i i i u a i a y y i y i i i i i d i d i i i i i i i i i d d i i i d d d s i s i a d a s a d d d s d a s d d d d d d p f f f a f f f a d a f f a a a l f f a z f z f z f z z z z f c z z z f z c c z z f c f c s c c z c c f z c c f f z f z z f c f z f z c c s c c c s c z c c c z f z c f f c z z z z f c z c c z c z c z z c c z c b z b b c c z c Y z Y b c z z z c c z c b z Y b c c z b z b c Y z c z b c c c c c c z z z z b c c c Y c b b c T z b z b c z b T b c z b Y c c Y z c Y b Y Y c c Y Y c Y z Y z b z c c z b c c c Y z z c c c c b c c c b c z c c b c z c z c c c c c Y z z z c z c c z c z z c c z c z z c z c c z c z z c z c z z c z z c z c z f f f z f c z z c c f z z z f z f f c z c c f z z c f f z z c z f z b f f b s ( ",
"z z z z c z z z c s c z c c s c z c s c f z f z c z f c c z z z f c z f c z f c f c z z f c z f c f c z c z z z f z f z c f f c f c s c f f z s z f z s f s f f s f d l a a d l f x f d a f a f f f a f f a a x f a l d s d d d d s d d d f d d d i d a a i d a a i d a a p a i i d u d a i d i d i d i i i i i i a y i i y i t y i i y i a y y a i y t a i i y i t $ t i i i i t $ i i 3 i i 3 i i i i i i i i i i 3 i i i i i i i i 3 t i i i y 3 i i i i i i 3 i i i i i i $ y i y t i i i i i i i i i 3 i i y i y 3 i i i 3 i i i i i y i i a i i i i i i i i i t i y i a i y y i i a i a i i i d i i d i d d i d d d d d d d i a a s i s i i d i a s d i d i s a i i d i d p d s s s d f f d a f a d x a f f x a f f f f s s f f z f f z f f c f f z z c f z c f z f z f c s c z c c s c s c z f c z z c z c z z f c z f c f s c c s c z c f z f z f z f c z z f z c f c f z z c z z x z c z c c z z c z z c Y z Y c c c c z c c c Y c c b c c Y z b z c c Y c c c c c z c c Y c c z Y c b Y c Y c c c c b b z z Y b c c c c b Y b c b z z Y b c c Y c c b z c c c z b z c z c c b c c c Y z Y Y c c z c c z c c z c Y z Y c z c Y c c Y z c Y c c z c z Y c c b z c z c z z c z c c z c c z c c z c z z c z c c z z f f f f z f f z f c c z c z c f f z f z f c f z c c f z z f f z f c f c z c f z f z f z z z z c s ( ",
"s z z c f z c z z z z s z c s c s c c z z c z c f z c f z z f z z f f z f z c z z f z z z c f c f z z c f z c f c z z z f s c f f f s s c f f f f f f s l f l f z z f f f a l d a f f a a a x a a d f f a d f a d f d d d d d s d i s p s d s i d i a d u d d i d i d i d i i s d i i d i d i d d i d i a i i i i i i y i i i i t y a i i i y i i i i i i i i t i i t y i i i i i i i i t y i i 3 i i i i i i i i i t y i i i i i y i i i y t i t y i y i i i 3 t i i i : t i t i i y t i 3 t i i t $ i i i 3 i i t y t y i i i i 3 i i i i i i a t y i i i i i i i t a y y a i i y i i i i i d i d i d d i a i d i d i i d i d d a a d a i i a i a s d d a p a a p a d d d d s p d d d d d d d f f f f f f a f a a x a l s s f s z F c f f z f z d z c z f c z f z z f z z z c c s c z c z c s f c f f c f z z f f f z f z z z z c c s c c f z f c c z z z f z c f z f z z z f z c z c z c z c c z c c c z c c c c Y z c c Y b b c c c c Y c Y z z c c c c Y z c c c z z Y c c z c c c Y z z z z c c Y c c c z c Y z b c b Y b c T T z b z b c Y b c z z c c c Y z c z z c z Y z b b c c c c c c z c Y c c c b b Y z c Y z c c Y z Y c c z c c c c c z c b c c c c z l c z c z c z l z z z c z c z c z c z c z l z f z z z c c z c f z c f z z z z z f z z z c f z c c f f z f z c f z c f z c f z c f c f z f b z F z c s ( ",
"z z s c f c z z c z z c c s c z c z s c c s c s c z f z f c f c z c c z c z f z c f f c f c z z c z f z f c f z z z z z f f c s c s c f s s c z z f s l s f s f f a a f x a f a a l f d f f f f f f d a d l d a f f s s d s d d s d d d i a d d d a d d a d a d d s s i i s d d i d s i d i d i i a i i t i i i i t i t i a a i i i y y a y y a i i i t i i d i i i y y 1 i i i i t $ i i 3 i i i i i i i i 3 i i 3 y 3 y 3 i i i 3 t y i i 3 y i 3 i t i i i i i 3 y i i y i i i i i : i i i 3 i i i i i i i i y 3 3 i 3 i i i t i i i $ t i i i i i i i y t a i i i y a i y y a y y a i i i i d i d i a d d a d d d d d d d x d d d i d d d s d d d i a d a d d a d i d s d d d d s d s s d f a d a f d a f a f a f f f f l z f z s f z f f c z f c z f c z z z f c c c f z f c s s c s c s c z z z z z z c f z c c z c z c f c s z c c s c s z z f f c f f c z f z c c f c c z f z x c z c z z c c z z c z z c z c b c z z z c c b z z z z c b Y c b c c c z b z Y z c z c b Y c c b c c Y c b c z z b z Y z c c c z b z b z b z c c c b z b b c c Y z b z Y c c c c c c c c c c z Y z Y z c c c b z z c Y z c c c c c c c c c b b z c c z z z b Y c Y z Y c c z c z z c z c z c c z z z z c z c c l z c z c c c f c f c f z z f c z z z f c c f c c c f z f z f f z z c z c z f c z z z f c f z z z z z c f z b z l c s ` ",
"z b z c c z z z f z c z c s s c c f c s s c s c f f z f z z z z c z f z f z z f f c z c z z f f f f z f z f z z z c z z c s f s c f s c f c f f f s l f s f s s l s l f a f a f l a a x a d f f a f f f f f a f d f d d s d s d s d d d d d d a s a d i d d a s a i s a d i a u s i i s i d i s i i a i y i a i i a i i i i i i i i a i i y a y i i i i i t i y t i i i i i i i 3 i 3 y i i 3 t y i 3 i i t i i i t 3 i t t i 3 t i 3 y 3 y i i 3 t 3 y 3 y $ i i i i y i i i y i i i i y 3 i i i y i i t 3 i i i i t i y $ t i 3 i i 3 y y i i i i y t i i i i y y i y i a a i i i i i i i i d i d a d d d d a d d d d d d d d d f f d a i i a d u i d i s d a a d d d f p s d d s d s d d d d a d l d f a a a f f l a f f f a s z f s f f f f z c z f z c c f c f z z f c c f z c z f c z s c z z c f c f f c c z f z f z z z c z c s s c s c z c f z f c z z z c f z f z f z c z c z z c z c z c z c c z z Y c b c c c c c c Y c z Y b c Y c c c Y z c b c c c Y z c z b z Y z c c z c Y z c c z b c c Y c Y z c c b z b b z z b Y b b b b Y z c c c z Y c c b c c c Y b c c c c z c z c c c b z c c Y z b z c c c Y z b c c c Y z c c b c Y c c c c c c z z z c z c c z z c l c c c b z z c c z z c c z z f f c z c z f f c z z c f c c f f f f z z f c c f z c z f z c z z c z c f c c f f z z c f z z z z z c z a b s ` ",
"s z c c F z z z c z s c z c s c s c z c z f c c z c z c c f c f f z f c c z f c z z z f f c z c z c z c z c c f z f z F f f f c D c f f f s f c f f f s l f l f f f a f f f x f d a f f f d a f l d a d f a d f f a s d d d p d d d s s i a a i d i a s i s d i d i d i i s i d i a d i d i d i d i t i i i i i y i i i i t i y i a i y a y i y i a i i i i i i i i i y i i i i i i t y i y i 3 t $ t i y 3 i 3 i i y i i $ i i $ i i i t y i i y y i i i i t t i y t 3 i i i 3 y 3 y i i t i y y 3 t y 3 i i i i y 3 y t i i 3 i i i i i t i i i i i i a i i i i a a y y y i y i i i y t d i i i a d d i d d x d f x f x d d d a d f a d d a d a d a a d f a d s i d f d d s i d s d d d p d f l d d a a f f x x a f a f f z s f z c f f c f f f c z c z f z c z z f c z z z f c s c c s c c z c f c z z f z z f z f c c z z z s c s c c z c z z f c z z z f c z f c z f c z z f z z c c z c z c z c z c z c c c z z Y Y b z c z c c c c c z c Y c c z c z Y c c c c Y c c c c b c Y z z c b c c Y c c c c z c b c z Y T c c b b c b z Y z c c c c c b z c c z z z Y z c c b z Y z c c b c Y z c z Y c c c c z Y c b z c z Y c c c z c Y z c c z Y z Y c b z c c z c z c l c z z z z c c c c z z c z c z c z c z z z f z f f z c f f z f z z z z z f c z f z z f c z c z f z f f z f z f z z z c f c z z z z s b c z f b s ` ",
"s c z c f c z f f z c f z f f z c c s c z c c s s c z c c z c f z c z z c c f z f z z z c f z z c z z z z f z f f c z c f z c f f f c f f c s s f s s f l a f f f f f a f a f f d f f x f f l d f a a a a d f d d d s d d d s d d d s i s s s d d i d a i d s i i d i d d a i d d a i d i d i i i i i i i i i i a i i i i i a i y y a i y i i i a t i i i i i t 3 i i y i i i i i i y i i y t y y i y i i i i i i i i 3 3 i i i i i 3 i i t 3 y i i 3 i i i 3 y i 3 i y i i i y i i i i 3 i i i y i i i i i i y i i i i i i i i i i i i i i i t y i i i t y i i i i y y i i a i i i a i d i d d d i d f d x f f a l x x l l d d a d x a d d d s a f d a s d s s d d d s d s d d f f f d f a d f d f f a f f a a f d f f s z s f f z f f f f c z c z c z f z z z c c f z z c f f z f z c z c s c f z c f z z z f c z c f z c c s c z c z z c z z c f f z c z c f z z f z z c x z c z c z z c z c z l z b c z c c Y z z c c Y Y z z Y c c z c z Y z c c z c Y z b c c c z b c c c c b c c Y c z c c z c c c c c z b Y b c c T T z b Y c b z c b Y Y z z z b c Y z c Y z c c Y Y z Y c c z c b z c c c c Y z c c c z b c Y z z z b c z Y c b z z c b c c c Y c z c z c z c c z z c c c z c x z c z c z c z c z c z c f z z f z c f c z z z z f c z c f z c f c f z z c f f z f z x c z f c z z z l f f z c f f z z z z c f c z / ",
"z c z z s z c z f c z f z c f c s c c s c s z c c s c s s c s z f f f c f z c z c z c f z f f c f f c f c c z c z f f c f z z f z f f f f f c s a f l f f f f f a f x f a x l a a f a a f a d a f f f d a f d d d d d d p d s d p d d d s d s d d s a i a a d d s i s i i i s a a d d i d i d i i i i i i t i i i i i i i i i i i a y y y a y i i i y i i i i y i i i i i i i i t 3 i i i 3 i i i i i i i i y i i i i i i i y i i i i i i y i i i y i i 3 i i i i i i i i i y i t i i i i i 3 i y i i i 3 i i y 1 i y i i t i i y t t y i i i a i i i i a i i i y a i a i i i i i a i a i d d i i f a f d f x x x x x x x l x l x a d d f f d a f a i d d u i d d s d d d d d s f d f f f d l d f f a f d l x f a l f l z s z z z f f z z f f z z c z c c z c f f z c z z f z c z c f f c s c s f c z z c f f c s c s c c s z c f z f f c c z z z z c z f z c z z z c f z f z c z c z c c z c z z z z z c c Y c c c b c c z c c c c c b b c c c c c Y c c c c c z z c Y z c z z c z Y c z c c c Y c b z Y z c b c b z b b z c c z c b z b b z c b z Y c c c c c c c b c z z c c z c c Y c Y c c z Y c c z c z Y Y c c c c b z Y c c c b c Y c Y c Y c c z c z c c z c z z c c z z z c z c c z c z c l c z c z z l z c f f c z z f f c f z x z z c z z f z f c z z f z c c z z f f f z z c z z z z z z f z c z c z z c s c z / ",
"f z z z c c z c f c f c f c z z c z c z z c f s c s z c c c s c z c f z z z f f c f c f z z z z z z c f f z z f z z c z f f z c z f z z c s c f z z f z f z f f l f a a f a f a d f a a a a f f a a d f f a a d d d d d d s d d s d d d d d s a d i s d s d d i d a d a s d d i d d i d d s d i i d i d a i d i i d d i i i i i i a y y i a a i i i i d i i y i i i y i i 3 i i i i 3 i i i 3 y i i i i 3 y i i 3 t i i i i i i i i 3 i $ i i y i i i i i i i y i i i i i i i i $ i i i i i t i i i i i t i t y i i t y 3 y i i i y y i i i i i a i i t i i a i i y y i i i i i i a i a d i d a d d x d l x c x x n l x x x x x x l x l d x f d a a a f s d s d s d s d d d d a f a d a f a d f d a d l f a d l d z f f f f f z z z z z f z z c z c f z f z f c z z f z f c z z c z z z z c f z z c f f f c z z c z c f z c c s z c z l z c c z f c f z f c f z z l z z c f z z c z c z c z z c z z z c z c z z c z z c c b Y b b c Y z Y b b c z z b b c b z b c T b Y b z b T z b b z b b b Y b b c z c b T z b z c b z b Y b b z c T T z b c c Y b c b z b z b z b z b c Y b b z c b z b b z b c Y b z T b z c z Y c c z c c c Y c z c c c c c c Y b z z c z z c z c c c z c c z z c z c c z c z c z z c c z z z z z z z c f z z c f z z z z f c z c f c f z z c z z f z z c z z z c f z z z c f z c f c c z z z c a c l / ",
"s c z Y f s c s z z z z z z f c s c s c c s z c z c c s c s c f c z f z c f c z z z f z c f c f f c z f c z z z c f f z z c z f f c z f f c s c z f f z f f f f f a x f a f x f l f d f d f a d d f s d d f d a a s s f d d d s d d s d d i d i a s d a i d s d d i s i d a d d i i d i i i i a d i d i d i i d i i i i i a i i i i t i t y i i i i i i a t i i t i i i i t i i i i t y i y i t i i i i t y t y i y y t i i i i i i t i t i t i i i i t t i i i i i i i i i i i t i y i i y i i i d i i y i y i i t i i i i i i i t i i d i i i i i i i i i i i i t a i i d i d i i i d d d d a x d l x x v x n v v v n n x v v x x x x l a f d a f a f d d d d f d s d f a f f a f a f a a f f f f f d f f f d c d z f z f f z z z f x f c z z z z f c f c z z c f c f z f c f f z f c c s c c f z z c z z f c s c s c c s s c z f z z c z z c c z z c z z c z c z c z z c z c l c z c z c c z z b c z z c c c b Y c c c z c z b z b c b z z b b T c z b z b Y c b z b Y b c c z T Y b z c c b z b c T T z c b z T c b b c z b c b b z c b z b b c z b c b Y b Y c b b b c b z c b b z b Y Y b c b b z b c c b c c z c c Y c c b z z z Y c c c z c z z c z z l c z c z z l c z z c c z c z z c z c z c c c z z c z z c z c z c z c z c z c z z z z c z z z z c c z c z z c c z z c z z x z z c z c c z z z z c s z c f c z / ",
"l c z c c f z c z z c z z c f z s c f s c z z s c s c z s z z c c f c f f f z c z x f f z f x l c c f x z x z x f x d c x l c d z x z x x z c f f d c d x f f l f f f l x a l f d f f f a f f f f a d f a f f f d l a a s f d d d d s d d f p i d i s d d s d d a d i d p d d i d i d i i i p d i d i d i d d p i i i i i i i i i i d i i i i i i i t i i i i d y i i d i d i i i i i i t i i t i d i i i i i i i i i i i i i i i i i i i i i i i i i i i i d i i t y y i i i i i i i i i t y i d i i i d i i i i i i i i i i i i i i i d i i i i i i i i i i i i y i d i i i p i d d d d d d x x f x l x x n m n m m m m n n m x v x x l z l d d a f f f f d f d f a d l d x f f a d f a a f f f a f l d f f f f d l d f z f x x f d c l f x z x f x z f x f z f z z c f z z c z c f f Y z c s z z c z z f f c z z z f s z c z z c f z c c z z z c z l l x z l z x z c z l l c z l l c l c l c c z z c b c c z c c c c z Y b z Y b c b b z b Y c b b z Y b c c c Y b c c b b b b b Y b c c T z z T b b z b c Y c c c z Y c c b T c z b z b c Y c b z b b c z b b b z Y b b Y b b z b c c Y b c z b c b z b Y c c Y z c b z c c c Y z z Y z z c c c x z c c l c z l c l z x l l l l z l z l l z z l l c l l l z x z l l l c z l x l z x l z l l l z x l x l z x l z l l x z x z x l c l z l x z z l x z x c z c s c c a b z ( ",
"f c c c f z c c c Y f f c f c c c z c c c c z Y f c Y c z Y c c f c Y c z c z d f x l c x x z d d f f f d f d z f f c d f f f c f x f l f f x d d z f c z d f d f c d d f f d f c f f d d d f f a d d a d d f f f a f f f f d d s d d p d d f d d d a d d d d i s d s d d d d i i d i d i d i i d d d i d i d i d i i d i i i d d i i i i i i a p i i i d i i i i i i i i i i i i i d i y i i i i i i i i d i i t y a i d i i d i i d i i i i d p i d i d i i i t y i i i i d i d i i d t y i i i i d i i i d i i i d i i i d i a i i i i i d i a i i i i d i i i i i i d i i i i d i d d d d d x x x x v n m m O.@.@.Z O.O.m m n x v x x x x f d x d f f a x a f d f a f f a f x a f f f d d f x d d f x f f c f c f f f f f c x z c f d c z d z d z f l z c z f c z z c z f c c f c c c z f c c Y f f c c f c z F c c c Y f f c f c c b z c c x x c c c c c c l c c l c c c x c c c c c c c z l c l z Y c c c b z Y z c c c b b z b Y z T c b Y b z T b z z T c b z b z Y c z c c b z b b z b b c c z b z b z c z Y z z z c z z b Y b b Y c b Y z b Y Y b T c z Y b c c z b z Y b b c c b z b b z T z b c b z c c z b c z Y c c c c c c c b c c c c l c c c c c x c c c c z c c c c c c l c c c c c c c c c c z c c c c c x c z c c c c c c c c c c z c c c c c c c c c c c x z c c c c c c c c c c c z x c c z z Y s c D ` ",
"c c c c F c z Y s c c c f c f c Y z z c f c f c z Y s c f c c s Y z c f z f z c l f c c f l f f f f f f f f f f f f f l x f d f f f d c f f f l x f d f f f f d f d f f d f l d f d d f x f f d f x x x d x x d f a f a f d a d s d d i d d s d d d d d d d d d d d d i d d d i d i i i i d d i i p p i i i d i d i i i i d i i i i i i i i i a i d p i i i i i i d i d i d i i d i i i i d i a d i d i i i i d i i i i i p i d d i d i d i i i i d p i i i i i i d d i d i d i i i i i i i a i i d i i i i i d i i i i i d i i i i i i d i d i i d i d i i i i a a i i i d i d i i d d d d x x x x l n n Z @.@.>.<.<.4.<.<.Z @.m n v x c x c d x c d d a a f f d f f f f d f d f a d f f d f c f f d d f z d d d f d f x f d d f d l x f f f f d z d x d x z x c f l f d x f z c c F f c F z z f c z c c f c f c c z Y c c c c f c f c z z z c c c c c c c c c c c c c c x c z l c z l z l c x c l z c c c Y z Y z b z c z c Y c z c c z c z Y z b z c z Y z b z b c c c c z b c z c c z z c b c c c Y c z c c c Y z z b c c Y z z c c c c z Y z b c c Y c z c c c Y c Y c c c c c Y z z b c c c c b c c c c c z b z c c c z b c z z b z c c l l c c c l z c c z c c c c c c c z c c l c c c x c l z x c c l c c c c c c c c z c c c z c c z c c c c c c c c c c c c l c c z z c c c c z x c c c l x c l c z c z c c f b z ` ",
"s c z F c z c f c c Y f c c F c c f c z Y f c c z f c c c c z Y c c f c c c z d f x f d c f l x f f x f x d l f f x f f f f d c x f f f d l f f f d f c f x f c d l f x z f f x l d f f f f d c B B Q B B B c a f d f a d f f s d s d d d d d d d s d s f d p d p d p d p d d d i d d i i i p i i d i d i i i i i i i d i i d i d i d i i d i i i i d i d i d i i i i i p s i d i i d i i i i i i i i i i d i i d i d i d i i i i i i i i i i d i i d i d i d i i i i i i i i i i d i d i d i i i i d i i d i i d i d i i i d i i a i d i i i i i i i i d i d i i i i d i i i i i d i a t d t N x x x N B O.>.4.u.u.u.u.4.4.<.O.O.n x n x c x f f d d d d f a d a f a a a a f a f f x f d l f d f f f l f d c f f c f x f f c f f f f f c d x f c d c f c f d z f x f x c f z c f c c c f c c c s c c c F c c Y s c c f c z Y f c c F c c c c c c c x z c c x z c c l z c c c c c c c c c c c c c z c c Y c b z c c c Y c c c z c z Y c c c c c c c c c c c c c z Y c b z Y Y c c c z Y Y c c z F c c b z Y c c c c b Y c c c c b Y c c b z c c c c c b z c z c c b z z c c b z Y z c c Y c z c z Y Y c z c z Y Y c c c z Y Y c c c Y c c c c c c z c c c c c l c l c c c l c c x c c c c c c z c c c c c x z c l c c c l z c x c c c x c x c l c c l c c c x z l c c z c c x c c c l c c c l c c c c z c c c c F c c z b F ` ",
"f c z c c f Y z c f c c c f c f Y c c f c c F z c f c s c c s c c c f c f z l f x x f l f z x c f d d f f f f d l d f f f x f l d d f f d c f f d z x f f l d f c d f c f d c d f f d c z B B @.@.4.4.<.@.A Z m f d p a f d i s d d d s d d i s d d p d p p d d d d i p d i d i i i i i p d i i d i i i d i d i i i i i i d d i i i i i i i p i i d i i d i d i d i i i i i i d i d i i i d i i d i i i d i d g i a i y y d i y i i d i i i d i d i i i i p i d p i i i i i i i i i i d i d i d i i i d i i g i p i d i d i i d d i d i d i d i i d i d i d p i i d i d i d i d i i d d d f f x c n n m O.>.1.u.b.g.g.~.g.j.4.4.@.m C v x x f x z x x d f d a f f d d f x d d f f d d f d f f f z d f x f x c d d c f c d f d c f c f f f f z d f f f f x z f c l x f x f c c c z Y c c c c c f Y z c c c Y z c f c F c s c s c Y c c f c z c c x z z c x c c c c c l c z l c v  .c s c s c b c c z z z c m z c Y c c c Y z z c c c Y z z c c b c c c z c b c c z c c z c c z c c z b c Y z b c Y z Y c c c Y z c Y z c c c c Y z c c c z z b c Y z z c z c Y z c Y z c c c c Y z c c c b c Y b c c Y z z z b c z z c c c Y Y z z b c Y c l c z x c c c z c c c x c c c l c z x c c c c c z x c c c c c z c c c c l c x c c c c z c c c c c c z c c c c c x c c z l c x c c c z x c c c c c z c c c c c c x c c z c c f c c ` ",
"z Y z Y f c c c c F f Y Y c c z z z Y c f c z c Y c c c Y z z F F c c f c z f x f z f c x z f l x f c f x f d z f f c d f f f x c c f x f d d c c d f d f f d c f d f d f f d f d f d f c B Z @.y.h.h.9.k.y.<.B c d d f d d d a d d d d s d d d d d d s d i i d d d d d p d i d i d d p i i i i i i i d i i i i d i d i i i i i i d i d d i d i i i i d p i i i i i i d i d i p i i d i i i i g i i i d i i i i i i d d i i d i p i i i i d i i p i d i d i i i d i d i i d d p d i i i i i i i d p i i d i i i i d i i i i p i i i i i i i i i i i i i p i i d p i i i i i i i d d d d d x d d x x n m Z <.u.b.g.~.^.^.^.g.d.4.>.O.Z n x x x c x d f f a d d a d f f d f d d d f f f c f f d x x f f f f f d z f f d d f c f d d d f x d f x f d f x d f f x x f f c c c c F f c c s c f f Y c c c D c c f s c c c c c F c c c z z Y c c z f c c c c c c c l z c c c c c c c p f c c c f B h x c b b z c c z c c b z c c b Y c z c c b c c Y z Y c c c Y z Y c c c Y z c c c z c Y c c c c c c b z c b z c b z c c z b z Y c c z b z Y Y c c c c c Y c b c c c c c z c z Y c c z b z Y z Y c z z Y c c c c c Y Y c z b z c c c c z z c c c c c c c c c l c l c z c c c z c c c c c c l c c c c l z l c x c c c c c z c c c c c x c c l c c l c c l c x c z c c c c c c c c c c c c c l c c l c c l l c c z c l c c c c b c ` ",
"s c z c f z c z c c f c s c c z F c z z f Y c c z f c z F c c z f c c l d x f f f l x f x f d l z c d d f f c d f f f f d f f z c f f f f c f f f f d f z d f f c f d f d d c f f f f B m Z 3.y.m.P.U.U.M.l.y.>.B l d f f d d d d d i d d d s i d d d i d d i d d d s d d i d i d p i i d i d i d i d i i i d i i i i d g i i i i i i i i i i i i i d i i i d i d i i d i i i d i i i i i d i i d i d i p d i d y t t a p i i d i i d i i i i i d i d i i i i d i i i d i g i i i d i d i d i i i d i d i i d i i i i i d i t d p i d i p i d i i d i p i d i i i d p i i d p i i d d d x a x f x x m @.<.1.d.g.^.^.).).^.^.n.u.<.O.O.n n v c x z d c d x a f f a f d l f d f f d c f d f c d z f f l d f f z d f x f f x f d z z d f f z x f d f c d c z l c d x f z c c F c c f c F z Y c f c c Y z c c c c c f Y c c z c s z c c z z z c z l c z c x c c c c x c c c c c c f d f c m  .6.4.Z x T c z c z c c c z Y c c z z c c b c c Y z c b z c c z Y c z z Y z c c Y b c Y c c Y z c z c c c Y z z c c c c z b c c c z c b z Y c c z c Y c c z b z c c c c z b z c b z c b z z c c c c z Y c c Y c b z z c c c c c c Y z c c z c c c c c l c l c x c x c c c c c c c c c l c c z c c l c l c l c c c x z l c c c c c c c l c c c c x c l c c c l z c l c l c c z c z c c l c c c c x c l c c z x c x c c v x c B f c c ( ",
"z c c c c z Y c f c c f z c f Y z c f c c c f z z c c F z c c c c c f c c f l c x f x z z x z f l f c f d f x z x z x d z x z x f x l f d l f f d c f c d f f x d f c f f f f d f f d x Z @.y.D..X*X9X7XoXU.z.3.A N d f d s p d d d s d d d d d i s d d p p d d d a p i i d i d d i d i p i i i i i i p i d i p d p i i i d i d d p i d i d i d t g i i i d i i g i i i i d i i d p d i i i d i i i i i i i i i y p.r.a d d i i i d i i i d p d i i i i d d i i d i i i i t d i i p i i i i d i i i i i i d i i i i d i i i g i i d i i i d i i i i d i i i i i i i s i i i i d d i d d d x x c x x Z Z @.u.b.^.^._._.(.).^.~.j.4.Q m n m x x c x c d x d d x a a a f d d d d c d f f d f d f f d f f f f x f f l z x f l z f c x c d c l f c f d f f c d c c d x l z z c z c z D c c c c s c z s c c f s c z F c f c z c c c Y c c c z c c x z x c c c c l c c z c c l c l c ..z f l  .6.=X3XP.m b Y c T c c c c z z c c Y b c c z z Y c c c z z b c Y z c c b c c c T z z c c Y c b z c z Y c c c c c c z Y c Y c z c c c Y z b z c c c c z c c Y c c c b z Y Y c c c c c Y z b Y c c c z c c c c z b c Y c c b z Y c c c b c c c c c l c z c c z c c c z c c l c c c l c c c c c c x c c c c c c c c c c c c c x z c z l c c c c l z z c c c c c c c c z c c c c x c l c c c c c l z z c c c c c c c c c c c z c c f b c ` ",
"f x z c c c c z z l c c c c l z z z z c x z z x x z x z z z z x c c z c c f c c c f c c h l f x f x l f z f f x f z x c z d z d x f f f x f f x f f f f c c f d c f d d f f f d a f f c Z 9.k.U.=XvXFXbXsXoXD.h.@.c f f f s d d d d d s d d d d s d i d d d p d d d i d i d i d i d i i i d i d d i d i d i d i i i i i i i i d i d i d p d i i i i i p p i i d i i i i i d i d i i i i p i p d i i i i i i i i t _ r.t t i i i d p i i d p i i d p d i i g i i i i i i i i i i i d d i i i g i i d i d d i i d i d i d d i d i i d i i p i d i d p d i i d i d d i d i d i d i i d d d d c x B v x Z @.<.r.b.!.)._._._._.^.~.d.4.Z m m n n c x c z x f d f f a d f a d d c d d f f f x c f d d z d z d f f d x f c f x x f l f f c d c l f x d f l f c f c f c f f c c c c c l c z c c z l c c c x c l c c f c z l z x x z z c Y z z c x c c c c c z c c c c c z l c c c x c v c z c @.^.BXGX.X2.b T c b z z c c c Y c z z c c Y b c b Y b b Y b b b z b b c T b b Y b Y b b c b c b Y b b Y b T b c b T b T c c b Y Y b Y Y b b Y Y b b Y c b c T Y b Y Y b c b Y b c b c b Y b Y c b Y b b c c z c c c z z c b c c c c z c c c c l c c c c c c c c c c c c c c l c l c l c c z l c c c c c z c c c c c l c c c c c l l c c c l c c c z x c c l z c c c l c c c c c l l c c c l c c z x c c c c c c x c c l c c c c f b z ( ",
"f c c c f c c z c c c c x c c c c c c c c c c c z c c z c c c b c x x z c N f f c c c d c c B c c f c x x f f l x z f l x z x c f l d c d f d f f f x f f d c f d f c f d d f f f d f B O.y.v.Q.iXFXPXPXvX3XJ.h.@.N f d f d d d d p d i d d d s d d d s d d d d s d d i s i d i d i d i i i i i i d i d i d d i d i d i d d i i d i t d d i d i d i d i d i i i d i d i i i p i i d i t d i i i p d i d d i y N i i y i d i d i i i i d i i i d i i i i d i i i d i d i i d i d i i i p i d i i i i i i i i i d d i d i i d i d i i i d i i i d i d i d d i d i i d i d i d i d d d d d d f x c x n b @.>.u.b.^.^._._._.).^.g.j.<.@.Z | b n b x f x l d x a a d d x x d f d f f c d f f d f c f d c f c x f c f x f z f z c f x z l x f z f c f x z d c N c c f c c f c c c z c c c x z c c z x z c z c c c z z c c c z z c c c c z c l c c c c c c l c z x c c c c c c c z c z B l z c <.=X6XP.Z z c c c f c c c z z b b Y c b Y b b Y T b c T T Y b T b Y b c Y b b c b b Y T z T b Y c T c c c z T c b z Y b T c b b c b b c b b b c c b T c c b b c b b z T b Y c T Y T c b T b T c b c b z c z Y c c Y z c z c Y z c z c z c z c c c l c c z l c c c l l z c c z c c c c c c c c x c l c x c l z l c z c c l z c c c c c l c c c c c c c l c c c c c c c c l c c c c c c l c c c l c c c l c c c z c z c v c c c f b z ` ",
"l c x c l c c c c c c c z c z l c l c x c z c c c c l c c c c c c c c c f c B l f B l c f f c c z c c f x z c d x f l f z x l f c l f f c c f c x f f x f f f d c d c d c f z c d f d N Z y.c.W.sXFXPXJXBX3XU.h.@.B f f d f d d a d d d d d i d d d d d d i d d d i i d i d i d i d i d d i i d d i d i d i i i i i i i i g i d i i d i t i d i i d i d i d d i i p i d i d i i i d i i i d i d i d p i i i i i i d i d p t d p d i d i i i i i i i d i d i i i i i d i d i i p i i i i i i i d d i i p i d i d d t d i d i i i i i i d i d i i d i d i i d i d d i d i d i d i i d d x c N c x x n n O.>.u.j.^.^.)./.).^.^.b.u.4.O.O.n m x x c x c c d f f f d d d d f d l f d f f f f d c f x x f d f d l f x z d x f c d x f d c f z f x c d c c c c c f c c f c c c x c c x c c c z c c c c c c c c x z c c x c c c c c c z c c c c c x c l c l c l c c l c c c c c c c c l c f c B >.6.z.>.b c c z c z T c Y c z c c c c Y b c b b c c b c c c b c T c Y b T c b b c T c c b b Y c c b Y T b Y c T b Y b c c b Y b T c c T c b Y T T Y b c Y b c T c T b T c b T b b c b T b T c b c z b Y z b b c c z b c Y z b z c c c c c c c c c x c x x c l c c c c c c c c c z c c l c c c z c c c c c c c c x z l c c c c c c c c z c c z x c z l c c c z x c c z x c z c c c z z c c c c c c z l c l c c c c c c x c c c f b c { ",
"z c c c c c c c x z c x z c c c c c z c z x c x c c c c c c c x c x c c f c f c c f c f x c f c z x c d z f x z z d c x z f x f d c f d f d d f f f d l f f x f f f d f f d d f f f f c Z y.x.R.4XvXFXZXsX&XD.h.@.N a f a d d f d d s d a s d d d d d d d d d d d d d i d i d a d i d i i d i d i d i d p d i d d p i i i t i d d t i d i d i d d i d i d i d i d i i i i i d i d i g i i i i i i i i d i d i p i i d i i p i i i i i i d i t g i d i i i i i d i g i i d i i d d i i d i d d i d i d i i i i i i d i d i t d i g i d i i i d d i d i d d i d i i d i d i d i d d d d d d c x x m n v Z >.<.4.d.!.^.^.!.^.g.d.4.>.O.n  .n n c x c c d c x d f d f d c d f f f d l f f x z d f f f f d c f f f z x f c l f l f c c l f x c d c c d d c f c f c d f f c x z c b z c c x c l c c l z x c c c c c c c c z x c c c l c z c c c z c c c c c c c x z c c x z l c c x z c m l c z a m b T c z z c Y F c c c b z Y c c b c T Y b c T Y b c T Y b c c T b c b Y Y b c T b T c b b Y b b b b b b Y b b c T T c b b Y b b Y T c b c c b b T Y b b Y b b b z T c c b z T b z c c b Y Y b c c c Y z Y c c c Y c c c z Y c c c c c c c x c z c c c c z c x c c c x z c c x c c c l c c z l c c c l c c c c c c l c c c x z c c c l c c c c c c c l c c l c c c l c c c c x c c z x c c c c c c c z l c c c c c c c c f b z ` ",
"z c c c z c c x c c c z z x c c c c c c c l c c x c c c c c z c c c x c c f f c c c c c c d z x B d a ..X.m l l x f z x d c z f f f f f f c d f l x f f x f l f d f x f f d d c f s d x B @.y.D..X1XrX0XOXU.v.<.Z c f p d d d f d d f u d d d d i s d d d d s i a d i i d i d i d i d i d i i d d i d i i i i i i i i i t i i i d i d i i d d i i i i d i i d i i i i i i d i i d i d i d i d i i i i d i i i i i i i d i i i i g t i d i d i d i i i d i d i i i d i d i i i i i i i i i i i i i i g i i d t d i d t i d i i i i i i i d d i d i d i d i d d s d i d i d i d d d f d f x c d c c x n B O.<.3.u.s.b.g.b.b.d.u.2.>.O.m n b c x c x z d f l d l f f d c f d d f f f d c f x f l d f f l d f f f x f z x f x f d c f x x f c x z x x f z f c c B f c B c f c x c z l c c c c c c z z c c c l c c c l c x c x c c c c c z c c c x z c z c c c l c c c z l c x c c c c l c c c c c Y c c c Y Y z c z z c c Y c b T Y b c b Y b c b Y b Y Y b b c T c Y b b c b Y b c b Y Y b T c b b Y T c b b Y b b c b Y b T c b b c T c T z T c T b b c T c b b Y c c T Y b Y T c c m c c c m b c c c c Y c s c c c c c z c z l c c x c l c c c c c c l c c c c c c z c c c c z l c l c c c c c c c x c c l c c c c c l c c c c c c c l z z c c c c c c z l c l c c c c c c c x c x z c l c c c c x c c c l c z c z c m f b z ` ",
"f x x c x c c c c c c x c c c c c x z l c c c c c z c c c l l c z x z c c d f x f l h c c f c c i c B j.=X4.z z z x z f c f x f f f x f d d z l l f d c f f f x f c f f d f p d d d f f m O.3.h.x.U.{.W.J.h.y.@.Z x x d d d d p d d d d d s d d d d s d d d d d d a i d i d i d i d i d i d i a i d d i i i i d p d i d g d t i i d i t d i d i d i i i i d i g d i d i p i i d i i i i i i i g d i i i d i d i d i p i i d d i i i i i i i i i i d i i i i i i i i i i d i i d i d p d i d i i i i i d d i d i d i i d i d i d i i i d d i d i d i d i d i i d i d i d i d i d d d d d d d c x c n c n m O.O.4.4.4.j.d.u.1.<.O.O. .m n c n x x x f f d d d d d f c d f f c f x c d d f f f f f d l f f c d d z x f f l x z z x z f f l d z z f z f c x c f c f d f c x c z c c c c z x c c c c c x c z c c c c c z c c z c c c c c l c c c c c c x l c c c x z c c c c c c c c c z c c c z c c c c c z c c z c b c c c Y c c c c T c b c T c b c b b c T c T c b c c T c b Y b c b b c c b Y Y b c T c c T b Y T c c b c c Y b b c b c b c b c Y c b Y b Y c b T b c b b b z b b T T Q >.Q Q m b c c c Y c c c c c c c c c c c c z c c c x z l z c c c z x c c c x c l c c c c c z c c c c l c c z c c c c z l c c c c l z c x l c c c l c c c c c c c c c c c c c z x c c c c c c c c c x z v c c l z c c c x l c c x b z ` ",
"f c c z l z c c c c c c c l c l c c c c z l z x c c c x c l c c c z l c c l c c x c c d c f c f a a m 4.XX>.c d f c l d f l z d x f f f c f f x f d c f f l f x d f f d f f f c f a d x x B ! h.h.h.z.h.y.y.&.Z N f f d f d d d d i d d i d s d d s d i s d d a d i i d d i d i s d d i d i i d i d i i i i i d d i p i i i i i d t d i t i d i i d p d i i t i i i i d i i i i i i d i i i i t i d i d i p i d t i i d p i i i d i i i i d i i i d i g i i d i i d i i p d i i d i i i d i d i d p i d i d d i i t d i p i d i d i d i i d i d i d i d i d i i d i i i d i d d d f d c x c N c m v n n n  .@.>.2.<.3.<.>.>.O.O.n n v x x c c z c x d f x f a f d d f f f c f f f f z d d d c f f f f f x f c f l c f x z z x f l c f z z d x f z x c x c f x z c f c c x c x c c c z c c c c c x z x c c c c c c c c c c c c z x c c c l c c c c c z c z c c c c c c c c c c l c c x c c c c c c z c c b c c c c c z c Y b c b T c Y b T z Y b T Y b b Y b z b c T b Y T T c b T c c T b Y c b b Y c b b c Y b T c Y b T c b c Y b Y b T c Y b b c c b Y b T c Y b T c c z b T >.>.2.5.5.3.<.2.>.b c l c c c c c c c c x c c c c c c c c c c c l c l c c x z l c c c x l c x c c x c c c l c c x z c c c c x c c c z x c c x c c c c c c c c x l z c c x z c c z x c x l c z c c c c c c c c c c c c c c c c x c m c l b z ` ",
"z c c c z c b c c l c c c c c c l c c c c c c c x c c z z c c c c c c c f B f c c c f c l B c d x f c v n x c f x d c c x z x f f l x z f x z f x z f d d f f f c d f c f d d x x a a f f c m @.@.3.3.3.3.A Z B l f d d d d d d f d d d d s i d d a d d d d d i a d d i i d i d d i i d i d d i d i d d d i i i i i i d i t d d d i i d i d i i i i i i d i p i d i i i d i t g i d p i i d i i i i p i d i i i g i i i i d i i i i d i p i i d d i i i p d i i i p d i i i i i i i i d p i i i i i t i d t i d i d i d s i i i i i i d d i d p d i d i d i d a d d d d d d d s d d f d f d d l x x x v v n m O.O.O.O.O.O.O.O. .m n v m m c x x x z d x f f l d f f c d d d f l l f x z c z x f c x x f f z f x f x z f d c f l f x x f x c f l x f f c f B z x c x c z c z c c c l c l z l c x c c c c l z c c c c l z c c x c c c c x z c b c c c l c l c c c c x z c z l c c c l c z c l c c z Y c z z z Y c c b z Y c c Y Y Y b b c T b b c c b b Y b c b T b Y b b z b b Y c b b Y b b T c c b b Y Y b b c c c T b b b Y T T c b b Y b b b b T T c b b Y b b b z c c T T  .2.3.h.h.F.x.x.5.>.>.b b m v c c c x z c c c c c c c c c x z c c c c c c c c c c c c c c c z c c c c x z c c c x c c c l c c c c c c c c c c c c c c c c x c c c c c x c c c c l c c c c c c l c c c c x z c c c b l c c c c c b f c c d c z ` ",
"f c c z z c c x z l c c c c c z c x c c c c c c c c c z c c c c z z c c c c c c c z c c c f c c z c l x l c c c z c z c d z c c x x f z x z x x x f d c c f c d f d c f x f f l f d x f x a x N B Z Z Z B N x f d f d d d d d d f a a f d s d d d d d d d d a d a a i d i d i d i d i d i d i d p d i d i d d i d i d i d i d i i d t i d i d d i d i d i d i d d i d i d i i d p i d i i d i d d i i d i d d i d i i d i d i d d d i d i d i i i d i d d i d p i d i d d i d i d i d i d i d i d i d i d i d i d i d i d i d i i d i d i i i d i d i d i d i a d a i d d a d d f d a d x d d x x x v x n m n  ... . . ... .n m n c x m c x l c x f f f c d f f d l f f c f d z d z x f f x f x d c f l l x c f z c c c c z c c f c x B c c f x z z x z z x z l x z c l c c z l c c c c c x c c c c c x c c c x x c c z x c z x z c c c c c b x c b c b c x b c c b c c b x b c c c x b c c b c b T T c c T b c Y b c c Y b b b b b c T b b Y T b Y Y b c b Y b b Y b c b c b Y T Y b c Y b c c T c b Y b c c T b Y T c b Y b c z b c T b c T Y T c T b c b b T Y b z T m b b O.4.h.J.R.%XR.G.x.4.3.Z b b c c c c c c x b c x c c c c c c b c c b x b c c c c l b c c c x b b c c c c l c c b c c c c b c c c c l c c c b c c c c c c c b c x c c b b x c c c b x b c c b c v c c c c c c b x c c c c c x c c l f c c x c c ` ",
"s x x c z x c c c c c l c l l c z c c c c l c l c c x c x c z c x c x z c c l c z x c c c f f x c c z x B c f c c f x z c x d c f l f x z d f z z c f f f d f f c d f d f f d x a x d f d a d d B c x x c c d f d d f d d f d l d f a d d i d d d s a d a i i a i d d i i i d i d i d i d i d i d i d i d i i d i d i d i d i i d i i d i d t i d i d i d i d i i d i d i t d i d t i d d i d i i d d i i t i d i d d i t i d i d i d i d i d i d i d i d t t d t i d i i d i t i d i d i d i d d t i d d t i t i d i d d i i i d i d i d d d i d i s i d i d i i d s d d p a d d d d x f x d l x x x x n x v n n m n  .m n n m m n n b x c x c f x l d d z d f d f f x d c f x c f z x c f l z c z x f c f c c x h d c c x h d c c f f c f c c l c c c z c c c c c c c c c c c x z c c c c c l c c c c c z z c c c c l c c c c z x l c b x c c c x c c b c b c c b c n c c c c c b c c c b c m c b b b b c Y b b z T b Y b Y b b Y b c Y b b c c b b c T c Y b b Y c T Y T c b c b c T b b b T Y b b Y c T b Y c b c b b b Y b b T b c Y b c b c b c z b Y Y c c c b b c b Q 4.h.J.oX0XzXrX*XG.h.2.>.c c c m c l b c b b c b c l b x b c b c v c c c c c b c b x c b c c c c c c b c b b x c c c b x b c b c v c b b x x c b c l b x b c c b c c c c c c b c x c b c b c c c c l b x b c c c b c v c b c c c c c c c c b c ` ",
"z z x c c c x c c c c c c c c c c c c z c z c c z x l c c c l c c c c c c l c z x c l c c x c f c z Q z a c c c c c f x f f l d f x l f c f z f f l f d c d x f c f l f f d f d f f d l a d d a d l d d d f d d d a f x d d d d d d d d d d d d d i d i a d d a d a i d s d i d i d i d i d d i i d i d i i d i d i d i d i d t i t d i d i i d i t i d d i t i d i d i d i i d i t d i i d i d d d i d d i d i d d i d d i d t i d i d i d d i t i i d d i i i i d i t d i i d i d d i i t i i i i d i i d i d d i d i i i i d i d i d d i d i i d i d i d d d a d d d d i s d d d d d f d x d l l x x m c b x n n n n n n v n n x c x c c c d f z f x f c f x c f f f z x z x f l f x f x d c f x z x z f f c c c f c x f c c d c f c x c f c c c z c x c c z c c c c z c c x c c c c c z c z c z c c l c c c z c c c c l c l z l c c b c b c b c v c b c c c c x c v c b x b c c c b c c c b T Y b z Y Y b c T Y b b b c c c T c Y b T c b c b T c T b Y b c c b Y b b b Y b c b b Y b Y b Y b b c b b b c b T b T Y Y T c b b b c Y Y b c b b Y c T c T b c c b Y m b m Q 4.h.[.8XBXFXZXiXW.v.3.>.b c b c c c c c c c x c c c c c b c x c c c b c v c c c b b c c x b c x b c c c b b c b x c c b c c c c c c c c c b b c x x b c b b c c c b x b c c x b c c c c c x b c b x c c b c b c c c c x c c x c x f x c d b c ( ",
"z c c c c c c c c x c z z x c c l c c l c l c c c c c c c l c c c c l c c c x z z c c c c f c x z c c f l c z c d c B f z x f c z z f x x f l x f x c d f z d f d f f f x z x a f x d d a f x l a f f d d f a f d i f a f a l d d l d d s d d d d s d a d i a d i d d i d i d i d i d i d s i i d i d i d d d i i d i d i d i d i d i d t i d i d i d t i d i d i i t d i d d i d d i d t i d i t i d i i d i t i t d i i d i d d i t i d t i d i d d i t d i d d i d d i d d i d t i d d i d d d d t i d i d i i d i d d i d i d i d i a a d d d i d i d i i a d d d d s d d d a d f a x a d x d x l c x n c m m b m m b b x x v x x c x x c c x l f f d f f d c d f f x z d z x f c l z f c f l f f x c x B f d c c f c c f c c c c c f f c c c c x c c c c l c c c c l c c c c l c c c l c c l c l c c c c l c l c c c c z z x z c c c c c x m c c c c c b x c b c c c c c b c v c c m c c c c b c T b b c T b c b Y b T c T c b Y b c b Y T c c b Y b b c T T c b c T c b c T Y b b c T c b b Y T c Y b T c z b c b b c b Y T Y b b b c T Y b b b Y b c b Y Y c b m b B >.5.F.%XsXJXIXJXzX%Xv.2.>.c c c x b b c v c c b b c x b c c c m c v c c c c b b x c c c b b c c c c b b x c c c c c b x c c x b b c c v c b c c c b b c c c c x b c b c c c b b c c c v c b c c c c b b c c x b c b c b b c c b c c c c m f c c ` ",
"d c l c z x x c c c x z z c c c c c z x x c c c c z c c c c c c c c z c c x c x c c x z z c c z c c x l c z B c x c x f f x c l x z d z x f z x z d z f d c l d f c f d f d c d f f f a a d a x x d l d d l d d a f d f a d f d d f d a d d f d d a a d s d a i i d i d i d d i d i d i i d i d i d i d i d i d i d i i i t d i d i d i d i d t i d i d t i d i d t d i d d i d d i d d i d i d i d i t d i t d d i d i d i d i i d t i d i d d i d i d i d t i i d i d i d i d i i d i d i d t i d i d i d i d d i d i d i d i i d i d a i i i d i i d i i d d d d d d d d d d d f d a d d d d d f x c f x c c m x c n c n c x x c x z f x l d f f f l d c f c f c f d d z x f z x x f l f l d d c d f f B f c f f c c c x f f f N f f x c f c c c c c z c c c c x c c z x c c c c c c c c c l c l c c c c c z l c c c c c c z z c z x c z c b c c c c b x b c b c c c v c v c c c x b c c c b Y b c b T c b b c T T c b Y Y c b Y T c b c T c T z b c b Y Y b b T b b Y T c c b T c Y b c Y b b Y Y b T b b c b b b b b c b Y c b b Y Y b b c T c c T c b b T Y b c c b Q >.<.S.%X0XFXKXFXkXW.J.2.>.b c m l c c b c m x c c c b c x c b c b x c c x c b c b c c v c n c b c c c b c c c x c b c b b c c b b x c b b c c c c b c b c c l b c c x b b c c x b c c c c c b c x c c c c c z l c l c c z c c c c c c c c f b z ` ",
"c c c z c z b z c c c c l c c x c c c c z c c c c l c l l c x z c c l c c c z c z c c c x z c x f f c h f x f c c z f c z z d f x f f c z x z f x z d c d f f f f d c d c d c d x d a x f x a d f d d d d d d a d x a d d f d d f d d d d d d d p d d d i d d d d i d i d i i d i s i d d i d i d i d i d i d i d i d d d d i d i d t i i d d i t d d i i d i d d i i d t i d i i d t i d i t d d i d i i d i i i d i t i d i t d i i d i d t i d i t d d i d i t i d i i t d i d t i d i t i d d i d i d i d i i d i d i d i d d i d i d i d a a d a a d d d a i d d s d i d f f d a a a a d l c d d c c x c x c m x c m c m c c x c x f l f x x f d f f l d f d f x f f c z x z f z f c f f c z c z c f l x f c x c f c d c c c c c c f c c c z x c c x c c c z c c c c c c l c l x z x z c c c c z c c c x c c c z x c x c l c c c c l c c x c b v c c c b c x c b c c c c c c b c c b c m c b c T c c b Y Y b c c b b b b c b b c b Y b Y b c c b T c b b c c c Y c b b b Y b Y c b c T b c c b b c c b Y b T Y c Y Y T c b c Y b b b c T c Y b b Y b Y c c b b b c c m T <.x.T.*XiXcXiX=XU.z.&.>.z c m b c c x c c b b c v b c b c c c b c b c b c v c c c c c c c c c x b x b c b c b c b c c c x c c c c c x c c x b c c c c b x c c c b c c l c b c c c c c x c c c z c c c c l c c c c c c x c c c x c f c c x b Y ` ",
"c c x c c l b c l c c c c c z c z c c c l c c c c c c z c l c c c c c l c l c l f c c f x f f c c c c c x c c d f f c d x f z x l f z x f c l d c d l f f f f f f f d c c d d f x d d a a a d a f f d d d d a x d d d f d d d d d d d f d s d d d d d d a i i d i d i d i i d i d i d i i d i d i d i d i d i d i d d i i d d i d d i d i t i d d i d t d i d i i d t i i d t i i i d i i i d i i d i d d t i d d t i d d t i d i d d i d i d i t i d i d t i d i d i t d i d d d i d t i d i d i a i d i d i d d i d i d i d i i d i d d i d i d d a i d s d d d d f d s d d s f d d x x f d a d c f x c c x x x c x c z x x x c x c c x d x f f d c f f f d f f c f f c d z f l c d x l f f x c d c f x c c B x z c f f B c c z f f c c f z z c x c x c c l c l c c c c c l z c l c c c c c c c c c x c z c l c c c c z c c c z c c c c b x c c c c c c b c c b c c c m b c b c c b c c c c c b Y c T b Y c b Y b Y b T c b T Y T c b c T b b c T z T T Y b b Y Y b c c c b Y c b Y b b b Y T T c c T c T b Y c c c b b b Y b Y b T c Y b b c b c b b Y b T c b Y T c b m T ,.5.x.G..XOX.XU.D.6.$.>.c z b c b b c v c c c c c c b c c b x c c b c c c c m c b c x b b x b c b c c x b c c m c x b c b b x m c b c v c b c c x c l c c c c x z c l c c c c c c c l c x l c c c c c c c c c c c x c z c c c c x c x b f m l ` ",
"x c z c x z x c z c c l c c c l l c l c c c c l c x c c c c c c x z c c c z c z c f c x B f c c c d f c c f f c f x l f x z f x f x l f x d c c f x f f c d x f x f z d d f x d a f x f d x x f d a l d f f f d l d d d d l a d d d d d d i d d a a i a d d a i i d i i i d i d i d i d d i d i d i d i d i d i d i t i d i t i t i d i d i d i i d p i i d t i d i i d d i d i t d i d t d i d i t d i d i d i i i d i d i d i d i t d i t i d i d i d i i d i d i d d i d t i i d i i d i d i i t d i d i d i i d i a i d i d d i d i i d i d i a d d d i d a d d d d d d d d d d a f d f d f d d d f d l f c c l c x x x c c x f x d f l z f f c f d f x f c d d f l d c l x d c c f f x f l d c f c c f f c z x f B c c f d c x B f c c x c c z z c c x z c c c c l c c c c c c c c c c l c l c c c c l c c z c c c c l c c c c x c c c b c n c b c c c x b c c v c c x c c c n c c b c c T c b b Y b b T c Y b b b Y c b Y b c b Y b c b Y b T b c c b b Y b b b T c T b b T c b b Y b b c Y b b Y b c b Y c T T c b Y b c b b Y c b b Y T c T Y b b b Y b c T c m c m m >.2.;.z.S.D.F.z.h.3.>.m z c m x x c c c c c b b c c x c b c c c b c x b c c c c x b c c c c c c c c b c c b c x c c c c c b c c c c c c c b c c c z c c c c c c c c c c c c c x c c c c z c c c l c l z c c c x z z z x z l z c c c c b z b z ` ",
"f m x c z l c z l c c c c c c c c c c c l c z c c c z c c c c c z x c c x c z x c f c c c d d c B c f c c f c d l c d c c d z z f x l f z x f c c d f f d l f f c d c d d f d d a x a x d f d d x x f a x f a d d d f d f a d f i d d d d d d d a d a d a i d i d i d i d i d i d i i d i d i d i a i d d i d d i d i d i d i d d i d t i d i t i d i i i d t d i t d i i i d i i d t i d i d i d i d t d i d d d i d t i d t d i d d i d i d i d i i t d i d t d i d i i t d i d i t i i d i t d i d i i d i i d i i d i d i i i d i d i d i a a d d d d d s d d d f d d d d f a d d a d d d x f d d x f d l d x z f l f c x z l d c l l f f x x f f c f d f d f c z x f l c f c d x f x l x f c c f N f c d c c f l c c f c c c d l c f c x c c l c c c l c c c z l c c c c x z c c c c c l c c x c c c c c c x c c l c c c c l c c c c c c m c b c b c c b c c x b b c c c b b c b c c v c b T Y b b b Y b b b c b Y T c c b z T T c Y Y b c Y b b c b b c T c b b Y T Y b b b c T Y b Y T c b b c b Y b c b b c T z b b Y T b T T c b Y b c T b b b c b c T m Y b c c m c m Z O.3.5.6.5.2.>. .T b c b c c b v b c x b c c c c c c b c c b x c c b b b c x c c c c c b b c c x b c c b c c c b x b c c b c v n c b c c c x c c c c c c l c c c c c c c c c c x c c c c c c c x c c c c c c l x c c z c c l x c c c d m b ( ",
"z c c c c l b c c c c l x z c c c c c c c c c l c c x c z l l c c c c c z c c c x B z l c c c c z l c x l c c c c f f c f x x f l f c x f l x f l f f x f f f x f c d l c x z x f f d d f d c l a d a d d a d d d d d f x d d d d d d d d d d d d d i d d a a d i d i d i d i a d d d a d a a d d i d i i d i a a d t d t d d i i d i i d i i d d i d t d i i i i d i d t d i d d i i d i d i t i d d i i d t i i d d i d i i i d i i t i d i t i d i d i d d i t i i d i d i d a t d d i d d a i d i d d i d d a d a d t d a d d a a d a d d d d i d d d d d d d d a d f d a a f x f a f x d a d l f d d c f x l d x c l d x f f x x f d f f f f f d c x f c d z d f x c f d c c c f c f z f c f c c f c c c c x c c z c c c c c c c c c c z c c z c l c z c c c c c c l z c c c l c x l c z c c z c c c c l c c c c c x c z l c c b x c b c v c x c c b x b c b c c c b b c x v c c c c c c b c b b Y c T b Y c T b b b b Y b b c c b b b c T b c c T Y Y b c T Y b b c b b Y Y b c b c b c c b Y b Y b b T c Y b b b Y b b c c c c c b b Y b c b Y Y T c c b T b c b b c m b m B Z 2.O.>.Q Z m c b z c b c c c c c b c c x b c b c x b c b c b c x c c c b b n b c b c c b x c c c b x c b b c c b c c b c c c c b c b c b c c x c c c c x c z c c x z l l c c c c b c b c x c c l c x z c c c c c x c c c c c c c x b z ` ",
"l c l c c c c l c c c c c c z c c c c c z c c c c c c l c x c c c c z c c c z z z c c c c c l c c z c c c c z x c f c c c f x z f c f z d c f z z x c d x f c f x f l d f x x f x f d d x f d d f x x f d f d d d d a x d a f d s a d a d f f d d d i s d a d a i a a i d a d i a a d i i a d i i d i d d i i d a i i d d d d d d t i d i t d i d t d i i d i d d i d i i d d t i d d i t i i d t d i d i i d i d t i d i d d i t d i d t d i d d t d i d i i d i d i t d i i d d d t d d d d i d i d i i a i a a i i a d a a d i a d a d s d d d a d d d d i f d a f x d a d x a x f x a x f x d d x c f d c f f x l d c d l d x z x f c d f d d f f d f f l f x x f f d c z l d z x f f x c c x c f c B f c c z c x c c c c c c z x c c z x c c c c c x z l c c c c l c c c c c c l z c x c c l z c c c l c l b c c c b c c x c b c c x c c c b c v c m c c c c c b c x c c c c b c c c x b c b b c T c c b Y Y b Y b b Y b b b T b T c T b Y c T b Y b c T c c b T c b b c T Y b c b b Y b T b c b T b Y b Y T c Y b T c T c Y Y b T Y T c b c Y c c Y b Y b T c c b c m l b c c c B m m T b b c c b c c c b c n c c b c c c v c c c b x c c c c c b c x c c c c c x c v c c c b c b c b c x c b c c c x c b b c x c v c b c c c c c c v c c x b b c b x b c c b b c x b c c c v c c c c c c c v c c v c c c c m m z b l ` ",
"z b c c c x b c c x z c c c c c x c z l x c c c c l c c c z c c c x c l c c x c x c c c c c c c c x z c c c l f B c c d c f c d c d x f c c d l f x f z d f d z x l f x l f x d d f x f x d c d a d d a f d d l d d a f f d f d f f d x d s a a i d d a d d d i d a d d a d a a d i a d a d i d d i d i i d i a d d a d i d t i i i d i d d i d i d i d i t d i i d t i d i d i t d i d i d d i i i d i t d i d i i d i d t i d i i d i d i d i d i i d i t d i d i d d i d t d d d d i d t i d i d i d d p a d d a d d a i d i a d i d d i d f d d f d a a f f f d a d d d f d d d a d d d a a x f f d N f d c l f x z d l x z d l z d c f c f z x d z f f d c f z l c c l x f f x f c c c f c c z c x c l z c c c c c x z c l c c c c x z c c c x c c c c c c x c z c c c z c c c c c c z c c c c c l c c c c c c v c c c b c c l c b b c b c v c c c c c b x b c x c c b b c c c x b b c c m Y Y b c c T b b b c T c c b Y Y b c z T c c b b b Y b b c T b b T c c b Y Y b c b c T Y b b b Y Y T c c c T c b c c T b c b c b b b b c b c b Y b b T b b b Y b b T c c c c c x b b b c b m m c c c b Y z l b c c c c b x c b b b c b c c c m c n c c c c b c b b c b c c c c b c b x c c c c b c c x m c b c c x c c b c c c c c b x b c c c b c c c c c c b c c v c c b c b c c c c b b c v c c c c b c c c x c c c l b b { ",
"f x c c x c b l c z c l z x c c c c c c c c c c z c x c c c c l c x z c c l l c c c c c c c l c c l x z c c c z c c f f c d c c f l f x z x f d c f c d f d c x f c x f x f l x f z x d d f x d d x d a x d d l f f d a d d l d d f d a d N d d s d d d i d i a a i a t i a a t a a a d t d i i i i i d i i a a t i d i d i i d d d t i d i d d i d i d d i d t d d i d d t i d i d t i d i t d d i t d i d i d d i t i d i d i d i d i d i d i i d i i d i d t i d i i i d i d d d t d d t d i d i i a i i a t i a t a i a a d d a a p i d d f d d a d d d d d f d f d d d d f x d l d d f x f d c c d d c d f d c f x d f d c l d l x z x x f d f f l l f f x f x x z x z d f z x c c f f N c c c f l z l m c c c c c c c x c c c c c c x c c c c c z x c c c c c l c z x c l c l l z l z z c c l c l z c z l c c x c l c c c c c x c c c c c c x x c c x c l c c c x c l x c c x b x c c c c b c b T c b b Y b T c c b Y c b Y T c b b c T Y b b c T b Y b z c b b Y Y b b c b c T z Y b b c b c Y b b c T c Y b b c T c b Y T c b b c b c c Y b b c T Y b c c c c x c c x c c l c x c c c c x c c c l x c c c c c c c x x c x c x b c c c x c x c l c c c c x c l b c c c c x c c v c c b c x c x c l c x m z a m s p c  .b v l c x c c c c l c c x c x c c c c c x c c x c c x b x c c c c l c c x c x c c c c c z m c ` ",
"c b c c c b c z c c c c z c c c z c c c c x c z l c z c c c c x c x c c c c B c c l c c f c c c c c c c z x c z f c B c c z d c x z c f f x l f f d f f c d f d l d d l z x d c l d x f f N f d a f f d a d d d x d f d f x d d a x d d d d d d d d d d d a d a d i a d a a i d d i d i i i d d i d d i d i i d d d d t t d d t d d d i i d t i d i i t i d i d t i d i i d d i d i i d i d d i i d i d d i i t i d i d i d i t t d i d t d i i d i t d i d d i d i d t t i i d i i d i d i d d i d d i d d a a d d a d d a a d i d d d d d d f f a d f d l x f f x d a l d f d f d d f l d d d f d d f d d f N d d d c f x d x f x c d l f d c c f x z f x z z l z f x f x z c l f d c c c c f d c B c c x c c c l c c c c z l c x z z c z c c l z c c c c c x c c c c c c l c c c c x c c c c c c c c c x c b m c c b c b x c c c b c b c b c c c c b b c c b c b b c c b m c b c c c c b c T c T c T c Y b b b Y c T c b T c b c b Y Y b c b b Y b c c T c T b Y c b b c c T Y b T b b b T c c T b c Y b c b b c Y b Y b b Y c b Y Y T b Y T T b Y b c b b c c c b c l b c b b c b c b c c m c b n c c b b c b c c b b c c c c c c c c c b c b c c b c c b c c c b c b c c b c c c c c c c c c b b c b c b l z  .....c l v c c c c m c c b c c b c b b c c b c c b c l b b c b c c c c b c c c b v c c b c b c c c c b z ` ",
"d m c c c z m c c c c c c c x c c c c c z c x c c c c c l c c z x z c c f d c c c c x z x z c c c x z c c c c c c f N c c c d d x z f x f z l f f f x f c f f x x c c l c d f x f x d f d f x d d a d f f d d d d d d d a d d d f a d f d d d d d d a s i a a i d d d d d i a d i a d d i d d i d d i i i d i d i d d t d d d d d i i d t i i d t d i d t i i d d i i d d p t d d i d i d i i d d i d i t i d i d i i d t d i d i d i t i d d t i i d i i d i t t d i d i d i t d t t d i d d p d i d i i a i d d i i d i d d i a d d d d d d x f a d f f f f a d d d s d d d d f a d d d d d c d x f x c d d f c N f d d d f x x z x x d c d d f d x f c d z x f c c f l c d c c f x f d c f c z c z B z l z z c c z c c c z c c x z x c c c x c c c c c c c c c x z c c c c c c c c c c c c c z c x c c c c x c c c c c c b c x c c b c x c c b c c c b c c b c c b c c c c c c c c c c b b c b c b c m c c T c b c T T Y b b b Y b Y Y b c b T c Y b c c T c Y b T c c T c T T c c b c Y b Y b b Y T T c T c c T c c b b c b b Y c b c b b b c T c b Y b b c c m b c b c c c c c c c c c c c c m c c c c c l c c c c c c c m c c b c c b b c m c c b c b c b c c c c c c c c c b b c c c c c c b c c c c c c s l b z z B c c c b c c b c b c x c c c b c l b c b m b c c c c c c c c c b c m c c c c m c c b c c c c b c ` ",
"c c c c c c m c c c c c c c c c c c c c c x c c x c c l c c c x z x c c c c c f f x c f c c l B c c c f x f c c c f f c d c c c c f x z x z x x x f x f d f d c d d f d d c d d d d c d c d f f x f x d d d d c f d c d d d d f d d d p d d d d d d d i d d d d d i d d d d d d d d d d i d i d d i d d d i d d d d i d d i i d i t d i d i d i i i d i d i d i i d i t t i i i i i t d i t d i t i i d d d i d i t d i d i d i d i d i d i i d t d i d d i d i g t d i d i d d d d d d i d d t i d d d a d d d d d d d a a d d d d d d s d d p d f d x d x d d d f d N d f x f x d c d f x d c d f d f N f c d d f d f c c d f f d f f c d c f f c f c x c d c f x d c c d c d d c z c c c f B d c c c f B B x f x c f x c B c z z c c l z z c c x c l c x c l l c x c c c c c c c c c c c c c c c c c c c c c b c m c b c c c c b c b c b m c c m b c c c m c c m c c b m b c b b m c b c c c c m c m c b c c T c b c c b b Y b b c b b c T Y c b Y b T b c b b b Y b b Y b c c b b Y c T b m Y b b c z b Y b b c T T b Y T c b b T c b Y Y m c c b Y b c T c c m c c c b m c c b m c b b c b b c c b b c m b m c b m c b b c m b c b c m c c c c b c c m c c b m c b m c m m c c b c m c m m b c c m m c b c b b T ..z f c b b c b c m c c m b b m c c c b c c m c B b m b c b b m c b c c m b m b c c c b c c b B f n z ` ",
"z T c c c c B c b c c c c c c c c c c c c c x c x z c c x x c c c c c c d c f c c c f c f c f f f c c f f f c c c c d f c x x f d c c f x c f h f B c d c d d d f x d N f f d c c d c d h f d d d x f d c f d c x f d f f p f d d f d h i d d d t d d d d d d d d d i p N t d d d d i d d i t d t g d d i i d d d g t d i d d g d i d t i d i d d i t i d i d t d t i d i d i d d i d i d i i d i d d i i d i d d i t d i d i d i t i d t i d i i d i d i i d i d i d i i i d d i d d i i d i i d g d d d d d d i t N d d p d s s d s d d d d d p N f d d d f d f d c f f d d p d d c d x f d d c f d d f x f f c d d f d c d x f d x d x f f f N f N c f c x x c c x f f x c c c f f c c c f x z c c c f 4.t.z l c c f x f c f c c c f c f B x c l x c l c c x c x c c c c c c c c c c c c c c c c c c c b c c c c c T c c T c c b c m c b c m b Y m c m c b c c m T m m c c m c c m c c m c m m c m c m c m c m c b c m c c b c c m c c m c m b c T c c m T c c m b c m c c m b c c b c m b c m c m c b c c m m c m b c b c m c b c c m c b c m c b c b m c m m T c m m c c m m c m c m c m c c c c T c m c b c b c c m c b c c c c m c b m c c c c c c c m c c c c c c c c c c c c c m c c c m c c c c c c c X.....*.X.z c m c c c c c c B c c c c c c c c m c c c c m c c c c c c c c c c c c c m c c c c m c c B c b b ` ",
"c m m c c c m c B c c c c c c b c c c b c c c x c c x x c c c l x f c d c l B f c f d c c N c c B f c x c c c d f c c c f f c c d c x z x f x c x d d x c d c d d f f d c d f x x f d d x d f d f f d f d d d d d f f d d N d f d d f d d d d t N i d d d d d d d d t N p i d d d d d d d i d g i d d i d d d i d d i i d d i d d d i d i d d t i d d i i d i d d i d i i t d i i d i t i d i t d i t d d i i t i d d i d i d i d i d i d i i d t i d i d t i d i d d t t i d d d i d d d d d d d t d d d d d d d d p d d d d d d d p d d d f d d f d f d x d f d d d d d d c N f d d f f d c d d B f x d f d x d f x d f d d f d c f c f x h N f f f c x c f z x f x c c x f c c l B f f c f c z c x c f d.g.c c d c B f l c c x z d c c c d c x c c l c l x z c x c x c c c c c c c c T c c c c T c c c c c c m c c c c c c c c c m c T c m c m m c c c m c m m c c c c c m c c m c b c T m c c T c c c m b c c m T c c c m c c m c m m c m c c b b c m c c m b c c T c m c T c m m c c c c m c m c b b m m c c c c c m c T c m c T m c c T c c m c m c c m c c b c c Y m c c c m c b c b c m b m c m m c m c m c c m c m c c c m c m m c c T c c c c c m c c c c m c c c c c c c c c c c b B c c c c c c c Z -.[.=XR.X.c T c c c c c c c c c c c c c c c c c c c c c c c c B c c c c b c c c c c c c c c c m c T m f b T ` ",
"f c c c c c m c c c c c c c c B c c c c c l x c x c x c c x x z x c z f c f c c c c c c c f f c x f f c f B c f f c x f x c f x c f x x c c f f f f h f d f N f f d x c d d f f f f d c f x f f d p p x d f f N N p f d d p d d s d d d d d d d p d d d d d i d d d d d d d t d d i d d d d d d d i d d d d i d d d d d d i t d i d t i d d i d d d i d d i d i i d i d d i d d t d i d t d i d i d d i t d i d d i i d t i d t d i i d i d d i d i t i i d d i d i d g d d d i g d i d d g d i d d d d d d d d d d d i d d d d d d d d h f f d d f d d N c c d d c N c c d d f f d f d f x c d d f d x d x d c h l d c f x f N f d B f d c f c B f x c x f c f f x f c c f x l d c c c f c c B c c z c B !.^.R B x x c x f c f c d c c c d z x c c c c x c c x c c c x c B c c c c c B c c c c c c c c m c c c c c B c c c c m c c c b m c m c c c c m c m c m b c m c T c c m c c m c c b c c b c c m c m T c m c m c m Y c m T c m c Y c c m m c m m c c b c c m c c m c c m c b c c m c m c m Y m c c T c b m T m c c m m c b c c c c m c b T c m c c c c m m c m c b b c m c m m c c c c m c m m c m c c m c m c b m c m T m c m c c m c c c c c c c c c c c c c c c c c c m c c c c c c c c c c c m c c m 6.rXAX*Xo.z c c c b c c c c c T c m c c c c c c c c c c c c c c m c c c c c m c c c c c c c c c f c c c b c ` ",
"c c c B c c c c c c c c b B c c c c c c x c c c x c c z x c c l f x c x B f f f x z x h c f c c x z c z x c c d x f c c x f c l x c c f f x x f f x x f c d f d x f f d d c x d d x f d d d d d d d N f d d f f d c d d f d p d d d d d d d i d d d d i d d d d d d p d d d d d d d d d i d g t i d i d g t i d i d i g d t i d d i i d d d d i i t d i i t i d d i i t i d i t d i d i d i d i i t i d i i d i i t d i d i i d i t d i d i t d i d d i d i t d d i d t i i d i d d t i t i d d d t i d d d d d d d d d d d d d f f d f d f d d p d f d p d f d f d p d f d c d d f f N d f d d c x d f c d f d x d d c d f d f x d d f N f f x d f x f c f x x c c f x x f c h c c f x c z x f c c x m B ^.{.Q B z d f B f c c c B f c f c c c c x x c c c x c x x c c x c m c c c c c m c c c c c c c c c c c c c c c c c c c c m c c c m c m c b m c b c m c c m c m c b b c m m c m m c m m c m b c m c m c c b c c m b m c c m c b b b m c c m c c m c c m m c m c c m b c m c m T c m Y b c b c c m c m c c b c c m c c m c m c m m c m c m c c c m T b c c m c c m c b c m c c m T c m c m c c b c c m c m c T c m c c c c b c m m c c c c m c c c c c B c c c B c c m c c c c c c c c c c c c c c c c m -.[.7XG.-.x c c c B c c c c c c c c m c c c B c T c c c c c c c c c c c c Y c c c B c c c c c c c c c f b c ` ",
"f c z m c c c c c c c c c c c x x c c z x c c c l c z x c c x c c c x c c c x v c x c c x l c x c x f f B x f c x x f c f x c f f l f x f x x c c x c l f x x f c d d f f x x d d c d c x d d x x f d N d d d c d d f x f d d c d B d d d d d x d d d d d i t N d d d d d d N p d d d d d d t d d d i d d d d d d d i d d d d i i d d t d d i t i d d t d t d i d d i d i d t d d d d i i d d t d d i t i d t d i d i d d d d g d i d g d i d i d t d d d d d d d d i d d d d d i t d d d i t N d i d d d d t d d t N d d d d d d f f d x f d c f d d f N d p d x x f N d f N f d c d f x x f d f d f f x f c d d c d x f l x d c x f c x x f c f z x c c x f c x f c x f c d f f N c c c c c b c N N ..@. X-Xy.N x m c x l z c l x c x c c m z x c c x c c x x c c c x c c c c c c c c c T c c c c c m m c m m c T m c m c m c c m c c m c c m c T c b c b c m c T c b c c b c m c m c c T c b b c m m T c c m T b m c m c m b b m c T c b Y m b Y m m m c m T b T c c T b b m m c c b c m m c m b c m c c m m m m c c m m b c m c c m m c m c b c c m c c m c m c m c m c c m c c c m c m c c b c c m c c c b m c m c b c c m c T c m c T m c T c m c T m c c Y m c m T c c m c T m c c T c m m T c c m c b b T $.X.O. .m z c c c m Y b m b T c m c m c m c m c m c c c c m c m c c m c T c b m c m T c m c m c c c c m z ( ",
"c B c c c c c c c c c c c B c c c c x c c x l c c x x c x c z x x c x c x c c l v c x c c c x z f x c c c f c x f c f x c x f x x x z c c c f c c c d f x d c d d f x d d f d l x p N d d f d p N d c d p x d d c d d f f d d l d f c d x d d d d d d d d d d p t d t d d d t i d d i d d g d d i d d d d d t i d d d d d d d i d d g i d i d d d d g i d i d i i i d d d g d i i i d d d d g i i d d d d i d g i d d i i t i d d i t d d d d i d i d g i d d d t g i d d d d d p N d d d d d p d d d d d t d d d i d d z d f x p N d f f d d d d c x d d f d N d d p d c d f d d d c d f d d c x f x d c d d f c d d c x f f l l f x c f c f x x c c d c f x c x c f x z x c c c f f f d f s c s f B >.u.<XpXn.! c c z c c B c c z c f c x x z c x c c x c c c c l c x c c c c c c c m c c c c c B c b c b c c b c c c T c c b m c c b T m m c m c m c c m m c m c c c m c c m Y m c m m c m c c m c c m c c b m c m m m c T c c c m b m m b m b m c c c m b b b m m m m c c b b m m m b c m b m c b T m b m c c b m b m c m c c m b Y c b c m c m m c c m c T c b c m b Y m c b T m c m c m c T m m c m T m c c m c m T m m c c c m c c b c m c b c m c c m m b c m c c b c c c m c b b c m c c m c m c m c m m m  .m b c c m m c c m c c c m c c m c T c b c m c c m m c c b T m m c m c c c c m c c m c m c c T c f m b ` ",
"c c c m b c c c c c b c x c x c z x c c c c x x c x c c c l c x x c c z x c c x c c x x c x z c f c c f c f c c c f c x c f c f c f x f x f f x d c c x z d d c f N d c f x d h f d d c x f d N f N p d N d d f d f N f N d d h f d d f d d d d t d d d d i d d i d d d g d d d t d d d d d d d t d d d d d N p d d t i d d d t i d d d d d g d i d d d g d g t t d d g d i d d t d d g d i d d d i g d i d d d d t d d t i d d g d i d i t d d t i i d d d p N g d d d d d d d d d d i i d d d d d t i d g d d d d d d d d d d x d d d x d h l d d N d N x d c N f d x c d f N c N p f d c f d f d c d d d f d f x c f x l f l d d c f c f c x x f c f x x f f f f c c c c x z c c x h c h f N c c B h.C.eXgXE.h.O.m m n x t c x l l x c c x x c l x c x c c x x x c c c c c c c c c c c c c B c c c c m c c T c m c b c m m c c m c m c c b c b c c c m c m c m c m c c m c b b c m c c b c m m c c b c m c m m c c b c m m m m m c m m c m c m c m b m b c c c m m b m c b m c m m c m c c m m b c c c m b c c T c b c c m c c c m c T c c m c c c b c c b c c c T m m c m c m c c c c m T m c c m c m c c m c c T m c m c b m c c b m c m c m c c c c b b c m c b c m c c m b c m c c m m c c m c m m c b c b m c c c c c c c m c b b c m c c m c b m c b c m c b T c m c m c c c m m c m c c c c c c c c T c b c c m Y ` ",
"f c c m c c B c c B c c c c x c x c x x x c c c x c c x c x c c c x c x c c x z c x z c c f c c x c f c f c c d x x c f x c d x c x c f x c c x c d d l c d d c d f f x d f c d d c d c d d d f d d x d p d f N f x p d f f f d d c d d d d x d x d d d d d d d d d d d d d d d d d d d d d t d N p d d d d d d d p N d d d d g i d i i t g d t i d i d d i d d g d d t i d i d d g d t i d i d i d d i t g d d d i g d d d d i d d t i d i d g d d i d d d d t d t i d d g d d d d d d d d d d d p N d d d d d d d d d d d c f f f x f f f d d f x p f p d d d d x d d d f d f d c d x f d f x N f d f d c N f d f f x z d x f c c c x x x c f c f x x f c c x c x x f x d c c f c c c c d l N c >.&.J.E.MXBXoXI.0.$.m c c c m b x z x c x c c x c c l z x c c c z x c c c c c c c c c c c c c c c c m c m c c m c m c m c m c b c T c c m c m c m c m c c T b c m c m m c T c c m c b c c m c c m c c b c m c T m m c b m c c m c m c m b b c m m c m m c m b c m m c b c B b c T b c T m m T c m m m b c T m m c m m b T c m m m c b c c m c m T m c m m c m m c c c c b c m c b c m b c c c c m c b c m c c b c c c c c m c c b m c m c c m c m m c m c c m m c c m c m m c c m c c m c c m m c b c c b c Y T z c x c Y m c b c m Y c m c m T c m c c m c m c m c c b c T c c m b c c c m c c c c c c c c m c c m h m c ` ",
"c c c c c c c c c c c c c c x c c l c c c x x c c c c x c c x c c x x c c x x c c x x c c c d c c f x c f c c c f c x f c x f c f f x c c d c z x d l f f d f d f d x f d d c d d f d c d x f N c d x d x f d x d d f d f d f d f N d f d d a d d N d d d d d d d d d d d d d d d d d d d d d d d d d d d d d d d d d d d d d d t g d i i d i i t g d i i d d d d d i d d i t g d d i d t d g d t d g d d i d i g d d d g i d i g d d d d i i d d g d i d d d i d i d d g d d d t i d d d d d t d d d d d d d d d d d d a d f d f x d p d c N p x f d d f N d f p x x f d f c d c d d c x x f d d c d x d f d d x f x z l d l x d c c f f f c x x f c c c x x c c x x c f f c f f c c c c m m z Q 4.0.U.;XCXDX2XE.k.3.O.c z Y c c c B c c x c c c c c l c c c l c x z c c c c c c c c c c c c Y T c c c m T c m c m c c c b c m m c m c c m c c m c c m c m m c b c c m c c c m c m c b m T c c c m c T b c c m c b m T b c T b b m T c b c m m c c m m m m T c c c T m c z b c m c m m c m m b T m m m m m m c c m c c m c m c c m m c b c c m c c T c c m c m c m c m c m c m m c c b c m m c c b c m b T c c c b c m c m c b m c m c b m c c m b c m T c m c c m c m T c c m c m c m c c b c c m b c m c b m b c c c b b T c c m c m c c m c c c c m c c c c c c c c c c c m c c c c c c T c c c c c c c c T f c c c c c ` ",
"c c c m c c c c c c c x x c c x c x l c x z c c c l c x c l z x c c c x c c c l x c c f f c f c c f c f c c d f f x c f c f x c x c x f c l d x f l c d x d x f x f f d c d d c c d x d d x d d N d d d d d d f c d d c d f N f x p x a d d x d d t d d d d t i d d p d d g d d d g d d t i i d d d d i p d d d g d d d i d d i d d d d t g d d d d d d d g i d i d t i i d d d t i d t d i d i g d d t i d d i t d d t d d d d d t i d i d d g i d d g t d d d d d d d d d d d N d d d d d d d d i d d d d t d d d N d x d d c d d f N f d f d p N d x d d d N d d d d f N d f N c d d d f x f f x f d x d c c d d d l z x f x c f x x c x l f c f x f d z f f f f c d c x d B f d c c m m Z r.l.L.Q.1XtXHXKXNX2XQ.I.m.y.O.| s c z x c c c l x c x c x c x c x c c x x c c c c c m c T c c c m c c c m c c b c m c b m T c m c c b c m m c m c T m m c Y c c m T m m c T m c m c c m c c m c m m c m c c m c m m c c m c m c m c m c b m b m c b m b c c b c T b b m m b b T b c b c c m c c c c c c c c c c m b c m c c b Y m m c c m c m m c m m c b b c c T c m b c c c b c c T m c c T c m m c m c c m c m c m m c c c m c c m m c Y m b c c c m c c b c m b c m c m c b c m c b c T m c m T c c m T m c c c c m c m m m c m c m c m m c c c c c c c T c B c c c c c c c c c c T c c c c c c c c T c c c c c T z B m c ` ",
"f c z c c c c c x c l c c x x c l c c c c x c x c x c c x l c c x l c z x l c c c z c c c x B x B x c c x f c x c c x x x x f f z x c f x f c d f N d x d c N f c d x f d f d c x d f d d d x d d d B d x d N p d f d d f d c d f d f d d d d d d d d d d d N p p d d d d d t d d d d d N d d d i t d d d d d i d d d d d d d d g d i d d d d d g d i d d d d i d d d d i d d t d i g d i d g d d d i i d t d d i i d i i d i t d i d i t d d d d d d d d d d i i d d t d d t t p d d d d d d g d d d g d t d d d d d d f f B d f d d c c d d x d f d x d f d d d N d d d c d x p d d f d c f d f d f N f d c d x x f f x d c d x c f c x c d c c x f x c c c x x c c c x z x c c c T R ~ t.s.N.{.;X2XxXSXIXIXHXMX9X1X|.B.d.k.1.Q c x l x z x c c x c c x x c c x c c c c c m c B c c c b c c c c c c c m m c m c m c c m c c c m c m c c b b T c m c m b m c c c m c b c c m c m c c T c m b c c m m c m c c c c b c c c m c c m b m c m Y m c c b T c c m b m m b $.>.>.m m c T c m c c m c b b c c b c c b c c T c m b c m c c c c c m c c b c m m c m c c b m c T c m c T c b c c m c c m c c c Y b c m c m m c m c m c T c c m c T c c c b c m c m c c c m c b c Y m c b c m c c T m c c m c c m c c m c c c c c m c c c c c c c c c c c c c c c c c c c c c c m T c c c c c c c c c c c c c m c c c c c m f c c f m z ` ",
"c B c m c c c c x c c c x c x c c c x x c c c x x z c x c c x c c c x c c c x c x c f c f c z f f c f f x c f x x f f c f c c x x f c x z x d c l f d f f d f d d d c d f N f d f f x f x d d d x p d d d f d x f x d f B d d f d f d f x d d d d d d i d d d d N t i d d t d d d d d i p d d d p N d d d p N t d d t d t d d g d t i d d d i i d d t i t i d d i i d g d g d i d d d i d i t d i d d d d i d g d t i d d g d d d i d d g d t i d i i t t d d g d d d d d d i d d d i d d d d d d d d d d d d d p d d d d d d d d c f d d f d f d c d p d N c d x f p x f d f d f x f N f d f x x f d f d c d d f f l x f l l c x f x c f c d c f x c c f x x z x f d c c x z c z c ~ g.).+X<XuXgXCXGXJXUXUXUXUXKXGXZXjXaX,X+X}.^.4.B c c x z x x z c x z c x c x c c c c c c c c c c c c c c c c c c m c c m c m c T m c b c m c c T c m c c m c c b c b c m c c c m c c b c m c b m c m c c m b c c c T m b c m c m c m c m b c c m m m c b m m c m m m c m x n 2.x.x.4.@.c m c b c m b c m Y c m m c m c T m m c m c c m c m b T m c c T m c b c c m c c m c c b c m c m m c c m m c c m c b c m m c m c b c c c T b c m m c m c b c m c m c m c b Y m c m c m c m b c m c m c c m c c c b c b c c m c c b B c c c b B f c c c c c c T c c c c c c c c c c c c c c c c c B c B c c m c c c c c c c c B c c c B c c f m z ` ",
"c c c m m c c c c c c c c c c b x c x l c c c c x z c x x c c x x c c x x z c l c c c x c c x z c x c z x c c c c x c f c c x z f c x f c l d c l x f l d f d c f N d c d f d x x f d x d d x f d f x d d d x d N d N p d d x d d d d d d d d d d d d d x d d d d d t d d d d d d d t i g d d d d d d d d d g d d t d d d d d t d d d d d d d d d d d d d i d g d d d g d d d d d d d i t N d d p N d d d d d d d d t N p d d d g d d d d d d d d g t i d g d d d p d d t d d d d d d d t p d d d d d d d d d d x d d d d x d f d x d d x f d f d p x d x d d d x d d f c d f d d c d f x x f d d d c x f x d c f x x f f x l f c c f x x c c c l c c l c c x l c c f x f x z c c c c ! t.B.^.|.:X5XwXNXHXUXLXKXMXfX9X>X|.).N.u.1.m c x z x x c c x c c x c x m c c x b c c c b c m c m c m c c c c m c m c m c c c m c c c c m c b c c m c m c b c m c c m c b c m c m m b m c m m c m c m c m m c b m m Y m T b c Y m c m T m m m m b c c m b b m c m b T m s 2.6.=XlXXX3.m m m c c c m T c m c m c b c b c m m m c m m c m c m c T b c c T c c m c c m c m c c m c c m c c m c m c c b c c m m c b c m c m c c b m c b c m m c m b c m m c m T c c c m c c m c m m c c b c m c c m c m c c m c c c b b c m c c m c m c m c c m c m c b c T c m c c m c m c m c T m c c m c m b c T c c c m c c m c c m c c T Y c c c b c ` ",
"c c c b c c c x b c x m B n n c m c c c x c x c c c x c c x z c c x z c c x c c z x c l x z c x d c f x x f x z c z x x x d c f f x c f x f d l f x x f f x d c d f f x d B d f d x x a f x d d x d d d x d f d f d x d x p d d d a x d x d d x d d d d d d x d d d x d d d d i d p N d d d d d d d i d d d d d d d i d d i d d d d d d d d d i d p d d d d d d t d d d d d t i d d d d d p d d d t i t d d t d d d i d d d d d d d d d t i i d d d d d d d d t d d d d d d d g d d d d d N d d d d d x d d a x d d d d d p N x N p c d d d d N d N f d d d N d f d c x d c d x c d c d f d d c c d d f d f l f l l f x l c d x f x f c c x x c c x c c x c c z f x f c c x x c c c f c B B ! y.f.I.oX5XxXHXIXMX5XoXU.m.d.~ Z m c x c c c c c c c c c x c c c x c v x c c c b c m c m c m c m c m m c b c b c c c T c b m T b c m c m c Y m c m c m c c m c m c b c m c c c m m T c m m b T b c m c m c b b c m m m b m m b c c T c c m m T m c c m m c m c c c O.P.MXHX0Xj.O.b c m b m b c m c m c m c c T c m c b m c c T b c c c c c b m c m m c b c c m c T b c m c c T c b m c m b c m c c c T c m c b c m m Y c b c m c c c c c m c c m c m c m c c b b c c c c m m c m c T c c b c m m c m T m c c T c m m c b c m c c m c c T c c m m c c c m c m c b c m c c m c c b c c m m c m c c b m c c b c m c m c m c f m b ` ",
"f c c m c c c m x c m c c c c m m c c c c c x c x c l c c x x c c x x c x c x c x x c c c x c x x c l z c f c x x z f c f c c x c c x x c l c d l f l f d d f d f d x f f f d x f a x d d d x x f x c d d d d d d d d f d N N d d x x d d d d d d d x d x d d d d d d d d d d d d d d d d t d d t d d d d d d d d d t N d d d d d d d d d d d d d d d p t d d d d d d t d d N p i d d d d d d d d d d d d g d d d d d d d d i d d d d d N d d d d d d d d i d d d d p d d d d d i d d d d d d d t x x d d d d d d d d f d x d d d d d N p x f x x d x d x a d f d x f d d B d f d d f f d f d c x f x d l x z x x f c f c f f c c x x c c c z c c c x z c l x z f x c x z l c x z x c c c c c O.2.5.c.Q.7XZXSX9XQ.J.c.3.Q m b l l l x c l x c m m x c m m c m c m c m c m T b c m c c c c b c m c m Y b m c T c b c m c m c c m c m c b b c m c c m b T c m c T c T m c m m b c b m c c m b m c c m T m m m c m c m m c b c c m b m c c m m m c c m T m c c m B  .x.4XlXOXh.Z b c m T m c c m m c m m c c m m m m c T c m b m c m c c m c m m c c b c m c m b c c m Y m b c m c c m T c m c T c c m m c m c T m c m m c m c T c b c m c c m c T c b c m m c m c m c b c b c c T c m c m m c c b c b c m m c c c c m Y m m c T c c m c m m m c b m Y c b c m m c c b b c m c c m m m c b c T m c c m c c T c m m c c c c m z ` ",
"c B x m m c c c m b c m m m m c c c x x x c z x x c c c x c c c c c c c x c c x c c x c c c x z z x c c c x x z c x x c f x f x x f f c d f x c x z d x f x x f d c f d x x d f x d f d x f f a d d x d x h d f d f N d f d d d d d t d d d d d d d d d d d d d x d d d d d d d i d d d d d t d d d d d d t d i d d d p d d d p i d d d d d d t d d d N d d t d d d d d d d d d d d d d d d i d d d d d d d i d d g d d d d d d d t d d p d d d d d d d d d d i d d N t i d d t d d d t d d d x d d d d x d d d d d d N d f d x x d x p N d d d f f x d d f x x d f x d d f c d d c d x f N f d d f f f c d x z x c x f c x x c f z x f x c x x x x c x c x c c c z x c c x c c c c c c c c c c Z O.0.M.Q.MXBXoXL.9.@.B c f c c B c c x x c c c c m m c c m c m c m c m c m c c c m c b T c m c b c m c c m m c c m c m c c m c m c T c m c c b m c c m c c m c m c c b b Y m c c m m b c c m m b m c c c m b c c m b c m m m b c m b m c c b m m b c c m b m f 2.-.6.G.6.2.c c b m c c m m b c m b c T m b c c c m c b c m c b c m m c m c c b m Y m c m c c m m c b c c m c m b c c m c m m c b c m c c c c c m c m c c b c m c m T c c c b c m c m c c m T c c m T c c c m c m c b c c m T c c c m c c m m c m c b c c m c b b c m c c c m c m b m c b Y c m m c c m c m m c c c m c c m c m m c m b c b c m c m c c m b ` ",
"l m c m c c c m m m c b m b m c b c c c c x l c c c x c x c x x l c c x x c c c x z c x l x c x x c x x x c c x c x z x x f c c f x x c c x z x d z x c f x x f x d x d f x f d x f d x a x x d d x d d x d d N N f d d N f f d d d x d d d x d x d d d d d d x d d d d d d d d d d d d d d d d d d d d d d d d d p d d d d t N d d d d d t d d t d d t d d d d d d d d d d d d d t d g t i g d d d d d d d d d d d g d i p d d d d i t t i d d t i t N d d d d d d d d d d d d d d d d d d d d d d x d d d d d d d d d d x f p f d d d d x d x d x f d x f x a x x f f c d f f f x d f d f N f d f x x x l d c f f c x c x f f x c x c c x c c c c c x c c c x x c l c x c x c x x x l x c c f c B O.k.N.pXgXoXk.<.V c f l m c c c x c x c c c m m c B c n c c n c m c m c c m m c c b c m m c c c c m c m c m m c c m m c b c m c m c c m m c c T c b b c m c c c m c c m b T b c c b m b m c c m m b m c c m b m T c b m c c m c m b m b m c c m m m m c c c m  . .Q O. .c b c m m b m m c b m c c m b c c m m c c m c m m c b c c m c m c c b c Y c c b c m c b c m c m c b c T c c c m c b c m m c m c c m c b m c m c c c T m c m m c b c c c b c c T c m c T c m m c m c c c m m c T c m m c m c c m c b c T b c b m c m c m c b c m c m c c m c m c m c c m c c m c m c c m c c c m c b m c m c m c c m c m c c m c ` ",
"l B c m m x m m c c m n x c m x x c x c x z l x c l x c z c c c c x c c z x x c c x c c c c c c c c c c c c x z x z c c c x x f c c f f c d l f l f l d d f d d f f f f d d f x d f x a d f f d c d c d h d d x d d d x d d d d d d d d d d d d d d d d d d d a d d d x i d d d d d d t d d d i g d d d d d d d d d p N d d i d d d t t g t g d d d d i d d i d d d d i i d d d d d d d N d t d d p d d p N d d d d d d t N d d d d d d N d d d d d d p d i d d d i t d d i d d d d d d x d d d d d a d d d d x x d d N d d N d p N x p d f f d d f x d x d d f f d x d d x d x d d c d c d f d f x l f f f x f c x c f f x c x x f f c x z x c c x c x c x x c x z c c x z c c c c c c c m m m c m  .2.m.4XpXM.<.m c x x x x l l c l c c c x b c c b n m c m c m c c m c m m c c m m c c c c m m T c c m c b c c c b c c T c m c m c m b c c c m c m c c m c m c m c b m m c m m m m m T c m m b m c m m m b c m c m b c T m m b m c c Y b m m b m c b m m b T z s c c c z c b b c c m c c m c m b m b m m b m c b m c m c c m c m c T m c c m c m b m m c c T c m m c m c m c c m c m c m m c c T c m c T b c c T c b c T m c c c b c c m c m T m c m b c m c c m c c c m c m T b c c m c m c c m c m b Y m c c m c m c c m c c m T c m c b c c b c m c c c m m c c m c m c m m c m m m c m c c m c m c m c m c T c c m c ` ",
"x B x b m c c n m c m c x c c x x c c l c c c c z c c c c x x c c c l c c c c c c x c l c x x z c x l c c x x c z x x f f z x c x f z x x z d l c x x c c d d c d x d x f x d x d x f x x d a x d f d d x d x d f f N d f f d d d d d d x a d d d d d x d d d d d x d d t N i d d d d d d g d d d d d d t d d d d d d t d d d d d d d d d d d d d d d d d d d d d i g t d d d d d d d d p d d d t d d d i t d d d d t d d d d d d d d d p d d d d d d d d d i d d d d t d d d p d d d d d d d x d d d d x f d d d x d d p x x d x d x N d d d d x x f a a d x x f x f d l d d f c d d c f x x f d c d l l x x c x c x f f c x z c c f x c z x c c x c c c z x c c c x x c c x x c c c l l d l x z c c O.l.@X<Xj.Z m m m B m c x c N x c c c x b c v c m m m m x c m c c m b c m c b c m m c m c m c m c c m T c m c T c c b m c b c c m c m m T m c c m m c c b T m m c b c b c c m m c m c c b m c m c c b b T m c c m c m m m c m m m c m c b m c c b c b m b T m m  .b b T b m m m c m b m T c c m c c c m c m c T c c m T c c m c m T c c m m c m c b c c m m c m c c c T c m c m c m c Y m c b c c b m c m c c m c c b c m c c c m c c m T m c c b c m m c m c c b c m b T m c m c c b c b c m T c c m c b m c m c c m T c m c b c c T c m c T m c c b v B B c m c m c m c c m n c m c c m m c c m c B m m c b c x m c ` ",
"z m b m b x b B c c c c c c x b c c x c c x x c x x c l l c c c x x c l x c l x c c c x c c c x x z c c x c c c x z x c x c f f x c x f c x d c d l f d c d d c d f f x d d f f a x d d f x x d d x x d f d d d N d d p N d N d d d x d d d d x t d d d d x d d d d d d d p d d d d g d d d d d d d d i t d g d d d d i i d d d d g d d i d d d d d g d d t d p N t d d d d d d d d i d d d d d d d i d d d d d d i d d d d i d d d p d d d d d d d d d d d N d d d d d d d d N t i d d d d d d x d d d d d d d d d d d d N f d d d f d N f N f f d d x x d f d a d f x h d c x d f d c d d f x l x z f x z l c f f x c x c f x f x x z c x z x l c z x x c c x x c c c x c c z c x c x c c N c f T a c A ). Xy.N c l l x f f c c c c c x c x B m B m c B c m c m c N m c c m c T c m c T c c b c m c b c b c m c m m c m c c m c c T c m c c b c m c c c c T c c c c m m c m T m c c T b m m c b c T m c m m c m m c b m b c c Y m c T b m c m c m T m c m b m m b b m B c c b b b T m b m b m c m c T c m Y b c m c b b c c c m c b c b c m c c m c m c m c c c c T b c m m c c m c b c b b c m c c m c c m c m c c m m c m c c m m c m b c c c m c c m c c m c b m c m c c c c m c c m c c m m c c b m c m c m c c c m c b c c m c m c c m c c b c m m c m c m m c m c m x c m c c m c m B c N c m c b m c m c m c x m c ` ",
"x c n c m m c c c c x x c x z c x c c x c c x c x c c c x c c x z x z x c c x c x c x x c c x c c x x c c c x z x c f f x c c x f f c f x f l d f x c d x c d x l d c d x d d x f f d x d x f f d x N f d N d f d d N d d d d x d d t x d d d x d d d d d d d d t d d d d d d d d t N p d d d t d d d d d i d d d p i d d d p N d d d i d d d d d d d t d d d d t d d d d d i t N d d d d d d d d d d d d N p d d d d d d g N p d d t d d d d t i d d d t d d d d g d d d d g d d x d d d d d d d x d d d d d d d d d d x f x d p N d d d x d x d a f x x d d x x d x d c d f f d c d c d d f x l d x d c x l x f f c x x c f f f x x c x c c x x c z x c c c x x c c x c c c x c x x c c x x c c c c B B ^.^.Q m z c x c c x z x z x z x l c m c x m m c m c m c m c c c T c m c T m c Y m b m m c m c m c m c c T c c m c c m c m b c m m c m m c b c m c c m c b c c m m c b c b m c m b c b m c m m c T c m c b c c m b c m b c m m c T b m c b c m m b c m b c m m b c m c c c b c c c m c b c m c c T b c c c m c c m c c c c m c m c m c m c m c b T c c m c c m c b m c m c T c m c m c c T c m c T m c b Y c m c T b c m c m c T c m m c m c m c c m c c b c c m c c m c c c m m c m c c m m c m c c m m c m c m c c c m c c m c b c m c B n m c x c m c m c x m c m c c m c c m c c m c m c B n m c n c c m x c b ` ",
"x c c c c c N c c x c c c c x x c x x z c x x c z x x c c x x c c c c x x c x c c c c c c l z x c c z x x c c l f c x c x f f x c x l x d c c d d f d f f d d f f x d f f x f x d x x a d x d x d d p x p f d N N d f d d d a d x a d d d d d d d d d d x d d d d x d d d d d d d i d d d d d t d d d p d d d d d N t d d d d t d d N t d d d d d d d i d d d d d d d g d d d d p d d d d d d d t d d d i t d d d d d d d t t i d d d d d g d d d d d d d d d t d d t d d d t d d d d d x d d d d a d x d d a x f x x d d N p d x d c d f d d d x x d d f d x d d d f x d d d x f d c d d c f x f x z l l f f c c x c f f c x c c c f l c c x z c c x c l x c c c l c c x l c c c c c c x c z c x m x c c g.^.m c l x c c x c x c x c x x c x c m c c c m c m c B c b m c m c c c b c m b m c c c T c b c T c b m c m c c b c b m c c m c c m c c m c m Y m m c m c T m c c c m m m c m m c m c T m c m b m b c T m m m m c b m m b m c m m c m c m b m c m c m c T m c c m b c m m T m b m m c c T c m c m c m T b c m T c b m m c c T c m c b m c c m c m m c c m m c m c c c c b m c c c c m c m c c b c c m m c m c c m c m c b c m c b c c b c m c b c c m m c m c c T m c b T m c c b c m b c c m T c b c c c c m c b m c c m m c m c c c m c b c c m c m m c m c c m c m m m c m x m m N m c c m b c c c c c m c B b ` ",
"c c b m c b c m c c c x x c x c c x c c z c c c c c c c c c x c x x c c c c c c c x x c l x c c x l c c x c x c c x x z c f c c x c c d f l l f c f d d x d c d f l f d d d d d d x f d f a x d x f d d x d d d f d d d d d d d x d d d x d d d d a d x d d x d d d d d d d d d d d d d d d d d i d t N d d p d d d d d d p d i d d p d i d d d d t t d d d g d d d d d d d d d d d d i d d i d d d d d d d d d d d d i i d d d d i d d t i d d d d p N d d d d d d d d d d d d a d d x d d d d d d d d d d d d d d d d p d d N d d p x N d d x d x x f d x f d d f d c d c d d x d c d f d d c f l f x d d x x d c x f z x c c x f z c l c x c c x x c c x x c c x x c c x c l x c c x c c c l x c x c c s.d.c c z x c c m c c x c c x c x c m m c m c c n B c m b m c b c c m m c c c m c m c c c m c m c m c c b m c m m c b c c c c m c c b c c b c b b c m c c c c c T m c b c m c m m b m c c m b c b c m m c m c m b T c Y m c b m c m c m b c c b m b T m m c m m b T m c m c m m c m c m c c c c m m c c m m c c m m c c b b c c c c c T c b c m c c m b c c m T c c m m m m c m b b c m c c b c m m c c b c m c m m c c b c m m c m c c m c b m c m Y c m c c m c m c m c c c c c c m c m c c c m c m c m c m c m c m m c B m m x B n c m m c m c m c c m c m c m n c c N c c m c m c c c n c m c m x n c m c c b ` ",
"x c c m m x c c x m c c c c c c l c c l x x c l x c l x l c z x c c c x l x c l x z c l c c c x c c x c z c x c l c c x c x x f f f x c x d c x d x c l f f x c x f x c x f x f x d a x x d f x x d f N d d x d d d N d d x a x a a x d d d d d d x d t x d d d d d d d d d d d d d d d d d d d d d i d d d N t d d d d d d d d d d d d d d d d d g d d i d d d d d i d d i d d t d d d t d d d d d g d d d i d d d d d d d d d d d d d N d d d d d d t d g d d d d d d d x d d x d t d d d d x t x d d d d a x d f N d d x x f x d N d d f d d f f d x a f x d x x d d f x c c c d d c x l d c x z x z c c z c c c x c x z x x x c x c x c c c x c c l c c c x x z z x c c l c x z x z c x x z z c c c l ~ 1.x x x c c c x c c c c c c c c c c c n c m c b n m m c c m c m b c c m m c m b m c b m m c b m c m m c m b m c m Y m b m T c m c T m c T m m c m c m m m b m c b m T c m m Y b c m b m m c m m c m b c m m c m c m b m c m b c m m c m m T c c m c c b m c m c c m m m c b c T b m c m m b c m c m c m c m c b c m m c m m b T m m c m c m m m c b c T m c c m m b c c m b c m T c c b m c m c c m m c b c m c c m m c c T c m c c m c m Y c c m b m c m m c b c m c b c m m c m c m c c m m c m c m c m c m c m c c m m c c m c b c n c m c m c n m x m c m c c m m c m m c m c m c m c m x m c m c c m c m b ` ",
"c c c m c x c m m m c c B c c c x c c c c c x c c x c c x z x c c x x c c c x c x c c c c c c x c c c x x c c x z x c c c c x c c x f c x f c d x f z d l l f x z x d d d f x d f d x a x d a d f f d x x d f p B d x d f a d d a x x a d d x d d d x d a d d d d d d d d d f x d d x d d d d d d d d t d d d d i d d d d d d d i d d d d d g d d p i d d d t d N p d d d d d t d d d d t t d d p N d d d d d d d d d d d d d t d d d d p d d d d d d i d d d x x t d x d d d d d d d d d d d d d d x d x x a d f d d f x h d x f d x f f d x x d x d d d x f a d x f d x c l d c d x l c f x l c x f f f x x z x c x c c x c c c c x c c c x x c c c x x c c z c c c x c x c c c c x c c x c c x c x c l c l c c c m c m c c B c m c m m c c m c m b c m c m c c m b c c c c m c b c m T c m m c m b m c c b m m m Y c c m b c b c c m m m m c m b c c m b c T m c c b m m c m m c m b c m b m c m m m m m b c T c b b c m m m b m c m c m b c m c c m m m b c c m m m T m c b c b m m c b m c m m m c c m c c b m m c m T c m m c m c b m c m b c m m c T m c m c m b c m T m b m c m b c c m m c c m c m c c c c m c c b c c c m m c m c c m b c m c b c m c m c b c c m m c m c c m c c c b m c m c c c B m m c n m c m c c m c m c m c c m c n c c m c m x c b c m c b c c m c m c m c m c m c m c m c m x v c m x c b ` ",
"x c x m B v c c N c m c x c x z c c x l x c x c c x c l c x z c c c c x l c z x c x l c l x c c l x c c z x c c c x x c x x z f c f x c x c c d f l x l x f l f d l c d x x a f f x d f x d x d d x d f d d N d d d d d x a x a d a d a x d d d d d d d d d d x d d d x d d d d d d t d x d d d d d d N d d d d d d d d d g t d d d d d i d d d d N t d d d d d t i d d d d d d d d d i d d d d d t i d d d d d p N d d d d d d p d d d d d d d d d d d d d d d d d d d d d x d x d d d x d d d d d d d a d k d x d d N f d d f d x d d x d f a x a f x f x d x d f d l f l c d x l f f d c d c f x c x c c f x x c c c x c x c z x x c x c c c c l x z c c x c c x c c c x c x x c c l c x c x x l x c c l l x m m c n m c v n m c m c c c m x m c n B c n c c c B c m T m m c m c m c b m c b m m c c m T m c c b b m m c m m m T m m b c m b c m m m c c m b Y m m m c b m c c b m c m c T c m b c c Y b m m m c m c T b c c m c T b c b c T m b T m m c m m T b c b c c m m c m c m c m b c b c T m T b m b m c m b b c b c c m m c m c b m m m c c b c b m b c m c m b c m T c m m T m m m c m m c T c c b c m c m T c m c m c c m b c b c c m c c c m c m x m c m m c c n c m b m c m n B c n c c c m c m c m c c m m N m c n c c c m m x m c c m c c m c m n B c B n c n c c c n c n c m c m c c c m c m c c c B c c ` ",
"c c c m m x c n m c n c b c c x x c x c c x c c c c z c c x c x x c c z x c c x c c x c c x x c c x c x x z x c l c c c z x c x x x f d f f c l l x x f f x x f x f d f a d d x d a x x f f a f a f x f d c f d p N c d d x x a d a x x a a t d d x d d f M d d d x d d x a d d d x d d d d d d d d d d d d d d d d d i d d d d d d i p d d d d d d d d g d t d t d d d d d d d g d d d d d d g d d d d d t d d i t d d d d d t d d N p d d i d d i d d i t d d d d d d x d d d d d x d d d d d d d x a x a a d d d x d d d d x x d x f x f a x x a d x f d f x d d l f x f l l f l f x l f x z f c x c x f c c c c z x c c z v b c c c z x l c c c c x z x x c c x x c l c c x x c c x c c c c l x z B B x c c B m m c c m c c N m m c m x c m c m c c c m c n c c m c b c m c c m c T m c c b c b b m c m m c c m b m T c c m c m b c c m c T c m m m m c c m b m m c m b b c T c b m b c c m c m b m m c c m m m b m b c b m m m c m m m b m c b m c c m T c m c b c m b m c m m c b m m c m c b c b c m b m m c c m m m b m b c m m m m c c c m T b c b c m c m c m c b m c c m c c c c b c c m c T c m c m c c b T c m c b c c b c c m c c m c c m c m c m b c c m c m m c m m c B m c m c m c c m c m m c m c m c c m m c m c c m c m c m n b m c m c c m x m c m m c m c m m c b c m m c n c c n c m m c c c m x c b ` ",
"x B c m c c c m c b c c m x x c l c c c x z c x x c x x c c x c x c x c c c x c x c c x z c c c z c c x c c x c c c x x c c c x f c c c c x x f x f c d l c d l l f x x d x f x x f d d d x x x x x d d d x d d x d d x l t x x x a a d d x x a d d d a d d d d d d d x a d d x d d d d d d d x d d d d d d d d d p N t d d d d d d t N d d t d d d d d d d d d g d d d d d p d d d d d d d d d d d d d i g d d d d d d d g d i d d t i d d d d d d d d p N d d d d d d d d d d d d d d d d d d d x d a a x a x x d d d d x d d f f x d d d x d f x d f x d f d x f c x f x x f c d l f x x d c x c f f x c x z c x x c c l x c x x c x c x c c x x c c x c c c c c x z c c x z c c x c x c x c c m l c c l m c x m c v B m c m c m c m c m m c n c c m m c m c m m c m c m c m c c b c m c m m c m c T m m c b m m c c m b m b c b m c m b c m b T c c b m m m c b m c b Y m m m m c c m m m b T b b Y m m b c c m c c m m c m c b m c m c c m c m b c m m c b m c m m m c m b b T b m T b b m m m c m m m c c m b c T c m c c m T c b Y b b m c m c m m m c m T m b m c m c b m c c b m c c m m c b c m c b c m m c c m c m c c m c T m c m T T m b c T c m c n B c c m c c b c c m c c m c m c m m c n c c m c m x c m c c n m x m x m c n c B c c m c n b n m c c m x m c m x c m n B c c c c m m c m c c n c c m c m m ` ",
"l B v m B n b x c l x z l x z l l x l l l x z c x l l c l c x l l x l l z x x l l x l x c x z x x c c x x c c x z c x c z x c z c d d c x f z x f l x f l c d x f d x x f d f d d d d f d d f x d x d x a x f d x d a d x a a a d d d d d d d x d t d d d d x d d d d d d d d d d x d d N d d d d d d d d d i d d d d d d d d t d d d d d d d d i d d d d N p d d g d d d d d d d d d d d d d g d d d d d d g d d t d d d d d d d i t N d d d t N d d d d d d d x d d d x d d d d d d d d d x f d d d x a x a d d d d B x d f f d x d x l x f f x d d d x f d x c d x l l f c l l d l d c l d c c x f f c x c x c c x c x c c x c l x z x z x x c x l l l x x l l l x l c l c x l c l z x l l x x x l x l x x c b c c m c m x c c c B c m c c m m m m c m c m c c m c m c b T c m c m b m c m c T b m c c b c c m m m c b m c c m m c b m m c T m b c m m m c c m m b c m b c c m b m c m b c c c m b c c m m b c c m Y m c T c c b m m T c c m m m m c m m m T m c b m c m m c b b c m T m m c m c c m m m c T c m c c m m b m m T b c T m m c b T b c T m b c c m m b c m m c m c m c c c b c c c c m c m T c m c m b c m m c m c c m b c c m c c n c m m c m m c m c n c c B  .c z ..T f ..x x c T c c x c c m c c B c m c c m m c m m c m N m m c m m c c B c c m x n c c m c N m m n b c n c b c m c c m c m c c x c b ` ",
"z c c m c m c c x c x c c c x c c z c c c c x c b c z x x c c c c z c c x c c c c c c c x c x c c x c c c x x z c x x c x c c x x c c c c c x f z d c d d l z d x d d d f x x d x f x x x x a d d f f f x d f x a f x a x d x a d d x d d d d d d x d x d d d d d d d x d d d d d d d d d d d d d d d g d d d d d d i d d d g d d p d d i d d d d d d d i t d d d d d d i d d d g d d d d d d d d i d d d d d d d d d i d g d d d d d p d d d d p d d d d d d d d d x d d d d d x d d d d d d d d d d a a x t x d x d d d d N d d f f x d x x d a f x f x d d c x l f f c x d d d c f x x f d c f x c x c f c x x x c c c c x c c c c x c x c c x c c c z c c x x c c c x c c z x c c x c c c x z c c c c c c m c m m c m c m c c c n b c n b c x c c m c m c c m c c m m c m c c m T c b m b c m c m m m b m m b c b T c m m T m c T m c m b c c m c m c b m b m c m m c m m m T c c m c T m m m c m m b m c m m m b b c m b m m T c c b m m b b c m c b c b c m c T c c b b b m Y m m c c m b c m m b c b c m m m T b b c c T c c m m c c b m m c c m m c m m b m c m c m m c c c T m m c T m c m m c m c m c c m c c m c c m c c m c c m c c m c c m c c n c c m c m c m m c v l a x B c x x c m m c x B c b c m b n m c c m c c m x c b c c m c c c c n m c c m c m c m m c m c c c B c m c B n m c m m c n m c c x c b ` ",
"c c x m m c m x x c c x c x c c x x x c c x c c c x x c c x c c x c x c x c c c c x c x c x x c c x x c c c c c c x c c x c x f c f c d f x f x x f l c l d x d d d d d d d x f f d d d f d x f x f d x d x d d d x d x a d d a l d d d d x d d d d d d d d d d d d d d d d d d d d d d d d p d d d d d d d t d p d d d d d d d d d p d t N d d d t d d d d d d d d d d d p d d d t d d i d d d d d d t d d d i d d d d d d d d d d d d d d d d d p d p d d d d d d d d d d d d d d x d d d d d d d d x d d x a x d x d x f f d x f d d x d x f d x f f a d x d f l f x d x f c c f x f c c c x f c c f c c c l c c c x c c c c l c x c c x x c x c x c x x c c c x c x x c c x x c c x x c x c c x x c c x x m m c N c m c c B c m N c m c m n b m m c m c c m c c c c c c c m c c m m c m c T T c c b c T c m m c c m c m c b m m c m c b c m T m m b Y b m c m c c T c b T m m m b m c m c m T c c m Y b c m c m m c c m c m c m b m c m m c m c m b m c c m b m m c m c m Y c m b c b m c m b T c c c m b m b c c m m c m m b m m c m b c m m b m m T m c m b m c b m T c c c b c c c m m c b m c b m b c m c c c c c c c c b c c m m c c m c c m c c c c m c x m c c c m m m m B V $.%.+.Z n m b c m m c x c b m c c n m m m m m c m x m c m c m c m c m c n c m c m c m x m c m c m c n c m c c x c x c m c c m c c b ` ",
"c m c c c c m c c c c c c x c c c B c c m x c c m c c c m x c N c c x c c c N c c c c c c c c c c c c c x c c x d c l x f x c c c N c x d c x c x c x d c c x c c x c x x c x f x x c d x x d B d x x d x a f x f x d a t x M f x d d x d d f d d x d d x d d x d d N f x d x d x d x d d d N d d d d d j d d d d d N d t d d d d d N d d p d d d d h d d d d d d t d d t N d d d d p d N t d d j d d d d d d d d d d d d d d h d d d d d d d d d N d d d d N d d d x d d x d d d x d d x d d x d d x a a M d d f f x d d d x x f x x d x x l x f x x x x x l c f x x c d c x x x c x c d x d c x f N x d x d B x c c c x c c x c c c c x c c x c x B c c c c N c c c c m c m c x B c c c c c c c c c c c c c c c m m m c b c n c m m m c m c m m c c m m B m c m m m m m m m c m c m c m m m m m m m m m m m m m m m m m m m m m c b m m m m T c m c m m m m m m m b m m m c m T c m m b m m m m b m m m m m m m m m m b m m m m m c m m m c m m T m c m m m m c m m m m m m m m m m m c m m m m m m m m m c m m m m c m m m c m m m m c m m m m c m c b c m m B c m m c m m m B m m m c m c m m c Q c m B c b m b m m m b m m m m b c m m m c m m c m m m m c m m c m m m c c b m O.$.B.R.G.4.Z v c n m m b m m c n b b m c c x c b m m c m m c n c m c m c m c m c m c m c m c m c m c m c m c c m m m c m x c c m x c c ` ",
"x B c B v m B v m c c m c N m m b c c c m c m m c c c c c N c c N c m c x c m c c c v c c c x b c c x m c c x f c x x l x f f N d d c N c d c d N c x x d f x c x c d l c x x c x c d f d x f d d c x d d d x f d d x d d d d c d d d f d d d x d d N d d d d N f d d d d d d d d d d d N d d d t d t d d p N i d t t d N d t d t j d N j d d j N t t d d d t t N d t d d i i N N t d d d d N t d d d t N i N d j d t j d d d t t j p t N d M d d d t N d d d d x t N d d d p x d c x d d d d p x d d d x d d x d x d x f d x f d c c x l c d N d x c x x f x c x x c x x f N c B d d c x f N f f x c c d c c x c x c c n c c c N c c c c m c x N m c c x c c c c c c c c m c m m c c m c m c m c n b c m c n c c m x c n m c m m c m c m c c b b m c n c m B m m B m c m m m m m m m b m m m c m c m m m m m c b c m m m T c T c m m m m c c m m m m m m c m m m c m m m m c m c m m m m m c m m c m m m m m c m b m m Y b c m b m m m c m T m m c m m b m T m m m c T c m m m m m m m m m T c m m m m m T b c m m m T m m m m c m m c m m T m b m m T m m c B m m c B m m c m m m m c m c B m B c m c c c B b b x m m c n m m c c m m c m m b m m c m n m c b m c b b c m b b v m $.G.8XgX8XJ.@.v c m m c m b m c c m b c m v b m c b m c b c m c m c m c c x c m m c m c c c n c m c m c c c m c c n c c c m m c c x c m ` ",
"c c c m m c m c m c m c c m N c c m m c x m N c n B x m c c N c B c x c x B N c c N B c c N B c c c c B x c c x d c B d c x x c c x d c x f N c f x f c N c N d d c B x d x f x f x c x c d x f x d f x x f x a x a d x x x d d d x d N f N N p x x p f d x x p N d f N x d N d d N x d d d d t N d j d t N t d j d j d d j t d d t d d d d t t d p N j d j d j t d d j t N d d d d d j j t d d d t d j N t d j N t t d d N d d d d N t d d d d d M d j p N d d d N d d d d d d d N p d f x N f d d N t d x x d a f f x a x d f B d d p f x c c c x d B c N f x c d N f c d c d x c x c c x c x x l d x c x d d x c N c B c c c c c c x c x B c c x c N m x B N c x m m m c m c m x m c N c m c c B c m c m c m m c m m c c m c x m c m m b n m c m c b m m m m m c m m c B T m B c m T c b m m m m c T c m m m m m c m c b m m m m m c T m m b m m m c m m c m m m c m m c m m m m T c m c m m m m c b c m b m T m m m m m T m m c m T m m m m m m m m c m c m b m m m m b m c m c b T m c m m m m c b m m m m c m b m m c m T m m T m c m b c m m B c c m m m m m m T c m B c m c m B m c m m m m m m m m m m m c b c b b c c m b m c b m c n x c b m c b c m c m m x m m c m m B $.[.BXHXcXI.3.m m m x x m m b m n m m m c m m c m m b n c m B c c m c n m c m c c m c m b n m c c n c m m c c n m c c m m c c c m c m b ` ",
"d B x c c m c m c m x m m c m c c N m m m c m c c c B c N B n c x c x x x x c c c x c c B m c c x c c c c c x c N x x c d x f d N d c x x x x B c d c d c d c f N c f l B x d c l x d x d x d f f N x f f x d d d x M d t x d d d d d f d d d x f d d x p N d d d d f d d d N d d d d d N d d d p t t N d d N d t d N j d d d j t d t d d d N t d d t d t i d N d d d d N d t j d N d t d t d j j t N d d j d t i d d j d j d N t d t d t t N d d d d d d d d N d d d d x d d N p d d N N x d x N d x x d d x a x f d d x x d x d x c N l x d x d c x c d c c d c N c d N c x d l x d N c N d c B x d c x c c N d x c c c c c c c c B n c c x x c c B c c x c c B n m c m c c c m c m c m c x m m c m x c c c m c B m c m c c N m c b c c m c m b n m b m b m B m c m m m c c B m m m c T m m m m c m m m b m m T c m m m m m m m m m m m m c m m m b T m c m m m T m m m m c b b m m m m m c m m c m T m m m m c m m m m c m m c m c m m m m m m m b c m c m m c m m T m m m T c m c m b m m m c m m m m m m m m m m T b m m m m m m m m m m m c B c m m B m c c B m m m m m T B c m m m m T m m m m m c m m b m m x b c m b m c m b c m c m c b m x b b c m n b m c m b c m m c l o.G.6XgX8Xv.&.m m m b x b c x m c c c c m c c m c c c c m m n m c c c B n m c c b x n m c B c B n c c m c m m B n m m c n n m c c x c b ` ",
"c c b m n c B b m c m c c m c m m c m c c m c m b x x x c c c x c n c B m c c N B x c N x x x c m c c x x c c l c f f x x c N c c c x f f x l d c x x f N c x x d c x x x f x c x B d c B d c N f f d x d d f x d x d d x d N x d f d N f x d p N d d d x d d c f N d d N d d d x d d M d t N d d N p N t j d t d d d t d t d t N d j d N t p d j t d d N N d i g N t j t d t d d d j t d N d t d d d t d d d t t N d d t t d t N d j d j d g d d N t t t N d N N N N f d N c d d x x f d p d d d d d d M d d x d x a x d d x f c d d f x B d c c N f d c N x c d f x c f x c c x f c x f d c x d c x c N d x d x x d B c x c c n B c c N x c m x m x c N c N c b c c m x c m m c m c m c m m c c m c m m m x c b n c m c m c m c c m n c b m b m c m c m m T c m m m B c m m m c m m m m m m c b m m m m m T c m m m m m m c m T c m b m m m m c m m m m m T b m c b m T m m m m c m m m b m T m m m m m m T c m m m c m m m b m m m m c b m m c T T m m m m m m m m c m m m m m m m m m m c m m T T c m m c m m c m m m c c m m c m b m m c m m m m m m c m m m m c m B c m m m m m c B m c m m b b c m m m c c b m m c m c n b c m m b x m b m c m m c m b c x m b c m m b m c n $.5.n.R.F.h.o.m b z m m m c m c c m c n c m m c n c c m c N b c n c m c b c B n c m c c m c m c b c N m m c c c b c c m c c c c m x c m / ",
"c m m c c c m m c c m c c m c c m N m c B c c m v n c m c n x c c N x c B c c m c c c c B c c c c z f c c d f x c d c d x f c d c c d B l d c f x c f N c x f N d B x f x c c d c d N f d B d c f N d x d d x c t M x c f t N d d N f d f d d x d d d N f d h x f d d d d d d d x N d d j d t i N f b M M p s N t d d t N p N d d j d t t N p d d d d d t t N g d d d t d d d t j d d t t d j t N t j d d t t d d d d t d d t t i N d j t d N d d N a a x N N C N A Z N B c x d x d d d d d f d d d M d d x d d x d d x d c N f d x f N f x f d B x f x x d c x B x l x c d d c x x c d c x x c d B x c x c d N x c f c c c c c c c N c c x c c N c c N c x n c c n c c m c c m c c m c m c m m c m c c m c n c c m c m m c m b c c n b n b c c b c x m c m c B B m m m m c c m m m c m c m m m c m m m m m m m m m m T b m c m c T m m m m m b m m m m b Y m m m b m c m c m m c T m m m m m m c m m c m c m m m m m b m m m c m m T c c m m m c m m m b c T m m m c m b m c m T m c m c m m m c m m m m m m m c m m c m m c m m c m m m m b m m m B m m c m R B m m c c m b B m c m m m c m n c m c m n m c m m m c c n c m m c x b m c b m m c b m c m m m x b m c c b x m c c m m Z O.2.@.m m B B c m c B c m x m c c b c m m c c m n c m c m c c n m c m c c m c m m c c m c m c c m c c n c m n c m x c b c c c d b c ` ",
"z m c m B c m c m m c m m c n m m c c m n c c c c B c c c m B m c c c m x c N c c m x c c c c b c x B c x c N c x c N c x c N x d x l x x B x x B d x c d c d c c x l x x d N f x f d c c f x d d f d d d x d s N d d f x N d d d d f d d N N p f x d f d d d f N d N d N d d d d t d x d t N i N d i i i y t d d N j d N t t p d t p N d j t N j t d d j d d d g N t N d j t d d N d d d d d d g d d t j d N i t j d d j d N d d i N t t d d d d d x x C A A @.@.8.A A B B N x f d d x d d d d d x a d x t x x d f x d d d f f x f f f N c x c d l x x z x d c d c x f c x c N c d x B d c f x x x d c f x c f d c N c B c c x c m N c n B x c c m c x c B c m b x c m c m b n x m c m c m c x B c m m c m c m m c c N c m c m m m m c c m m m m m m m m c c m c m m c m B m m m m m m m m m T m T m c T c m m b c m m m T m m m m b m m m c m m c T m m m m c c m m m m b m m m m m c T c m m m m m m m m m c T m c m c m m m m b m m T m m m m m c m m m m m m m m m T c m m m b m m m m m m T m m c T c c m m m m m b m m m m T m B m c c B m c c m m m m b c m m m B c m B m m B c c c c m c b b m c b b c c b m b b m c m b m m c n b c m x m b x b c m b c m m m b m m c c v m m B m Z m m m v m c b n m c m c m m n B c c c m m c m c c c m c c c n c m m c m c c c n c n c m m c m c c m c c m m c m c c m m c m z ` ",
"x m x m x m m c c n m c c m m c c m m c b c c x N c c x c x c x B x x x x c N c N c B x c c B x c c c x c d d x d c f x f x d c c x x f c d x c x f x x d c c x c d c x c N c x x c h x d N l f d h x c l z c f Q ~ z l N N x d d p N d d f d d d p x x d x d x f d d x d d x M d x d t d d d d t t p j j d M g d t t d d d j N d d N i d d t d d p N N j d d t d t d d d j d d d d j d t N d t d d N d d d d N t j N d d t d j t N t d j d d x d d N V @.&.0.y.r.9.y.9.@.A V x N d d d h x d N x d d x d d N d d x x f x d f N d B d N c d x c c f x B d c x c d x d c x c d f d x x f f x c x f z x x N c d N c d N c c c c B c m c c c c x c N B x m c x x m m m c m n m c B c c m c m c m c n m c x c b c m c m m c m c c x c n c b c b n c x m c B m m m m c m m B m T m m m m m T m m m T m m m m m m c m m m c m c m m m m m m c T c m m m c m m m m m m T m m m m m m c m m b m m m c m m T m m m m m T m c m m m T m b m m m m m b m m m b m m m m m c T c m m m m c m T m m m T b m m m m m m T c m m m T m b T m m m m B m c c Q m m m m m m c m m c c m B c m m c c m c m m x m m c m m c c m c m x c n m c c c b b m b m c m c c b b m b m v m c m c n B c c m c m m c c m x n c m m m b c x m m c m c m c c c n c m c c N m c m m m c c m m c c c x m m c m c c m c m x m B n c m c m b c c c m n c m b x m c ` ",
"c m b m c c m m m c N c m c c m m c c n c x n B B c n B c x x c c n B c x m c c B c c c m c c c x B B x c x c x c N N c d c c N x d c x x f x d l x c d B x f x c N d f x f d c c d x l f x d x c c d l f l x x 1.g.B x d d a l x d N f d N d x d N d d d d d d d N d d d d d d d d d N d M d V d j Z +.+.A d d j d d d t d d t d d N t t d N i t N i t d d t N d j t N t t d N d N t t d j d d N t t p N t j d d d d j t d d t d d d d d N d x d N V A &.0.z.A.H.M.v.c.0.8.@.B B N x d d a d d d x d x d M t x d f d d f x x d x d f c x d c x x x c d N x f x c c N x f N c x c z x x N c d x x x d c f d c c x x c c c x c c c c x B N c c x c c x c B c x c x c m x c c m c m m c n x m c m b c m c m n B c n c c m c m m m b m c m m b c m b m b c c m B c m m m c m c B b b m m c m c b m c m b m m c m m m c m m m m m c c m m m m m c m m m c b m m m m m m m c m T T m m m m m m c m b b m b T m c m m m m c m m m m T m m m c m c m m m Y m m c m m m m m m c m m m m m m m c m m c m m c b m m m b m m m c m m c m c m c m m m m c m c B m c m m m B m m m m m m m m m m b c b m c m m c v m c m m b b m c b m m m x c x m b c m m n m c c m c c m c b c n m m c N m c n c c m c m c c c x c m c c m B c c m x m c m c m m c m c x c c n b n B c m m m c m N c m m c c c c m c b m c n c n B c m c m c m b x m c ` ",
"x m c m c n b c c m c B m x m x x n c c v c x c x B n c c c B c c c N c B x n x x c c c c c B c n c x c c x x f d c x f d c x f f N N c f x N c x c x f x c x x c x c c x f d c d x c d c d N h c d d c l N B N i. Xj M p i d d d x x d t x d d d d d d N d d N x d d d a M d N M d d M d d t t B O.z.{.E.3.Q d d N i M N t d M t j N d d t d N d d d N d d t t d M d t d d d d j d d d t N N d d t N g t N d d N d t N N d t d d g d t d N d x N x V &.9.c.J.W.W.W.U.U.S.9.r.A B x f d d d x x d d x d d t x d x a d x x d d c d c d B x d c d x B x f c x c d x c d f x B x f x c x c d c x f x x f x x x f x x c x c x B c m n c m b x m c m x b c c n m c n c m c m c m c m c B m c n c c c c m c c c c m c m c n c n c c m m c m x b m c m m c c m m m c B c B m m B c c m c m m m m c m m m b m T m m c b m m c m T c m m m m m c m c m T m c T m m m T m m m m m m m m m c m b c m m c m m m m m m m b m m c m m m m m c c T m T m m c m m m m m m m m m m m m m m b c m c m m m m m c m m T m c m c m m T m m m m m m c m c c m m c c B m m B c m c B m m c B m m c c m c m m c m b m b c m b n b b m m m c b n c b m c m m x b m c b c m b m c m m b x c n c c m c m c c n m c m c c m m m c m c c m x n m c m m c m c n m c m c B n m c m c B n b c x c c B n b c c m m n b c c m x m c c m c m c m c c c m x m b ( ",
"c b m c c c c m m c c n c m c m m c c n x B c x v c x m x m n x x c B c c x c c m x c N c c x v c x x x x c c x c x x x x c c x d c d c d c f x f d c N l d x f d x d N c N c x x c N f f N f d d d f f d d x #.|.eXf.M x f N x d d d x d x d N c d x x f d x p p N x d d d d d d d d d N t d t N &.oXZXBXE.%.d d N d d d d d d d d d d d N d N d N d t d N d N d d d d d N d N t d N t d d t d d d x t x d d t d d d d d d N d t N d N d N d d h V @.9.c.J..X1X9X9X1X.XL.c.r.@.N x N x d x d d d N x d x d d x d x x d d c c d d x c x c x x f x d c x f x N c f x N c x d c x x d x f f N c x c c x c c x x c c x c x x c x b m c x c n c n c m c n n b x c c n c m c c c n c b n c m c m m c m c m n n c c m c b c m c m m c m b c m c m b m m b m m m m m b m b b m m m m m m m m c m m c m m m m c m m T m m T m m m b m m m m T m m m m m b m m m m c m c c m c m m c c m m m T m m m m T c m c m m m c m m m m b c m m m b m m c m c m T m m c m T b m c b Y m b T m m m m m m c m c m m c m m m m m m m m m c m c m m m m m m m m m m b m m m b m m b m b m m b m m m m c m b m m c x m b m c c m x m c m c m c m c m b b c m b b m m c c x m m m c c m m c c m c n c c b c c m m c m c m c m c m b m c b c m x x m c m c c B c m c b c m c b n B c m c c m c b n B m x c B c m c b m c c m n B x m c n c m c c m c / ",
"c b c m B n m m c c b c m c c n m c b x n c c c c m m m m b m c c m n v m c v x c N c N n c c x x x c x c x x c x x c x c x x c c N c x x f N c N c x c f x c d d c d c d c c x c N c x c x x d N c f N d N A M.qXMX;X0.Z a x a x d d d d x d d d N h d N d d f d d d d d x d d d t N x d t j d h &.oXAXZX.X+.t t d d d d N x d N d d d d N d t t N d d d d d d N d d N M d d t N d d d d d d N d x d d x d d d N t N d t x d N d d d d d t a x V Z @.w.D..X2XzXVXZXzX5X.Xc.h.@.Z x d d x d M d x d t x d x d x d N x d x d f x c x c c x x c x f x c x f N f x x c c d f x c x c x c c x c N c x c x x x c c x c x c N c c B x c m x n c c m c c n m c n c n c x m m c B n c m c x m c c m c m c n m c m c m m c m m c b m b m c b m b b m c c c m c m c m m m m T m m b m b m m c m m T m c m m m m m c m m c m b m m m m m m m m m b m m m T m m m c m b c m m c m T b m m c m m m m c m m T m c m m b m m m m m T c m m m b m m m m m m c m T c c m m m m m m m c m m c m m b m m T m m c m m m m m m b m c m c c m T m m m m b T m m m m m b c m m T m m m n c m c c m b c b m m x x m c c m c b m c m c b c b b m n c c n m m c c c c n m b m c b n c m b c b n m m c b m m m m m m c m m c b n c n c m c m c c m m c c m m x n b m c m c m c c m c m n c m c m x m c c n c m n c B n m c c m b c m c m m c c B x m c ` ",
"c m n c c c m c m m c n c c m c x n c m m c c m Z m Z Z Q Z Z b n x m c x m c B c m c c c c c v b c x c x x c x c c x c x c x x x f d c c x c d c d d c x l x B c N c x f N d c x f d c x f c N d d c E i.).OXwXGXIXBX5X|.g.t.d d x M d x t x d d p d d f d x d x d d M d d d M x d d d d d d x i A M.OXOXk.V x d d N d d d d d d d d M d d d d d d d d N d d N d t d d d d x d d d N d N d d d d t x d t d N d d d d d x d d d d d N d d x d d N Z &.k.J.OXtXDXPXIXVXsX&XJ.z.8.A B N f d a x d d d x d d N d d d c d c d B d f x f d x f x x c z x d c x c d c d c x x z x d c x f d N c d f x c x c x c x x c x c x c m x c b m c m c c n c n m c x m c m x b c n c m c b c m m c m c m c N m c c c m c c n c b n c m b c x m m x m c m c n b c b b m T m m m m c m m m m m c m T m m b m m m m c m m m m m T m m m c m c m m m m c m c m b m c m m m m m m m m m b m m T m m m c m m m m m c m m T m Y m m m c m m m m c T m m c m m b m m m m m m b T m c m m m m m m m c m m c m m m b T m b m m c m T m m m m m m b m m m m m m m T m m m m m m c m m m c m c b m v c m c m c c b m b m b c n c m m b x m n m c c m b m b x b m m m m c b m c m b c m m c m b c c m b b x m b c x x v x b m m c b b m c m x c m c c c m x m c m c c n c m c m x c c m c m c m c m c m c c m c m c c m c c m c n c c m c N c m c l b c ` ",
"c B n m c c B n c m x n c c c m m c m m x c m .. .O.<.O.3.$.>.O.m m c x c x x c c c N B x x x c x c x c x x c x x c x c x d c f c N c x x f c d x c c d c c N c x c d f x c f x d c d c x f l h d d h ~ g.|.3XfXHXIXAXwX;X/.a.d x t x d x t x d x d N d d d d d d d M d d x d d t d d d d d d x x N Z @.A Z N d x N d t d x d N d d d N d d N t d N d d d d t N d x d N d d d d x d t d x d d d N d d x d d d d d d d d t N x t x d d d t x d N N V 8.z.U.1XlXJXIXIXDXzX&XJ.c.8.@.N x f d x x d d N x d t x d x N d x d c d f N x c N c f x x c x d c c d d B d f N f x f N f x c d c d c d x c x x c x c x c x c c c x x m c m m c x n Z m x b x b m x b c c n n c m B n b m c m c b n c m x m m n b b c b n c m m b x v c m b c b m b m c c b m m m b m T m c m Q b c Z c z m T m m m m c c m m c m m T c m m m m c T m m c m m c m m m c m m c m m m c T m T m m m c m m T c m m b m m m b m m b c m m b c m m m c b m m m m m c m m T m m m m m m c m m b c m m m m T m T m m m m m m m m c m m m m m m T m m c m m m m b T m m m m m m m m m T m b c c m c c m m v c m c n b n m c c m b m b m c m c c m c m b m c c n c c b c c b x b m c m x m m c x m b m m n m b m b n m b b c n c m c c n m c m m c m m c m c m c c m c c n b c n c c m c n m c m m c c m m c n m c m c m c c B n c n c m N m m m c m c n b c m c / ",
"x c c c c m c c n c b c c n n c c n c b m m B Z @.y.h.h.h.h.&.3.O.B c x c B x B x c c c c x c x c x c x c x x c x z c x x c N d d f x d c x x l N d N c x d c d f N c N c d N c c N c x f x d x f d x d N A _ E.pXZX>Xm.A N c N x x d t x d d d d d d d d x d N x d d d t d x d N d x N d N d t d d N N N N d d d d x d d d d t t x d t x d d x d d N t x d d d d d d t d x d M d d N d d x t x t d d N d M x d M d x d d d d d N t x d N d d x N A &.k.I.*XeXFXJXPXVXlX&XJ.k.r.@.N x d d d N d t d d x N d t d d d d x d B x f f d c d x x c d x c N d x c x x x f c d c f N f x c N c N c x x x c x c x c x l x x B c x B x x c m b x x x v c n c c n c n m c c m c c m c c m c m c B m c m c c B m c m m c b m c b m m c m c n m c c b m m m m m m m c m m B b m m v m b >.m c m m c m m m b T m c m m m b m m m m m m c T m m m c m m T m m m m m m m m m c c m b m m m m m m c m c T m m m c m m m m m m T m T m m m c c m m m T m b m c m c b m m m m T m c m m c m m m m m m c m c m m m c m c T m m c m m m m b m c m c m c m m b m c m m m m c m m m b b m c m m c b m c c b m m b m v x b c c m b b m m c m m m m b m m m m n m m c m m b c b m b c m b m c b c m m c c c n b c m m c m c c m c c m x c m c m x m b n c m B c m c c m c m c c B c c m n c c b c c m c n c c m c b m c m c c m c c c m N b c c n m / ",
"z m c m c m m c x m c c m c n b x n c x c m @.! &.k.S.K.D.z.0.5.$.Z B m x B c x B n c c x x c x x x c x l c c x x x x c c c x c c x x c d B B x c x f d x c x f d c f x N c x x x d N f N f N d f x c x a t t #.;XeXl.C d N x t d d d x d d t N x N d d d d f d N d x d x N d x d x d t t N d x x d d t t x N t d x d d d M d d N d x d t N d d d d d x d d x d d M d d d d d d d M d N d M d d x N d t d x d t d d t d x t N x d d d d M d d x x A 8.h.S..X2XsXBXZXsX7XW.c.9.8.A N x d x x x d x d x d x t x x x x d x x d c f N c c x c d N c c c x c x c z x x x x B x N c x d c f x f x x c c x x z x x x c c x x x x c x B B m B v c b Z n c c m c x b x m m c c n c n c c x m m c c m m c m c m c m c b c x b c m c m b m c m b n c m m c m m m c b m m m c m  .m  .m  .m m m m m c m T m m m c m T m m c c m T m m m c m T c m b m b m c m m m m m m m m m T m m m m m m T m c m c m m m m m T m m m m m m m m m m m c m m b m c m c m m m m m m m m m m m m c m b m m c b T m m m m m T m c m m m c m c m m m T m m m T T b m c m c m m c m b m c m x b m c c m b b c c m m m c m c c B m b Z x l  .n c m c c b b c m c c n b c b m c b c c m m m v m m v m b n b m c m c m B n b c c m c c m m c m c m c N c m m c c B m c m m c c m c m c m c n m c c c m c n m c c n c m m m m c c m c c m c m c m c m x c B n v / ",
"x c c m m c c n b c n n x m c x b c m x n @.O.5.z.T.W.oX*X.XK.v.3.O.C x n c m c c c N x x c x c x c x c x x c x c x c x d x f x N f f x l x d c f x x c c d c N c x x c c d d c N c f x c d f c x d c c c x N n C.;XV x d d d x d x x d d M x d d d t x x d N d t d d d d d d t d d d x d d d d d d x d d d d d d t d N d d x N x d d d d d x d t N d d d d M d d d x N t N x d d a d d d d d M d d d d d d d N x d N d d d d d d x t N d d a x x V A 9.c.J..X1X8X9X*XW.K.c.r.@.Z N d x d d d x x d t x d x d d d d N f d c d N c d d c N c c d d x f x x d c x c d l d d c d c c x N c d c d c x c x x c x c x x x c c c m x c x l b x m c c c c n x m m c n c c c m c m c c m c m c c n c c b c c b n b c n m m m c m m m c c c b c m c m m c c m m m m m m T b m m n <.j.O.m m m m T m m c m b m m m c m m m m b m c m b m m m m m m T m m m c T b m b c m m m m c m b m c m m m m m m m m c m m c m m m m c c m m c T m m m c m m m m m c m m m T c m m c m b m T m c m m m m c c T m b m m m m m m m b m m c m m c m m c m c m m m T m m c m c c m m b c m m c b m c n m m m c b m x b b m b x m v n 5.2.m m b c n m c m b b c m c m c n b b m b x c c m c B c c c x m m c m c c m c m n c m c c N n c m c m c m c c m m c c n c c m n c m c m x c b c x m m c c B c m c c m c c x c n m c x m c m c m c m x b Y c m b / ",
"c c v B c m c c n c m c c b c m m c m x m @.4.z.G.&X0XzXzX0X%XG.z.@.Z m c c m x c x c c x x x c c x x c c x c x c x c x c d f x c x x f d c x x f c c x d f x c c d c d x c N c c x c d f N f N d c x d d a d x t.g.N B x x x a t d d x d x d d d N x d d N d d x d d d d N d x d x d d d t x d t d d N d d d x d N x d d M d t d d d d x d d d d N d x x N d d d d d t M d x d d d M d N d x d x d M d t d x d t N d x d d d N x d M d d d d x d B A &.9.w.J.U.W.W.U.K.c.0.r.Z N x d d N t x d d x x d x M d x d N d x f N d c x N c f f x c c x c N c f d c N c x x c d c d x d f x c c d N x c x x c x c x l c x B x c x c c c m n m m m l n c n x m c c n c m c B b x m c m c m c n c c m n m c m c m b m c b c c m b c m m m m b x m c m b c m m m m c m m m b Z B ].=X].>. .m m m m m m m b m m m m m m c c m m m m c m m T m c m c m m c m m m m m T c m m c m m m m m m m b c m c b m m m m m m c T m b T m m m m m m m m m c T b c m m m c m m m m T m m m m m m m m c m c m m m m b c m b m c m T m T m m m m m c m m m m m c m m m b m b b c x m c b m m c c c m m c b c b m m b c c m x B m n 4.2.b c m m b c m c m m b c n c m m c c m n c m m x b m c c m c m c b x m c m c m c m m c c n c c m c m c c m c m c m n B c m c B n b c B n m m c c m m c B c B c m c b c m c c n m c c m c c m m m c c n b c n b / ",
"x m x c m x n B c b x m n x m x x m c m n O.2.D.U.9XBXJXJXcX7XK.v.3.@.m c x x c c x x x c z x x x x c x x c c x x x x c x c x x d c c x c N x f x N d c N c x d x f N c f d c d d c N c f N d d d d d x d x M a ~ t.c x k x x d x x M d a M d x d d d d d d x d d d d M x t d d x t d N d N d N N d d d d x d d d d d x d d x d d M x d d d t N d t d d d t d x N t x d d d d d x d d d t d d d d d d d N d d d d x d d x d x t d d d d d x t d N d N A 8.0.w.c.c.A.c.k.y.@.A N N x x d d d x d x t d x d d d d d x x d f f x d c d c x c N x x d d c d x c x f d c f x c N c c N c N d x f c c c x x c c x c x x c c c c m x c B N x v x m c c m c b c n c x m c m n c m c m c m c m c n c c B x m b x m c b c m m m b c m c b m c b m b c m c m T m c m m b c m b Z >.}.0X X>.T b m m m m c m m T c m m m m m m m m m m m T m m m m m m m m m m c m c m m m m m m m m T c c m m T m m T m m c m c b m m m c m c m b m b c m m m m m m m m T m m b m m c m c b m m c m c T m m m m m m c m m m c m m m b m m m m m m m m m c m m m m m c m m c m x m m b m c m c m b m m c b m c n m c c m m m b c m v v  .m c x b c m c m m c c m c b b n c m m m c m c m m c c n m c N c m c m c m c m x m c c m c c c m n B c m m x m c n c c c m c m c c c m c b c c c m x c b n m n b m x n B c m m c c b m c m n c x c m x b c c n x / ",
"c B v m m x c n m x c n c m m n m c c x m @.2.S..X0XDXPXIXZX9XU.v.5.@.m n c n c c x c x x c x c c x x c c x x c x c x c c d x f x c d B x f N f c d c d c d c x f N d c x c c x x c f x x f c d x d d t d d x d B x d t a d d x t x d d x d x h d d N d x t d d t N d d d d N d d N d t d d x x d d d d d d d d t d N t d d t d d x d t t N d d x d d d d x d t x d d M d d t N d d d x x d t d d t x d d d M d d d x d t N d d d t x d t d x N N d x B A @.8.y.9.0.0.r.@.A C c x d a M x d d x d x d d d d x d d d N c x f d c c N d x c d c x c N x c c d c d f x x c x f c d B d c c c x x c x c x x x x c x x c c N N N c n x x o.@.Z b n c x m c n m x b c m c m c c m m c b n c c c m c m m c m m m b c m m m m c m m m m m m m m m m m m m b m m c m m m T m m m u.].u. . .m m  .m c T m m c m m m m b m m m b m m m m c m c m m b m m m m T c b c m m b T m m c m c m m c m m m m m m m m m c m m m m m m m m m m T b m m m m m m m m m m m T c m c m m T c m c m m m m b m m c m m m m T m m m m m m c m T b c T c m m m m m T m m m m c m m c c b m m c m m m m m m m m m m m m c m c c b m m b m m m m m b m m m m m b m m m m c m c c c m c c n c m m c c c m m c n c m c n c b m c B n c m c m c b m c m c c c m c b c c m m c n c n c m c m x c m n c c c c m m c m c c m c m B n c n m c m c m m n x b z n b / ",
"x x x m c m c c c n c c m x c n m x c v Z O.3.c.[.8XvXPXJXvX7XU.z.&.O.m c b x x x c x x c x c x x c x c x c x l c x c N c x c x x d l x c d c x c x N f x c N f x c x c N d f N f x d c f x d x c x x x M x t N t x N f x x d t x d d x d x a d d x d d d d N d d d x d M d t d d d d x x t d t M a x d N d N d x d d d d x N d d d d N d x d d M d M d d d d N d d d d d x d x d N t d d d N d d x d N t x d d d N t d d d x d d N d d N d d t x x x B N Z +.A @.&.+.Z V Z N f d x d d x d N d x t M d x x t x N d d d f N x d d f x c x f x x f c f x x c N c x x c x c N x l x c x d x d c x c x x z x c x l c x x c c c c B x O.n.P.j.@.x c n c c n c m c n c n c c m c c m c B c m m c m x c m c m c n m m m c m m m m m c m m m c m c m c m m m m m m T c b m m T X. .2.m b m m T b b m b m m c m m c T m T c m m m c m b m m c m m T m c m m m m m m b b c m b m T m m m m m m c m m m m c T m T m c m m m c m m m c b b b m c m c m m c T m m m m m m m m m m b m m m m c m T m T m c m m m c m c m m m c m m m m m m b b m c m m m c b c m m m m m c m b m m c m m c b m c m m m b m m m m c B m b m m m m m c m m c b x c m c b c m m x m c m c c m c c m m m b c m c m b c m m c m b c b m c m x m c x m c b n B c m c n n c c m c m c m c m c m m c m c m c n c m c c m x c m c c m c c c m c m c c B c b c n b / ",
"c c x m m x c m x m m x m c c n b c c c N @.2.0.U.%X0XzXzX9X&XD.z.2.Z Z c x x c x x x x c x c x x x c x c x c x x c x c c x c l c x c x c x x c x c x c x x c x c x f x c c x f d c x x c N x l x x M a x x x d d a x d t d x d d x t x d x d d M a N d d x d M x d x N d d d d d d d t d d d N d M x d d d d d d N d x M d x d d M d t N d d d x d x M d d N d d x d d x t N d d d M d d x d x x M d d d x d d d d d d x t N d d d x t N d d d t d N d N N B Z Z Z Z B N x x d x d x d t d d x d x t x x d a x M x d x c d x B c x x f x c N c x f x x c x c x c x c x c z x c x c l x c x x c c x x c x c x x c x c n c m v B x 5.3XZX4X5.B c n c c n c c b x x m b m c m b m m c n b b c m b m m m m m m b m m T m m m m c m c m m m m m m m c m m c m m m m m c m m  .m m m m m m b m m  .b m m m T T m m  .m m m  .b m T m  .b T m m m b m m b m m m T m  .m m m m m b m T m b b m m b m  .b m m m T  .m m  .m m m m m m T m m T m b  .m b m m m  .m m  .b m m m  .m m m T T m c m m c m m b m m c c T m m c m b m m m T m m m m m m m T m m m c m m m c m m m m m m m m c m m T c m T m m m m m c m c m m m m m m m m m m m b c b m m c m m c m b x m m c m b b m c c b n c m n m c m m x m b c m m b c c m b c m m b c m c m b m c b m m n m x b m n b m m b c n b x m m m c m v c m b c m m c b n c m n c n m x v b ( ",
"x m c m c n B v n c c n c n c n x n m c c O.3.0.z.U..X1X1X.XK.z.h.@.Z c b x c x x c c x x c c x c x x c c x x c c x l x x x x c x c x x x c c x x c c x l c x x x c x c d x c N c N x f c d x x x a x x x t x x x M d d x x d a x d x d N t d x x d t x x d x a x t d t d d M d N d d N M d d d d d d d M d x N x t d d d d d d d d d x d x d M t d d d d d t d d d N t d d d x x d d d t d d d d d d d d d d M x d N t d d x d d M d d x d N d x d d x d x d x x N x x x d a x x t d x x x N t d x x d x M x x a x x x c N c d N f x f c d c d c x c x x c x x x c x c x x x x c x x c x c l c x c x x x x z x x x c c n x m b l h.8XAX0Xx.k v n c m x c n c m b m m c x b m c c m m c m c m c c c b c m c m m m c m m m m m m m m m c c m c m T m m m b m m m m m m m T m  .m T b m  .b m m m m m m m m b m b m m m m m m b  .m m m m b  .m m  .m m T m b m m m m m m m m m  .m m  .m m m m m  .m m m m b T m b m m m m m m  .m T m m m m m m m b T b m m m m m m m b b b m b m b m m m m c m m m T m m b m c m m m c m c m m c m T c m m c m m c m m m m T m T m c m c m m m m m m m c m b m c b m m m b c m m m c m m c m c c m m m x b c m b m c m c b m c n c c n m m b c b c c b c b m c c n c b x b m m m x b m c m x m m m c m m c m m b c c m v m m c c m b c m c b c m b c m m c m n c b m c m b c b c x x x m c / ",
"x B x m v c c m c c m c x m m n c B c m v Z O.@.;.z.D.J.M.v.z.h.&.O.n c c x x x c x x c c x x c x c c x x c x x x c c x x c x x c c x c c x x c c x x c c c x c x c x x c N d c d c x x d x d d a M d x d d t x d d d x x d d M d x d d d x t d d t x d d a d x x d N t N t x d N t d d x d d d d d t N d d d t d d N d d d t N d d t d N t d d N d d M x N d x d d d d x d d d N d x d N x d M d d N d d M d d d d d d d d d d d d d N d d d d t d t x d x d x x N d d t N d d d x t d M d d x a d d d a a x x x x a x c d N d c x c c c d x d c d c x c c x c x c x x x x c x c x c x x c x x c x x c c x c l c x c m c m n m m 2.v.}.b.$.Z n c b c m x c n c m c c n m c b b v m b c c n m m m b m m m c c m m m c m T c m m m m m T m c m T m m m b m T m c T c m m T m b m m  .m m m T b m b m m  .m  .m b b  .T m  .m m m b m  .m m m b m m m m  .m  .m m m m  .T  .b m T m b m T b  .T b m m T  .m m  .b m b  .b  .b T m m m m  .m b m m m  .m b b  .m m m T b m m m m m m m m m m c T m c m m m m m m m m m m T m m c m m m m m c m m m m m c m m m b m m c m c m b m m m m m b m m m m m m m m m m m c c m c b c m m b m m x c m c b m b x c m m m b b b m c b x b c m m m c m m b m b m b m m c m b m b m c x m c b m b c c b m b c c m c m c m c m c n b m c m m m m c m c b m m c b b m m m c m c c c x n c v b / ",
"c c x m c n B x c n x b m c v c c m c x c n O.O.5.h.0.h.z.h.6.2.@.Z b x c x c c x c c x x x c x c x x c c x x c c x x c c x c c x x c x x c x x x c x x x x c x c x c d f d c x c x f f x N x x a x x x a M d x t x N t x d x d x d d M d x x x d x d x x M d d d x d d d d d x d d x d d x t N d x d d x d x d M d t d d x d x x d N d d d d x d d d d d t d d M d x d d d d M t d d d d d d d N x t d d d x N t N x d d N t x d x d t d M d x N x d d d M d x d t d x d x x x x d N d a x d d M d x x x x x t d a x x x f c c d c d N x c N c x c x x x x c x c x c x c c x c x c x x c x c x c x x c x c x x x c N c b x b x x $.o.Z Z O.v c m x n c b n c m c m b b b m m m c c m m b m c c m c m m T m T m m c m b m m m c c m b m m m m b m m c m c m m m b m m m  .m m m m m m b m  .m m m m m m m m m m m m b m m b m m m m m b m m  .T m m m b m m b b  .m b m m m m m m  .m m m m m m m m b m b m m m  .m m T m m m b m m m m m T  .m m m m T m m b T m  .m m m m m c c m m c m m m b m m m c m m m m m m m m m c b m m c m m m b m c m b m T m m m c b m m m m T c m m m c m m m c m T m m m c m m v c b m m c b b x c b b m m m b x m c m b m c x m c m m c m m c m c b n b m x c m c c n c m m c x c m m b m b m c m c n m c m n b b n m c m c b n c c m m c v c c n c n c x c n c x m x c n c m n m m x x n x ` ",
"x m x b c m B v c n n c c m x b x b c m c n m m Z $.&.&.2.@.>.O.m c c x c B x x c x c x c x x c x c x x x c c x x c x c x x l x x c c x c z x x c x x c x c x c x l d c x x c N x c d c x x x x x x k a d M a d x d x t d d M d d t x t x d x d x d x d d t x x x t x x d x d M d d d x d d d d t d x d d d M d d x d d d M d d t d d d d d d M N d d d d d d N d d d d d d d d d d x N d N x d d d d x d t d t d d d x d N d d d d d d d d d d d d M d d x d d d d d t x d x t x t d x d x d t d x d d a M x x x x x d c x c x x x c x f d c x c d x c c x x c x c x x x x c x x c x c c x c x x c x x x c x z x c c x c m x m f x  .m x n n c n c m c c m x m b m c c m c m b m c n c m b n b c c m m m m c m m m c m c m m b m m m c m c m m m m T m m m m m b T  .m b m b m m b T  .m b m m m  .m T  .b m  .m b m  .m m m m m  .b m m m m b b  .m m  .T T  .b m b  .m m  .b m m b m m m m  .m m m m  .m m b m m m  .b m  .m b  .T m m b m m m b m  .m b m T m m m T c m m b m m m m m m m m m m T m m m T m c m m b m m c m m b c m m T m T m m m m c m T m m T c m m c m b m T m T m m T m m m m m m m m c m m c b b c m m c m b n c x b m m c m m b m m c b x c m b m c m c n c c m b c m b m x b m c m b c n m m x c b m n b c c m b m c c m m m c b b c b m b m c m c m n c m c c b c n m x b c c n x c c n n x m b / ",
"x c x m n c c m m c c b x m n c m c n c x m x B m m Z O.O. .m m m c c x x x c x x c x x x c c x c x x c c x x c x x c x x c c x c x x z x x x c x c c x x x c x c x B x c d x f f x x x f x t d x a x d x d d x d x d N x d a x x x d d d x d d d x t d x d d d d x d d d d d d d x d N d N d x N d t d x d d d d d N t d x d d N x d d x d d d t d d x M d x t d d M x d M x d d d d t d t d d M d d d d N d x d M d d x t x d M d x d t x d N x d d d N d x d d x x d t d d a x d x d x d x x d x d M x x a a x t x l f x d x f c d c N c d c x f c x x x c x c x c c c x x c x c c x x c x x c x x c c x x x c x c m n c b B x x m n l x m c c m x n n c n c c n m m m m b c b m c b m c c b m m m b m m m m m b T m m m m T c m m m m m m T m m c m c m m b m b b m m m  .m m m m m m  .m m b T m m m m T b m m m b b T b  .m m m T  .b m T m m m m m b m m m m m m T m m m m m m  .m m b T  .b b m b T m m b m m m m m m m m m m m m  .m m m m m m m  .m m b m m m m T m c c m T m m c m b c m m m m c m c T m m c m m m m m c m m m b m m m c m m m m m c m m m m m m m m m c c m c m c m c m m c m c c m c m c m m b c m m m c c b m m c c m b x c c m b m m b m c m x b m m b m m x m b m c m m m b c m b b c c b m m c c b m m x c m b m m b b b n m c x c c n b x n c c m x n m x m c c n c n m c m m c c x c m c / ",
"c B v m c m c x x m m x m x c c c n c v b c c m c c c m m B B c c x x c c x x c x c l c c x x c x c c x x c c x c x c c c x x c x c x x x c c x c x x x c x c x x c x f c N f x x c l x x a x x x d d d x d x d x t d x d x x d d d M x x d x M x t x x d x x t d d d x M a d d t d x t t d d t d d N d N d x d M d d d d d d x d d d M d N d x d x M d a d d d x d d d d x d t d M d d d x N d a x d d d d t d d x N d x d d d d d t d N d x t d d t x d d t x x x x a x a x x d d t x x d d d M a d x x a M x x x x x x c N c x c x d f x x c x x x c c x x c x x c x x c c x c x x c x c x c x c c x x c c l c x N c n c m v c d x m B c x n b x c c x m c m b c m c c b m m c c m m m v c c m c m m c m m m m m m m m m m m m m m T m m m c m c m c m m m b m m m m  .m m b m  .m m m m m b m m  .m m m  .m T  .m m  .m m m m m m T m b m  .T m  .b m m  .m m  .b m b m b m  .b m T m b m m m m  .m m m  .m m  .T m m b m b m m  .b m b b T b  .T b m m m m m m m c m m m m m m m m m c T m m c c m m b c m T m m m c m m c T m c m m m m m b m T c m m m m m m m m m m m m m c m b m m c m m b b c m b c b b c n b m x c b b c c b b n m c c b m m n c c n c m m c b c m b b c n c c b m c m m c c c x b m m c b m b m m x c m b c b m c m m m  .m m m m b m c m c x n c b b x c c x m x m m c n c c n c n B b n x m b ( ",
"x c x m m x B v n c c n c m c n m x m n B c c n B x B m b c n x x c z x x c c x c x x c x c x x x c x c x x x x x c x x x c c x x x c x c x x c x x z c x c x c x x x c d c d c d x x a x x d x x N t x d N t d x d x d N t d x d x d d t x d d d N t d x d d N d N t d x d x d N d d d d x N d M d x d t d d d d d d x N t d d d x d x d t d d d d d d x d x d N t N t d d d N d x d N t d t d d d d M d x N d t d t d d d N t x d N d x d d d N d x d d x x d d d d M x M t x t x x d d N t x d d x t x x d x x a t x c d c d B d z x x x B d z x c x x c x c x c x x z x c x x c x x c x c x c x x c x c x x x c x m c m x  .c d m m l f  .c c m n c b m x c m c m b n c b m n b m c c m m m b m m c b T m c m m m c m m b m m b m m c b m m m m m b T m T m c m m m b T m m b m m b  .T T  .m m b m m b m m m b m b T m m m m b  .m m m m m m b m m m m b m m T m m m  .m m m m b m m  .m m T m b m m m m b m m b m T  .m m m m m m m m m  .m m m  .m m m b m m m b m B c m m c b T m m m m m b m m m m m m m c m m m m m m m m m m c m m c T c m m m c m b c m b m c T m m m m m m m m m b c c m m c m m n c m m c c m m m c n m m c c m b n b c c m b b m c m b x m m m c m c b m c m m b x b b m m m b c m m c n c c m b m c n m n c n b n m n  .Z n m n c n x m m c m x c m n c b c n c x m c c v c b x n x x x m b / ",
"l B v B c n c x c b m x m x m c m c n c n c v m n B c n x m c n x n x x n x x n x v x n x x n c c x c c x c x c x x x x x c x c c c x x x c x x x x x x x x x x x x x x x d x x x x x x x d N x d d x d x d d x d x d d x d a d d d x d t x d d d N d d N x d x N d x d t x t N x d d N x x x d d x d x d x d x t x x x t x t x d x d d d x d t x d x t d d x d d d x d x d x d d M d d M a d x d x d x x t d x N d M a d x d t d d x a d x x d t x x x x d x d d M N d d N d x N d d d M d d x x d x N d d d x x M x d x d d x x x x x d x N d x N x x x x x x x x x c x c x x x x c x x c x x x x n x x x x x v x v x b c v c m N c n n v m c n c n c v m x m n x b n c m x m m c n b n v n B m c n b m m m m m n b B n b c N m m m m m c m n b m m m m b  .b m m m m m m m m  .m T b m m m m m m T m T  .m m m m m m m m  .m T b  .m b m m m m b m m m m b m T m m m m b m m T m m b m  .b m  .m m m m m m m m m  .m m m  .m b T m b m m m T  . .T c B B ..m c T m m b m m m m m  .m m m m m m m m c B m n m m c m b m m m m m m m m m m m m m m m c m B n b n b m m n m c N m m n B m c m b m c n m c x m n x m c n c m n v m x b m x m m n c n c m m n c c n c n c x m m x m x b m N m m x m c c m m m x b x c c n c v n m c c N c x n n  . ...o.o... . .n n x c v c n m x n c x m c x c m n c x c m x c n x m m d m l / ",
"x m x c m v B b B c c m c m m n x c c m m m B c m c m c b b x x v x v n x x b x n x x b v x x c N c c N N c c x c B c c m N c c c x c c c c c n n x b x x x x l x d d x x x x x x d d x x x d d t x d d t N x d d x x d d x M d M x d d N d x d N d x d d t x d t d d x d x d x d x d t d t d x d d x t x t d d d x d d x d d N M a d x a M x d x d d N x x t N x d a M d d t x x d d x d x x d d x t d d x d x d x d x x d d N x d d M x d d N x d d t d x d d d d d d N d N d d x N d a x M d d d d d a M d x a a x x x x x x x d d x x x c N x c x x x c x v x x v c x m c c c c B c c x c n n v x c v n x v x x x m c n n B m c m c m B c n c m m B m c c m B c m m m m m m m m m m m m m c m B B c m n c m m m m c m m m m c B m m m m m B m m m m T m m m m m  .T m b m m b m  .m m b b m b  .b m b m m b m m  .b m b b T m m m m  .m m b m  .T m T  .m m m b  .b m  .m m  .m T m m m m m m b b T b  .m m T m b m m b m m  .m m m m m  .b Y  .$.5.-.O.B m m m m m m b T m T m T m m m m m B m m m m m m m m m B n n m m m m c n m m c n m m m m m m m m m B c m m c m m m m m m c m n m m m m c m m m m m m m m m m m B c m m m m m m m c m m m m b n m m b m m m m m m m m m c m c m m m m n m b m m m m m m c m m B c m m m m m n  .O...o.$.5.-.$.O...m O.m n x m m b m c m b n m m c m c m m m m m m m c m c x m x / ",
"c B b m m c B n n m c m m n c m m m c m c c N m m m c m c n c n x m n c v x x v x n m x x b n c x c x B c N m x x m x m c B x x x n N x x n x n x x x x x c x x x x x x x d x x x x x x d x d N x x d x d x d x N d x d N d x d d x d N d x x N d N d M d x d M d x M d d M a d t x d x d x d d x x x x d x M d x d d x d x d d x d M a x d d N a M x d d t d d N t d x d x x d d x x d d d d x x t d x x d d t x M a d a M x d t N x x d d x t d x x d d M d N x d d N d x N d x d N d d x d x d x d x x d N x x x d x x d x d d x N x x x N c N c c x n x x n x m x c B x x c c c n x n c c x x n c n n x v n c n N c m n b c m c m m c m m c m N m c n B B n m m c n m m m c m n B n c m m m m m m m m m B n m m m m m m m b m B m m m m m m T m  .T  .m m T m m m m T  .T m m m m m T  .m T m m  .m m m  .m  .m  .m m  .m  .m m m  .T  .m  .m  .m m m  .T m m  .m m T  .T m b  .T  .T  .T  .m m m  .m T m T  .b m m  .T T m m m  .m  .T T  .N &.Y.[.[.G.@. . .T T m m  . .T m  . .m m m m m m m m m m m m m m m m m m m m b m B b m m c m m B m m m m m m m m m c m m b m m m n m m B n m m B m m m c m c m m m m m m m m m m m m c m m n B c m m c m B m m b n m m m m m m m m B n m m b n m m m n c m B n c c N m m m m m m m m m m ..o.$.5.x.G.G.x.$.#. .n m m B c m n c m n b B m c N m n m m b c c m n B m m x m b ` ",
"x m n B m m c c m m n c m B c m x m m m m m m m m c m n c c b x n x x n c n n c v x x n n x n x c c n c c c c B x c c c x x c c c x c x x c x x x n c x x N c N x d x x x x x x x x d x x x x d x d N d N d N d d x d N d x d N x d x d N d d N N d N d x x d d x d a x x d d x d x x d x t N t d t d d t d x d d N t d x t x d d d x d d d x t d d x d x d x N d d x d M d d x x d x t x x t d d N d N t x x d d d x d x d d x x d d t t x d x d d d x d d x d d N M d d N d N d x d x N d x d N d x d d x d x x x x x x x x N N x x x x B d x x x x x x c x x x x x x c x c n N x c c B c x m v x n x c n x c n x n m c B m m c m b n B c m c m c m m b c m b c m m m c n m m m c c m m m m m m m m m m m m b n B c m m m B n m c m m m m n B m m m m m T  .m  .T  .m m m  .m  .m  .T m m  .m T  .m m T  .m T T m m T m m T m  .m T m m m T m m T  .T m b  .m T m  .T m m  .m m m m m m m m m  .T m T m  .m  .m m T  .m m m  .T  .m T m m m X.Z h.*XvXzX%Xq.Q m m m m Q m m m T T m b m N c m m m c m N m m c c m n m m c B n b n n B m m m m m m c n m m m x m m m n B n m m c m m m m b n B n b m m B m m m m m m N x m m m m m m N m m b m B m m n m m x m m B m m c m n c n m m m m m m B N c B m c n c m m m m m B c m x m N c b m o.O.$.6.].}.}.B.x.$. .| m m c x B B m m B c m c m m m B c m n m m m N N b B c m n _ ",
"x m n m c m c m m m c m c c m B c m m n m c m n x n x b n x n n x n x v n c x n x c n c x n x c m x c c m c c x c c c B c B x n x x x x x x x c c x x x x x c d d N N x x d d x d N x x x x d x d x d x d x d N d N f d d x d x d N d x N d x d d x d N d d x d d M a d d x d x d N d x t x d x x d x t N d x d d x t x d x d d M d x d x d d x x d d d x d x t x d x d x d x t t x M a x d d x x x d M x d t x d N x d d d t x d d x d x d N t M d d x x t x N x d N d N d N d d x d x d N d x d N d N d x d x d x d x d x x d c N N x B x f N c N c N x c x c x m x c c N c B m c x x m c x n v x m x n c n x x n x m m m B c B m m c m c B m c n m c m B n m B n m m B c m m m c B n m B n m m m m m m n b m m m m b n B m m m m B n m m m m m m m  .m T m  .T m T  .m m m  .T m T  .m m m  .m T m m  .T m m  .m  .m T m m T T b m m m  .T  .m T m  .m m T m m m T  .b m m m T  .T  .m m m  .m T  .m m  .m m  .m  .T m m  .m  .m m m  .b m T Q v.0XKXJX=Xh. .>.m  .m T  .m  . .m m m m c m m m b m m m m m c c B n m b n m m m c B n m m m n m m m m B m m m m m m m m m m m m m m c m n b c m c n m n m m m b m m c m m m n m m n c m m m c n b m x m m m m m c B n b m m m b m m m m c m c m c m m n b m m B m n B n m B v b c m n m ..o.-.n.}.+X+X}.j.$. ...m m m c B v m m m m c B m m c B n b B n B c m c m m N m c ` ",
"c B c m m m B n c c m m m m b n m m c B x m c x n x n x b x c x n c m x x n n x n n x n m x n c x c c N B N c c c N n x c N x x n x m x x m n x x v x x N c N x x x d x x x x l x x d x x d x d x d N d x d x d x d N d N d N d x d N d d x d N M d N d d N x d d x x d d x t d x t d d x d x d t d x d d x M d d x x d d a M x x d t x M d d x d x x d a M d x d x d a N t d d x d d d x d N t d d d a d x N d x t d x d x d x N t d x d x d d d x M d d d x d d x d N d N d x x d N d x d x d x d x d N d N d x x x x x x x x x d f x d x x N c d x x x x x x x x N c c c c N N c B c c x c x n n x n x n x v b n m c c b n m n m m m m b n m B c m m m c c m c m m m n m m m m m m b c m b m m c n m m B n m m m B n b m c m m m c m m m m m m m m T  .m T m  .m m m  .m T m  .m m b  .T m T m  .T  .m m m  .b T m m  .m m  . .m  .T T m m m  .m m m  .m  .m  .m m m  .T  .T m m m m  .T m T m  .m m m T m  .T m m m T  .T m m m T  .m T b ..<.z.*XcXsXXXh.>.m m m T m m T m m m m m m m c m c n m m m m m m m m m m m B m m m m m m m m c B m m m b n b B c n B m m x m m m m m m m m m m m m m m m m m m n n B m m m m m B m m m m m m n m m m m m m m b n n B m c c m m m B c m c c n m b m m n B B c m x n c b m b c c m n B m B Z ..O.-.n.}.+X}.{.n.-. .Z n n c N m c m c c m m n m m m c m m c m c m n B b c c Z v ( ",
"x c c m B n x c B n m n c m c N m x m x n x x b x b x m x n n m x n x n x b x n x v v x n x n c B x c m x c c x c N c c m c c x c x x x x x n c x n x x x d c x d x x x x x x x d x x x x N d N d N d N d x d N d x d N d x d x d N d x N d d N d N M d x d d M d d d d x t d x x d x t x d d x N d d x M d a x N d d x x d x d d t x d d d x x t d d N d d x d t d d M d x d x d d d x d d x d d x x d x d d x d x x d d x d x d x t x t x d x t x a d d x x d d x N d d d d N d N d N d N d N d x d N d x x x d x x d d x x d x d x x x x N c N N x x x x x c x x x m B c c c c x x x c c B v c x m x n c m x n x x n B n n b n B c n B n n B m n n m m c m m c m m n m m b m c n m m m n m b m m m m B c c m m m c m m m m m m c m m m m c b m b m  .m  .m  .m  .m  .T  .T  .T  .m  .m  .T  . .m m m  .T  .m m T  .T  .m m m T m m  .m  .T m T  .T  .m T T  .T  .m  .m m m  .m  .m m b  .m  .T m m T T  .m T T m  .T m m m m  .m  .m  .T  . .$.;.D.U.R.x.&.T m m T m m m T m b m m B m B m m B n n m m m m B m m m m m m m m c m m m m m c m B n B n m m n m m c m b m m n b m m N m n m m m B n b m c m m c m m m m m m m c c m m m c b m m m m m b m b m B b N m m B m m n n c B m m n b n c b b c b m m m b c c m m m B n m c c m m | O.$.6.n.].].n.5.$.Z m n c B m m m B N m n m m c c m n b m m m m c n c m B x m b ` ",
"c m m B c m m m m m B c m m m n n c n n x m n x n x n x c n x x v x m x n x m x c n x n c n x c c c N x c x n B c c c x c N c x x x m x x c x x x c x B c N N d x x d x x d x x x x d x x d x d x d x d N d x d N d x d x d N d x d x d d x d d N d d N d x d d x d M x d x N t d x d x d a M d d x x d a x d d t x d d a M d a x d d x d x d t x x x t x d t x x x x d x d t x d M x d M a d x x t x d t x d x t d t x d d N t x d x d d x x d x d d x d M d x d d M d N d N d x d x d x d x d N d x d x d d x N x x x x x x x x x x x x x f N x c c x n c x n x m x c x n x c c B m c N c x n x n x v x n x n x c n c m b B c b m m c c m b c m b B c m m m x m c m m m m n m B m m m m m m n B c m m n m m m m m N m m m m m n m m m n b B n T m m m m T T m T m m T b m m m m m T m m m m m m T m  .m m T m m  .m m T m T  . .m m T m m  .m m m m b  .m b m m m m T  .m T m m T  .T m m T m m  .m  .m b m  .m  .m m T  .m  .T m T m m m m b m Z >.-.;.2. .b T m  .m m b m m m m m m m c n m m m B c m m b n m m m N c m b n B b n m m m N m m b c b n m m m m m m n m B B c m m m m B c m m m b n B m m m m m m c m n c b n B n m m B n m m m m B n B n m c m c m m n b c B b m n m m B c B B n B m n B c b n B m m x c m m m x B c n  . ...$.6.x.D.;.X.X. .n n m m m m m c m m B c m m m N B m c c n c m n B m c x m x / ",
"N B m B n m B n m m c c N m m n x n x b x n x m n x x v x x n c x n x n v x c c N N c c c B n c c x N m c c c N n x c x n c x b x n x x x b x n c x d N x x x x x x a x x x x d d d d N d N N d d N d N d N d x N d x d x d N d x d x d d N d t x d d N d t x d x d x x x d N d x d t x x d t d d x d d x d x d d x d t N d d M d x d N d x x a x d x t d x d a t d x d t d x d x d x t d d N t d x x d d x d x x d d M a d d t N d x d d d x a d x t N d d x x N d x d N d N d t N d d x d N x d N d x d x d x x d N d x x x x x x x d d x N c x x n x x c x n c x x c x x n x B c c c c c c x m x c x n x n x v x m x m m m m c B n m c m m n c c B n c c m m m m m m m m m c m B n b n b m n b m N m m m m m m N m m m m m N m m m m m m n m m m m m m  . .m  .T m  .m  .m  .T  .T  .T  .T  .m T  .m m T m m m m  .m  .T m m  .m  .m m T  .m  .T m m  .m  .m  .m m T m m  .T m m T m m m m m m  .T m m m m  .m m  .m  .m m T T  .T  .m  .m  .m  .m  .m  . .m m m m m m m m m m m m m n B m m m m c m m m x m b m m n m m m m m c B n m x m m m B m m n m m m m c m b m m m m m m m m m n m m m m m c B m m m m n m m m B m m c m m m m m n B m c c m b n m b m m c m m n m m c m m N m m B c n b m c B m c m c n c c m m B n b c B n m m m o.O...$.$.X.o.| m m m m c B n b m c m m m b m c b m m m c B m c n B m c x m b ] ",
"c m c m b c c c n B m m c m x m m x n x c n v x c n n x m n n x m x m x x m n c c c x B x c c x N c c c c N c x x c x x x x x x c x c x x x x x N N x d x x x x x x x x x d N x N N x d x d d x x d x d x d N d d x d N d x d x d N d N x d N d d x d x d x d x d d d t x d t d d x x d d x x x x t x x t N x d a M x d d x x d t d x t M d d M d d x d d d x M x x d a x x d d d d x d x x d x N t x t x t x d a M x d d x x d x d M d x t d M x d x d x d t d d x t x t N d N N x d x d N d d x d N d N d d x x x x x d x x d x d x x x N f N c x c x n x x c x x n x x x c c x c N n m N c n x n n v x m n v x n x n x m c m m c m m m c c B n B m m m m c m m m n c m m m n m m m m m m c B m m c m m m m m c m m m m m m m m b n m c m m m m m m T T m T m m m m T m T m m m m m m m m m m m  .T m m  .T  .m  .T m m m T  .m T T m m  .m m m m T  .T m m T T m m  .T  .m m m  .m  . .T  .T m T  .m  .T T m T  .m T T m m  .m m m m m T m T m m T m T T m m m m B m m n m b x m m m m c m m m m m m m m m m m m m m m c m m m m m b m m m m b n m m c m c m m m B n n m m m c N m m m m m c m m m m n b m m m m c m b n m m B m m b m m b c B m n c m B c n m m N b m B c c B m m c c b n m m m m b n m c n m m m m B c c m m m m m x m m C  .o.o.$...Z m m x m c m m m n B B n m c n B B n B c m c n m m n c m n x m b ` ",
"x m n m c m m m m c c m n x n x x v x n n x x n x b n c n x x v x v x n n c n x x m n v b x n c c n c x B c c N x x x x x x x x x x c n x x x x x B x f x x x a a x N d x d x a d x d x d x d x d d N x N d d x x d x d N d N d N d x d d N x d x d x d x d x d d M d d t d d x d d d x d d d d d x d t x d d M d d d d x d t d x x x d d d d d M a d N M a d d d x d M x d d M t N d x t x d d d d d d x d d t d d d d d d t d x d a x d x d d d d x d d d N x d d M d d N d d N d N d x d d x d d x x x d N x d x x d x x d x d N d x x c N f N x c x x x x x n x x x m x x c x m c c N c c x b n c x n x c x n c b x x c B n m c c m m n m c m m c c c m N m n m m m c B n m m m m m m m c m m B n m m m m c m m m m c b m m m m m m m m m b m c m  .m  .m m m T m m m  .m T m  .T m m  .m m m T m m  .T m m m T m T  .T  .m T  . .m T m m m  .T  .m m T  .m  .m  .m m m m T  .m T m m m T  .m m T m T  .m  .m m m m  .m  .T m  .m m m  .m m T  .m T  .m m m Z m m m c m m m m m m m m m b b m m n m m m m B m m m m m m m N c m m m b m m m m c B m m B m m m m m m m m m b n B m m n m m m c m m m m m m m b m c m m m c m n m m n m m b m n b m m c B c B c m B n c m m m m n m m B n n c c b m n n B m c n m b n n c m m c n c m m m m n m Z  . .O.m n m m c B c m m x c c m c m m c B c n c m m c m c m c c c x m b ` ",
"c B c m m n B c m c n c x m x v m x n c m x v x n x x n c n m x n c n x x n x v n x n x x n x c c B x c x c c n n x c x x m x m n x x x x m x x x x x x x x x n N x N d x x x x x x x x d x x d x x x d x x x d d N d N d x d x x x x x N d x M d M N d d N d M d x N d N N x d d M d N N d M N N d N d N d x d N d x N d N N x N d d N d x d N d N d d N x N d d N N d d N d N d x N d d N d N x N d N d d N N N d N x N x N x M d N d N d N d M d N d d N x d N d d x N d N x d N d x d N d x N x x d x x x d x x x x x x x N x x N c x N x x f x n x x c x c x c c n x x x c x c x x B c c n n x x n x m x n x n x n n b m m m m c n B m m m m c n m m m m m B c m m m m b m m n B c m n B m m m b m m m n B m m c n B n m m m m m m n B m m m Z m m m m  .m m  . .m m T O.m m m  .m m m m  .m  .m  .m m m  .m O.m  .m m m m m m m m m  .m m m m m m m  .m m m T m m m  .m  .m m m  .O.m m m  .m  .m m m m m T  .m O.m m m m m m O.m m T m  .m m  .m Z m  .m m m m m m n n m m m m m n m  .m m m m m m m m n m m n m m m m m N m m m n B m m m m n m m c n m c m n m m c B n m c m m B c m m m N m m m m m N n B m m m m B n m m B m c n n B m m m m m n b n m m c m m m m N m m m m m b m m B n c B m c m m B c m B m m m x m m c m c m m m m m m m m m c m m m n m c m m m B m c n m b n b m m n c m m m N B m m x  .b ] ",
"x B m B m c B m c m x n n c x v x n x n x v n c v x m x x m x n c n x m x m x n x b x m x n x n n x n x n x n x c x x c x x x x c x n c x n x x x c N c x x c n Z O.@.O.@.Z n x d x d x x d x x d x x d d x x d N d x d x d x d d x M x x d x d M d N d N d N d d M d N N d N d N d N d N d N d N d d N d N d d N d N d N d N d d N d N N d N d x d N d d N d N N d d M d N d d N d N d M d N d d N d d N d M d N d N d N d N d d N d N d d d N d M d d N d N d N d N d d N d x x x x d x d N d d x x x x c x d N x x x x x x x x h x x d B x x N x c x n c x n x c x x x x x n n x n x n x v x n x n x b n c x c x n x x m c m B n m m c B c N B c m m B m m m m m m m n B b n m n m B n b b m c m b n m c m m m m m m m m m m m m m  .m m n b m m m m m m m m m m m Z Z m m m m Q m m m  .T m m m m m m m m m m O.m m m  .m m m  . .T m m T O.m m m m  .m m  .m m  .Z m Z m  .m T m O.m m m m m m Z m m m m m m O.m m m m Z m m m m  .Q m  .m m m Z m  .m m m m m  .n n m m m m m m m m m m n m m  .m m m n  .m  .m m  .m m n m m m c B n m m n B m m n m m m c B n m m m n B m m c B n b m m m m c m c B n b m n c m m m m m m n m c m m c m m n m m m m m m B m m m m m m m m m c m m m m c m B n m m m c N B n b c m c n B c B m m c m n c B c m m x c c m n m c c m m c m n m b m m c B n B c m B m n m n B m x x m v ( ",
"n c m m c n c n m m n c x n x x n x m x m x n x x n x n n x x v n x v x n x v x n x v x n x m x x b x m x v n c n x x n x m x x x x x x x c c x x x c N x N B V @.9.z.z.&.@.N x N c d x x N x x N x x c x x N d d x d x d x d x x x d x x x N d d N d N d N d N d N N d d N d N d N d N d N d d d d N d M d d N d d d M d N d d N d t d d M d N N d d N d N N d d N N d N d N d d N d N d d d N N d N N d N d N d N d M d N d N d d M x d N N d N d N N d N d x d x d N N d M x x x x d d N d x x N d x d N x N d x d x d N d x x x x x x x x x c N x x x x x x x n x x m x m x x m x b m x x m x m x c n x x n n x n c n n B b m c c m m n m b n m c c n b m m N c m m b c m m m b m m m m n B B m m B m n m m  .m m m m n m m B n m m m m m  .m m m m m b m  .m  . .m m  . .m  .m m  .m m m Z m O.m  .m  .m  .m m m m m m Z  .m m m m m O.m m m O.m  .m Z m m m O.m m  .m m m m O.m m m m m O.m  .m m  .m m O.m T m m m  .m T  .T m m m  .m m  .m m m m m m m m m m m m m m m m m | m m  .m m m m m m m m m m m m m m m m m B m m m m m m b n b c m n b m m m m m m m m m b m m m m m m m m b m n B m m m m m m m m m m N c m m m m m m m m m c B m m n B m m n b B c b n m m m m m m n B m m n m c c c m m m c m m m n m m c m n m N c m B c n m c m m m m m m m m m c n B m c m n B m N m c n b n m c B c m c m m x  .l ( ",
"c c m m m x c m b x n x n c c n c v x n n c x b m x m x n c m x x n n b x m x m x n x n c v x n n c n x v x x x c x x c c n x b c x x c n x x c c x N f x m Z @.k.U..XU.M.9.@.N N x x x x d x x x x d N x d x d N d N d N d x x d x x x x M x d d N d d d N d N N d N d x M d d N M d d d N d N N d d N d d N d d N d N N d x N d N N x d d d N d d M d t N N d N d d N d N N x d N d M x N N d d N M d N d N d d d d N d M d d N d N d N d N M d N N d N d M d x d N d d d d x t x x N x d x x x x d x x d x d x x x x x x d x N d x x x x d N x N x c x c c x x n m x x x x x v x n x x n x n b n v n m x v n x v n x x b B n m m c m m m c n m m m m m m m c m m B m m m m m m n b m m m m m n m m m n m m m m m m m m m m m m  .n m m m m m m m  .m n  .n m m m m m T m m m m Z m m m O.m Z T O.m m m m m T m  .m m m Z m m Z m m m m O.m  . .T Z m  .m m Q T m m Z m m T Z m O.m  .>.m  .m  .m m  .m Q m m m  . .m Z m m  .Z m Z m m m m m  .m  .m m m n m m  .m m m  .m n  .m m m m m m m n m m m m  .m m m n  .m n m m m m m B m m n b B m m m m B c B n m m B m m m m c m x m m m m c n m m n b m n m m m m c m m m b m b n m m N m m c m m m m m c m b m m n m c B b n c m c N m c B c c m c m n B m m n b n B c m m m m m c c B m c m m m N m n B B n c B N c m m m x m B n c m m m b b m m c c m m n B c m x m b ] ",
"x c x c m m c x x n c v x n n x n x m x x n n x x n x v x n x n c n x x n x n x n c n c n x m x x n x m x n m x x x n x x x x x x x x n x c x N x N c N n N Z q.U.9XxXlXOXJ.;.x B d x x x x d d x d x x x x x x d x d x d x f M x x d x x t x N N d N d N d M d d N d N d d N N d x N d M d N d d N N d M N d N N d N d M d d M N d d N N d N d N N d N d N d N d d N d M d d d N d N d d N d N N d d N d d N x N d N d N d N d d N d N d N d d d d d N d N d x d d N N d N N d x x x d d N d x d x x x x x x x x d x d x x x x x N c x x B x c x c x N x n x x x c x x x m x m x n c n m x v c n x x n x n x c n m x m x m c m c m N m m c m B c m m n m m n B m b n m m m m m c B m m m x m m m m m m c m m m m n m  .m m m m m m m m  .m m n  . .m m m n m  .m m O.m m m O.m  .m m  .m m  .m m m Z m  .m m O.m m O.T  .m m  .m  .m O.m m m m m m m m m m m  .m  .m m  .m m  .m m m m m m m m m Q m m  .m m  .m Z m m m  .m m m m  .m m m O.m m m m m m  .m m m m m m m m m m m m m m m m n  .m  .m n m m m m m m m m m m m m m m n b m m m c m m m b n m m b m b n m m x m m m m m m m n m B m m m m m B c m m n B m m m n B m B c m m m m m m c n m m m m n n m m m m m m B m m m m m b n m c m m m m c m c B c b m m c m b m m m m n m m m m m c m b c m b m m m m m c m b m c b m m c B n B c m m N m c m c m m x m b ` ",
"x n x c x x m x m x m x x v x n c n x b v x x n m x m n x x n x n x n x v x x b x n x n c n x m v x n x m x x m x c n x c x x m n x x x m x c x d c B f N Z @.h.OXvXPXDX0XJ.y.B x d N x d x c N x x x d x x x d x d N d x x x x M x d x x d d N d N N d N d t N d N d M d N d t d N d N N d d N M N d d N d N d x N d d N d N d d N N d d N d M d N d d N d N d N d d N d d d N d t N d d N N d d d N d N d d M d N d N d N d M d N d M N d x d N d d N d x N d d d N d N d M x x x d x x x x x x d N x x x d x d x d x x x x x x d d N c N c x x c x x c x n x x c n c x c n x x n x x n c x n x n x m n x b x m x n c n x v m b n m b c m m m n c n m m n c m B n b m n m B n B m m m m m B m m n b c m m B m m c B n m m n m m m  .n m m m m m m m  .m m m m  .T m m O.m m  .m m O.m  .m  .m m m m O.m m m  .m O.m m m  .m m  .m O.m m  .T  .O.m  .m m  .m m  .m m m m T m m m  .m m T m m m m m m  . .m m  .m O.m m m  .m O. .m Z m m m  .m  .n m m m m m m n m  .m m m m m m m n  .m m m m m m m m m m m m m n m m c B n m m c m m b n m m m m n b m m c n O.c m m b @.n m B c m m n B m m m m m m m m m B n m c B m m m m m m m m m m m m m b m m n m m B m c m m n m m m n m m m x m c n m B n b m B n c N m c m b m m n m b c m x m m c c m m m c m m m n b m n b m B n c m N c m m B c n m c B m m c n x m n x n l ] ",
"x n x n x m n v x n x n n m m x n x n x x n m x x n x v n c x v x m c n x m n x n x b x n x n x x m m x x x x x x x x x n x x x x c x x x x x n N f f x x N @.0.oXcXJXFX9XL.3.N x M x x x z c N d x d N d N d N d x d x a x d x a x x x M x N d N d d N d N d N d N N d x d N d x d N d d d N d d x d N d N d N M d d N d N d N N d d N N d N d N d N d d N d d d N N d x M N d N d x N N d d N d M d N d N N d N d x d N d N d N d N d d d M N d N N d N d M d M x d N d N d x t x x x x d x d d x x x x x N x x x x x d x x d x x x x N c B x x x n x x n c x n x x x x x c n m x b n n x n x b x n x x n x n x n x n c n x m m B c n n m c n m m B c c m c m m m m m m c c m n m m m m b n c m m n B m m n b m m m m m m m m m m m m m m  .m m m n m m m m m m m m  .m m Z m T  .m m Z m m m  .m m m  .m Z m m m  .m m m Q m m m m m m m m m m m Q m m m O.m m m m O. .m m O.T m Z m  .m  .m  .m m m m T Z m m m T m Z m m m m m m  .m m m m m m m m  .m m m m m m n m m m  .m m m m m m m m m m m  .m m m m m b m m m b b m m n m m m B m c c m B m m m m m m x v B x x x m n m m m b m m m c n m c m m m m b m b n b n m m m n m m c N m m m n B m m m m b c m B c b B m c B c m c m m m c m c c m c m b m m m c m n B c B c n B m m c m m B c x m B n m c B c c B c m c m m m m m x m m m b m m n c m B n x b N d v c ] ",
"x x v m x n m n m x v x n x v x x v x n n c x m b n c x n x m n v x n x n x n n c n x m x v x v v x x x x x x c x x c x x x x c x c x m x c x x c N c x x n Z 0.L.1XsXiXW.w.&.B x d d x x x c d d d d x x d N d N d N d a M x x x x d M x a d N d t N d d N d N N d N d N N d N N d d N N d d N t d N d d d d M d d N d d d d M d d N d N d d N d M N d N d M N M d d N d N d N d N d x d N d t d N N d N d d M d M N d N d d M d d d N N d N d N d M N N x d N N d x d d d N x x x d M t N d x N d d x x d x x d x x d x x x x x x x x N c x x n c b x c x n x x x n x x x x n x n x n x m n c x v x m x b n x m x v x n x v x N m c B c m c B c b m m m m m B m c m c m B n m b m m m m m m m m m b m n c c m B c m m m m m m n m m m m m m m m  .m n m m  .m m m m m m Z m m m m m m m m m T  .m m m T m m  .m m T m m  .m T m Z  .T m m m m m Z m m Z T m m  .m  .m m m  .m m O.m  .m m m  .Q m Z m  .m  .m Z m O.m  .m O.m  .m m m m m m m m m  .m m m m  .m m m m m m n m m  .m m m m  .m m m n m  .n m m n m m m m n m m m m m m m m m n N m m m m m m x c B c Z m x  .m m m m m m m m m m b m m n b n m m m m m c B m m m m B m m c m m m c n m m c B n m m B m m m m x b m m m c B n m n c B n m c B c m c B n m c c b B n m c m m m m n c B m m m c m n b m m B m c b m c c m m m m x x m x n x n x n x m m x v x ] ",
"x m n N x x m x n n x m x m x n m x c n x n v x n x x n x c n x x n c n x m x b v x n x m x n m x n m x m x x n x c x n c x n x x n x x x x n x x x x x x n C 8.0.J.I.I.e.&.@.x x x x x d x N d N N d x d x d x d x d x x x x x d x x x x x d M x x x x x x x d d N d M d d N d N t d M d N M d N N d N N d N d M N d N N d N d d M d N d N d d d N d N d N d x d N N d d d N d N d N d N d N d N d N d d N d d N d N d x d N d d N d N d N d N d N d d d d N d d x x M M x x d x x x x x x M x d d x x x x d x N x x x d x x d d x x d d x x x x x x x x x c x c x x c v c x x m x v x v x x n m x n x n x c n x n x m x m x n c n m b n B m m B n m m m m b n m m m n m m b m m m m N c m m m m m m m m m m m n b n m m m m n m  .m m  .b n m m m m m m m n m m  .m Z  .m m  .m m  .m  .m O.m T m m O. .m m m m m O.m m m  .m m m m m m O. .m  .m m  .m m  .m m m T m Z m m m m m m m O.m m m  .m m  .m m m m m  .m m m m m m m m m m m m m m m m b m m n m m m  .m m  .m m m m m m n m m n b  .m m m m m m m c m m c m m m m c m n B c m m m m m m m m m m m m m c x m  .v b m m m m N c b n m n B m m B c m c m n m m b n m m c n b m m m n m b x m m l B m x m m v m B m m n B c b m c m m c m m m m m n m c m m m b n B n m b m c n B n B b m n b m N c m B m c c n b B n x m m m x c b x n x v x m x v x x m x N n v ( ",
"x b v m x x n v x n x n x b c x n c n x x n x n x v c n b n x b m x n x n x n x x n x n v x m x m x n c x x x x n c x m x x n x x c n x n x x x x x x l x x N Z +.9.9.0.0.O.B x x d x x d x N d d x d d x d d d x d d M x x a M x a x x a x x x x x x x M x x d d x d d M d N d N d N d N d N x N d x t N N d N d N d M d N d N N d d x N M d x x t N d N d N x N t x d M N d N x d N M d d M d d M d x M d d N d N d t N x d N N M d x d t N d N d d d d t N x a x x d x M x x x x x a x x x d x d x x x d d x x d x d N x x x l x l x B x x x x x n x n x c n x n x x x x n x x b x m n c n x x n n x v x x b n x x x m x n c x x m m c B n m m m n B c m m m m m m m m m B m c m m m m m N m B n m m m c m m b m m m m m m m m m m m m m m m m m m m m m  .m m m  .m m m  .T m  .T  . .m  .m  .m m  .m  . .m  . . .m  .m m  . . .T  . .b  .m T  .m  . .m  .m  .m  .m b  .m  . .m  .m  .m  . .m  . .m  .m  .T  .m m m m  .m m m m m n n b m m  .m m n m  .m m m m m m m m n m m m m m m n m  .m m m m  .n m m m B m n m m m m m N m m b m m m n B m m c m m b m m Z v  .6.o.m m n c m m n m B m m c B n m c m B n m m m m m m m m m n m B n m B  .v B m c >.Q c B m v m m m m n b c n c m c n m m c m c B m c m B n b c m m B m m m c m x m c m m m m m m n m x m n n m n n x n x n x x c v n x m n c n x x n x m n x v x ` ",
"x n x n x n m x n c m n n x n n x n b n b x n c m x n x n x n x x n x b x m x n m x n c x n x n x n x n c x x c x x x x m x x c n x x c x c x m x x x x x x x d n o.O.O.O.B a x N d x x x x x x x x x x x x x x x N x x x d x x x M x x x M d x d M d x d x x x x M x x d x x x d x x x x t x d x x d x x d x x x d x x x d x x x x N a x d x x d x x x x x d a x x x x x d x d d x x d N x x x d x x x x x x x x d x x d x x x x d d x x x x x x x x x N x x d x M x x a x d x d M x x x d d x d N x d x x x x x x x x d x x x x x x x x x N c c x c x c x x x x c x c x c x m n x n x x n x m m x x m x m x n n b n b v n x n n v n x m m b m n m b m B n n m m n m m c b n m B n m m m c m m m b m m n B m m m m m m m m m m m  .m m m m  .m m m m  .n m m m m m m m m m m  . .m  .b b  .m  .m  . .T  .b m  . .m m  .T  . .b  .m m m T  .m  . .b  .m m  .m  .b  .m  . .T  .m m  .m  .m  .m T  .m T  .b  . .m m m O.m m m m  .m m m  . .m m m m m m m m m n m n  .m m m m  .m m m m  .m m m m m m m m m b m m n m m m m m m m m m m m m n m m b m m c B n B v b n O.b 2.n.2.m m m m m m m m c m x m m m m m m m b m m m m n B m m m B m c m m b Z v m m c s.4.m m m n B v c m B m m B m m m m m m n m m n n m b n B m n B m m m x n B m c m m m c m m c B b n n m x m x x m b x m b n n n n x x n x n n v m x v m n a m v ] ",
"x n v m m n b n v m x x n v x x x n x n n n x n x n c n x b x m m x n c b x x b x n x v m x b x n x v x n x c x x x x x x x m x x c x x x x x x x x x x x x x c c x N x l x N x x x x x x x d x x d x x x x x d x x x x x x M x x x d M d x d x x x a x d x t N x d x M x x a x d x x M x x x x d x M x x x M x x x M x x d M a d M M x x x d x x x x x x t M x x d N x x x x x M x x x x x d x x d x d d x t x x M x x N d M a x x N x d x d x M a x M x x x x d x x N x x a x d x x M x M x x x d N x x x x x x x x d x x d x x x x x n x m x n x x n x x c x x c x n x n x n b n m x v x v x x x m x n x n n x x m n n x n b n v n x m m n B c m m m b n b m c B m m N m m m m b n b m m m n m N m m m m m n m m O.m n m m m m m m n m m n m m | m m m m m m m m m m m O.m  .m  . .m  .m b m m  .m  .m m  .b m T  .m  .m  . . .m  .m m m m  .m  . .m  .T  .m  .T  .m m  .m  .m m  .m  .b  .T m  .m m  .m  .m m m m m m m m m  .m m m m m m n m m m  .m m m m m m b m m m m m  .m m m m m m m n m  .m m m  .n m m m m m m m n m m m m m  .m n m m m n m m n m m m m c b O.n b N m m m b m m m m m B m m n c m m m m N B m m c m m m c m c m m m m v m c B B.B.B m m m Z b B n m m m m m m m m c n b m m m m c m n m m b m m x m m m m m m m x x n n x n x x n v x n v n n x n v n n x n c n x v x n m x x v n x b n x n v ] ",
"x m v N x n n m x n n v c n n m n b x n c n v c n x n x n x n x x v x n x n n x m x m x x n x n c n x c x x x n b x x m x x x x x x x c n x b x v l x x x c l N d l c x a x N x x d x x d x x x x x x x x x x x d x x d x M x x x d x x x x N a M x x M x x x x x x d x d x x M x x x d x x d M x x d x x d x a x d x d x x x x x x x d x d M x x N t x x x d x x N t x x x t x d x x x t x x x x x M x x x N x d x d x x x x x a M d x x M x x x x d x x N t x x x x t x x M x x x x d d x x d d x x x d N d x x d x x x x x x x x x x x x c x x c x x c x x x n x x x c x c x x n x n x m x n n v x n x m x b n v n x c n n x c x n m x n b m m m m m m B c m m m m m m m m m m n B c m m c m m c m m m m m m m m n m m m  .m n m m  .m m m m m m m m  .m m m m  .m m m m m m m  .b  .T  . .T  .m  .m  .m T  .m  .m  .b  .m m m  .m  . .m  .b  .m m  .b  .m  .m  .m b  .m  .b  . .T  .m  .m  . .m  .b m  .m m m  .m m m m m m m m m m m m  .m m m n m m m m  .m m n  .m m m m n m m m m  .m m m m m m m m m m m  .m m m  .m m m m m  .m m m B c m m m c m m m m B c m m n m m m m m c n B c m m m n b m m m m m m m c n b m m n c m m n m m m m m n m m ! ^.].B m m m m x m m m m m N c m B m m B m m m m m m m m c m m m m m m m m m m m m m n x c n v m n x n x m x n c n m x x m n n x b n n m v x m n n x x n  .x m v ] ",
"l n n x x b v x c n b n x b x m c v x m v x m x n c v x m x m x x n x c x n x v n n x m x n x x x n x x x c x c x x x x x m x x x x x x x x x x x x x x d x x x x x x x x x x d x x d x x x x x x x x x d x d x x x x x a M x d x x x x d x M x x x x x d M d x a x x a x x M x x x x M x x x d d x x d x x x M x a x d x M x x a x M a x x d x M a d M x x x x x t N x x d d x x M x x x x x M M x x x d x x a x x x M x x x x x x t x x x x M x x x x x x t N x x d M a x d M x x x x x x M x x d N d x x c x d x d x x d x x l x x x x x l x x x b x x m x x c x x x x x x x n x n x b x n c x m x m x v c n m x b n n x x n n b n x x b n m m m B n b m m m m m m m B n b m m m c N n m m m m m m c m m m m B m m m m m m n m m m m m  .m m m m m m m m  .m m m  .m m m m m  .m  .m b  .m  .b  .m m  .m  .m m  .b  . .m  .m b  . .T b >.m m  .m b  .m  .m  .m m  .m  .b m  .b  .T  .m  .m m b m n  .m b  .m m m m  .m m m m n m m  . .m m m m n m m m  .m m m m m m m m m m m  .m n m m m m m m m m m m m m m m m m m m n m m n m m m m m B n m m m c n b m m c N m m m m m N m m m m m m b c m m m B m m m n B m m m m n m m m c B m m m m m n m c Z y. X^.8.Z c m o.b m Z m c m m m n m m x m m c m m m m m b m c m m c m x m x m m n m n x m b x n n n x x n v n x n v x m n b x n x n c c n b n n n n x v m x x b z 1.",
"x m x n n n n m n n x x n x n x n x n x x n x n x n x n x n x n m x v n m x n x c x n x m x n c x x c x x x n x x n c x x x x b n c m x v l x l d x x x x d N d d x d x x d x x x x x x d x d x x d x x x M x x d M d x x x x x t x d x x x a x d x x a x x x x x x x M x x d x a x x a t x x x M x x M x a x d x M x x x d x x x x x x M d x x x x x x x a t x x x x x M x x x x d x a x t x d x d x x M x x x x x a x x x t x x x x x a M x d x d t x x x x x x N x x x x x x x a a M d x a x x x x x d c d x x x N x x x x d x x x l x x x v n x x x x x m x n x x m m x c n c n x b x n x n n x n x m x n x x n x x n b n m n x b n n n x n m c c m m m m m m c c m m b n B m m m m B c m m c m m n c m m n n m c m m m m Z  .m m m n m m m  .m m m n m m m m m m m m m b  .m  .m  . .m  .m  .m  . .m  .b  . .m  .T m  .T b  .m T  . .m ..m b  . .m  .m  .b  .b m  .m  . .m  .m  .m  .b  .b  . .b m  . .m m m n m m m m m  .m m m m m m m m m  .n m m m m m  .m m n m  .m m m m m m m m m | m m  .m m m | m m m m  .m m m m m m m m c n m c m m m m m B m m m m m m m m m m m m c m m m B n B n m m n m m m m c m m m m m B m m b n m n c m x n m c O.k.>X X9.o.c m n m c m m n m m m m m m m m m m x m m m m n B m m m m n n n x n x n x v x n n x n c n b m n n c x b n x n x n n c n v n n n x x x c n x n b n n n z ~.",
"x n v c x n n n n x b n x n x n x v x n x m n x v x n x n x b n x n x n x b n c x n x v x v x n c x n c x n n x c x x m x x x x x x x x x x x x x x x d x d d x N x x x x N x x x x d N x x x N x d x d x x a x x x a x x x M x x x M x x x x x M a x M x a x d d M d x d x d x d M x x x x M x x x x x M a x x x x x x d x t x d x x x x x t x x x M x t x x x x x x x x x x M x x x x x x x x d x M a x x x M d M x d x t d x d x x x x x x N x t x x a x x x x t x a x M x x M x x x x x x d x d x x x x x d x x d x x d x x d x x x x l x c x x n x x x x x x x x x x c n x b x n x m x m x x v x v x n c n n x c n c n v x x n x n n c m x x c b m n B x m n m m m m m c m m m m m m m n B m B m m B n m m b m m m m m m m m m m  .m m  .m m m m  .m n m m m m m m  .m m m  .b  .m m  .T  .m  . .m  .m  .T m  .m  . .b  . . .m ..b b  .m  . . .m  . .m T  .T  .m  . .m  . . .b b  .m  . .b m  .b m b m m m m  .m m  .m m m m  .m m m m  .m m m m  .m m m n m m n  .m m m n m m m m m m n m m m n m m m m m  .m n m  .m m m m b m m m m m m m m m m m m n m m m m m m B n m m m m B n c m m m n b m b m m m m m c m m c m m m m m m m b m m c m m T 8.m.uX@XM.@.T m n B m m n m m c m m m m m m m m m m m x n x n v x n x v x n n v n m x m n n n n x n x n n x x n n b n m c n c n x n n m x v m n b n n x n m m x m b 1.",
"l m x n x m b x n v x n n c n c m x n c n x c v x m x m x c n x c n v x n x x n m x c n n c n x x n x x x c x c x n x x x m x x x m x x x x x v x x x x x x x x d x x d x d x d x d x x x d x d x x x x d x M x x x M x x d d x M x d x d M x a x x x x x x x M x x x x x M x x x x x d x x a d x a d x x x x x t x a M x x x x x M x d x x x x d x d x N x x x t x x x a x x d x x a M x x d M x x x x x a d x x x x x x N x x x x M d d x x t x x x x x M x d x x x M x d d x x d x x d M x x x x x d x x x x d x x x x x x x N x l x x x x n c x c x x m x x c x n c x x x v x n x m x n x v m x n c n x n x x v n v n x n x v m x n v x n n n n m m b m m m m m m m m n m m c m m m m m b m b n m m m m m m x m c n m m m m m m b n m m m m n m m m m  .m m m  .m m m m m  .m m m  . .b  .m  .T T  .b  .m  . .b m  .m  .m  .m  .m  .>.b  .b m m  .T b  .m m  .m  .m T  .b m m  .m m  .m m  .n b ..m m  . .m m m m m m m m m m n m m m m m m m m m m m  .m m m m m m m m m  .m m  .m  .m m m  .n m m m  .m m m n m m m m m m m n B c m m m m m m x m B m c m m m m n m c b m m m b n m m m m m b n B c m m N m m m n m m m b m m m B B m m x b Z  .>.k.E.dX6XI.y.>. .n c x b m m m B B c m m n B m m x m c n m n c n n x n m b n m x x v n n b x x b n m x v c n v n n x x n n n x v b n x x m n x v n x m x n n x v n x p.",
"x x x v v x n n c n b x x m x x x n x n c n n x n x x n n n x m n c n c c n c n x n x n x m x c c x n c x x m x c x n c m x x x x x x x x l l x x x x x x x x x x d x x x N x x x d x x d x x x x x x d x x x x t x x x x t x x a x x M x d x x d x d x x x x x x x x M x t x x x x x x x x x x x t x x x d x a x x x d M x x x x x x x d x x x x x x t x d x x d x x x x x x x d x x x x M x d d x a x x t N x a x M a x x x M x x x x d M x x x M x x x d M x x x x x x M x x a x x d x x x x x x x x x x x x x x x x l x x d x x x x x x x x x n x x c x x c x x c x x c x b n x n x n c n x n c n x x n x n m x m n x b n m n c m n x v c n x n n m m m c B m m m n n B m m B n m m c B m m m m n m m m m m m m m m m m n m m  . .m n m m m m m m m m m m  .m m m m m  .m m  .b  .b  .m m  .m  .m  .m  .m m m  .m  .m  .m m  .X. ...Z v >. .m  . .m  .m  .T m  .m  . .m  .m m  ...b m m b m  . .b m  .b  .m m m m m m m m m m m m m m m m m  .m m m m m m m m m m m m Z m m m n m m  .m m m m m m m m n m  .m m m  . .m m m m m m m m m m m m m m m n m m m m m m m m m m m m m m m m m m m m m m c m m m c m c m m m m m n m m m m m m m n b O.#.y.H.Q.BXfXQ.A.5.$.O.m n b m m m B m m m m m x n n n n x n x n x m v n c x n x x n b x n x m n b x b n c n c n x c m x x m n x x m n x n v x c n x n x v x v m v n n b 1.",
"x n v x x n b n n x n n n x n v c n n x x v m x c n b x b x n x x n x n n x n x b x c n n x n x x x x x x x x x x x x x x x x m x x x x x x x x x x x x x d N d x x x x x d x x x x x d x x x x d M x x d x d x x x M d x x x x x x d x x x M d x M x x x t x x a x x d x x x x d x x t M d x x x x x x x x M x x x x M d x d x d x x a M x a x t x x x x x a M x x x t x a M x x M a x x a x x x M x x x x x x x x x x a x x d a M x d x x x x x d x x x x d x N t x d x d x x x x x M x x x N x d N d d x d x x x l x x x x x x d x l x x x x x x c x n x n x x x n x n x x x c n x m x n c n x n n v n v b x x n x v n n x n x n x n c n n v n c n c m m m n m m c B b m c m m m m m b n m m m m m m m m m m m m Z m B m b m m m m m m m m m m m  .m m m m m m m  .m m m m  . .m m m m  .m  . .b  .m  .m  .b  .T  .b  .m  . . .].[.X.n  .m m  .m m  .m  .b  . .T  .b m  .m m  .b T  .m  . .m b m m  .m m b m m  .Z m m m  .m  .m m b m  .m T m m m m m  .m m  .m m m m m m m m m m m m m  .m m m m m m m m m m m m m m m m m n m m m m m m m m m m m m m m m m m m m m n m m n m m  .m m m m m m n B m b m m n m m m c m m B m m m m n c b o.m $.;.k.L.;XCXnX;XL.h.;.o.m C n m m m b m m m x n v n c x v v c n v x n x n n n b n n c n n v x x x n n x n x n n n v n n v n x n b n n n v n m n n n v c n n x v m x x m x p.",
"x n n n x m m n m n m m n m n c n m n m m n m n n m n m m n m n n c x m n c m x n c x v x c x c m x x x x m x x b x x m x x x x v x x x x x x x x l x x x x x x x d x d d x x d x d N x x x x d x M x x x M M x M x x x a x d x d M a x x x x x x x x x x x d M x M x x x x t x M a x x x x x a x d x d d x x a M d x d x x x x M a x M d x x x x x x x x M x x d M x x d x x d d x x x x x x x d x x M a x d x d x x x x M x x x x d x a x x x d x t x x x x x x x x t a x M a x x x d t x x t x d x x x x x x x x x x x x x x x x x x x x l x c x n c b x x m x m c n x n x n n c n x v x n n m n m m n m m n m n m N n m n m m n m n n m x n v m m n n m m m n b c n m m m m m m m m m m m m m m m m m m m b m m n m m m m m m m  .m m m m m m  .m Z m m m  .m  .m m  .m  .m m  .b  . .b  .m  .b m m b  .m  .m  .m m m  .m  ...XX*X6. .>.v  . .T  .T T  . .m b  . .m  .b m  .m  .m m  .b  .m m m  .m b  .m m  .m  .m m  .m m m  .m  . . .m  . .m m  .m  . .m m m m m  .m b m  .m m m m m m m m m  .m m m m m m m m m m m m m m m m m m n m m Z m m m m m m n m m  .m m  .m m m m m m m m n m m n m m B n m m m m m c m m m n N m v m B n m ..>.3.e.L.Q.5XGXBX9XQ.J.k.&.O.C B n m n x n m m n n x x v n x x v m n v n n c n n x n x n c n x m n m m n m n m n m n n m m n m n m m n m m n m N m n m n m n m n n m n x  .c ] ",
"x B n c n n m c n m n x m N c n m n c n N m n m m n m n x m n c m N m n c n n n x n n x v n n x x x x b x x m x x x x x c n x m c x n c x v x x v x c x x d x x x x B x N c N f x x x x B d x x x d x x d x x x a x x d x x M x x x x x x t x x M d a M x d x x d x x N t x x x x x x x x d x M x x x M M x x x x x x x x a M d x x x x x x d M x x x d x d x x x x x a M x x M x x d M x d M a x x x a x M x x x M x d d x x N x x x M x x t x x x x x x x t x x x x x x x x x t x x x x x x x N x x x x x c x x x x x n x x c x x x x x x x b x n x x x x x x v x n x n c n m x n x v x m x m x m n x n B x m x m n m m N c n n m n c m n m N B x n n c n m m B m m m m m m m m m m x m m n m m  .m Z m Z m  . .m m  .m m m m m m m m  .m m  .m m m  .m  .m m  .b  . .m  .m m  .m  .m T  .m  .m  .T  . .T  .m  .T  . . .T  . .| x.6.*. .v  .m m  . .m  . .m  . .m m  .m  . . . .m m  .m  .m  . . .b  . .m  . .m  .m  . .m  . . .m  .m m m  .m m  . .m  .m  .m Z m m  .m m O.m m m  .m m  .m m m  .m m  .m m O.m m  .m m m  .Z m Z  .m Z m  .m m m  .m m  .m m Z m m m m m Z m m Z m m Z m m m m m m m m m c n m b n B m m m B n n m N Z Z @.@.u.m.U.$X9XNXKXKXxX2XoXU.J.u.3.Z Z Z m n x n n m m m n m m n m n x x n c n x b m n m m n n m m n m n x m n c n m m N c n n c n m x n m x x m n c x m n c x n m x | m c n m c p.",
"x n c n m n c N m N m x m N n m m N m n c n B m x m n c N m n n n x N n x B x c c x c x x x x x x x n x c x n c x x m x m x x x x x m N x x x n x x n x x N x x x N x x x d x x N x c N x x c N x x x x N d N x x x x x x x x x x x t x x x x x x x t N x d x x x M a x d x d x x x x x M d x x x M x d M a x x x x x x x x x x t x x d x x x x x x x x x x x a M a x x d M x d a x d x x a x x x M x x t x x x d M x x x x x t d x d x x x x x M a d M x x x t M a x x x x x d d x N d x x d x x x x x N N x x N x x x N c x x x x x x x x x M x x n x x n c x n x x n x c x x x x x n m N m n N m m x m m m x n m x m x m x m m x c n n n m n n n n m n m n m N m m n m n m n n m n m n m n m n m n m m m O.n  .n m  .m m  .m m m m m m m m  .m O.m m  .Z m  .m  .m n m n n  .m | | m m | O.m m  . .n m m m  .m  .m T  .m  . .O. . . . . . . ...m n n m m m n n m n n m m m m m  .m C  .m  .n m m m | m  .m n  .n m m m m C m  .n | m m m m Z m m Z m  .m  .T m m Z m m m m m m m  .m m O.m m m m m m m m m Z m m Z m m Z m m n m m n m m m m  .n | m m m | m  . .n | m  .n m x m n m n m n m x m m m n m n m n m n c n m n .. .| m B Z 1.f.N.E.Q.1X9XNXHXIXIXSXMX5X:XQ.Q.N.t.r.A Z Z n m n m n m N m n m n m n m n c n n c N m x m n x m n m n b n m n m n b n m n b n m n n n m n m x m n m B n B n n m n n n m n x C b [ ",
"x m n N x m x m x m n m m m m N n m x m n n n x n N m N m N x n n n m n n n x n x n x x x m x x m x x c x x x x x x x x x x x x N x x x n N x x N x x x x x x x d N x x x N x x x d N x N d N x N x x N x x x x x d x d t x d M x x x x x x t x x a x x x x a M x x x x M x x x x t x x x x x x x a x x x x x x x d t x d x x a x x x x M d x d N t x a d M x x x x x x x x x x x x M x x M x d x d x x x x M d x x x d x t x x x x M x x N t x x x x x x a x x x x x t x N x M x x x x x x N x x x x x d x x x d x x x N x x x x n N x x n x x n x x x x x c x x c c x x x x x x c x c N x n N m N n c N m N m x m m n c n m n N m n m m B x m n m c n m x m n c n n m N c N c m n m n m n m n m n m m  .n m m m n m n  .n m m m Z m m m B m m m m m  .m m m m  .m m Z  .n n m m m m  .m m n m m m m n m | m  . . . . . . .m  . .m m  .O.m  . . . . . .O.n m m O.m m  .n  .m n m n m m n n m m  .n m | m n m m m n m o.m | m  .m m m m m  .m m  .m m m m m m Z  .T m  .m O. .m  .m m Q m m m Z m Z m B Z m m m m m m m m m m m m  .n O.C | m n m m m m C m n Z n m m m m n m m B n m x c n m n m n N x m n c n n m m n c n m x x Q u.N.{.OX>XiXdXMXCXSXHXIXUXUXIXKXSXmXgXsX6X>X X].n.<.Z m x n c n c n m n c n m n m n n m n m N m n m n n m n m n m n m n m n m n m n m n m m m n m N m n m n v n x m m n n c B m m x C c ] ",
"x N n c m N m N m n b n n m n m m x c N c n n n n n m m n x n B N m n m x m x c x x n x x m x m x c x x m x x x n c x x x x x n n x x x x x x x n x x x c N x N c x N x x x N N x d x x x x x x d x x d c N x N x M x x N x d x t N x x x d x x x t x x x M x x x d x x a x x M x x x x x d M a x d x d x x t x x x x x M d x M x x M x a x x M x x d x d x x M x d M x d x x x x x x x x d x x x d M a M x x x x x x d x x x x x x x x x d x x x x M x x x x N x x N t x x x d x x x x N d x x d N x x x d x x N x d x x x x n x n n x x n n N x x N x x x N x x x x x x x x b n c x n m n n m N n m n m N m n n n n c N m x m m n m x n m m n m n c m c n x n m n m m m n m n x n B n x n n c n b n n m n n m  .m n  .m m  .m m Q m Z m Z m m m Z m B Z m m  . .m O.m m m m  .o.m n m | m  .n m m n m m n m n n m m m m m m m b m n  . . . . .2...O.| o.m n m C m m m m  .m  .C m  .m m m o.m m  .m m m m  .n m m m O.m m o.m m Z O.m Z m m  .m  .m  .m O.m  .m m m m m m m m m B m m m m m m m Z m m m m m m m B m m m m m O.m  .m m m m m  .| C m m m m  .n B n n B m n m n n n n m N m N m n m n m n m N m N m n m N m n N c B <.d.g.{. X@X5XqXnXBXHXIXUXUXKXSXMXnXwX5X-X|.{.N.u.<.Z m m n N m n m n m N m n m m N c m n n m m m n m n n c n m n m m n n m n m n m n n m N x B n c N m N m m n m n c n m x x m c N m b [ ",
"x x b n m m x m N c n n c N m x n m n m x m m m c N N n m n n n m N x x x x x x c n c x x x x x x x n x x x x m x x c n n x x N x x x n x x x n x x n x N x x d N x d x N c d x c N x x N d x N x N x x x x x d x x d x x x x x x x d x x M a M x x x x x d x x x M d x x x x d M d t x x x x d x x M x t x x x M d x x x x x x x x d x x x x x x x x M x x x d x x a x x x t x t x d M x x M d x x x x a x x d a x M x x x t x M d a x M x t x d x d x d x x N t x c x x d x x N d x x N x x x x x d N x N x N x c N N x x x N x x x x x x x x x x n x x x c n x c n x n c x x x x c n x n N c m n N m n m x m B x m n m n m N x m n x m n x n n m n n N m n m n m n N n m n m n m x m n m m n m n n m n m n  .n m m m n m n m m m m m  .m Z m m m m m m m m T T m m m m  .m n n m m  .n m m n | m  .m m m  .m m  .n o.m Z m O. .m n O. ...2.2.2.2...| .. .|  .m m | n m n n m | m n m m | m m m n n m n | m m  .m m m C m m m  .m m m m  .m m T m m m m m m m Z m  .m m  .Q m m m m m Z m m m m m m m Z m m Z  .m m m m Z m m m n C m m | n m m m m o.| n m m b n n m n m n m b n m n m n m x m x m n m n m n c n m n m n m m n B m B Q <.<.k.N.Q.oX2XtXAXIXUXSXtX2XQ.Q.M.f.<.! B Z Z m x x m m n m n m n m n m N m c N m m n n n N c n m m n c N m n x m n x m N c n c n x m n n m x m n c n N m x m N c n m m m N x C b ] ",
"x n n m n m n m N m n B n m n m c m m n m n m N N x n N x c N N n x x n x l x x x m x x m x x m x x x x x m x x x n x x x x n N x x x x x n x x x x N x d x x x N f N x N x x x N x d N c N x d N d x N N N x x x x x d x d x M x x M x x x x x x M x x d x x t x x x x x x M x x x x x x M d x x x N t N x d x x d x a x a x d d x a x x x x x x x x x x x x x d M x x d x x d x x x d t x x x x x x M x d x x x M a x x x x M x x x x t x x x d x x d x x t x x x t x x x x x x x x x N c x x x d f N x x N c d N x x x x x x x x x x x x n x N x n c n x x n c x x c x x x x x x x n n x n n N m m n x n n m n m x m m n c n m n c n n m n m n m n m m m n m c n n c m n c n m n m n N m n m n m n m c n m n n m n m n b n  .m m n m  .m n m m B m m m m m m m Z m m  .m m m  .m m n n  .m m n m  .m o.n  .m m m  .m m n n m m  . . . .2.x.b.j.j.O.O.O. .n m  .m m  .m | n m m m m  .m n m m m m m n  .m  .m m m O.m m m  .m m m O.m  .m m  .T m Z m m m m m m m  .Z  .m m m m m m m m Z m Z m n m n m Z m n O.n m  .m m  .m m m n  .m n m m m m m n m m n m m x m n m n m n n m n c n c n m c n m n n m n m x m N m x m m n  .v m  .O.m O.<.h.c.T.Q.2XMXHXGXwX2XT.L.S.&.! Z n n v n v n n n x m n c n m n m m n m n m n m n m n c N N m n m n m n m m n m n m m n m c n m n b m n c n m x m m n c n m n c N m m B x n b { ",
"x B x m c N c x c n m x c x m N N N x n N m n x m n m c n n m n n x x x x x x x x x x x x x x x x m x c x x c x x x x x n x x x n x x n x x x x n x x x x N x x x x x x c x x N x x x x N d x x c x x x x d x x d x x N x x x x x d x a N t d x x d x x x x x x x d t x d x a N x d a M x x x x d x x x x x M x x x x M x x M x M x x x d x t x x x t N M a d x x x x d x x x M x x x M x x x x x x d x x x d M x d x x x d x d x a a M x x x x M x x M x x x x N x M x t x d x x t x x d x N d x x N x N x N d x x x x x n N x x n N x x x x N x x x N x x c x x n x n x c n x m x x c x n x n n n N N B n n x m N m N x m N m N m x m m m m n m N c n m N m n n m m n n m N m n c x m c n m n m n m n n m x m n n m n m n m n  .m n  .n m m m m m m m m Z m m m  .m  .m m O.n m | m  .m | | m  .m n m m m m n C m n m m m  .m C m  .| X.3.j.B.B.j.4.O. .m n m n m n m m m m  .m C m n  .n  .n n | m  .m n m m m  .m m  .Z m m m m m m m m Z m m  .m m m O. .m m Z m m m Z m m m Z Z m m m m m n Z m  .m m  .m m m n m o.m n n | m n m  .n  .n C m n m n m m n n m n m x m n m m n m N m n m n n m n m c N m n m n m n n n m n n n m m x m n m o.#.h.c.Q.2XSXMX:XU.e.y.3.o.O.m b n v n n m m m B n m n c N m n n m n m n c n n n m m m m x m n m N c n N m n m N c c N N m x m n x m N m m N m x m N c n m n m x m n x m b p.",
"x n c N n m N m x m N m N m N m m x B n x N N x N m n n x n n n x x x x b x x n m N m c N c N c n c v x m x n x n x x n x x x x x x x x N n x m x x x x x c x N x x x x d N x d N d x x x x x N N x N x x x x d x x N x x N N d x d x x x x x d d x x d M d x x x x N t x x x d x d x x x d x d x M x x x x a x t N x x x x N x x x M d x x M x x d x d x d M x d x x x M a x x x x x d d x x x t x x d d x x x x x d x d M x x x d x x d N x x x x d x x x x d x V N.A N x x x x x x t x N N d x N x x N d x x N x x x x n n x x n n x x n n N n x x x x x x x c x n c x m c x x x x n n x x m m n n c n n n c m m m x m N m x n m B n x N n m n m n m N c n m m n m N m n m n m N m n n m n m m n m n m n m N m B Z m N m m m m n m m O.m  .m  .m m O.m Z O.m m m n m m O.m  .m  .O.|  .m O.m m n m C m o. .m n m C m | m m n m  . ...o.2.j.B.b.b.3... .O. .n o.m m m o.m m n m n m C m m m n  .m m m n m C m m m m m m m  .m n  . .m m n m m O.m m  .O.m T m m m m m m m m Z O.m m m m Z m C m m n m m m m n m C m C m m  .m | m m m m m Z m n m m n n n n m n n N m n m m n n m n m c n m n m n m n n m n m n m m n m n m x B m c m b n x n $.O.@.9.L.;XMXMXoXH.h.Q N o.o.n n m B m m n n m n n n m n m n m c N c n m N n m c n n m n m n m n m m m n m c N n n B x m n c N m n m N c N n m m N m n m N m x m m B d n b ] ",
"x x n x m N c n m n m x m n m x n n n n m n n n n n n n N n N c n B m x m x B N c c n x m x m x x x x x x x x x x x x x x N n x x n N x x x x N x x x x N N x d x N d N x x x N c x x N N x x d x x d x x x N x N d x x x x x x x N x x x x x N x x x x x x x x N x x x x x x x x N x x x x x x x x x d x N x x x x x N d x d x x x x x x d x x x N x x x x x x x x x N x x d x x N x x x N x x x x x x N x x x N x x x x x x x x N x x x x x d x x x x x x x N x ! *XN.N M N N t x x x x x x x x x x x x x N x x c N x x x x x x x x x x x x x x x x n x x n x x x x x x x x n c m x m m n N m N x x n n N x n N c n n m m n m x x m n m n m x m n m n m n m n n m n c n m n m n c n m m n m C m m m | m m  .m n m n n m Z m n  .m n O.m m m Z m m m T  .m m m o.m m  .m |  .| O.m  . .m  . .n  .m m | m m m n  .m m m | m m  .n n | O. .>.4.b.b.4.2...| .. .m m m C | m m m o.m  .m m o.m m  .m n n m  .m O.m m O.m m O.m m m m n Z m  .m Z  .m m m m m m m Z m m Z m B T m m m m T  .m  .m m m | m  .n o.m m m | m m m | n m m m n  .| m n m N m n m m B m n m  .m m C m m N c n m n n m n n B m N m m n n B m n m n B m n  .| | m m m  .m x O.m ! &.Z.oXgXpXI.q.;.O.Z m l m v x n n x x m n b n m N m n m x n m n n m m m m N m n n m n m N c n N m x n m m b n n m n m n m n m n m n m n n m m n m n m n m n m n N C b ] ",
"x c n c c n c n c N N m m x m N n x m N m n m N n N m N m n x N m n n m n m N n n m N N n c n c x x c x x n x n x n n x x x x x x x x x x x n x x n x x x x x x x x n x x N m x x N n x x n x x x x N x c N x d N x d N x x N c N x x x N d c d N N x x N d x c N d x x d x x N x d N x x x N x x N x x x x x N c N N c N x d N x N d x x x N c N x N x x x x x x x c N x d N x x N x x d N x x d N x x x d N x x N x x x N x x N x x N x x N x x N c d x x x x x B ! Z B x x x x x x x x x c N x d N x x x x x x N N m x n x x n x x n x x x n x x N m n x n n x n x c x n c n n c N n n n n n x N m N n m N N m n n m N N n m x m N c n m x m n m x m n m x m n m m n m v n m n m n m n m n m m m m O.m | m  .m n m m  .m o.m  .m n m n m  .m n | m m n m  .m Z n m  .m O.m  . . .m  . . .O.m | n m  .n  .n n m | | m m m C m n m  . ...O.2.3.2.3.o. . .n n n  .m m n m m m m m m | n  .m O.n m  .m n m m m n m  .O.m n n m m m m O.m  .m  .m m  .m m m m m m Z m m m O.m  .m m m C  .n m m m C o.m m | m m m C m  .m n | m m m o.m m m C m  .n  .n m m o.m  .m m | m n m m m m n n  .m  .n m | m m m n m m n  .m m | m o.m m n m n m n N m  .x m n o.j.^.sX0Xm.<.Z Z n n C c N m n m n c N m c N m n m n c n m N m n m n m n m n c N m n m n n n c m n m N m n m n m m m n n m n c N m m n n m n c n n c c N c m n x n m p.",
"x n x n n m N m m m x m n m m n n n n x c n N m m x m n n N N m n n N m x N n m n m n m x n n x x x x x x n n x v x n N x n n x x m N n n x x N x x x x n x x n n x x x x x x x x x x x x x x x N c x x N d x x x x x x x x d N d x N c N x N x x x d x x x x N N x x N N x x x x N c N N d c N x d N x x N x d x x d x x x x x x x x N d x x x d x x x N x d N N x N d x x x x d N x x x x x x N c N d x x x x d x x x N f x x c N x d N x d x x x x N x N d N d x N N x x x x x N d N c N N d x x x x x x d N x x x x x x N x x x x x x x x x x x x n x n x n x c n x x x x x n x N m n n n N n m m n N c n m N x m N n m N m m n m n B x n m m n m N m n N m m n n c n m m n c n c N m n n m  .n m n m m m n m m n m n m m m m n  .m n  .m n m m  .n m  .m  .m  . .n o...O... . ...O.O.m  .m  .m m n m C m Z m m m m | m | B Z m |  . .O. .o..... . .n O. .m m n  .n  .n m | n  .m m m n m m n m  .m n  .| m n m m m m  . .m m  .m m Z m m m Z m >.m O.m m  . .m m  .m m Z m n  .m m | m | m m m  .n m m | m | m m n m m m | m m m | m m n m m m n m m | m n n m C m  .m  .n m  .m m n m m m m m n  .o.m m | m n m m m n m n m N c n m x m m n B n n <.m.5X>Xi.@.C v B v v n m n m n m n m n n m n m n m n m n c n m n m x m x m n m n m n m m n N m m n m m m n m n N m n m n c n b m n N c n n n c c n n m c Z B x m m [ ",
"l n n m m n x m n n c m m n x N B n m n N n n n n n n n N m c n c m n n m n n c N N n n n x n x x c x m x n x n x n x x x x x x x N n x x x n x n c n x x x x x x N x x x x x N m x x x x x x x N x x x x x x N N N x x N d x x x x N x x x d x d x N c x x x x x x x f x x d N x x N x x N x d x N c d d x N x x x N x N x N c x x x x N x x N N x x d N x x x c x x x c N x N c x N d x d N N N d x x c N x N N N x N N c x N x d x x c x x x c N x N x x x x x x x d x d x x d x N x d x N x N c N x x N x x n x x x n x x n n x x x N x x x n x x n n x n x n x n b n x c N n m m N c m n m n m x N N n m N m n n N N c n m m m N m n x m n N m n m n c n m n m n n n m n m n m n m n c N m m n n n m n n m | o.m  .n m o.m n m n  .m m m m m m m n m | m  .m  .O.O.o...o.X.| ..O.| |  . . . .n  .n n m n | n n m m m  .n m m n m |  . . . . .| m | m | n  .m m m m m  .m | n m  .m m m | C n m n m n m m m m m m m m m m m Z m  .m m T m m m m m m m m m  .m O.m m  .m m m m m n m m m m m m n m m n m m  .m m m m m m m n  .n  .n | C m n n m  .m m m m n  .n m m m n m o.n n m o.n m o.m  .n m  .m m m m  .n n  .m m m m n m n m n m n m m m n | O.i.OX|.<.O.n x Z n n n n m n m N c n m m n n n c n m n m N m n m n m n B n b n m N c n n m c n n n m N n m n c m x m N m n n n N m m m x B N c N n c n v m n x m m ] ",
"x B n x N m N m N m N n N m N m x n n N N m m N n n B x m n N N N N m N n N m N c n c x x n x c n x x N x x n x n x x x x n x x x x x x x x x x x N x x n N x x x x n x n x x n N x x x x n x N c x N d x N x d c d x N x x x N x N f x x x N x N x x N N f N x x x x N d x N c d N c x x x x x x x x N N x c d N d x x x d N x N f N x c N x d c x x N d c N x d N N x N d x x N x x x N c x x x c N x N d x x c x x d d N x d x x N N d N N x N d x x N d x x x N x x N x N x N x c x N x x x x N d x c N x x x x n x x x x x N x x m n x x n x x x x x n x n x n x x c x c n n m N c N n n x n n N m m n n m N m n c N n n x n N m N n n n c m x m n m n m N m n n m m N m x m n m N m n m n n m v m n m n  .m m m n m  .n m  .m m m m | n  .m n  .m m n  .n O. . ...O.|  .$.$.#.......O. .n  . .m  . .m m m  .m  .n n n m Z m o.m m m  . ...O. . .m | m  .n  .n | m n n m m Z m m m | m m m m  .n m m O.m m  .m O.m  .m O.m m m m m m  .m O.Z  .m m  .m m m m m m n m n m | n  .m  .m C o.m m  .m n  .m n n m C O.n | n m  .m n m m m m m O.m  .m n m n  .m m m n O. .n m m m  .m m  .m | m m m n n m | n Z n B m n m n C m m n m n n n m x x n m n Z <. XB.A Z m m m B v b m n c N m n m n n b n B N m n m n c n m N c n m n n n m n c n m m m N m n c n c c n m N n m n m x B m n m x m n m n m n m m N m c n B x n b [ ",
"x N n x n n N N N c n m m x N m x n m m x n B x x m N n m N n m N m n m x N m n m x x n x x l n x m n x n x x n n x x n x x x N x x x x x n x x x x N n x x N m n N x x x x n x x x x x x x x c x N N c d N N c x x x x x x N f d N x x x x c N x x N x x x x x x x f N N x x N x x d x x x N x x d x x d N x N N d x N x d N x x x d x x N N x N d x d N x d N f N x x x N x x x N x x N x x x x N N x x N N x N c x x x x x x c N x d N d x x x x x N x x x x x x x x x x d N N x x N x x c N x x x x x d x x n N x x x N n x n x x N n x x n x x n x n x v x n x n x x n c x x x m n m n n N x B c N N m x N m n N N m n n m x N m c N x N b m n m N m n m m n b m n n m n c n m n c N m n m m n n m n m N m m m n m  .n m m m m  .m  .m n  .| m n m m |  .m  . . .o.X.o.$.$.$.$.$.$.O.....O. .m n  .n m n m m n m C m n m m m | m  . . . .n n n | m m O.m m n m m m m m m m  .m m m Z m m m  .m O.m m m m O.m Z  .m m m  .m  .m n | m n m C m  .m m n m m n  .n n  .n n m m m m | n | m  .m | m m  .n m m m m n n m m m m n n m m m n m m n m | n m m n n  .m n m m  .n m m m | n  .m m o.m n  .m m | n n m m n x m N m x N n m n m m n m n m x m n m B B.^.Z x n m v v m n n n x m n m n m m n m x m n c n m n m n c N m n m N m n m n m n m N m n m n m m n c n c N m m x m m x m n c N m N m n m x m m N N m m N n b ] ",
"x n x n n c c n N n n n n n m n n n x N n n n n x n m n m n n n m N x n N m N c x m x c c x x c n x x n n x x n x x x x n x x x x n n x x x N x x N x x x x x x x x x m x x x x x x x N x x N N x d x x x x x x N x x N x x x N x N x x d N x x N x d x N x N d x x N x x x d c N f N x x x x c x N N x x x x x x x x c x x x x N x N x x x c x N x x x N x x x N x x x x d x x d N x x f x x N x x d c x x d c x N d x x N x x N d x x x x x x d x c N N d x B N x x d x x x x c N x d x N x x N d N x x N N x x x x m x x x x x x x x x x x x N x x x x n x n x n x x x x x x x m x n N N m m n n n n m N n m N n m c N m n N n m n n m m n n c n x m x m N c c n n m m n m N b n m n m n m x m n m x N x c n n n m m n m m n n b n n m n m m | m m  .m  .n  . .O.X.X.$.$.3.5.3.5.2.2.$.O.o...O. . .m  .m m  .n O.m m  .m m | m | m n m m m n n m m C n m Z  .m  .n O.m o.m  .m Z m O.m m  .m m m m m m  .m m  .m m m m Z m m n m m m n O.m m m m  .n n  .n O.m m m m m  .m | n m m m m m n m C m m n n m n  .m  .m m m o. .m  .m m | m  .n O.m m  .m m  .m m  .m n m m m n  .m m m m n m n m B m n m m B m m n m m n m n m n m N c n x m n c n n m n n m d.b.Z n m n x n n m b n B n m n c n x m n m n m N m n m n m n m n m n m x m n m N c x m m n n m N N m N m x m n n m n N m n m n m n m x m x n n m x n m N d n m ] ",
"x B n n n n x x m n m N N m N n B n m n n c m n N n c m n m N m n n m N n C n c x x n x n x x n x x n x x x N x x x x N x x x x x N x x x x N m n x x x n x x x x x x N n x x N x N c N x x x x N x x x N x x x f N d x x x x x c x N x N x x x x N c x c x x x x N x x d x N x x N x x x N x N x N c x x N f x x x d N N x N c N c x x x d x x x x d N x d N x x x d N x x x N N c N x N x x x x N x N x x x N x x x x N c N d x x x d x N x N N x x d x x x N d x x N x N N x x d N x x x x x x x N d x N c x x x x N n x x n x x x x x x x x n x x n n x n x n x n c c x c x x x x x m n N n n m n m n N n n n m n n m N m N n x B x N n B n N n c n m N m n N m n n n m n m n n n m n m n m n m n m m m n m n m c n m n n m  .n n m n m n m m m | n n n  . . .o.o.o.$.3.j.n.n.j.j.4.$.o.o. ... .m  .n n  .m  .m | m m  .m | m m m n m C m Z m  .m m m m  .m  .m m m m m Z m T m m m  .m m O.m m Z m m  .m  .m m  .m n  .m O. .m n  .m  .| m m m m m m m m m n m m n m n m C m  .n m Z n m n m n m  . .m  .m | m n  .m m m n m n m | m  .m m n n m m n n m o.n | m  .| n  .m n  .n m m n m n x n n c n m m n m m N m n m n m n m n m N c m x n v O.m B m 4.r.n n m m x m m n n m n m n m N m m n m N m n m n m N m n m n m N m n m n c n m n m n m n c n n c n B n n x n b N c N N m n m x m n m x b m x m n c n m N n b ] ",
"x x n x x B n n m n N x m n N m x n n N m N n N m n N N x N m N N m n N c m N x x c x x c x x n n v x n n x x x N x x x x N x x x x n x x n x x x x n x x x n x n x x x x x x x d N x x d N x x x x d N x x d N x x N c N d N x N x d x x x x x x d N x N d N x x d x x N x N x x x x N x d x x x x d N x x N x x N x x x x N d d x N x x N x x x x N c x x c N x x x x N N d c x x d x x x x x x d x x d N x x d N N x d N x x x x N N x c x x x x N x x x N f d x c N x d x x x x x d N x x x x x c N x x d N x n x x x x x x n x x n N x x x x x n x x n x n x n x v x x n x x x m x m x c n n x x N n m m N m N n m N x m n n n n n n m x n m m N m n c n m n m B x m x m n B x m n c n m n m x m n m n m n m n n m n n m n n b n m n  . .m Z n m m m  .m o.O.....$.5.6.x.^.B.B.n.6.5.2.$...O.|  .n m m m n n m m m n n m m m n  .n B m n v m m n m m n n m m m m m O.m  .m  .m m O.m m m m  .m m  .Q m m m o.m n m m m n m n m m m n m m m  .n o.m m | C m m  . .m n O.m m n m  .m | m  .n m O.n m m n n m C m m m o.n  .m  .n m m m n n m  .m  .n m  .m m m m m n m m m n n m  .m n O.m m m n m n m n n v x v m n m n c n m n m n m n m n Z v m N m v 2.Z x m n n x n n n m n m x m n m n n m n c n m n b n c n m n m n c n m n m N m n m N c n m N c m x m x n b B n n c n m m x m N c n m N m n n B x n x m C x n m ] ",
"x n n n x n n n N m N N m m N n x n n n m N N m n n m N m N n n n n m N n n c m n N n x x v n x x n x n n x n N m n x v n M n x x x x x x x x x x x x x x x x x x x n x x x x n x N x n n x x n N x x n n x m N x x x x N x x n x x N x x x x x x x n N x x n N N N x x x x x x x x N n x n x x x x n x x x x x x x x x n x N x N m x N x n x N x x n x x x n x x x x x x x N x x x x x x x x x x x n x x x N x x N x x x x x x n x x m x x x n n N N x x n x x x x n x x x x n x x n x n x x x n x x x n x x n x x n x x n x x n x x n x n x n x n x n x n x n n x v n x n x n m m N m n m N n n n n n n n n n n x m N n n m n n x N m n n c n n m n m n m n m n c N m n c N n m n n c m x n m n n m n  .m n n n m n m n n m n n  .v n b n n m  .m  .n m n  .O. ...$.$.3.l.B.^.].^.^.n.6.-.#.O. .O.|  .n m m m m m C m B n m m m m  .m  .n  .m n O.C m m n o.m m m m  .m | m  .m  .n m m m | n n  . .m n  .n  .m  . .n  .n  .n  .m n  .n  . .n m o.n  . .m  .n n | m m C m m m n n m m n m m m m n m n m n n m m m m n  .m  .m  .m n | m m n  .m n n m n  .n  .n m  .m m n m n m n n ..v n m n v n n b n m n m n b b n n  .n b n b n m m  .v m n m  .n n m n n m n m n n m n m n c n m n m n c m x m n m n n n m n n n m n m N m N m n n m n c N m n m m x m n x m n c n m n m n m n n n n n n n n n n n m n n m n n x n v ] ",
"n m x n n n m m n N c n n n N m n n c N n m c n m m N x n N c n c N m n n m N N n m m n n x x n n x n x x n x v n x n x x n n x x n n x n N n x x x n x x n x x x x x x n x N c x x x x x N x x n x x x x x x x N x x x n x x x x x n x x n n x n x x x n x x x c x x x n x x n N c x x N x x x N x x x N x n x x x x x x x x n x x x x x x x x N x x x N x x x N x x x x x n x x n n x x n n x N x x x n x m x x x x m N n n x x x x N x x x x x x c x x x N x N x x x n x N x x x x x x x x N x N x n x x x x n x x x x x x x x N x x x x n x n x n x n x v x x n n x n x v N x N n n N m n m n B x m n B x m m N n m m N N x m n m N N m n n n n x n n x n n m n n m m n m m n m m N n m m n b m n m v n m m m n b v n m n m m n n m n m n b n n m m n O.n m n X.$.$.5.n.^.].).].B.n.4.$.| X.o... .m  .m | m  .n m m n  .n m n  .n m n m n m m m m m  .m m m O.n m n m n m n n m m m | m m  . .b n  .b m  .n  .n m  .m  . .m n  . .m | m m | m m m m m n m m m m m | m m O.n m  .n  . .m o.m m  .m m m m  .m n O.m n m n m n n m m m m | m m m  .m  .m m m m m v n m n  .m m n m m n v m n m  .m m n n  .v n m n n n n b n n m n n n n m n n b n n v m n  .v  .m n m m n b n m N m N m n m n n m N m n m n B n b n B n m n c n c n m m n m n m n m n n m n m m n m n c n c n x n c n b x n m m n b n n n n x n | n N m b p.",
"x n x v m n N n m m N n m N n m B n m N n n n n N n m n m N N m x n N m m N n n N c x n x n x n x n x n n v x x x n x n x n x x x x N x x x n x n x n x x n x n n x N n x x x x x x x x x x x x x x x x x N x x x x x m x x x x N m x n x n x N x x x x x x x x n N n x x x N x x x x x x x x x m x x x n x n x N N x n x x x x x x x x x x x n n x x x n x x x x x N c x n n x x m x x x N m N n x x x x x x x x x x N x x x x x x x x N x x x x x x n x x x n N x x n x x x x n N x n x x x x x x x x x x x N x x n N N x N m x x x x x n x n x n x n x n x n x n x n x n x n n n n c x N N N x n m N x n m N N n n N N m m N m N n n n n m n v x n n v n n c m n m n c n n c n n m n m n m n  .n m n n m m n n m n ..m n m n n b  .n  .m n  .m n n m  .n  .m O...$.$.5.j.B.].{.^.B.n.5.$.X.O...o. .|  .n m n m m n | m n  .m n m m m m m m m n m m | m n m C  .m m n m  .v  .n  .|  .n m m  .m  . .n  .n m  .m  .n n  .n n m | m  .m m m  .m n  .C m n m n m m m m n m | m  .m n m m m n m m | m n  .| m n  .m  .n  .m  . .n | m  .m m m m | n  .m n n  .m n n  .m n v m v n m n v m b ..m n m n n n v n b  . .n b  .b n n m n  .m n m n  .b n  .m n n m n b n n v n n m n m n m n c n m n c b n B x m n m x m n m x m x m n m n m n N m n m x m n c m n m m N m n m N m c n n n x n x m n c n x x m n x n n n m m x n b ] ",
"x m n n c n m N x N n m N m N x x n n m x B n x N m n N m n m N N m n N N x m N N n n x n x n x n x n x n x n x n x x x x x n x x x n c x x x x x x N x x x N x x x x x x n x x n x x n x n x x x x x n x x x n x x x N n x x n x x x x x x x x x x x n x x n x x x x x x n x x n x x n n x x n x x n x x x x x c x x x x x n x n x x n x n x x x x n x x x n x x n x N x x x x x N x x x x x x x x n x x N n x x n x x x n x x n x x n n x x n n x x x x n x x n x x x x n x x x x x x n x x n n x x m N x x x x x x x n x x x x n x m x n n x v x n x n x n x n x n x n x n n n m N N m C m c c n n N c n n N m n c N n n n m n N m m c N N m n m m n N c n n n c n n n m n n c m n m x m n m m v n m n v n m m n m n n v b ..m n v m v n m n n m m n n  .n  .| ..$.-.$.x.n.^.B.N.n.x.5.$.o.o.O...|  . .m  .n | m  .m  .m  .n m n  .n  .n  .n n  .m n  .m m v n n m  .m n m n  .m | m  .m | o. .n n  .m  . .n | m  .m n  .m  .m m n n m n n m n m m m | m  .m o.n m  .m C m n  .m  .n  .m n o.n m m m | m m m n m m m n n m m m m n b n  .n m m n m n m v n m b n v n  .n n  . .n m n v n n m n m v  .n m n m n v n m n m  .v v m n m v n n n v m n b m n m n n b m n m n m N m n m n m n m N n n n m n c n m N c n m n m n m n c n m c n m x n n n n x n n n n n m n n n n n m n m n n n n n m n n n b n m n n n n N m n ] ",
"x n n n n m N x N c m n n n n c m N n n n N m n n n m N m N n x m n m x n n x v n n x n x n x n x n x n n x n n n x x n x x n x x x n N x x x x N x x x x x x x x x N n x x x n x x x N m x x n n x x n x n x x x x n N x N x n x x n x x x x c n x N x x x n x x x n x x x n x x x x n x x x x x x x x x x N x x x N x n x N c N n x x N x n x x x x x x n x N x n x x x n x x x x x x x N x x x x x x x x n x x x N x x x x x n x x x m N x x x x n x x x x x x x N n x x x n x x n x x x x N x x n x n x x n n x N x x x n x n x x N x v x n x n x n x n x n x n n x n x n x x n x n n c n n N N m n N n c m m n N c c m N n n c N N N c n m n n n v x n m c n x m n n x n m n m n m n m m n n x m n c n m n n m n m m n m n n v m n m n  .m b  .n v n  .n  . ...X.$.$.5.j.j.j.b.j.5.-.$.| ....o...m  .n  . . .n | m n  .n  . .m  . . .n  .n m | m  .n  .m  .m  .m | m  .m  .m |  .m  .n m m n n  .m  .m m m m n n m m n m n m m n m m | n m m n m m m n m n m m m m C m m m n m m m o.m m m  .m  .n  .m n n | m  .m m n m m n m m n m m  .b n m n m n b n v n n b n n m n m n b b n n m n m n m n b n n n m m n b  .m n m n m n b  .n n n m n m b n  .n n m v m x m x m n m n m n m n c N m m n c n m N m n m n m n c N m n m N m x m n m n m n x n m n n x n n x m n n x n m n m n n x n n n n n n n m n n x m n x n m p.",
"x n x v n m n m N n n N m n n N n N c N m m N N c N N m N m m n m n n x x x n x n c n x v x n x n c n x x n x n x n x x n x x x x x x x x x n x x n n x x n n x n x x x x x N x x N x x x x x x x x x x x x x x n x x x x x x x x x x x x n N N x x x n x x x x n x c N x N x x x x x x x x x x N n n x x x n x x x n x x x n N x x x x n x x x n x x n x x x x x x x n x x n N n N n x n x n x n x x n x x x x x x n x N n n x x x x N x x x n x x x x n x x n x x x x x x N x x x x x n x c N x x x x x x x x x x x c x x x x x x x x x x n x n x n x n x n x n x x n v n x n n x n c n N m N n m N x m n N n N m N n N n N m n m N m n n n N x B n N n n n n n m n n n m n x x n c n n x x n m n n m n m n c m n m N n m b n n  .n m n v n n n m v n n n  .m | O.o.o.$.2.4.5.5.4.2.-.$.$.O...O.m  .O.m  .n m m  .m  . .m | m n  .n m m  .m  . .m  .n  .m | m | m  .n  .n  .n  .m n  .m  .| m m m m n n m n  .m  .m  .m  . .m o.m  .m m m m  .m  .m |  .n  .m | m  .n n m n  .m m n m n m | m m n m m n m m  .m m n m  .m  .n n  .n  .n n v n b n v  .m n  .n n m n  .v n b n m n n  .m n m n m n m n v  .b n n m n n v n n m b n n m n b m v m n n m m v m n m n m N m n m n m N c n m n m n n m n m n m x m n m n m n n m n n m n n m n n n x n n m v n m n m n n n m n n b n n x n m n n b m x c n n x n x m n n x m n ] ",
"x n n n x N m n m n N m N m m N n m m N N n n c N m n m n n c n N m x n n x x n x n x n x n x n x v x n n x n N C C N n n x x N x n n x n x n x x x x x x x N x x x N x n x x x x x x x n x N x x x x x n x x x x x x x x x x x N n x n n x x x x x x x x n x n x x n x n x x x N x x x N x x n x x x x N m x n n x x x x x x x x x x x x x x x x x x x n x x n x x x x x x x c x x n x x x n x x x x x N n x n n x x x x x x x x x x x x x x x x x x N x N x x n x x x n x x x n x x x x x n x N x N x x x x x x x x n N x x n x x x x x N x n x n x n x n x n x n x x x n x x x n x n m N n x c n m N m n x n n m n n N x n m x N N m m N m x n n m n n n n m n n n x n n m m n n n n n n x m m n m x m n n m n m x m n m n m n b v n m n n b n  .m n n  .| m n | | ..o.$.$.-.2.2.$.$.X.|  .| ..n n n n m m  . .n  .n  .| m  .| m  .m  .n n m m  .m | m | m | m  .m  .m m  . .n n m m n | m m n  . .m n m m  .n  .n m m m m n n m m  .o.m m n m m m C m m n m m  .m m  .m  .m | | m  . .n  .m m  .m o.n m  .b n m b n b n n m n b n b n m n m m n n n v m b n b n b n m  .m n n m b n m n n m n m b ..m n v m b n b n n  .n b n n v n m n b n n n n n n m n v n m n m n m N c n m n m N c n m m n c n m n b n B x c n n m n m n n n n x m n b m n m n x n n n n m v n m n x v x n c n c n n x n n n m n c n n x n n d n v ] ",
"x B N c n m N N m n x m n n N m n m N x n m n n m N x n m N N n n x N n x n n x n x n x n x n x n x n x x n x o.O.<.@.C x n N x x x x N x x x N x n x x x x n x x x m x x x n x n x x n x x x n x x m N N x x n x x x m N x x n x x x x x x x n x x n x N x x x x x x x x x n x n x x n m x N x x n x x x x x x x x n x x n x x n x x n x x n x x n N x x x x x x n x N x n x N x x x x x x x x x m N x x x x x x x m N x n x x n x x n x N x x n x x n x x n x x x n x x x n x x x N n x x x x x x c n n x N x n x x x n x x x n x x n x n n x n x n x n x n x n x n c n x n x n x n x N m m n N n n m N m N m n N m N m n m N n m n N m n n x n B x n B x n n n c n m v x n n m n c n m n m n x m n m n x m n m n m n m n b n m n m n  .b m n v m n m n n m n m O.| | ..o...o.$.o.o.X...O.Z  .O.O.| m m  .n n m m m n m m m n m  .n n b .. .n  .n  .m  .n  .m  .n | m  .n n m m m  .n m m m | m m m n  .m n n m m m n  .n  .m  .m n m n m m  .n o.m m | m m  .n m C m m n m n m m m n m m m n n n m m  .m n n m n n n  .m n n m n m n n  .v n  .b n m n  .n m n m n m n b n n v  .n m n v  .n m n v n n m n n  .m n m b n m n m  .m n n m  .n b  .v m m n  .v c n m n m n m n m n m n m n m n n m N m n m n n n m n m c n m n n c n c n n n x n n x n m n m x n n N c n N m n n m n n n n n m m n x n x n C N c m n N Z b ` ",
"n n x n x x m N m N c N n c n m N n n n x n n n x N m n n m N m n x n x x n x n n x v x n x x m x x n x x n m :.J. X[.z.N M N x x x n x x n x x x x x N x x x x n x x x n x n N x x n N x x n N N n x N n x x n n x x n x x x n x x n x x x n x x x n x x n x x x x x x x x x x N x n x N x n x N x x x x x x x x x x x x x x x x x x x x x n N x x x x x n x N N x x x x x x x N x x N M x x x x N x x N x x x x n x x n x x n x x x n x x n x n x x n x x n x x x n N x x n N x x x N x x x N n x x n n x x x n x N x n x x n n x x n x x n x x n x x x n x n x v x n x n x n n x n n x n n n N m m N n N m n m x N n m n m N m n x N m m N x n c N N N m c N m n n N m n n n x n c n m n c n m n n c m m n n m n m m n m n c n m n m n c n m x n m n n m n  .n  .n | | | | | | | | | | | |  .m m | m  .m  .n m n  .n  .m  .n m m n m  .m m |  .n m m m n n  .m m m m  .m  .n m n n m  .n | m n n m m m m n n m  .m m | C m m m n m m m  .m m  .m  .n m n  .n n m m m  .n  .n n m n  .b n m n m n  .n n m n m n m n b  .n n m n n b n n b n m n m n v n m m n  .n m n m v n b n m n n m  .m n m n n v n m n b n m  .n m n  .n n b n b n  .b n n m m n m n m n N m n m v n m n m x m n m n m n n m x m n m n m x n m n n c n x n c n c x m n c n m n m n n x n m n n n m x m n m N n n m n N n m N m N m m x N N m n x n x ] ",
"x n n m x n n m N x N m n N N c N m m n B n m x n m N m n N x n x n x n n x n x x n x n x n N n x n n n n n Z c.5XCXlXG.+.N B x x x x x x x x n n x x n x n n x x N x n x x x x n x x x n x x x x x x x x x x x x x x x N x x x N x x x x N x x x x x x x x x n x n N x x n N x x x x x x x x x x n n x x n n x x n n x x n n N n x x n x N x x x x n N x x x x n x x x x n x x x n x x x x n x x n x n n x x n N x x x x x x x x x x x x x x x x N x x x x x x n x x x n x x x x x n x x x n x x x x x x x x N x x x x x x x x x x x x x x x x x x x n n x v x n x n x n x n x x n x x n x n N m n n x c N N m n N m N x n N x n n m n n n N m N c n c x n n x x N m c n N c x m n n n x n n n n m m N N m m n N c N c m n m N m N m n m n m n n m N c m n c n  .n  . .| | |  ..... .| m |  . . .| m  .n m m m m n m m m n m n  .n m v m n m m m n m | m  .m m | n  .n n n m m m m  .m m m m m  .m n  .n m  .m n m C m m m n  . .n  .n m n n  .n m n m m | m m m n  .n m m m m n n b v n m n v n m b n b n ..n b n m n v n b n  .b n  .m n n  .m n ..b m n n v m v n m n  .m n v  .n b v n n v  .b  .m m n n  .b n n v n b b n  .n m n v m n n m n v m n b n n m n m n m n n m n m n m n c x m m n m N m n m n n m N c m n m n n n n n n n n n n n x n v m n m x n n m n n n x N c m N N x m x m n n x N n n n x m m N C b ] ",
"x n n n x n n n b n m n m n m n m m x N c n n x n x x n x n x x v n n x v x x n n x n x n x n x x x x n v N Z H.qXKXvXP.8.n z x N n x n x n x x x x x x x x N x x x x x x x x x x x x x x x x x x x x x x x x x x x x x x x x x n x x x n x x n N n x n x n x x x n n x x n n x n x x x n x x x x x x x x N n x x x n x x x x x x x x x n x x x x x x x n x n N x n x n x n x x x x n x x n n x x n x x x x x x x x x x x x x x n x x x x x N x x x x x n x N x x x x x x x x x n x x x n x x x x x x x x x x x x x x x x x x n n x n x n n x x x x x n x n x n x n x n x n x v v n x n x v v x n x n n x n n m N m m N B n n n c n n x n B n m n n x n m n n n N m n n x N n m n n b n n n n m m n m n b x c n m m n n n m n m x m n c n N m m n m m m n m n m v n n  .| |  . .o. . . .| n n m m m | n | m | m m  .n  . .m  .m m  .m  .| m | m  .m  .n m n m | m  .m  .m  .| m  .| m |  .n  .n n  . .m n  . .m m m m m n  .m m m m m n m m n m v n m n n b n n  .v m  .n n m n b n m n  .n n  . .n n m m n v v n  .n m m n v m n n m n m n v n n m b n n m n  .n b n v b n n n n m n n m b n n n n m n m n n v n m m n m v n m n v  .n n m n m n b m n m n n b m n n m n m n m m x m n m n N m x m n n n c N m n m m m n m n m n n n n n m n n n c x n x m n n m v n n n n m n x n n x m m N n x m N n N c n x n m x N m n [ ",
"x m v N n x n m n n n N n n n x N n N m N n m N x n n x n x n v n x v x n n v n x n x n x n x v n n x n n B Z q.*XbX0XD.V m  .x x x x x N x x x x x n x x x n x n x x x n x x n x x x n x x x n n x x n N x x n n x x n n x x n x x n x x x x x x x x x x N x x x x x x x x x x x x n x x x n x x n x x x x x x x N x x x n x x x n N x x x n x x x n x x x x k x n n n n x n x n n x x x x N x x x x x x x n x n x x n n x N n x x N n n x x n x n x x x x n x x x x n x x x n x x n x x x n x x x n N n x x n n x x n x x x n x n x n n x n x x n x x n x n x n x n x n x n x n x n v x n n x x n x n N m n N m n n N n n x m N B n n n x n n n m n b N m n m n n n m n m n n m n n x n m c n x m n n n n n m m n m n c n m n m n m n x m m n m n m N b n m m b n  .m  .n |  . .n n  .n  . . .n  .m  . .m n  .| m  .m n  .n  . .n  .n m  .n  .n  .m  .|  . .m  .n | m | m m  .| m  .n  .m m |  .m n  . .m | m  .n n  .m m m C n  .m  .n  .m n m n  .b m n b  .n n n m n b n m  .m n m n b m n n m b n n m n m m n m n n m  .n n b n b  .b n m n m n m m n m n m n  .n n n  .b m n m m n n m  .n b n b  .m n m n v  .m  .n m n n m b n m n m n m n n m n m m n n n b n m n m n n m N m n m n m m n m b m n m n n n n n x m n n n c b n x n m x n n m n n n n m n n c N n m x n n n m n n n m n n n n m n n n n x n n x C b ] ",
"n m n N m n n n m n n c x n n m n n x m N m N n n n x n n x x n n n x n n x n x n x n n n x n x x n x n x n N &.S.J.D.5.Z x k x x n x x x n x x x n n x x x x x x x x n x n x x n x x x x n x x x x n x m x x x n x x x n x x x x x x x x x n x x x n x x n x x x n x x x x n x x x x x x n x x N c x x n x x x N x x n x x x x n x x x x n x x n x x n x n n n n | n | o.n n n x x n x x x x x n x x x N x x x n x x x x x x n x N N x x x x n x x x n N x n x n x x x x n x x x x x x x N n x n x n x x x x x x n x x N x x n x n x x x n x n x n n x n x x n x n x n n x n n v n x v x v n x x n x n m n n m N m n c c n n N N m n n n m x n n n m n n m n m n n m x v x m m x b n n n n n n n n c n n v m n c n n c N n m n m n m m m c n m n m v n m n m n m n b n n m  .m n n  .n m n n n n m m n n n  .m O.n m  . .m | m n  .m  . .m | m m | m m  .m  .n m  .n  . .n  .n m  .m  . .n  .m n .. .n  .m m n m n n m n m m | m n m m m n n m n m m  .v n n m b m n m m n m n n n m n m n m m b n n m m n m n n m n m n m n m m n n m n v m n n b n m n m n m m n n m m n m n n m n m n b m m n b m n v n n m n m n n n b m n m m n b m n m m n m m n  .n m m m n  .n m n m n m n n m m m N m m x B n m n n m c n x n m n n x n n n n x n n n n n n b n v x n n n n x c n b x N n m m n n n n n x n m m n b N m n m x B b ] ",
"n m n x x n n b n n v n n m n n c m N n m n n n M n n x x n x n x v x v v n n x x n n x n n x n n x n N n x v V &.+.%.O.x M N M x x M x x N x M x N x M x N n x x N M x x M x x x N n M x x N x n N x N x N n N N x x M x x M n x n N M N x x N M x x x x N x x N x x M x n N x N n N x x x M x n N x M x N n N n x x M N n M x M x x n x M x n x x n n C k k o.o.o.o.| o.k N n n n n x x n n x x x M n n x n N x N N x n M x N n k x x x N N x n x M x x x x M x N k N x M x x N n n M x x x x N x M x N x x x x M x n n x M x n n k n n x n x x x x N x n n n n x n x x n x n x n x n n x n x k x n n N n N x m N n n N n m x n N m m x n m n n m x n n x n n m n n n n n N n n n m x m n c n n m n n c n n x n m n n n m m n n n n n n n n n n n n n m n n m n  .n m m n n n n n n n n n n m n n n m n m n | m | | n C  .n  . .m | n n  .n  . .n  .n n | m  .| m n m m | m  . .n m n m | m o.n b m o.m | | m n m n n n n n n n n n n n n  .n n n n n n n m n n v n n n n v n v v m n n n n n n m n n n v m n m n v n n n v n v m n n v n n n m n n n n v n n n m n n n v m n m n v n n n n n n n n n v n n v m n n m n n n m n n n n n m n n n n n n n m n n m n n n n n n n x n m N n x n n v n n n n c n n n n n m v n m n n c x b b n m n c n n x n m m N x b n m n n n n c n n n n x b n m v n n n n n n n n | x n b p.",
"x n v n n x n n m n x m m n m N N N n x B x c N x n n k n n n x m N n n N n n N N m x m m N n x x n x x x x n d N M M x x n N x M x x M x M n x x n M x n x N N x N x x x N x x n N x x x M x x M x x k M x x x k N M n x M x N N x x x x x x N x N x x M x n M x x x N x M x n N k n M M x x M x x M x x x x x x M x x x x n x x x N x x N x x N n C n +.o.o.o.o.o.#.o.o.o.C n n n x k x x M x x N x x n x x N x k M x x x x x x N n x x M x M M x n M n M x x x x N n x N x x n N x x x M x x x n x x n x x M x N x N x x x n M x M n x M M x x x m c n n m m x n n c m x n N N c n n n n x n n n N n x n n n n x n N N m n n m x N N n m N n n n n m n c x n n b m n n m n n n n n n n x x b x n n n N n n n n n m n m n n n N m n n n m N m m N m Z n m B n n n m n C m C m m n m m m n n m  .n m C | m  .v C m C m n m n m m n  .m  .n m m m  .m n m m o.m n  .m  .m m n m m m m | m m m o.m n n m n n m C  .n m o. .n m n n  . .n m n m n  .n  .m m n m n m N m n n m N m n m n m N m n m n m C m C m n m m n m N m n Z n N m m C C m m m m C n Z m n n m n m N m n m n m n n m C m N m C m B C m m N m N m N n Z m n m C n m m n m N m n m n m n m N m C n m n m m m n m m N n m N m m n c n c n x n x n c n m n x n n n m x n n n n n c n m n m x n n x n m n n n n m n n v n n m x n c n n m n n v n n n m n N | v p.",
"n m n m n n n c N m N n n x x n n m n n n n n n n n x n x n n x n m N x m N m c n n x n N x m n c N x m c N x Z v B B M t n n x n x N x n x x M N x x x M x x k N k x N x n M x M x x M n x M x x x N x x n x M x x x N x x x M N k n M x M n x n M x M n x x x k x M n x x M N x x x x n N x x N x x n M n M x x x x M n M x N x M n N k x M x k N N | n o.o.#.#.#.#.#.o.o.C C C M x n M N x n x M M N x M x x N x x n x M M x M x M x x n x x x N x x x x x M N M x x n x M x M x x M n x M n x N M x x M N n k x N k x M N x x x x N x x x x N n N n m N x N N m n N n N m m n n n x m n N n n x x n n n x n m N m m n n x n m N c n n N x m m N x x n n n n n n n x x n m x m n c n m n n n n m n c n m n m x m n x n n x m m n m Z m N m n n m N m m N n n m m n m m N m n m m n m n Z m n n m C m n o.m n m C m o.m n C m m m m n m m m | n m  .m  .n m m m m m n o.m m  .n | m m  .n m m n  .m C n  .C m n m n m n m n  .m n n m n  .C m n m n n  .n n m C m n m n Z m C m N m n m n m n m N m N m n m n n n Z m n m m N C m m N m N m n n m n m N m n Z m n m C m n m n Z m N m n m n m n n m C m m C m n m n m N m N m m n n m C m C m n m n m C m N m m n m n m n m n C m m C m n m n n n n n n m m n n n x n m n m x n n n m c n n n n x n n n m n m n n n c n m x n n m x m n n n m N c n N c n n x n m n x n m ] ",
"n m n n N m n m x c N n n m N n n x N n N n n k N n n x n x N n n m n x B n n x N m n B n n B n N c c N m N n x x x M x x M n x x x n x x N x x N x M x x M N x n M M n x M x N x N M x x M n M M x M x n x x N x n M x x k N x x M x N x x M N n x x M M x N M N x x N n x x x M x x k N x x n x M x n N x x x N x n x M x n M M x x x n x x x x N M #.#.#.#.%.;.#.;.;.#.#.o.o.o.n n x x x x N x M x x M x x n x x N x x N k N x M x x n x x x N x x x N x M n n M M x x x n x N x M n x M x M n M x M N x x n N x x x x n x x x M x n M x n n c n x n N c x n m N m N m n c N c N n m n n n m n n x n n n n x n n n n N n n n N n n x N m N N n x N m m n x x B v n n n v n n n m n n B v n n n n n n n n n n n n c n n x n n n n c n c n n m n m m N n n N m n m Z n n m C m n m N n n m Z n m n m C m Z n n  .C m C | m C m | C m C m n m C m C m n m o.n m n  .C m n m C m | m n o.m n m n m | m | C m C m  .n n m C m C m n m n m N m m n m n n Z m n n Z m C m C m C m Z m n m n O.| O.n O. .n m C B n n m N m C N m n m m N m C m n m C m C m B C m C m n m N m m N m m m n m n Z | m N n m n m n m C m Z m n m m n m C n m m Z n n m n n m C m m C m n Z m C m Z m n x Z n m m n n m n n n m c n n n n n n n x n n x n n n m n n m n n n n c n m x n n c n x m c n n x n n x n n m n n n n n m n n m n n | n x | x p.",
"x n n m m n n n n n N m x n n x n n n n x n n x n n n n n n n n n N n m n n n m x m n x n n N c c n N m N x x M x M x n N x M x M x x M N k n M M x n x x n x M x x x x x x x n x n x n x x N x x n N x M x M n N x N x x x n x n x k x n M x x M x n x x x n x n N M x M x n M x n x N x n M x x x N M x n M x N k x N x N x x n N x M x M M n C N o.o.o.#.;.h.D.D.v.z.=.;.#.| o.n n n x n k x n x M N x n x M x M M n x x n x n x M x M x M x n M N k x n x x x x n N x M x M x n x x x x N x x x x N x x M x n N M n M x x M n x x N x x x N N n x B N x c n n m N x n n m N n x m N B x N m x n x n n M x n k N x n x n n x n m n B m x n m m n m N n N N Z x m B v v n  .n n m x v n n m n n c n m n c n c n b n n n m n m n m n n n n n m n n n m n B m n m n m N m n m N m C m Z m n m N n m N m N m n m n m C m m n m C n m C m C m o.m C m C m m C m C m n m C m C m C n Z n m o.m n  .C m n n m n m C m n m C m C  .N n n m C C m n n n m n m n m n m N m m N N m n n n n n  .| | | | o.| | Z m n | m n m N m m C m C C m N m n n n m N m n n m n m N m n n Z C m Z n B n Z m m N C m m n m N m n m N n n m N n n n m m C N m n m C m m n m N N m n m n N m N n N m n m n n m n m m n n m n n x v c n x m n m x m n b n c n x v x m n n c n n n n n c n n n n n n n b n m n m n x n x m n n n n m x n n m x n n c p.",
"n m v N n n m n N x n m x n N x x n x n x n n n n n x n c N n x m x N n n n x N x n n B x x N x N m x N x n x x x n x x x x x x x N x x x M x x x n M x x M n x x x N x x n M x x M x n N n x x x M x M x x x M n N x x x M x M N x N x x x N x x n x N M x M x M x M x n N x x M x n M M N n x n M x x M x x M x M x k x M x M x x x M x k N n N C o.#.#.#.h.J.U..X].P.c.:.=.o.o.o.n n x x n x n x n x x N n M x x x x x M N x x x n x x x x x x x x N x M n x x n x x x n x N x M n x N x n x x N n x M n x M M x k N x x N n x M n N M x M n N n N x m N B n n n m m N m n n n n x n n n x N n n N n n x n n n k n x k n x n x n n n n n n N N m n n x m n n x c B M N N f n n N m n n n n x m x n x m x n n n n n n x v n x n x n x b n m x m n m n n m n m C n m m m n C m N m n n C m n m m N m n m C m n m C m n Z n n  .n n m Z m C m o.m C m C C m n n C m o.m C m C m C m n m m n m N m N B n C m C m n m n m m N m N m B m n m C m Z m N m N m C m N m m N m n m m n n  .| | | $.#.$.$.| o.n B n C m N m m m n m Z m m n m Z m Z m N C m n m N m n n m n m n m C B m n m n n C m C m C m Z n n m N m Z m C m m Z m N N C m C m n m N Z n C m m N m n n m n m n m m n | | n n v v m n N n n n n n n n b n n n m n n n n x n n n x x n n n n n m x b n n m n b m n m n c n n n n m n n n c x b n x n x n n n x n x p.",
"x N v Z B x n x m n m N n n n n M n x n n n x x n N x n n N m n N m m N n m N m n n n N m n m n x N n x N x n M x M x M x M n N n M x M n x x N M x N x n x x M k N n M x M x x x x M N k N x M n x x n M x n x M x N k x M x n x M x n x M n x M x x M n x x N x x n x M x x M N x x x x x M x x x x M x n n x n x N x N x n x M x n x N x n n N C k #.#.;.G.XX@X>X@XoXJ.0.#.#.o.o.n n M x M x x M x x M x x x M n M x n x M x n M x N M n N M N M x n x x M x M x M x N N k x x x M x k N x M x M x M x x x x x x N x M x M x x x M x x n x x x x m x N m N c m N N n m n N m n n B n n n n c x x n n n x n n n n n N n n N n n n x n x n n x n n N m n n x x n m x N Z C O.N n n B n x x n n n n n b n n n m x m n c n n n m n m n m x n n n n x n n v n n m n m n x n n m n m n m Z m N m C Z m C m n m N m N m N m m N m n  .m | n o.m n m C m C m m C m  .m n m C m C m C m C m C C m o.m C m m C m N m n m n m C m m C m C m C m N m N m Z m C m N m C m m C m C m n n O.O...#.$.$.$.@.-.#.#.| o.N m  .n m C m C m n n N n m n n N m C m m n m n m n m B m Z m n n m n n B Z N m m N m m m n m n n Z m C n N m n N m C m m m N m n n Z m m N m n C m Z n m n m C m n  .o.n | o.| n n B m m x v m m n c n n n n c n n n x n m n m m n m n n m x b n n n n n n n x x n n n n n n c n n c m n n n n v n n n  .n n n C l p.",
"x C x m N m n n N m N n n n x n n n N n n n x n n c x n n c x n n n N x c n n m N m n c n N x m B n n x x n x x x N x x k N n x N x M x n N M x x N k x x n M x M x M x M n x M M x x x N k x x x M n M x x n x x x x N n x N x x M M n x x x M x x x x M n n x x M x x x M n x N n x x x x n x x x N x n x x x x x N x x n x x x N n x M x M n C n o.#.=.z.P. X,X<X<XOXI.z.-.+.o.o.k n n x M x M x k N x N x x x N x N n M M x x M x M n x x x M n n x N x x M x n M x x x n M M n x M x M x M n M x x M x x M n M x M n M x N M n x x x M N x N x M x n x n n n m c n x N n m n n x x x n N x n n n x n n k N n x n n M n n x n x n n x n M v c N x n x n n n x x n $.;.F.D.O.n k n x n n m n m n m n n n m n n n n n m m x n v x m n n n x n m n c n n m n n m n n n x n n m n m C m m C m n n n m N m n n n m Z m n m C N m n m C m C m m n m C m C m n m n n  .n  .C m o.m C m C m C m  .N m Z n n N m Z m N m m N C m C m C m N N m N m C n n m n m C m N m n m N n m C Z | | X.#.&.x.x.x.5.$.| o.n n  .n C m n m n m C m m N m n m C m C N m m n m N C m N m m n n m n n n n m n m n m N N m B n n n n m n m n m N m m C n Z m C m n m C n m n m n n N m n m N m n m C | #.@.$.| o.n v n n n m x x n n n c n m x n c n m n n n n n c n n n n m n n n n n x m n x n m m x n n c n n n x n n m m N n m n x n n n x n x ] ",
"x m n n N n n n n C k n n n n n n n x n n k n n n N n n n N n n x n n n N N x n m N n n m m N n n n n n n M k x n k N M N x x M x n x n M x x n x x n N N x x x x x n x x N x x n x x M x x N M x x N x M x x M N x N x x M x M x n x x x M x n M x x M N x M x x n N M x x M x x M M x M x M x M n x M M x N M x M n x x M x M x M M x x x x n N o.o.#.$.S.P.OX,X<X<XOX[.v.-.#.o.| o.M M x x n N x x N M n M x n x x M x x n x x x N x M x n M x x M x x M N x M N x x M x x x x x N x x x n x x x k N x n N n x x x n x x x n x x x M x x n M x n N x B x n x n N N n N m n n n N n n n n n n N x n n n x x n n N x n n n n n n n n n n n n n n n n n n n N v n N x @.{.lX6Xv.@.N n x B x n m n x v n x b n x n x b n n n m n n n n n c n m n n n n m n n m n n C m m Z n n m m n m N n m n n n m o.m n  .Z m n n N m N m m C m n m n m C o.m C m C m C m n  .n n m n m n m C m C m C m C m m N m n m m C n n m C m m m N n Z m C  .m Z m C m n  .C m m C C m C n  .m m n m n | o.#.$.x.I.].P.v.-.$.#.|  . .m m C n Z m C m n n  .n n n m n m n Z o.m n  .m n n O.o.n O.o.o.m n n n n n n n n  .n m C n  .n m  .n m C m o.m N n m N m N m N m n Z m N m Z m C m C m C m n  .#.G.XXP.o.o.| x n x m n n n m n m n n n n n m n n c n c n n n c n n m x n m n c n n n m n n n n n x b n n x m v n n x x v n n n n v  .n k | x p.",
"n m n m m n n n n n n x n n n n n n k n n x n M n n x n n n x n n n n x n x N n n x n n n n N n x n x n n n x n n x n x n x n x x M x n x x M x M n x M x M x x N x M x x M x M M x M x n M x n N n x x n N M x k n n N n n x x x n x N n x x M n M x x x x n x x M x x x x x x x x x x x N x M M x x n x x x x M n x M x N n x x x N x n x x C n | o.#.#.;.J.OX<X<X>XOXP.q.$.#.#.o.n n x x M x x n x x x k N n M x M x x n x x N x n x x M x x x n x x x x x n x x M x M x x M M x M x x M x x x x x N M x M n x M N x x n M x M x x M x M x x n N n x x n m n m N n m x m x N n k n N n x x n m m n N k n n n n k n n x n n n n n n N n n n n n n n n n n n | Z x M @.3XFXCXU.&.C n n n v n n x m x m n n n n m n n c n n n n x m n n n n n b n n m N m Z m C m C m C m m n m n m m C m C m Z  .C m n m C m C m C m o. .m C m o.m C m C n | n m n m C m C m n m C Z n C m C m C m C m C m m C m C m n n m C m o.m m C m C n m C m m n n n m C m n m C C m m n m C m C m C n  .O.X.$.5.B.{.}.}.B.5.#.o.o.n m n C m C m C m C m m C m Z m C m C | n m n m C m m O.O.o.&.O.&.O.O.o.O. .m m n n  .n m C m m o.m o.n m C m n m C m m n m n m n m Z N m n m n m n m n m Z n n  .C -.].3X.X5.#.O.x n n n n n b n N n n n m n x n n n n n x m n n n n n x x n x n n c n n n n v n n n n n n n n n x n n x n n n x n n n v n x | x p.",
"x C n n B n n v n x n n x n n x x n n n n n n n n x N n n x N n n x n x n n n n m n x n B x x n n n x n x n n M n n n x n n n M x x M x M x x x x N x x x n M x M n n x N x x n x n x N x x N x x M x M x x x n C Z C Z Z C N n M x M x x M N x x N x n M x M x n x n M x M n N x M n M x n n N x x x M M n N M x x x n M x x M n N k x M x n N k n o.#.=.;.x.G.oX X}.P.F.0.%.o.o.o.n n M n N x k N M x x x x N x x n x M x N M k N x M n x x N M x M x n M x M M x n x x n N x x n x N x n M n N M x n x x x x N x x M x M x x n N x x x n x M x x M x n N x N m n N m N n n n x n n x n n n n N n n x N n x n n n n n n n x k n x n k M n x n n n x n x N n k n x $.;.U.tX>Xv.o.x n n n N n n n n n n n m x m n x n n c n m x n n m x m n n x m n m n N m n m C m C m C C m C n n B m N m N m n m C m C m C m | m n m m C m C m C m C m Z m n C m o.m C m Z n C m m C m n m C m C m C m n C m C m n  .m C m o.m n o.m n m n | m n | m n  .C m C m C m m n | n Z m C m C m n n  .o.$.5.P.}. X X].5.$.*.|  .m o.m n m C m C m C C m C m o.m C m m n o.m C m C O.O.O.3.2.;.2.&.&.$.O.O.n | m m n m C m C n m n m m C m C m o.m C C m N m C m n n m C m N m C m N m n  .n  .n n #.z.{.m.#...n c n n c n c n n m x v m n x n n m x b n n n m x b n n m n n b n n n c n m x x m n c n m x m n m n m m n m n m n b N  .n n n n c p.",
"n m n m N v n k n n k n n n x n n x n M x n n n N x x n n n n x n x n k N n c N x N m n n m n x N n x n n n x x N N N n x N n x x M x x M n n x x x x n x n M N M x x N n x x x x x M x M x k N x x x M x M M N Z @.3.9.8.+.o.C x M x x x n N x M x x M x x x x x x N n M x x N x N N n x x x M n x x N x n n M x M x n N n M x M x M x x k x M n C n #.#.=.=.c.J.K.K.D.5.-.#.o.o.M n k x x n x x n N x N k x x n M x M x x n x M x x M x n x x k x x M n x N x n x x x M x M x x M x M x x x x M n x M x x N x x x x M x M x x n x M N x k n x M x M n x M n n x N n n x x m N n n n n x k n x x n n x N x x n M x x n n n k x n n n k n n x n N k x n N x n M n n n o.&.h.h.@.Z N k n n n x m n v x n m n n n m n m n x m N n n n x n n n v N m n N n m n m n n m | m m | n m o.m o.m m n  .C n n C m N m C m n o.m C m C m C n m C m n Z m C C m C m C m C m m Z C m C m o.m n m n m C m C m n m C m C m C m C m C m Z  .n m m n o.C v O.n n m C m C m C m N m o.m C m C m Z o.#.$.5.n.].}.[.B.5.$.o.o.m  .m C m n m C m n  .| m Z m C m n m n m Z m N o.o.@.@.0.0.z.h.h.h.z.;.@.O.Z Z C n n Z m n m N m C m m n m N B m N m m N m N m m C m n m n m N m m Z n n  .n m C m #.X.o.$.| | n n n n n b n m n n n b n n m m n n x n n c n n x n n n m n c n n x m x m n c x b n c n n x n n n x n n x n n n x n v n n n x N n ] ",
"n n n m Z n n x n n N n n n N n n n n x k n x x n n n n n N k n n N x n n n m n n m N m n N n x n n x n k n N n M n x x M x M x n x N x x x M x N M M x x M x x n x M x x M n M n x x n N x x x M M x x x N n A %.q.S.J.A.0.8.Z k x n M k M n M x x n x x M n M M x x M n N x k M n x M M x x n M x M x x M x x x x M x x x x x x n N x x x N n n N o.o.o.#.;.%.;.;.;.;.%.#.#.o.o.n n M M N M x x M x x n x N M x x x n x M x M x n N x N N k x N N x x x N k x M x n M x n x N N x x n M x x M x N x x M x n M x M x x n x x N N k x x x N N x x x x x x x x n n n x n n n n n n N x n n N n n N n k n n n n n n n n n n n N n n n n n k n N n n n n n n n v n N n k n o.o.O.Z C n x n n n v n n m m N n n n c x n n x v n n m n m n b m x n c n n m x n n m n m n n n n n C m m n m n n o.n m n B m n m C m n m m n m C m C m m C m o.| m C m m n m C m C m C | n m o.m n m C o.m  .n m C m C m C m C m C m C m C m C n n  .n m n v m O.N C m n m C m C m C m n m n m C m m C | | X.%.5.v.B.v.h.$.$.o.o.o.m n m C m C m n m N m n n N m n m n m n n C C o.O.2.;.z.S.H.S.D.S.z.z.5.@.o.O.C m n n N m C m C m m n n Z m n C m C n m n m m C m N n Z m C C m C m n m n m C m n o. .o. .n n n n x n c x n x n x m n x n n x n n m n m n n n m n m x n n n c n n n n n n n n n n n v m n m x m n m n m n c n n n x n n n x n v p.",
"n n v N n n n n n n n x n k n k x n n n N n M n n k N n x n n n n n x n m N N n N n n n c m N n n n n n n x n x x M x M x x n x x M x x M N n x n N x x n x x x x x x x x n x x N M x N x x N x x n x n M n Z +.w.T.*X3X&XI.9.@.Z M x x x x x x N n x x k N x x M x x x N x x M x M x x M x x M x x x x x x N M x n x N x M x x x M n M x M x x n C o.o.#.#.#.o.#.#.#.#.| o.#.o.C C N n x x x x M x n M x N n x x M x N M n x x x n x x x M N M x N N n M x x M x x M x x M x M M n M x x x M n x M x M x n x x n x x M n x M n N x x n N x x N x M M x N M x n n n x n n m n x x k n n n x n M n n n n k n N n n n n n x n n n n x x N n n n n n n n n n n n n C n k n n n n k k n n n m n n n x n n x m x b n N m m n m n m n m n n n n n n m m n c v n n n n n x x m n n n m n m o.m n m Z m m n N m Z n N m C m m n m N m n o.m n m m n m n C m C m C m m m m  .n m C m C m m n n Z C m n m m n Z n C m m C C m n m C m n n n O.n j.B.O.C n n n m C m C N m m Z n n n m n B m o.| $.$.-.6.2.$.| o...o.m Z n N m n m N m n m N m n m N m n Z N m N m O.O.@.5.h.S.L.T.W.W.T.K.c.h.;.&.o.n B n n m N m Z n m N m C m n n n m m m N m n m m C m N m C m m N m C C m n  . .n n n n n n n N c x n n n n n m n c n n n c n n n m n x n n n x v n x n m n n n b x m n m n n n m n n x m n n m n v n m n n n m n n n n m n x | v ] ",
"n n n n n n n n n n n n n n n x N k x n n n n n n n k n x n N x k n N n N x n m c n n N N n n n x n N x x n k x x x n x n M x N x n M x x x M x x x k N N x k x M x M n M N x M x x M x k N n M M x x M x n Z <.H.&XcXCXcX*Xc.&.o.n M x x x x x M x M n N x x M x n x M k x x x x x n x x n N x M n x M x M n x x M x x x n M x n x x x n x M x x N n n C o.o.#.#.#.o.#.#.o.| n n n M x n M x M n x x x M x x M x x x M x x x M x M M n x x x n x n k x N x x x N n x x x x x n x x x x N n x x N x x n N k x M x M N n x M x x x x M x n M x k x x n N x x M n M n n x n N x n n n x n n n n x x n N x n n k n n x N k x n n N N k n n x n k x n n k n n n n k n n n n C n n n N C n n n n m x n n n v n n n n n x v n n x n n x n n c m n x n n n n n n m x v m n n n m n b N m C m C m n n C C m m n m n m C m n n n Z m C m m C m o.m n C m m C m C m C C m n n m n m n m C n  .n m m C m o.o.n m | m C m m m C m C m | m n n o.N n.P.O.n m m n B m C m m C N m n m m n n  . .| o.o.#.X.$.#.| X.X.o.o.m n m n Z m n n Z m n m C m C m C n m m n m C o.O.;.6.D.T.$X*X7X7X&XW.J.S.z.&.O.Z  .n m n m n m n C m N m C m n m N m C m Z n N N m C m C m n C m C m m C m n n m n N x n x n n n N v n m x m n n n n n c n n c n n n n b n c m n n m n x m n n n n n x n m x n n m x n n x m n n n x x n n b x n n n v n n N n n p.",
"x n n n n n n n M n x N n n n n n n x n n x n x x n n n n x n n n x n n m m N n x n x x n x x n k N n n x k n M v x M n M x n x k n x M N k v M k n x n M v n M x n n k n x k n k n x n n N n x x x x k n N C 9.H.1XDXIXAX7XK.&.o.C n x x x x n n x k n M x n n n x M n x n x n x M x n n k n x n x k x n x x M k N n x k n n M x n n n n k n M x n M | C | o.| o.| o.o.o.o.n n N n v x N M x n M x x k x k n x n k n x M v x n n M n x M v x k k n x k M n x k k n x n n k n n n n x n n x M x n n M v x k n x v M n n k n x n M n x k n k x n n M x n M n k n n n N k n n n n n n x n n n n x n n n n n x n x n k N n n x k x n n x n N n n n n n k n x N n n n x n n x n n n n N n n x n m n n n x n v n n n m n n n n m m n n n n n n m n n n C c n m n n n n m n n n n n C o.m C m C m C m m N m m n m n m N n n m m Z n | C m o.m m o.m C Z  .n m m C m C m C  .n C m C m m C m C m C m C m n m C m n m C m o.m C C m C n n n n @.<.n n n n m Z n n m N m n m Z m N m C m  .n  .o.Z o.o.X.#.o...O. .n m n n m N m C m N n C m N m m C m Z C n m o.O.@.0.S.K..X2XlXvXzX0X7XW.H.S.;.@.O.Z m C m N m m C m N m C m C m n m C m m C m m C m n C m C m m C m C C m  .n m C  .m m n v n m n n n m n x n m n n n m n m N m Z m x m n m n N n n n m n n m b n n n n n n c n c n n n n m n n n n n m n x n x n n x n n n N n n t.",
"n n n n n n n n v n n n N k n n n n n n k n n n N n k n n n k n n n x n n n n x n n n n n n n n n n n n n n x n x n n x n n k n x n n n n x n n N x n n x n x n n n N x x n x n x n n k n k x n x n N n x C C 9.A.*XbXAXxX1XA.@.Z M N x n n N n x n x n n n n x n n n n k x n M n n n n n x n n x n n n n n n n n n n n x n x n M n N k n x n k k n n N k n M o.C o.| | n | M n k n n M x x N k n n n n n n x n N n n n n n N n x n n n n n N n N n n n n x n n n n N k N n n x n N n k x n n n n x n n n N n n n n x n N n x n n n n x n n N k n n n n n x x n x n n x x N n x n n k N n N k n k N n n n k n n n x n n n x C n n n x n x n n n n x n n n n n n N n k n x n n k n v M n N n n n n n n n N x n n n n m x n x n n m m m C m n m C m m n C n m m m C m n m m m m m m C m C m C m n C m m o.n Z m C m Z m n N m n m m n m C n m C m n n m n C m C m C m n m m C m C C m C m n m C m o.m C m C m C m C m n m m C Z m n | o.v k n C m m C m N m n m n m n n N m n m n n n C n C C C | |  . .n n C N m m n m n m n m Z m n n Z C m N  .m n m o.O.;.h.S.T.1XsXVXJXJXvXrX.XK.S.;.@.O.n n m C m n n m C m n m C m n o.C m N C m n o.m C m m C m C m m C m n Z n m C m n m m m n n | m | m C m m C n | m m n m n  .| n C b n x n n n m n b n x v x n x n n b n n n n n n n n x x n k x n n n n n n n n n n n m n x n n ] ",
"n n v N N n n x n n n n n n n n n n k N n n n n n n n n n x n n x N N n m n m N n x n x x N M n n n n N x x N k M n x n n n n x n x M x n n N n n n x n N n M n M n n n n N n n x n n n n x x N x M n n k N N %.0.U.*X3XoXL.0.+.C k n n x N n x n n n n n x k n x n n x n x n n n n x M n n x k M n n n M v x n n n n N n N n n n n x x n n x n n n x n n N n k o.C n n n n n n n x N n n N N x k n n x n n n n n n n x N n k n x n x n x N n n n N n x n n n M n x n x n n n x x k N x n n n n k x n N n x n M x N k N x n k N n x M n x n x n x x n k n n M x N n n n n N n x x N k n x n n n n n n x n n n n k x n n n n n n n n M n n k n n n N n n k n x n n n n n n C N n n n x n n n N n n x k x n n x n m n m v n x n m C m C m C m C m n m C m C m C m m C m n C m m n C m n m C m C m n m C m C m C m C m C m m C  .n C m C m m C m C m n o.n  .n o.m m C o.n n  .C m m C m C m o.m o.m n m C m C m C m C m o.o.m n  .Z n  .n n n C n n m C m C m o.m C m n m m n C n n | n n C n C n | | n n n | C m n m C m n m m n n m n m m n  .n n n n O.O.&.5.D.W.7XzXJXIXIXDXtX%XK.S.;.&.Z ..n n m o.m m C m n m n m C n m n n m o.m | m C m C C m C m C m m C n m n n m n m  .o.n | Z o.n | n m C m C m C m n m m C n m m | n n v m x c n n x m n m n n x n x c n n c x m n M n n n n n n n n x n n x C n n n n | n M C n p.",
"n C k C C k n n n n n k x n n k n n n n x n n M n n x n n n M n n n x n N x n n n M n n n n x n n x x k n n n n n n n n M x n n n n n n n x x n n n k N n n n x x n x n n k n x n n x M n n n N n x n n n x C $.9.0.c.S.e.0.3.Z N x n n n C M n n N k x n n N x k N n n n n n x n x n n x n n N n x n n N x n n n x x k n x k n x n n n x n n N N n n n k n n M k N n n k n n n n n n n n x n n N x n n N k x x n n N k x n n n N v M n n n x k n x n n x n n x n n n x n n N k n n n n v M n N n n n x n n n x n n x n n n n n x n n n x n n n n n n x x n n n N k x n n x n n n n n N x n x n n n k n n n n n N n n n v M n n n n n n n n n n n k x n n n n n k n n n n k n n n n n n n n n n n n C n n n n n n x n n m n m n m C m n m C m C m C m C m C m C o.m |  .n o.o.m m C m C m C m C m C m C m C m n m C m C C m n m m n m C C m C m C  .n m n m n n n m m n m n n Z n m C m C m n m C m o.m C m C m C m n m n n m n m n v Z O.v O.m m C m C m n m o.n |  .n |  . .N n n  . .|  .| n m m  .m B C n n  .o.m o.o.m | | | o.m | n  .n m n m n o.$.;.h.D.T.7XlXJXPXPXDXtXoXK.S.;.@.O.O.m m C m C C m C  .n n Z m m n  .Z C m n n Z m C m m C m C m C C m  .n m o.C m o.n m n m N n | n m C m C m C m n n n n n m n n n n m x n n n n n m n n x n n m v n n n n n n v n n n x n n n n n k n n n n k x n n x n n x k v [ ",
"x n n n n n n n n n n n n x n n n n n n x n n M n x n k N n n x k x n n x k N n n n x M n n n n n x x n n N n n x n n n x n n n n n x x M n x n n n n N x n n n n n n M n n n n n n n n n k N n n n k n n n n C o.+.@.8.@.@.Z n n n n n x n x N n x n k N n n n n x n n n N n n n M x n n n M n k N n n x n N n n N n x n n x n M x x n n n k x n n n x k n n n k n n n n n k N x n n n n n x n n n N n n n k N n n x n n x x N n n n k N n x n n n x n n n n n x n k n n n n n n N n n n x n k n n x n n x x n n M n n n N n n n x n n N x n n N k n x x n n n n n n x M n n n x M n n n n x n x N n n k n n x n n n n n k n x n x n n n n n k n n M n x N k C N k n n x n k n n M n n n n k N n n n k N n n n n n n N n n x v n n n x n n n m o.m | m o.m o.m m o.m C m C m C C m C m m C m C C m C m n m C m n m n m C m | n C m Z n n m n n m | n m n  .n m m C m C C m C m C m n m  .n m C C m o.m m | m C m n m C m C m C  .n m C m C m o.C m C m n Z m C m C m C m C m C m C m Z n m n m C m n m C m C Z O.n m n  .| n Z m C | m O.m n n C m Z n $.&.h.S.L.&XtXNXFXFXzX7X.XL.z.0.$.O.| n o.m C m Z m n n n m o.m C m C m m n m o.Z n n m n n m n o.n m n m n m n C m n  .n m C m C m C m m C m C m C Z n n b n m n m x v N n n m x n n n x n n n n n n n n n n n x n n n x n k n n n n n n n n n n n n M n n n M n n ] ",
"n n k n N n n n n n M n n n n n n x n M n n n v n x n x n n n n n n N x n n n n x n n n N k n x k n n n n k x x x n n N k N x n n n n n n n n n x k n x n n x n n x x v N k n x x M n x x n n n n x x n x N n M N C A o.Z N n n N x x n k n n n n n n x n n x n k n x n n k x x x v n n x n n x x n n n x n k n n x n n x n M n n n n n n n N n n x n x N n n x n n x N x n x n k n x n n N k n x n x n n x n n x n M n n n n n x n x n n n x n n n k N x n x n N n x n N k n x x k n n n n x n x n M n n n n M x n n n x n n n n n k n n n N k n x n n N n k N n n n n n n n x n n n x x n M n n n n n n n n n n M x n n n n n n k n n n n n n n n v n n n x n n n x n N n n n n v n n n x n n n n x n n n x n n n n k n n N n x m n m x b n n m n n m m C m n n m C m n m C m m C m n Z m C m m C m C m o.m C o.m  .n m C m n m C m C m | n  .n n m C m n  .n o.m n m m C m C m C m C n m C m m C m n n n Z m o.m C m C m C m n m C m n m n m m C m n n m C m o.m n m C m n m C m | n o.m  .n m C m C m C n m n m n m Z m  .n m n m n n |  .n m C n | +.&.;.c.K.W.*X9XlXlX9X&XU.c.z.;.&.o.n m m C m C n | n  .m C m C m C m C C m C m m C  .n m o.n  .m n n  .C  .n | m C m n m n m C m n m C C m C m C m m n n n x n x n n n n m n n v n m n N n n n M n x n n x n k N n k n n n N n n n n N M n n k n n n n v n n x n v ] ",
"k n n n n n n n n n n N n k n n k n n n n n x n M n n n n n x n x n n n n x M n k n n n n x n n N n M n n n n n N n n x n n n n k N x n x x n n N n n n k N x M k x N n n x n n n n n x x n M x n x n n x n n x n N N x N M n n n n M n n n n n N n n x n n x n N n M n n n n n n N n M n k n x x n n N M n x x k n n n n n n x n n n n x n n n n N n n x n n x x N n n k n n n N n N n n x n n n N n n k x n n n n x n x N n x n n n n x n N n x N n n n k N n k n n n n x N x n N x n N n n n n n n x x k n n n n n N n n x n k k k C n n n n n n n n n n n x n x M n n n n k n N x n n n x n n x N n N x k n n n n n n n n n n n n N M n n x n x M n n n n n n n n n n n x n n n n k k n n n k n n n n n n n n n n x k n n n m n n n m n n n C m n m m n C m m C  .n m C m C C m n  .n n m C C m C m C m C m m n n Z C m C n C m C m m C m C m Z m C C m C n m C m C C m n m n m C m o.n n  .n m o.m n m m C m C m C m n m C o.n n  .m C m C Z n n  .m | m C m C m C m C m C C m m n m n n Z n m C m n m | Z m o.n n n m N m Z C m n n  .| n C m n C | &.&.z.q.K.R.W..X$X$XT.S.c.0.&.o. .n n C m n m m C m C C m o.m n m C m m n m C C m C m m C m C n m Z m m C n m C m m n o.m n m C m C m m n n m m n m v x m n n n m n n x v x n n n n k n n n x n n n k n n x n n x n n n n N k n v n x v n x n x n n x n n n M n v [ ",
"n n n n n k n n n k n x n x n n n n n n k N x n n n x x x n k N N n n k n x n n N x n x n x n n n n x n n x n n n k n n n N k x x n n n n n k N n n x n n n n n N n n n n x n n x M n n n n n n M n n x n x n n n n n n n n n x n n n x n N k x k x n n x n M n n n x n n x x n n x n n n x n n n n n k n n n n x n N k n x n n n x N k x n N x x k n n n n n M n n x n N n n x n n k x n n N x n x n k N n n x n N k n n k n n k N n x N n k n n n k N n x n n n n N x n n n n n k x n k n x n N x n n n N x n n x x k k N k n C n | k N n n n n n N k n n n x n n n x x n n n n k x n n N k n k n n n n n n n n n x n x n n M n n x k n n n n n n n n k n n n n n k n n n n n x N n n n n n n x n n n n n k n k n n n n n x n v n n c n n n x n n n x n m n C C m n m C m C m n Z m n | m C m m C m C m C m n n  .n m m C m Z m C m C C m C m C m C m m C m Z C m C m m C m C n | n Z m n m n m o.m n m o.C m C m n m | n Z m m n m n o.m C m m n m C m n C m Z m C m C m C m m n  .n n  .n m m o.m C n | m n C m m m m n m O.| m Z n n n n n m C m m  .O.O.3.q.S.K.K.L.L.T.S.z.0.;.O.O.Z n m m C m C m m C m m C m n m C m C C m C m m n m C C m C m  .n n C C m n Z m C | n m C m o.m C m C n m n n n n n n n n x m n n x n N n n n x n n n x n C k n n n x n n n n k n n n n n n n n M n n n n N n n n C k n n n x o.v p.",
"n n k n n n n n n M n n n n x n n n n n n N n n x n n n N k n x n n k N n n n x n n x N n n k N x x N n n n n N k n x n n n x M n x k n n n n N x N n n N n n x n n x n n x k N n n k N n n x n n x n n k n n x x N x n x N N n n N x n n n x k x k N n x n N k n x N n n n x M x n n n n x N n x N n x n N n x N n x n n n x n n k N n n n k n n n x n n n M n n n x N k n x n n n x M N n n n N x x n n n x n N n n x n N n n N k n n n x n k n n x x x n n N n x n n x n k n n n n k N n x N n n n x k n x n n x n M N n n n k o.o.o.| | | o.o.| n n C k N n x k n n x n N n n n n x k N n x n n k n n k n n n n n k n n n n v M n n n n n n n n n n n n k x n n M v n n n n N k n x n n n n n n k n M n n x n x n n n n x n x m n n x n n n n m n n n n n n m n n n n n n C n m n m | n m n C m n n C n n  .m C m C n n C m C m n m m n  .n  .n m C C m C m m Z n m o.m C m  .n m n m | Z n C m C m m C m C  .n o.m n  .n m C m C n C m n m | C m C m n  .C n n m o.n m m C C m m C m C m C m C m n  .C m n n m  .C m n n n n n n | n n n n m C m C n O.+.@.;.q.q.S.S.c.Z.z.0.;.@.O.m  .m n C m C m C m C m n m C m m C m C m C m m C m C m m C C m C m C m m Z n n m C m Z o.m C m C m C m n m n m n x x n n n m n v n n n n n k n n n n n n n n n n n n n n n n n N n n n n n n n n n k x n n n n n k N n x n n x N v ] ",
"n n n n n n n x n n n v n n k n x n n N n x n n n x M n n x n n x n x n n n n x n n n n x n x n n n k n n N x k n n N n x n n n n n N n x k n x n k x n k x n n n n n n n N x n n x x n n n n n n n n N N n x n n n n N N n n x n k n n x n n N n n n n n n n n x n k n x n n n k n x n x n k n n n n n n x n n n n N k x n k N x n n n N x n n n n M n x n n x x n n k n n N n x n n n x n k n n n n n n n x n k x n n n x n k n n x x n n n n k n n n n n n k n N x n N k n n n x x n n n n n n k n n n x N n n n n C o.C k o.o.| #.o.#.#.#.o.o.#.o.o.n n | n n N n N x n x n x n x n n n n n x x n n n n n n n n n n x n n n n n n x n x k n k n x n n n n n n n n n n n n k n n n n n x M n n x N n n n n n n n n n n n n n N n n n n n n v n n x m x m n m x n n m m n m m  .n n o.m n n  .m | m m m Z m n n  .C m  .Z m C m o.m C Z n n m n m C m m C m n | n m o.m C m C C m n  .m n m C m C m n C m n m n m n n m n m C m C m Z m o.m C n m Z m n | n m n  .m C m C C m m C C m C m C m C m o.m n m n Z n m n n n | n n n n n n m O.m n C m C m n m | o.&.@.;.5.z.5.y.&.&.$.o.|  .n n m m C m n m C m C  .n m C C m C m C m C m m C m C C m m C m C m C C m n  .n m C m n n m C m C m n n n x n v n v n n x x n n k n n n n x n n n n n k n k n n n n n n n n N n n n n k n x n n n N n n n x n n n n N n | n M C n p.",
"x n n n n n n k n n n N n n n n n k x k n n x k n n x n n n x n k n n n x x M n x N n n k n n n n n n n n x n N n x n x k n n x N n k n n n n n n N n n n n n n x x n n k n x n n x n n x x k n x k x k n n n M n x B x n n C n n x n x x n n n n n n k n x n x n n n n n n n x N n N n n n n n k n x n k n n n x n n n n n n x n n x n x n n N x n n x N k n x n n x n n x n x k n n x x n N k n k M n x n k N n n n n n n N n n n n n n x x N N n x n n x n x n n k n n x n N n n n n x x N k n n x N n n x n x k k o.| o.o.#.#.#.#.#.#.#.#.#.#.| o.o.| C C n n n n k n n n x n N n n n x n n n n n n n n n n N n n n k n k N n n n n n n n n n n n n n x n n k n x N n n x n n n v n n n n n n n n n n n n n n n M n n k n n n n n n n n N m c n n n n m m n n n n x n n m n m C m n Z n C m C m n | m C n  .m n m n n m C m C m C m n  .m o.| n Z m C m n  .m m o.m C m n m m C m n C m C m C m C m m C m C m C n m Z m C m C m C m C m o.m n  .n | n m C m m n n m C m m C m C m C m C m C m C m C m n  .Z | n n C o.#.$.O.| n n n O.n | n m n N m | m C O.O.O.O.%.&.&.$.+.O.o. .C n n n n Z n C m C m C m n m m n m Z m C m C m C C m C m m m C m C m C m n m m n m C m o.m C o.m o.m C n n m n x n n x n n n n n n n n n n x n n n k N n n x N n x N n n n k x k n n n x n n n n n n n n x k n M n n n n x n n x C v p.",
"k n n N n n n C n n n k x n n n n N n n x n n N n n M n x n n M N n n x n n n n n x n k N n n x x n N x n k n x n n n n N x n n x n n n N x x n n k n x x n n M n n k N n n N n M n n x n n N n n N n n x n n N n n n n n n M x n n n n M n x n N x n n n N n x n N x n M x n n n n k x n N x n n n N x n n N k n n x n n M x n k N x n n n n k n x n n n x n n N k n n n N n n N x n n n n n n n n x n n n n n x n n N k x x n n x n N k n n n x n n n n M n x n x N n n n n x x M n x n n n n x k n n n n N n N N n n o.o.o.#.#.#.#.#.=.#.=.#.#.#.#.#.o.| o.k n n x n k N n n x k n n n n x M n M n n n N k x k n x n n n n n n x n M n n x n n n n N k n n n n n n n n N k n n n M n n n x n v M n n n x k n n x n n n n n k x n n x n n n n v n m n n n m n m n m m n m C m C m n  .m C m C m C Z m C m n n C m C n  .n m n m C m C m n m n m n n C m C m n n n m n m C m o.C m Z n m C m C m C m C o.m n m C m  .n n C m C m C m n m C m n m n n m n Z m C n  .m C m C C m C m C m C m n m n m C m | n m n n n n $.y.h.c.3.@.o.C n m m b n C  .m n n  . .| n Z O.+.o.$.o. .o.n n | m n O.n  .n m C m C m C o.m n  .n n C m C m C m m C m C m C m C m C m n  .n o.m C m C m n m m n m N m m N m m n n n n n n x n n n n n k n n n n x n n n n n n n n k n n n n n n n n n k n x n k n n n n n n n n n n n k n n n M n n p.",
"n n n n v n n n n n n n M n n x x n n n n n n n k n x n n n n n n n n n M x x n n n k n x n n n n n n n n x n M n n n n x n k n n x n k N n n x n n n k n n x x M n n n n n k x x n n n N k n x n x n n n n n n x M n x n N n n n x M n x n N n n n x N n x M n x k n n n n x k n n x n n n x n k N n x N n n x n x n n n M n n n n n n n k N n n x n N n k n n n n n x M n x n x n n N n n n x x x N n x k N n n x x M n x n n k N n n x n M n x x n n k N n n n N n n x n n N k n x n n x n M N n n x k N n x k C n o.o.#.#.=.#.=.=.=.=.:.=.:.=.=.=.=.#.| o.| n n n k n x k n n n x n n M n n n n n n n x k n n n n k N n n n n n n n k n x N n k n n n x M n n n n x k n n x n n x n k n x n n n n n x n n M k N n n n n x n n n n | n n n n n n n n n n n n n n m | n  .n m C m C m C m C m C m C m m n m C m C  .n n m n  .C m C m o.n C m o.n  .n m | m  .n  .n  .m n  .n  .n | m m o. .n o.m o.n  .n m n m o.m C m n m C n n  .n m o.m C m Z n | C m C m m C m C m C m n n o.m n m C m n m C m C m C m  .b B C %.J.8X0X.X0.+.n n  .m m n m o.n m C m C m n n m C m C m Z n n C m n m C m n m C m n m C m C m C m m C m n m o.m C | n C m m C | m C m n m n m C m m C m C m C m C m Z n m C m C m C n n n n n n | n n n n | k n n n n n n n n n n n n n n n n n n n n n n k N n n n M n n n n x n k n x n n n | x n v [ ",
"n n k n n M x N k n n n v n n N n n n k n x n x n n n n n k x n x x n N n n n n x n N x n n x n k N n x n n n x x n x n N n x n n n x n n n n n x N n n n n n n n n x x n n N n n n n N n x n n n n k x n N x n n n n n n x n k n x n n x n x n k n n n n x n n n N n N x n n N x n k N x n n n n n n k n n N k n n n x n n n n n x N x n x n n n n n x n n N k n x n x n n x n n n x k n n n x n n k n n n n n n n n n n n n x x n n n x n n n n n k x x n n n n k x x n n n k n n N n n n n x n n N k n x n n N C o.o.#.#.#.=.=.=.=.:.:.7.7.:.:.=.=.*.#.| o.| o.n n x n n n n n n N n n n x n n x x n n n N n n n n n n n n n n x x n n n n n n n n n n n n n n n n n C n n N n n n n n n n n n k n n n n n v n x n n n n n n k n N k n n k n n n n n k n n | n  .n m m n m C m C m C m C m C m C n Z C m C m C m n m m C m n m n m n C m m o.n  .n  .o.m o.n m n  .n o. .n | n n  .n o.m n  .m | n  .n  .o.m C m C m C m C m m | n m C m C m C m n m m C m C C m n m C m C  .m m n  .C m C m C m C m C m C C N C | 0.oXBXFXrXM.@.n  .v n O.n n m m n m o.m C m | C m C m C m n  .m C m C m C o.m m C m o.m C m n m C C m C m C m n m m Z m C n m n n m C m C m C m C m C C m C m C m C m | n m C m n n n n n n n n n n n n n n n n n n n n n n k n x n N x n n x N k n x n x n n n n n n x n n n n n n n n n x n n M n n _ ",
"M n n n n n n n n n n n n n n n n n n n n M n n n x n M n n n n N n n k n n n n n n n n k N N n n n n x N n n x n n k n k n N n M n x n n x N k x n n x k N x n n x n n x n x n x M x k n n n n n x N n x k n n n n x N n n n x n n k x n n n n n n n n n n k x n x n k x n n n n n x n n M n x n n x n n n n n x M n n x x n N n n n n N k n x k N n x n n n x n N n n x n n k n n n n x x M n n n n n n x N k x n n x n x k N x n n N M n x x n x N n x n n N n n n n n x n x n x n x x n n n n n n n n n n n n C o.o.#.*.#.=.:.:.7.F.Y.T.F.Z.7.:.=.=.=.#.o.o.| n C n x N x N x k x k x n x n n n k C n n n n n k n x n n x n n n n n n n n n n N n n x n n n n C n n n n n n n x n n x n n n n n n M N k n n n n n n n n n n n n n x n n n n n n n n | n n n n n n n n n n Z m m n m C m m m n  .n m m C  .n m Z n n C m C m n  .n n m m C m m n m n m o.m n o.m n  .m o.o.m  .n n  .n  .m C m n m C m C m C m C m o.m C m C Z n C m m C m C o.m n m C m n m m C m C m n m n n  .n n m C m C  .n m C  .n o.N n o.#.z.oXBXGX9XG.O.|  .m v Z n C m o.m n m n m n n m Z  .n n | m | n m n n C m m n m n C m n m n n C m m o.m C m C m o.n n n m m o.Z n C m C m C m n m C m C m m o.m C n o.m C m m n n m n n n n n n n n n n n n n n n n n n n x N n n n n x n x n n n n n n n n n n k n k n n n x n n x n n n v n n x n v ] ",
"n n x n x n n n N n n n n n n k k n n n n n n n n n n n x n n n k n x n n x N k N x x n n n k n n N k n k x n n n x N n n x n n x n n n x n n n k n n N x n n n n n n M x n n n n n n n x n n N n n n n n n x x x n n k x n n N n n N n k N n x n N k x n n N n n n n x M n x n n N k n n x n n x n N n x x n n n n x n n n x k x N k n n x n n n x n n x N n n x k n n n n n N N k x x n n n n x n N x n n n x k N n n n n n n n n n k n n n n n n n n n n n k n x n n N k n n n N n n N k x n x x n n n n k n | o.o.o.#.=.=.=.:.F.Y.Y.T.R.T.Y.Z.7.=.=.=.#.#.o.o.n N k n n n n n N n n x n n M n x n n n n k n n n n n n n n k n n n n x n k n n k n x n n n n x k n x n n n k n n n n n n M n n x n n n n n x n n x n M n x n n n n n k n n n n n n n n n n k v n n n n n n n C n C n n N C n m n m n n m n n C m n  .m C m C m n  .Z C m m C o.m o.m n m C o.n |  .n | m m | n  . .n  .n | m C  .n m C m n m C m n m C m C m m C m n C m n m m n m o.m n  .C C m C m o.m n o.m n Z m C m C m n n Z m n m n m m m o.;.G.1X3X[.h.o.n n  .n n n m o.m n m o.m C n o.n n n n n m n m m o. .Z m C C m o.m m C m o. .Z m C n m C m C m n m n  .o.m C m m C m C m C m C m o.m C m C N m n m m m m N n n n n n n n n n n n k n n n n n n n n k n n n n n n n k n n n n n n n n n n n n n n x n x n n n n n n n n M n n n n M n n t.",
"x n n n n n n n n n n n n n n n n n M N n n M n n n n n n n M n n N n n n n x x n n n x n x n N x n N n n k n n n n n n n n n n n x k n n M x n N n n x n n n x x k N n n x k n n n n x N n n k x M n n x n M n x n n N k n n n n n n n n N n n n x x M n n x n n n n n n x n n n n n x n x n n n n n n k n n n n n x n N k x n n N n x n x n n x k N n n n n N N k n x n n k n k N n n n x n N n k n n x n n n n N x n x n k n N n n x n n n x x M n n x n n x n n n n k n n n n n k N x k N n k N x n n x N n k o.o.#.#.=.=.:.F.Y.$X%X*X*X%X.XT.Y.7.:.=.=.#.o.o.o.C k k N n x n x n n n n x n n k x n n n N n n N C n n C n n m N C N C n n n n n n n C n N m n n n n n n n N m N C N N n n n n n n n n n n n Z n n n m N n C C m n n n n n C C n n C n N m N n N m N n n n n n n C N n n C m N m Z n n m m Z | m o.m Z n n m m n n m n n O.m n m m O.n n m m m n m n m m o.m m m n n m n m n m C m C m C m C n n O.m m m n m o.m C m m n m  .n m m o.m n m m m m C m m n m m C  .m n m o.m n m n m n m o.n .. .m C +.;.S.z.3.O.o.C x C m m n n m m C m n m n | n n C m C Z n n n O.m n m | n m Z n | o.m n m n m m n m o. .n m m n n m n n m m m n m m m C m C m m C m C m m C m m m n m Z n C n n C n n n C n n n n n N n N n n n n n C m C n n n n n n n n n n C n n N n n n n n n n n n n n n C N m n n n n m n N n n ] ",
"n N C m n N n Z N n N C n N n N n M n n M n n n k x n k n x x n n x n n n n n n k n n N n n n x x n x n n n n N x x n n x N n x n x N n x n n n n n n n M x M n n x n n n n N n n x N k x n n x n n n n x n n n n n n k N n n x N k n x n x n k n n n n x n n n n N x k n n n x N k n n x n n M x x n M N n n x x n k N n n N n n x n n n n M x n n n n x n k x n x n n x N n n x n n n n n n k n N n N x n n n n k n x N n x n x n n n x x n n n n n n N x n n x M n x n n x N n x n n n n n n n n n n k n x n o.o.o.#.=.=.:.Z.Y.$X*X8X0X0X5X*X$XY.F.:.=.=.#.#.o.o.k k n x n n n n k x x n n n x n n n n x x n n n n n x N n N C n n n n n N n n C n N N n n n B n C n N n n n C n n n n n C n N n N C n C n N n n n n C n n n N n N n N n n n n n N m n n C n n n C n n n N n n n n n n N n n C C m N N n n n N n N m n n n o.C  .C n | n n n n C n n | n C | o.C n C C n n C C C n C o.n o.n n C n n n C n C | n n n C C C C m n n C C C C n C o.n C n C o.n C C C C C C C N n N n C N m C n C n C N N n n o.C N N C | O.@.o.C | o.n m C C o.C o.n C n o.o.n C n n C n C n n | n n n n n n C n C n n n n C C n C o.n n n n n C C n C C o.C n C C C C C n C n n N n n n N C n N N C n N n n n n n N m n N n n n n n n n n n n n n n n n N N n n C n N N n C n N n n n n n n N n n B C n N n C n N n n N C n N B C n N | n p.",
"x N n N n n n N C N C N N N k N n n n n n n N n n n n n n n x n n n x k k N x n n N n n n k n x n n n n x n n k M n k N x n k N n n k x n n n n n n x n n x n n n M n n x N k n n n n n n n n n n n n N M n x x n x n x n n n x n x n n n x n x x n n x n n n x n x n n n x k N N n n n N n n x n k n x n n n x n n x n n n n x k n n n x n n n n x N k N n n n n n n n k x x N n n n n x N x n n n n k N k n N n n n n k n N n k n n n k n n M n n x N n n n N n n n x x N n n k n n x n x k n n n n n N n x C o.o.#.#.=.:.7.Z.R.%X4XsXgXgXdX8X&XR.Y.7.=.=.#.o.o.o.o.N n n n M n x N n n M n n N n x M k x N n n N x N n N n n n n C n n n n C n n n n m N n n n n n N n n n C n n m N n n n N m C C n n N n C n N m n N n N n n n N C n n N n C N n n C m C n C m C n N n n n Z n N n C n C N n n C n n C n n n n n N n n n C n n n C n n n n C C n n n n o.n n n n C n n n C C C C n n n n n C n C C n n n C n n C n C n C n C n n n C n n n n n C n n n n n C n n n C m n n N m N n n C n n n n n m n C n n C N n m n x m n n k Z C C C n n n n n n n n n n n o.n | n n C C n C n n C C C n n | n n n n n n n n o.n n n n n n C n C n m C n n n C n n n C m C N n C n m C n n n n N n n C n N n n n C m n n n n n n C n N C n n N n n n n N n C n N C n n n n n n n n n N n n C n n n C n N n n Z n C n n n n | C N n m p.",
"N C n n n N n N N n k n n k n n C M x n M n n n n x x N M n n x x n n N x n n n n k x n N x n n k N n x N n n x n n x n n n n n n n N n n x n N x n k N n n n x n x n x n n n N x x n n k x n n n x x k n n n n n M n x n n N k n x n n N k n n k N n n n x M n N k N x n n n n x n x n n k n x n N n x n n N k n N k n x n n C x n N k n n x n n n n x n n x n x n n n N n n n n N x n k n n n n x x n n n n x n x n n N x n n x n n N x n n n n x n k n k n x n N k n n n x n N x n n n n n n n x x M n n n C M o.#.=.=.:.7.Y.W.=X0XgXmXmXjXsX3X$XY.7.=.=.=.o.o.o.C C x n n x n n n n n x n n n n n n n n n n n n n n n n x C N n n n n N n N N n C n C n n C n n n C n N n n N n C n n C n C n C m N n n n n n C N C n n n n n C m n N C n n m n N C n N n n n N n n n n C n n n n C N m m N N n n n n n n N n C n C n N n n n o.n n n C C n n n n o.n n n n n o.n n o.n n n n m C n o.n n o.n n m C n C C m n C n n n n C n n n C C n n o.n C n n n C n o.n n n C n n n C n C C n n n n N C n N n C n n m m  .n n C | | o.n Z n C v Z C n n C n C n C n o.n n n n n C n n n n n C n n m C n n n o.n n o.C n C n n n o.n n o.C C m n C n n n C n C n C n C n n n m C n N n N C n n C n N n n C m N C n N N n n n n n n n n n N C n n n C n n n n n n n n n B n C n N C n n n n n n N n n n n n n n n n N n n n m n N n n p.",
"n N n n N n k n n n n k N N C n n n N C N n k C n n n n k x n n N n C n k n n M n n n k C N C n C k n n M n M n n x C n n n n M n n M k C N n k M n M n n C k C n n n n N n M n C n n n n N n M n M n N n n n n n N N C n n n N k C N n n n n N n N n N N k n n n k N C n n M n M k C N k C M n N k C N N n n N n N n C n n M k N N n C k N C M n n k C n k C n M n N n n N k n n N n N N n n n n n n n N k C N M n N n n n n k N n n N n k n N n n k N n n n n n N C N n n n n N k C n k N n N C k M n n n k n o.o.o.#.=.=.7.T.$X=XiXjXmXBXjXsX3X$XY.Z.=.=.=.o.#.o.n n n C N n M n n n n M k N k n n M n N n n n n n M n n k C n k N n M n n n n n N n n n N C C N n n n C n N n C n n n n N n n n m C n C n N n N n n n N n n n C N n n C n n n n n N n n n n C N n m n n n C N n C n n n C n C n n n C n N n n C o.C n n n n n o.n n | | | n o.n C n C n n n m o.n n C  .C n n n C C n n n n n n n n C o.n o.n C n C n n n n C n n n n n n n n n n n n C n n n C C n n n n m n n C C n n n n n C C n n C C n n C C n m n n n n n | n C n n o.n n n C n n n n n o.n n n C C n n C | n C C n n n n C C n n n | n C C | n C n C n n n n n n C n n n o.n | C o.n C n n n o.n n n n m n C m n n n n n n n n N n n N n N n N C n N n n n n n n N m n N m n n n n n C N n n n n m N N n C n n C n N n C n m C n N C n n C N N v ] ",
"x C n n n N o.n n C n n n C M n M n n k k n N n x n n n N n n C C k n n N C n n M n N n k n M C N n N M n n n n C M N k M n n n n M n n n C N n n n n n k n N n n M n M n n k n N k M n C k n n n n n n N n M C k n k n n M k n n n n M n M n M n C k n C C n M C n n n n N n n n n n C n n C n n n N n n N k C k C N k n N n n C k k n n C n n n N n N n n M C n n C k n n C N k C n n C k M n M N n M C n n k N n n n n M N C n n k C N C n n k N C n k M n M k n k n n M n M n n N n n C n n N n n n M N C C o.o.#.#.=.=.:.T.R.*X8XcXnXmXgXiX*XR.T.7.=.=.=.#.o.o.| k k k k C n n N n n n n C C N n n k C k N x n n C n N n N C N C n N n n n n n n C n n n C n n C n n N n n n n n N C n n n N n n N n N n n n n n C n n n C N m n n n n n N n C m n n n n N n n N C C n N m n n B n N n n n n n n Z m n n n C m m n n C n C n C n n n n n C n n n n n n C n n C n o.n n n C n C n n n O.C n n n o.C n m n n n n n C n o.o.n n n n o.m C n o.C C | n n o.m n n n n n o.n C o.C n m C n C C n m n n n n n n n n n n n o.C n C C n C n C n n C C n C  .o.n o.n n n n o.n n n | n n n n n n n C n C n n n C n n n n n n n n n n n C C C C n o.n n n n n n n n n n | n n n n C n C C n C C N n C n B n C n n n Z m n n n n m n n C n N n C n n C n C C N n C C n n m C n n N C n n n N m N m n n n N n N n N n n n | N N C n a.",
"N C n n N n C n o.C C C C x n n C n C n C N n C k C n M C n k N N C N M n n N n C n n N C N n k n n n n n C C N n n n n n N N n n n n M k n n n n N C N N C M n n k C n C N C N n C n N N k C N n k M n n k k N C n M C C N N C n N n C n k N n k C M n n n N n C k M n n n n M k N n k N n k n C M n n k C C k n n C n N n n N C k N C N n N C n M n M n M n n C n N n n M k C C k n M n n M n n n n n n N n C n N n n k n C k n M n n n N C M C N N C C N n n N n M N n C n C M C n n N k C M C n M n n n N | o.o.#.#.=.:.:.Z.T..X3X0XdXdXsX7X%XR.Z.Z.=.=.#.o.o.o.n C n n C N M n C k n n k n N n C n C N n n M n N N n N n k k C n n n C N M n n N k n n n k M n n n k C n M N n n n C N N n n N n C n n n N N n n n n C n n n C C n n N n n n n C N N n n n m N n n N n N n n C n n m C C N n N n n N C n C C N n C C n n o.n n C n C C n | n n n C n C C C n n C n n C n C n n C n n | n n O.n n n n n n n o.C n n n C n n n C n C C n C n m C n o.C n n o.C C n n n C n n n n C C n n C o.C C C n  .C n C C n C C n n n C n n n C n n n n n n n n n n o.n n | n n C n n n o.n n n n C n | m o.n C n n n n Z n n n o.n C n n n n m n n n n n o.n n C C n C n n n O.n n n C n n n n n n n N n n n N n n N n C C n C C n C n n n n n m n N n m N n N n m C n n N n N C n C n C N n C C m n C m C n C n n n C n n m N C n a.",
"x n n n N C n | | C n n k C C n N k n n N n n k n N n n M n n C n k n n k N C k N k C C N n n n n M C N k n k n n M n N M C k n n N n n N C M n n n k n N n n n N n N n n C k n N C k C n n N n M C n n N C C n N n n n n k n n n M n N C n C n n N n n n M C k N n N n M n n n C n C N n N C N n C k n n n N N N n M n C k n C N n N n C k n k n n n n n n N M k n M n n C N n N n n n N n n n M n N C k n n M k C n M N C n N n n M C C k n n N n k n C n n N C n n n n N k n C k n N n n N n N k n n n N k o.n o.#.#.=.=.:.7.Y.R.&X1X3X5X3X.XR.Y.Z.:.=.=.=.o.o.| n C n M n n n n N n M n C N k n N k n C n M C n n k n n N C n n M n n k n n n N n n n M n M n n n N n N n n n n n N k n n n n x n n n n n n n n n n n N k C N m N n n C n N n C n n n n C n C n n C n C m n n n n n N n n m n n n N n n C m n n n n n n n n C n n n m C n n n O.n C C m C m C n n n n n n n C C m n n n C n n n C n n C n o.n m C n n n o.m C C m n C n n n n C n n C n n C m C n C n n n C C n n m C n n m C n n n C n n C n n n n C C n n o.n n n n Z | n n C n o.n n n n n C n o.n n n n n n O.n n n n C n C n n o.n n O.n n o.n n n | n n C o.n m o.n n n n o.n n n n n n C n n o.n C C C n C n n N C m C n n C C n n n n n C m N n N m n N n C N n C n C n n n n N N n n n C m N n n N n n n n N N n n n N n n n C N Z n  .o.N n n p.",
"x N n n N o.| n o.o.O.N C C N n n M n M C N n n n C n N n n C n C k n C N N n n n n M k N n k n n n n k n k N N n n n n n C k N N n n n n M n M n N C k k C M n n M C N k n N n N n N k N C N C C N n k M n n N k n n M N C N n k C N k k n n M N n M n C N n n n n n n C k N n N n n k C N k C n N n N n n C n k C N n k C N k n n n n M n N n N n n C k N n n N C n M n n C N C k n n k C M n n C N n n n M n N n n n C n k C n n N N k n n n n M n n n n n n N k n M M N n k N n k n N C n M C M n n n k C | M o.o.#.=.=.=.=.7.Y.T.R.$X%X$XR.T.Z.7.:.=.#.#.o.o.o.n n n n N n n n M N C k n C C N n n n k C n n n N C n n k C n N n M M n N k k n n k n n N n n n k C N n C n n M k N C n n n n n n k N C k C n n N n n M n n n n M n n k n n N m n C n n n N n N n n n N N C N n n n C n n C n n N m m N C N C n n B n n n n n n | o.n C n n n n | C C n n n C n n n C C C n n n C C n n n C n C n n n n C n n C  .n C n o.n n C n n n o.C n n n C n n n n n n n m C C n o.n n n C C n C C n n n n C C n n C C n n C m n n C O.n n | n n m n n m C C n C n n m n C n n C n O.n n n C C C n n C n n n n n n C | n C n C n n n C n n o.o.n n C C n n | C n n n n n n n C n n m C n C m C C n n C n n m n N m N n C N n n N n n C n C n C n n n C n n C m N n C m n N n n N n m N n n n n C n m N n n N n N n C n | C N C n p.",
"M C k n k n C o.@.4.y.<.o.C n n n N n n k C k M k N k n M n k N N n N N C n C k n N n n n C N n n N N C C n C n N n M N n n n C C k M n n n n n k C n N n n n N n n n k N C C k C k n n C k n k n n C N n n k C C N n n n k M n n N C n C N n n n n k n k n N n n M M n n N C k k n n n C k n N k n n M C k N k n N C k n N n n n M C N N n n n n n N C n C N C n n n N M n k n C N N n n N n n n k k C N C n n n n M C n N n N C M n k C N n M n n M n M n M n n C n n n n N C C k C N n k n n n n n N n N N n | o.o.#.=.=.=.:.7.7.Y.Y.R.R.Y.Z.F.7.:.=.=.#.o.o.o.n C N M n M n C N n n N n N N N n M n N n N n n M n k M n C N n M n n n n C n N C C N n M n n k N n N M n N k n n n C n N M n N n C n n n n n N n C k n n n M N n n n N C n n n C n C N n n C n n C n n n m C n n n n n n n n C n N C C n n n n n n n B n N n N C N m n | n o.n n n n n n C n n n C C n m n C C | n n | Z n n | n o.n C n n n n n C n n n n n n C n C n n n n C n C n C n C n C C C n n n n n C n n n n n n n n C n n n n C m n n C C C C n n n n n n n C o.n C n C n o.m n C C C C n n C n n n o.n n m C n C C m C n C C n | C n n n | n Z n n C m n n C n n n n Z n n n C C o.n n o.n n C n n n C C m N N n n n n N n n C n N m n n C m n C n N m n n N n Z n n N m C n n N C C n n n n n C n n C n n n C N n C C m n n n N N m C N n n [ ",
"M C n n n C | o.<.l.j.y.O.o.| M k C C N C N n n N C C N C N N n n n n k k C N n n n n M k C N C n M n M k N k n n n k C n M n M N n n n C n N n N n C n n N n n n M C n n n N n n n N n n n n n M n n n M n n n N n n n C N n n k C n n N n n n C N C N N n n n n n n N C N C n C N n M N n k n N n M n N C N n n N n n C C n n n n n k n C n n M n M k n n n k k n N C n n n n n n n n M n C C n n N C n k n M k C k N n M n M k C N n N n n n C n n n N n N n C n N n N n n n n n N k k C n n n N n k C N n k M o.o.o.#.#.=.=.=.=.7.7.7.Y.Z.:.:.=.=.=.#.#.#.o.| n k C C k C k n k M n n n n k k C n n M n N k M n n n N k k C n n n N n N n C n N n N N n n N C n k n n M n n n n C n k n n n n n n n M N n N n N C n n n N n n n n n n N C M N n N N C N N n n n B n n n N n C N n B N n C N N n n n n n C n n n C n N n n n N m N n C m n n n n n C n C m C n | m C n n n C n n n C n n C n | n n n C C n n n C o.n n o.n o.m C n C n | n C n | n n C n C n n n C n | n | C C n C m | C n C | n n O.C n C m n C n m C | n o.n n C n C n n o.o.n n n n n n n Z n n n n n C | n o.| n n n n C n C n C m C n n n n C n n n n n n C n n n n C n n C n C n C m C C n n n n C m C n n n n C n n m N n n n n C C n N C C n n N n n n N N n n n n n N n n n N n C m N n N m n C n n n n n N Z n n n N m n n C m n C N  .n N C n a.",
"x n k n n n o.N <.l.l.y.A | o.n n N n k n n n N n k n n k n n n n M C n N n n M M n n n n N k C n n n n C N C n M n n N n n n n n n M C N k C k n C N k C N k N n n n n M n M n N C k C N k N n n n n M n n N n M n M n n k n C n n N n M n M n n k n C C k N C n N k C n k n N N n n n C n N C C n n n n k n C k C N n k N n M n M C n k N n M n n n n M n N n N C n k n N n M n M n M n n k N n M n n N n n n n N n C n n n n n n n N C k C N k N C k C k n C N k C k n C N k N n C n C N M n n n N C C k k C n M k o.| #.*.=.=.=.:.:.:.7.=.:.:.=.=.*.=.o.o.o.o.k n n C N N C C n n n n M C n N N C k n n C n C n N n C n n N n M n C k n N C k C k n C k n n N n N C n n n C M n k N C N M n n M n M n n k C n k n N M n n n n N n M C k n n n n n k n n n n C n n n C n n n n n n n n n n n m n C n N n n n n N n n n n n C n n n n C C n n o.C n n n C C n n C n o.n C n n n o.n n n C n n C n C n m n C C n n n n n n n n C n n n n C n C n n n Z o.m n n n C n n C N C m n n C C n n n C n n n n n n C C n n C n n n n n o.n n n C n n n n n n C o.n n o.n n n C C n n n n n n Z n C n n n C n n n C n o.n n o.n o.n n o.n n n o.n o.n n n n C C m n C n n n C | n C C n n C C n n n N C C m N C N m n n n m N n n C n N C m n n C n N n C m N C n n n n n n C C n n N n n Z n n n n n N n n C n N C n N n n n N C x t.",
"k C k n n N o.o.&.&.4.@.O.o.o.N n M n n N C n k C N n M n k C N k N C n k C k N C M n n n k C k N C n M n n n n n n N n k C N C n N N C n n n N n n k C k C N n M n M n n M n n k N n M n N n k n M n N n k n n M N n k n k C k C N n M n N n n n M n n n k C M N k C k M n M n C N C n k n k n C n N C k x M x n k n N n k o.M n n n C n n n n N n N n N C n N k n C N n n n n N n n n n M C k N C N n C N n n n N N C n n n n n n M n M n C N n N n k n n M C n k n n M n M n n N n N n n n n k C n k C n k n C N C o.o.o.o.=.#.#.=.#.=.=.=.=.=.=.#.#.o.o.o.k +.n n M n n n M N n n n n N N C n C n N n n N C N n k C N C N C n N n C N n C n N C N n N C n n M n N k N C n N n n n C k n n N k n N k N n k n k n k n k n n M n n n C M n k n C N n N n N n n n n n n C C N C n n n n C n N n C n m C N C n n n C n N n n n m N N n n n n C C n n C n n n C m n n o.n | C n n C C n n n | C C n n C m C n C n n n o.n | C n | n n n | C C n n n C n n n n m C C n n n n n n C C n | n n n n n n C n o.C n n n n n n n n Z n n n o.| C n n n C n n | n C n n n n | n n C C n n n n n n n n n n o.n | C | C n n n C n n C C n n C n n m C C n | n n n C n n n n n | C n n C C n B n n n C n N m C N n C n m N n n N n C n n m C N n C n n n n n N n N m C n n C n C n n n n C N n k C C C N C k N N k N C M n n N n C N n n [ ",
"n n n n k C n n o.o.O.o.o.C C k n n n N k n N n n n n n n n k C n C n N n N n C n n n N n n N C n n n N n N C k M n n n C M k n k n k n n M k n M n C N n N C k n n C n n n n C n C n C n n N C n C n n N C C N n n N C n M N n n C N C n n k n n n n N N C k n C C N n n n n n n k n n C N C o.N N v k n k n n C N n C C k n n N M n N M n M n n C k C n k n n C N n k k n N M n n M C n n N n n k M n k n n M n n k C n M k N C N n n N n k n k C N C n M n n C N N C n n N n n n k C n M M n C N C N n n N N n n k o.o.o.o.#.#.#.#.=.=.=.#.=.=.o.#.o.o.o.o.k N n C n k n n n C k M n n n C k k N n n M n n k M n n n n k k n n M n k C k k N n k M n k n n M n n C n n k n n n M n N C n N C N C n C n C N n C N C n C N n n N M n N n N C n k C k C n C k n x n C n n n n n N C n N n n n n n N n N n n m N n N n n C n C n C n Z n n N n n n C n n C n C C n n n n n n | n n n n o.n n n n m C n n C n n n n n n n n n Z n C n n n n n n C n C n o.C | n C n C n C C n C m C n n Z n o.o.n n C n m C n o.n O.n n | n C | n n n n n n C n n n n C n n n n o.C n C | n n m C o.n O.n n | n n n n n n n n n C n n C C n n n o.n n C n C n Z n n C n n n o.o.n n C n n C m N n n n n n N n n n n n n n n N n C n n n n n N N n n n N n N n C n n n n n n N n n n n n N n N n n n n N N N k n n n n n N n n M n k n n M | n [ ",
"N n n N N k n o.n n n o.C C n n n M k C n C n n M n M N n n N C C N C k n n n n N k k C n M n n k n N C k n M C N n N n n n k n C k C C n n C N n n C k n C n n M n n k n M k n n n N N M n n n k N n M n N n k M n n n n n n n k n N k n C k C n M k C n n n n n n n n n N C N n M n M N n k k k C k o.#.| o.n C N N n N C n n n n n k n n n N k C k N C k M n N n C n C N n n k C k N n M N n k n n n N n n C n n k n N C C N n k M n n C N n n n C n n n n N n n n k n n n n n M k C n n n n n N n n n M n n k n C o.+.o.o.o.o.#.#.#.#.=.#.#.#.#.o.+.o.C C C C C n N n n N n N n n n n n k n N C k C n n C N n N n M C k N C n n n N N n k n M n n n N C n M n N N C k C C N M n C k N n n k C n n n k C C N N C n N N n C n n k n k n n n N C N n k M n n M N n n N N C N n n n n n n N n C n N n n n N C n n n n C n n n n n N n n n n C n n n n C n C n n n o.n C C C n n C n n n n o.o.n C n C C O.n C n n o.n | C C n n n n n o.| n n C n n Z n n n n n n n n C C n C m n n n n n n n n n n C C n n n n n n C n n n n C n n n n n n n C O.n n n C o.n n n n n n n n C C n n C n n n C o.C C C n o.n n o.n n o.m n n n n n C m C n n n n n n | C n n C n m n C C n n n n n C n N n C n n n n N N C n n N Z n N n n m N n C n m C C n N n C N n C n C n N n M n M n n n N n N n k n n M n C C n n n N n | k | n k | n ] ",
"k C k n C n n C o.n n n n n n n n n n N N k C M n n n n n M n n k n N n M n M n C n n N n n N M N C n k N N n n C k n C n N N C N n N n n M n n N n N n k N N n n n C N n N C N M n n k n n n M n N n n k C C n n n n M n M n N N C n n k N N C n C N n N n M n N k M n n n k n n n n n M n C n M n n n o.o.C n C C N k n n n N C k C N C k N C n N n C n N n n C k n N k C n M n N n C n n n C C n n N C k N N M n C N n k n n C n n n n k n N M n M n N C k n n M N n k n M n n C N n N n M n k n n M n n M N C N n n n k o.o.o.o.| o.o.o.o.o.o.| o.C o.n n N k N n k M C N k n n M C M n C N n k n N M n n k n n n n N n N n N C k n n C N C n n n N C k n n n n C k n N k n N n n n n M n N n N M n n N k n k n n n M n N k N C C n n M C N n n n N n n n n k n N n n n C n C n C n n n n n C m C n n n n C n C n n n C N n | | n n C n n n n o.n | n n n C n C n n n n n Z n n C | n n n n C n n n n n C n n C n n n n n C n o.n n n Z n n | n n n n C C n n O.n n n n C C n C C n n n o.n C n n m n C C n o.C n n C n n n o.n n o.m o.n n n n C n n n n n n C C n n C n n C n n n C n n n n m C n n n n n C n n n  .n o.n n C C n n C n C C C n n C n n n C C n n m n o.n n C n C n n n C C n  .n n n o.m n n n n n C C n n n n N n n n n n n | n n n n n n C | n n o.n n n n C o.o.n n n k n k C n n o.k n n C n | v _ ",
"k | k C n n n C C n k n n n n C n M N n k C N n k n C k M N n n N n n n n n n C n N n C n k n n n n n C C k N C N C n N M n M n n n n C M N n n N n k n M n N n n N n k C N n n n M N n n N C n k C M n k n C N n N N C n k N n n n n C N n M n M n n N k n C N C n k C n k N N N C N n C n N n N x n n @.B.{.h.o.C N n n n M k N n n n k C N k n n N n n N n N N M n n n k C n n N n N C N n N M C n M n n n k k n n M N n M n k C N n k n n n n n n n n M N C k n N n C k N C C N n N k n n C C N n k C N k C N n k n n o.k o.o.C C o.o.o.o.o.C C o.C n N C C n n C k n M n n C N C N n n n n N n n n k C n C N n k n n C N n N C n C n M n M n k n N k C n n k n N n n M n n n N n n C n n C k n n M n n M N N n M n n M n n n n n n k C N k k n N n n N n M C M n n n n M n n n N C N C N N N C C C N C N n k o.C n n o.n C C n n n n n C n C n C C n C C n n Z n n n n n n n C C n n C n C n C n n n n | C n C n n n n n C n n n C n n n n n n C C n n | n n | n o.n n n n n n n C o.n | C n n C C n C C m n n n C m C C C n C C n C C n n C n C C C | n o.n C N C C C m C m o.C C n n n n n C C n n C n n n n n C C n n C C n n n n C C n n n n n C n C n n C C C o.n C n n n n m C n n n n n n C n n n C n N n n n C n N m N n n N n n C k n n n C C n n C k k n C n k n n o.C n n C C n k n | n n o.C k N | n N | n [ ",
"M n n n N C n M n C C N k k n N n n n n n N C k C N n N n n C k n n n M n M n N n n N k C N n M N M n N n n N n k C n k n n n n n M n N n n M n n C C N n n n n k n n N k n M n n n n n C k k n n n C n C N n k n n C k C N C k n M n N C n N n n n k C C N n k n N n N C n C n n k k n N k n n O.k N C y.3X6XM.@.k n C C N n n n M n N N n n n M n n n C k k C n n n C N n N n k C n n k C n k n n n N n N C n C N n n n n k n n n n M C n M n n N N n n n k n C n n n N C n n k n k C N N n M n n n M k C n N n C N n n k C C C k n C C o.n C k k C N C n k n N C M n n n n N k n n k M n M N n n N C n N n n n C N C n k n N k n N k n n n n N C n n n N M n C N n n n C n N k C C k M C N k C N n n C N n n C n N n n n n C n M n M n N n n N C k n n M n n N n M n n M n n n n n n n C n | n N C k | n o.n n n n C n n n n n n o.n n o.n C n n n m C m C n n C n | o.n o.n n n n n n n n n n | n o.n n n n n C n Z o.C n n C C n | n o.o.n C | n n n C n n C n n n o.n C | C C n n n n n n n C n n n n C n n n n C n C m n n n n C C n C n C m n n n n n n n | n m n n n C n n n n C C n C n n n n n n o.n n C n n n C n n n n | C n n n n n C C n n n o.m n n n m C n n n o.n | C n o.m o.C C n | n C n n n n n C n n n | n o.C n n n n C o.n C C n n n o.C n o.C n C o.n n n n C n n o.k o.n C n | k C o.C n n M | n ] ",
"n n n N k C n n n N C N C N C k C N C M n n n n N n C n C n N n M n C k M n k C k n M C n k C n n k n k C k n k C N n M n N C N N n C k k n n n k N C k n k M n C n k n C n k n n M M n C k N C N n n n N n C n n n n n n n n n M n C k k n n n N n n n N n n n n n n M k N M n k n N C n n C n C M N n y.{.OXc.+.n n n N C k N n C n n n n C N n N M n n N C k n M k N M n N k N C k C C N M n N n N C n N n N N n n n C N C N n N n C N C n M k n n n k C k n M C n M k n k N N n n n C n k C k n N n C n k n k C M n N k N C C n n | n n C C o.k C C N n n N k C n n n N n k M n M n n n k C k C n k N k C M k C N n C k n n n C n N N n C n n N C M n N n n n N M n k N C k C k N n n k n N n n n M n k M n M n n k n M n n C k n N n n C N C n C N n n n N C N n n C n k k n n n n k o.C n | n n n n n n n C n C o.n | C n C C n n n M | o.n o.o.n n o.n n n n n n n n n C n C C C O.n n C C m n n n n C n n n n n n n | n n n n n n n n n n n n n C n n Z n n n n n n o.n n n C n n n C n n n C n C n | C o.n | n n n C C n C n  .n n n n C n | n m C n n C n | C n n n C n C n C m C n n C n C C C Z n n O.n C n m n n C n C C m C n C C n n m n o.n o.n C n n C n n C n n n n C n C n n m C n n C n Z n n C n n N n N n n n n n o.n | n C n C n n n n n n | n o.n C C n n o.C o.n C n n C n o.n n n C n n v n M | n ] ",
"n n n C N k n n C n N k n C n n n k n n M n N n M n N k n N C k n n N n N n n N C N n n N n N n C N C n N n N C k n n n n n k n C k n N C n M n n C N n N C n n N n C N N C N C n n n n N n N n n n M n M n N C M n M n n M N n N n n N C N C k n n M n M n C N n N n n C n n N C n N n C N k N x k o.| o.8.@.%.n N C x x C C k n M C k M n n k C C k n n C M n n n n C n n C n C k n N k n n n k C n k k C k C M n M n n k C n n M n N k n n n C N M n C N C N n n n N C N n C n n M n M n n n C N n n N n N C n N n n C n N n C k n n n n C k N n C M n N k C n N M n n n N C n n n n n N n N C M n N n n N n n N k C N n n M N C k C k n N k C k n n k C N n k C k n n C N n N n n N n n N C n N n n C n n n n n N C N C k N N n n n M n n k n n M n n M n C n k n C N C k C | n n n | n n n C n C | n o.n n | n N k o.k n C n n n C n | n k n n n n n n n C C | n o.n n n n C m n n n n | n C C n n o.C n n C | n o.n n n n C n n o.n n o.n n o.n n o.n n C n C n o.n n n n n O.C m C n C n C C m n C n n n n n C n C n n n n n n n o.n n o.n n C n N C C n C n n n C C n n n C n n n C C C n n m C n n | n n n n C C C n n n C n n o.n m C n o.C C n n n n C n n C | n o.n n o.n n n n C n n N N n n n n n n n N C n n n n n C | C n n C n C n o.k n C | n n n n n n k n n | k n k k o.C n n N N C k N C k M n n M n n ] ",
"n C n n n C k n M n M n k C N n n N n N N n n n n n n k N N k C C n n n N n k C k n n n C n k n n k n n n n n k C M n n n k N N N M n n k C N k N n M n n N n N n n n N C N N C k C N n k n n M n k C n M n n k n n n N n M C N n N n n n n N C N M n n n M n k k C N C n k C N C N N C N C k C N C C N C C C n n n k n N n C n M n N n n N n k k N C k N C n n N n C N n n n C n n M n M n N n n N M n n n n N n n k C N k N C n C k n n M n N n N M n n N n N N N C n n n k n N N n n k C N n n N C M n N n N n M n M n n k C n n n n N n n C n n n n n N N k n N n N n M n M n n n n C n n n n n n n M n N n n M n M n n k C N n k n k C N C C N N C n M N C C N k C N M n n n k C k C N n k M n N C n C N n n n N n M n C n C k N n k n N n n n N k C N n k n M n M n n n n n k N N n k N o.n o.C n k o.C n n n n k n C n o.n n n C n C C C n n n n o.n C n n n o.o.n C C C n C Z C n n n C n n n C m C C C n n n o.n n C Z m n n C n n n n n n n Z n n | n n n n n n C n n n n n n n n n | n C n n n C n C n n n n n n n n C C C n C n m n C C n n C C n n m n n C n C n n n m C C n C n m C n C m n C C m n | n n n n n | N n | n C n n n m n n n n n n n n C n C C n n n n n n n C C n N m C N n N n n n n n o.n C C n n n C n k n n C n n n n n n n n k C N C C N n C n n N N n C k C N n N C n k N C k N n n M n n a.",
"M C n N N C n C n n N n n n n M n C k n n n M C n N C n C n n N N k M n k n n N C n N M k n N C C n k C C N n n N n k C C n C n n n n N n N n C C n n n C N k C n M n C n k C k n N n n C N n n N n N n n n n n M n N C n n n k k C n M M n n k n n M n n N n C C M k n N n k n C k n k n n n n k n n N k N M n C N N C C k n N N n n n k C N C n N n n N n N n C k k n n M N k C N n n N n n n k n n n n M n C N n C N n n N n N C N C n n n M k n n n k C k n n k k n C N N C k C C k n N n N k n n C k C k n n n n C n N n N M n M n n n N C k n N M k n C n k C n n n N n n n N n M N k M n M n M C n n n N n n n C n N n N n n C N n N C k n k C k n n n k n C n N n n N n n M N n n C N C n n k n N k k n n M n n k n N k n N C k C N n n M n n n C n N n n n n n n N C k n N C n N C k | n k C n n C n C C n C o.n C n k k C n o.n n n k n C n N k C M n n o.n n n n n C n n n n | C n n n C n n C n n n n C n n C n n n C C n n n o.o.n | C n n n o.C n n o.n n n | n Z | n n o.o.n n C n C n C C m n n n o.n C n n O.C n m n C n n C C n n n C m n n C C C n n n C n C C n C n n C n C n n C n n n C n C n n o.o.n n C C m C n C n n C C C | n C C n C m C n n n | n C o.n n o.m C n m n m C n n n n C C n n n o.k n C C o.k C C C n | n o.C n o.n C o.N C N n N C C N n C k C N n N C k C C N n C N C n n n n n n p.",
"k n n n n k n C N n n n n N n C M n N C k N M n n N n N M n n k C n n n C N n C N n n n N C n N n n N n M n n n C N N n k N M n k n n n k C n n k n M n n k k n M n n k n M n n C C n n n n N n M n M n N k C M n n n k n M n C M n n n n n k n k n n n k C n n n n k n N k C N n k n N M n M N C N n C n N n n n k M n N M n k n N C M n n n C n n C N n N n n N M n N n C n C k C k n n N n n C N N C M n n k n M n C M n n n n k n n n k C n C N N C C N N C C k N C k C N C M n N n k C C N N C n k C N n n n n C N n M n M N n N C M n M k C M n n C N n C n n k C k C C N k C n n C n k n n n C N n k k C n n C N n N n k M n N k N n M n n M n n N n N n k n n n k n n n n n N C k n N k M k C C n n C N n n n N C k C n C N C n n n k C N n C N k C n C N C N M k C N k k C N k n n n n N n C N N C n n n n n C k o.C C C C n k N n N n n n k n k n n n n n n n n n n n C n C n C n C n C n C n n n C n C C n n C n n o.o.n C n n n C n C n n | n n n n | C n o.n C n n n n n n C m n C m C C n C C n o.| C n n | n n n n n n C C n n n n n n C n o.n n m n C n m C C | C n n n n n C m n C n o.C n n C n n n n n n n C | C o.n m n n n C n n o.n n m o.n n n C n n n n n n n n n n N m m N m N n C n C k | n o.k o.n k n n n C n n n M k n k n M n M n k C N k n k C k k C n k n n n k C n N n n N n C n | n M o.n a.",
"N n k C N k n N n N C k C N k N C n k n n C C k k C k C n n N C N C k n N n n k n N n M n n n N M n N k n C k N n k n C C n n N C n n M n n N M C n N n C N C n C n N n n n n M k N n M n M n n n n n n n n N n M n n N n n n N n n n N C M C n C n n N n N n M n N N C C n C n n n N C n n n n N n n k C k N n N n n n n n n C n k n n M C N k M n n k k C n M n n n n N N k n n N C n k C n M n n k n C n N C n n n k n N C k n M n M N n N n n n k n C n k n N n N n n N C k n n n N n N n C n n n n N n M n M n n k n n n n C C k k n n n n n C n M n n N k n M n N n N n k N N C k n N C N n N k n N C n n M n n k n n C N n n C n n n n n n n n M n n C C N C M n C n M n n N n k N C n n n n N n M n N n N C k C N C N n n k n N M n C M C k n C N n k N n k n n N n N C C n N n n M n N k C k n C C k n n n n n n n n k n N n M n n n C N n N C C n N | n n o.C C n n | n n C m C n n n n C C m C n n n n m n o.| n n n n n C n C n n n n n n C n n o.C n n n C n n C n C n C n C C n n C n n n n n n n n n C n n C n C n C n n n n C C C C C m n n C C o.C n n C n n n n n n C C n C n n n n n C n n C n C C n C C C m n n n n C C C n n C n n n o.n n C C n n n n O.n o.n n o.C | n C C n n C n n N C o.n n n | n n C o.k | n n n C k C N C N n n n N n n N n n n N C C N N C N C n N N C M C C C N M x n n M n n ] ",
"n n k C n N k C n n k C N C k C k n x N k N n n n n N k n n M n C N C M N n C k n k M n k C N C C n N C n N n n N n N n N n k C M C k N n n n n N n k C N n k N n C N n k C N n n n C k k k N C n k N C k n C k n k N C M n n k n k n k N C n M N k k C N k C C M n M n n k N C M n N k N C k n n M k k n k N n n N k C n N n M C k n N n C n k C k M n N k C C k n n N n k C N C M C N M n N C M n N n N n n C x n C k n k N n M n n n n n M k M n N n C k N n n k C C N n n k n n k N n k k k M n N n n k N n k n n M N k C N C N C n n n N k n n n k k N C C C k N n n M k C C n k C N n k C n C C N k C M N n N k k k N n k k k C N n N k k n k N C k C N k k n N C N k C n M n n n n M n M k n N C n M n n k C N k C k n M n n n M n n n M k C N k C C n N N x k n C C n k n M n n M n C n C N n k C C C n C C n n C C n k k n n M M n n k N k C C N n n n o.n n o.C k n n n n n n C n n C n C n n n o.| C n n o.n n n C n m C o.n n n n C n C C n n C n n C Z n n n n n n n n n C n n n C n C n n n n n n C Z n n C C n n O.n n n o.n m C n n n n C n n n C n n n n m n n n C m C C n | C n n n | n n C n n n m C n n n n n C n n C n C m n n C n o.n n n m C n m o.C o.n n n n n C n n n n n n C N n k o.k o.o.C n n o.C C o.n n n n n k C N C o.C C C N k k +.C C N C k N C N C o.C N C n C C N C n N C N | n M n n p.",
"k o.o.k C n | n o.k n C n n o.k C C n C o.n C n C n C C C n n n k n n n n C C n n o.C | n n o.k M C C N C N M C n n o.k n | n n n n o.n o.k C o.n C C n n n o.n n k n C n n C n N C C n o.C C n C n C n C C C n | C n n n C n o.C o.C n n n n n C o.n o.n o.k n | n | n n C n n o.k | n C k o.n n C o.C n C n C C o.C n n | n n C n n n n n N C n n | C o.n C k C n C o.n n n o.k | n n | n C k n | C n n C n k k C C n n o.C | n n C n n C | o.n | n n o.k o.n C o.k n k n n n o.k o.n C o.n o.n | k n C n o.n C C n n | n o.n k n n n N C | C N n C o.C n n n C C o.k n | o.n n n n n n o.n n n k | n k C n | n C o.o.C C n o.n o.C C n C o.n C n n n n C n n C n o.k o.n n C n n C n n n | n o.n C k | n n C n n o.n C n n | n C n n n C n n n C n n C k n o.C C C C n n C C C o.n C | n n M n n N C C N N n k C n k k C n k C N n n n n N C C C N k C N N C n n n k C | n C | C n C o.m m C n n C n n n n n n C n n O.n n n C n n n C | n n n n | n n n C n n n n | o.n | C n O.n n n C n n C C n C n o.n o.n n n | m n C n n n C n n n C n C n C n n n C n C n o.n C o.o.n C m C n C n n n o.n n C C n n n C C C n n C n C n C n C n n C C C n C n n n n o.n C n o.n n n n | n C n n n C n n C n n C n n n N C k n n C n n n n n n n n C C n C N k N n n n n o.n n n n C o.| n n n k n C n n n C o.n n C N n | o.N n | p.",
"n | n n n | o.n C n n o.C n o.n C n n | n n C n n n n n o.k o.n C n k | n n C n n C n n n C C N C C C C C n n n k n C | k n C C C C n n C o.n k n o.C n o.n k n C o.n C C n n C n n C n k n n n C n | n N n C n n n C n k o.| n n n n C C C n n n n n n n n n n n C n C C o.C n n | n n n n o.n n o.n n n n n C n k n C | k C n C n o.C C | n o.n o.o.n n n n n C C n k n C n n n n n n n C n | n n n n k o.| n o.C n n o.k n n C n n C C n n n n n k o.n n n n n n n n o.n C o.C n n n n n n n n n o.C o.C C n C n o.C n n n n C n n n n | n n o.k n C C n o.k n n n n n n o.n C k o.C n o.C o.n C k o.n C n n n C n n n n C n n n n n k o.n o.o.n C n n n o.k C n n n C o.n C n C k C o.n C n C n n n o.k n C C n n C C n n n C n o.C n n n C n n o.k n n | k n n C n n n n C | k n n n C k o.n n k n n n C C n n n C n n n C n n C n o.C C n C n n n C o.| n C n n n n n n n C n n C m n m C n n Z n n n n n n n n n n n | n n n n n n n n C o.n n n Z n | n n n C n C n C n n | C n C n C n n m C | n o.n n n n C n n C n C n C n n n n n n n n n C C C n C n C n n n n n n C C n n n o.n C | n m C  .C n n n n C n n n m C n n n n n C n n n C m C C n n n n n C n n n C C C C m n C C n n n C C C n n n n n C n n n n n n C k | k n C C o.n C | M o.n n o.n n n n n C n n C o.n C n n C o.C C n k C k o.C M | o.k | | p.",
"N o.n o.N n C n n C n k n n n n n C o.k C n n C o.k C n C | n n n C o.n n C o.k n n n C n n C o.o.O.@.+.+.o.o.C o.C n n o.C n n n n n C n n n n n k n C n n o.C n k n n n n C o.k | n C o.n n C C k C n n o.o.k n o.n n n | M n n C k o.n n n o.n C C n C n o.n n n n C n k n n n n o.n n o.n n n n o.n n o.n n n C n n C o.n C C n k n n n n n n n n n C n C n n n n n C o.k | n o.n C n n n C o.n o.n n n C n N C C n C n n C n n C o.k n n n o.C n C n o.n C n C C n C n n n n C C n n C C n C C n n k n n n n C k | n o.n n n n C C o.k C n C n n n n n C n n C C n C n n n n n C n n k n n n n n C o.n n o.n n n n o.n C n n o.n C n C n n n n C n C n C n n C n C n k n n n C C | n n n n C n C n C | n n n n C o.k n k C k n k | n o.n n C n C n n C n n n o.o.k n C n n n n C C n n n | C n o.C C n n n n | C C n | C C o.n C n k n n n C | n o.n k | n n n C C C C n C C n o.n o.m n n C n n | o.n n o.o.n n o.n n n C n C o.n n Z n | n n o.n n n C n o.C n n n n n n C n n n n C C m C n n n n n n n o.n C n n C n n | n n C o.n | C n o.n  .n n m C n n n C n C C n n n n C n n n n C n N C n n C n o.n n n C C n C C o.m C n n C n n n n C n n C C C n n n C n n n n n C C m C n C C m n n n C o.n | n n C o.n n o.C n C o.n n C k n n n n n n n n n n o.C n n C n n k n n o.n n k n n n n n n C C n | n N n n p.",
"k o.| N k n | C n n n n n C C n n n k o.n k o.C n n n n o.n n o.k n n n n | C n C n C n k C O.#.&.%.0.0.&.%.+.Z C n C n C N N o.n o.n n o.k C n C o.n C n n C o.C n o.n C n n o.C n n n k n C n n C n k o.C n n n C n C n n n n C o.n C C n n C n C | n k n n n C C n n n n C k o.C n o.n C C k C n n n k o.n C n n n | n C n o.n o.C n o.C n n C n C n n n C n n C n C n n n n n n C C n n k n n C C n n n C n C N n n n n n | k o.C n n o.C n n C n n n k C n n n C o.n C n N n n n k o.n n n n n n n k o.C o.n n n | k n k C n n k n C n n C C n n | C C n n C n n n C o.n C C n k o.o.n n o.C n o.n n o.n C n o.n n o.n C n n C n C C n n | o.C N C n n n C C n n k o.n n N n | C C n n o.C C n n o.n k o.C C n C n n o.n C o.C n n n n C C n n n n | o.k o.k o.C n C n k o.C o.n n o.n n M C o.n C C n C o.n n C o.C n n n n n o.n n C n n n n C n n n n k C C n N C o.o.O.@.o.C C o.o.n n n C C n C n C n n | Z n n n n n n n n C n C C n C | C n C n n n n n o.n n n C C n n n n o.n | C n C n n n C n o.n n o.n n C m n n | n C n C n n C n N C C n C n n n n C n Z C n | n n n n n n n n m C C n C n n n C C n n C N n C n m n C n o.n n n n | n n | n n C C n n C n C n C C n C n n o.n | n C M Z k o.o.N n n n N N n C C n n C k n k o.k n C n C n n o.C n n n n n n n o.k o.C n n n n C n n C o.n | n | n n o.n [ ",
"N n n C C n n n n o.n C n n n C C n n C n C C n n C C n n n n n C o.o.n | M o.k N n C n C +.@.0.w.0.Z.Z.q.h.8.@.C C n n N C C k n n n o.C n n n n k n n | C n k n n n n n n | k n C n C o.C C n n C n | C n C n k o.n n o.n n o.n k n n n n C o.k o.k n o.n C C n n o.n C n n n n n n n n C n n n C C n n C C o.n C o.k n n n k n k C n k n C n | n C k C n n n C o.n n o.k o.n n o.n k C n o.C k C n C C n n n o.k | C n C n C n C n n n k n C C o.n C C o.o.k C C n k n n | C n o.n C n n C C n o.o.n n n n n n n n k o.C C C C n o.C n n n o.C k o.k o.k n C C n o.n n k n n n C o.k n n n n k n n n n n k C n C n n n n o.k n n n o.C k k n k o.n | C n C n n n n o.n n n C k n C o.n n C n | n n k C o.k n C n n n n n n C C n n C C o.n n n o.k C n k C C o.k C n n n n n n n n n n n n | n k n n n n C k C C n k C o.n n n n C n C o.n C o.k o.k o.n n C N C n o.@.&.&.&.%.%.+.@.o.n n C n n n o.m n n n n n n n n o.n n C C n n n n n n n n n n n n C n n n n n C n m C n C n n n n n n C m n C n n n n n n n n n n C C C n N m n | n n n | n m n n n n n o.n n n n n C C n Z C o.Z C n n C n n C m n C n n n n C m C | n | C C C n n n n C n C C n C n n n n n n n n n n n n n n n C k n o.n Z N o.C N N o.k | o.o.| C n n n C C C n | C o.C o.n n o.k k n n o.o.n k C | k C C n C C n C o.k C n k n n n n C M o.C [ ",
"n C n n C M o.C k o.n n n k k o.n n n C n n o.k n o.C n | n C C n n n k n C n n | N N o.o.%.0.q.c.H.T.T.H.S.w.@.+.o.C n C N Z o.C C n n n C n C C n n n C k n n n o.k o.n C n n n n k n n n n n C n n C n o.C n n n C n C n k n C n n n n k o.k C C o.n C n n n k o.n n C n n C C C n n C o.| n k o.n n C n C k o.k C n C C k | n n n n C n o.k k n C C C o.o.n n k n C C n n n M | n o.C n o.k n k o.C n n k o.k o.n o.n C n n C k o.C C o.n C | k n C n n n n n n n n k o.k o.| M n o.n n k o.n k n n o.n o.k o.n o.C n C n n C n C C C o.n n n n k o.k o.n k C k n o.C n n n n C n | n C C n o.n C C | n n n n n o.k | n k n C o.n n n n o.k | k o.n n o.C n n C n n C n n N C C C N n C k N C N N C C N C n n n k o.o.n n n C n n n n k n C n o.n C o.k n n | n C C k n C C n n o.n n n C n C n C n n k k o.n n k o.C k n o.k | C C n k C o.C n n n k | C N N C o.@.%.&.0.w.0.0.&.;.+.N B C o.C N m C C C C o.C n C o.C n C C n o.n C C n C C C n C Z n C C n C o.C C n C C C C Z C Z C C C C C C n C n C C n Z o.C | C n C C C C C C C C Z C C C C o.n | C o.C n n n o.n C C C n C n o.C C Z C C C N C C m o.C C C n n C n N n | N C C Z n C o.C C Z n C n o.C n C o.C N | C C C n n C n C C n n C k n C C N n N n | o.| n C n n n n n n n n n C k o.n C n C n n C n o.n C k n n n k o.C n n n n n k o.n o.k C n N o.n p.",
"k C | N C n k | o.k C n C o.n n k C n n n C C o.n k n C n n k C n o.n C k o.C n n C N C +.%.q.K.W.oX1X1X.XT.S.0.&.+.C | N C k n k C C n n n n C C n C n C C C n n n n C C o.k C C n o.C o.C o.k o.k n n n k n C n o.n n n C o.n C n C n C o.k | n C n n C n C o.o.k | n C k C o.n n n o.C k o.k o.k | k n n n n C n n C o.k o.n o.n n o.n n C n o.C n n n k n n n C n C n C n C | n n n n n C n n | C k k C n C | n n n k o.C n n n C n n k n n n n C o.n C C n n o.n C n C o.k n | n n o.n n n n C C C n n C n n n n C n n n C n n C k n n n n C C n C | n n C n n n n C n C n n n n k C C n n C n n n M n n o.C n C o.M | o.C n n n n C C C o.n n n n n k n C n C C k N o.o.o.o.O.o.o.C C N C N n C C N C N o.C C n C n n C C n C o.k n C n n n n n C C n n C n n k C o.C n n C o.n n o.n n C n n n n C o.| n o.k | n n n n C o.n n k n C n k n C C n o.n n n C Z #.%.9.k.M.I.I.M.0.0.@.o.O.C C n C C C C n C n C C C C n Z C n o.n C n Z C C N C C C n o.| N Z C C n C C n C C n n C n n C C C n C C C Z n C n C C n N C C C C m | N C C n C m C n C C C n Z C n C n o.n C | N C C C C n n C n n C C C C C C C m C C C Z C C C C C C n C n C C m N C n C C C C n o.n n Z C C C C C | n n n | k C k o.o.o.@.&.#.#.o.k n n M n n C o.k o.n n o.C n n n n n n C n n C o.n n n C o.n C n n n n n n C n C n C n o.N n | M | n _ ",
"N C n C k o.o.n C n n C | k o.C o.C n n o.n | k n n n n k o.C C n o.n o.n C n n n n C Z %.0.A.T.1XlXBXcX0X&XT.c.9.@.o.n N C C n n k o.k o.C n C n o.n n n n n C n n k o.C C n n n n o.k n n o.n o.C n n n n n C o.n o.C C n C n n k o.C C C k n n n C n n n C k C N n C n n | k n n n n n n n k o.n n C k n n n n C n C n n n n n n k n n | C n o.k n n n n n k n | k o.n C n C n k n n o.n o.C k o.| n o.C n n C n n n C o.n n n C o.k n n o.n n n C k n n n n n o.n n n o.n | k n C n n k o.C | n o.C n n n n o.k o.k k n n C n | k n n C C o.n n o.C n C o.C n o.k o.C n n C k n C n k o.C n | n o.n | o.C n n o.n k n n C n o.n n o.n o.C n n C n n C n o.k C N N Z +.+.+.+.&.&.&.&.+.o.Z N N n C N C n M o.n n n o.n n k o.n k k o.C n o.C C o.n n n n n C n n n n C n n C C C n C n n k o.o.n n o.o.C C n C C n n C n n n k o.C n n n n | n n C o.C n n k N O.+.%.h.I.XX@XOX{.k.0.%.+.C C C n o.| C n o.C C n o.n C C n C o.| C C | C n C  .o.n o.C n o.C n o.C Z n C n n n C n C C C C C o.n C C n C n C o.| C C n o.| C C C C n C C C C o.C C o.| C C o.o.o.| C | C C n  .n o.n C n o.C o.n n o.| C C C C C n o.o.| C C o.| C | o.n o.N C C C C n C n C C C C C C n C n n C n n C n C k C C k o.#.8.M.M.0.;.o.k | n x o.n C N n | n n n k n n n n n n n n C n k n C C n C n n n k o.n C n o.C n C n n o.n n n M o.| ] ",
"n C | N n n n n n C n n n n C n C n C o.n n n n k n o.n o.k n n n n n n C o.k n n C N O.%.w.H.T.9XAXPXJXBX5XT.w.0.+.o.N C n C n n | C o.k | C k n n o.n C n k o.n o.o.k n n C o.n C C o.n n n n k n C n n o.n n C n k o.C n n n n | C n C n n n C n k n C C n n | n n C o.k n n n o.n C n C C o.n n C C o.n C C n n n C o.n k C o.n C C o.k n n k | n k o.n C o.n n o.k n n n n C o.C n n n k n o.k n n C n o.n n C C n k k | k n n C n C n n n C n n n n o.n n n n | n n n n n o.C k n | M C n o.k k n n C o.n C n C n o.C n n n n o.C n n n k o.k k n n n n n | k C C n C k o.o.C n n n n n C k n n n n k k n n n n n o.k C o.n n n n n k C n C o.n C n C C | C C Z o.o.%.0.9.0.0.0.;.&.&.+.o.C C n n N n o.k o.k n n | n n n C o.| n n C k n C n n o.n C n n n o.o.n n n C o.n k n C k n n n n n n n n n k n n n n C o.k C n C C n C n C n C C C n k n C n +.C O.$.0.D.oX4XuXuX1XI.0.&.+.C C Z | C C C C | C C o.| o.C | o.| n o. .C o.n o.| o.n C | | Z | C C n n C C n Z C C C C n C n C n n Z n C C C C | n o.C | C | o.n C o.| o.| o.| C C C o.n o.n C n n n | n o.n n O.C o.| o.C C | C n o.C C o.C C | C | o.n n o.n C n o.n o.| C | C C n C n Z C C C C m N C C C C C C C n C o.k n o.C N n | o.E.tXcX.X;.k N | ..N n n n C o.n C C n o.n C C n o.o.n n C n n n n n C n C C n n C C o.| k n C n C | k n | | N o.n [ ",
"n o.n n N n C C o.k o.n n C C o.n o.n k n n C k o.C n C C o.C n o.n C n n n n o.n n N o.&.0.H.Q.tXAXIXPXZX8XT.S.0.+.o.N N C o.k n n n C | n n n C C n n o.C M | n C k | n n C k C n | k k C o.n o.C M | n o.C n C n n k n k o.C C n n n n o.o.n n n o.C k o.| n C n k n C C n n o.n C n n C n n n n C n C n n n n n k n n o.n C C n o.C C k o.C o.C C C n n n n n o.n n k o.o.C n n n C n n n | C C C k n n n n k o.n n C C C C n C o.C M | n o.C n C o.| M n o.n C M | o.n n C n n o.C n | n n k C n n n n k n n C M | n o.o.n n o.n C C n n n C n n n n n n n k n n n k o.C n n C C n n C n C o.C o.C C n o.C n C n | n n n n n n n n o.k n n n k n n k C n n n C o.+.%.0.w.Z.D.H.A.w.h.0.@.o.C k n n o.n n | C C n n M k o.C n n n n n C n n k n n n n n k o.n n C n n n n k n k o.C o.C n n | n C C n n n o.n C n k n n C n n C n o.n C n n n n n n o.k n o.o.Z &.0.M.oX6XaXiX>XI.z.0.+.n | C | o.n | | C | C C C n n o.C  .| o.C C | o.o.n C C C C C C o.n C C C C C C C C C C C Z | N C N C C C m C C C Z o.| C C C C C C C o.C C C n m C | o.n o.C C o.n | n o.C C C O.n C | C C o.| | o.o.C n C n o.| o.C | O.| C | o.| o.n C | C C o.| C o.C o.n C n C C C o.n C n C n n n n C k o.n | n k o.o.&..XZXSX1Xz.+.Z o.k C C o.n | k n C n n C n o.C | n C C C n n C | k k o.n n n C C | C k n C n k k o.n o.n | n M o.n [ ",
"x n | M C n n k C | n n n C n k n n n n o.n C C n n n C n k n n n n n C o.k C o.C n C o.&.q.D.R.7XBXJXFXcX1XT.S.;.%.o.C C o.k n k C n n M n | n k C C n k n | n C C n n C n n n k n n n n C C n k n | n n n o.k C k n | n n C n n C o.k n n n n C n C n o.k n n n n o.C n n n o.n n o.k n n n C o.n n n n C C C C n o.C n n n C k n n n n n C n n C C n o.n n o.n n C C n C k n C n k o.o.n | M n n C o.n n o.n n n C n C n o.n n n k n | n n n o.k n k n | n C k o.k n n n C o.k n C n n n o.k o.C n C C n o.C n n | n n n n n n C n o.k n C n n C n C o.n o.n o.n C n | n n n C o.k n n C n C C n k n n n C n C o.k M | n n n C o.C n C n n C n C n C n C n n C C O.@.0.c.H.T.T.T.L.L.S.0.0.@.+.o.| n C | n o.n n n o.| n C n n C o.n k o.C n n n n o.n C n C C n n C o.k n C n | k o.C n n C k n k C o.n n n n n C o.C n n n n n n k k o.C n o.n n C C k C | N C $.0.v.{.<XuX6XOXU.0.%.+.m o.C o.n o.Z C C o.n C | o.C C C C C n C C n O.n o.C | o.n | o.n o.n C n C C n C n C n n C C C C  .N C C C C n C n n o.C C C | Z | n o.m C C o.o.C C n C | | o.n C C C C o.o.o.O.o.C o.n C n C C n | C o.| o.n C n C C n C C C C C | Z C o.n C n C m o.C n | o.o.n C C m C C C n o.n C n n n n | o.o.k C o.%.k.7X6XU.;.M M o.C N n n n k o.k o.C n C n k o.k n n k o.k n n C o.n n C n k o.n n n n n n C o.n n n n n n | N o.n [ ",
"M n n C C n | n n n o.n | k n n n n C n n n k n o.n k o.k C C n C n n C n n k o.| n N C +.0.c.T.%X9XlXlX7XW.L.w.9.o.C C C C n n o.C C n n n n n n n k o.C n n n n C o.k n n n n o.C C n o.C n n | C n C n C n n n n k n n n n C n n n n o.n k o.o.C n n n C C k C o.k n k n | n n o.C n n n k o.n n C C k n k C k n C n n n C k n k C n n C C o.n n n n k n C n C n n C n C n C n | C o.n | n n C N n | o.o.n n k C C k n n | n o.n n o.C n C n C k o.C o.C n n o.C n o.n C C k n n o.n n o.o.C C n k n n o.C n n C | k o.C n n n n n n n C C n | n o.n n n | n C n n n C o.n n n n C C k n k C n n n k n o.n n o.n | M n n C o.k o.n n n C n n n n n n n C n C M Z &.0.q.L.W.&X2X7X1X$XL.S.0.%.+.C C n | n n n k | k C n o.C o.n n C o.o.k C n | k C n n n C n n n o.n C C n n C n C o.o.n o.n o.k n o.n k o.k o.C C n n | o.C C o.n C C n C o.n n n n C k n o.C k %.&.0.I..X&X.XE.c.0.&.O.C o.n o.C C C Z | C C C n C C C C C C C C C C o.n C n C C C n C C N C C C C n C n C C Z C m C N C C n C C C C C C C C n C n C C C n o.o.o.n o.Z | n n | o.C C n n C C Z o.%.;.&.&.O.$.C o.C  .C n o.n C | o.| o.| o.o.| o.| o.o.| C C | C m o.o.C C n Z n C | n C n C C C n C C n C n n n n k o.o.k N o.n n o.%.w.0.9.o.o.C N C C C C n n n | M n n n n o.C n n o.n k o.k C C n n C o.k n | n n n n n C n o.n k o.o.n n o.N | n [ ",
"n o.n C N n o.k n C n n k o.C n | k C o.o.C o.n n n | n C C n n n n k o.n C n n n n C o.o.8.0.A.T..X&XoXW.L.w.0.%.+.C N N C o.o.n n n C n o.n o.n o.o.k n C o.n n n C n n o.n n C C n k n n n n n N n n n n o.n o.C o.n n C n C n C n C n n o.k k n n C n n C C n k o.n o.| M n C C C o.C n n C n o.C C n n n C o.n n C n C C C n C C o.n n n k n C C n o.C C n n n k o.n n n C C n N k C n n n M n n n n N C C o.C C +.n C n n n n n n o.k n n n n C n k o.C n n n n n n C n n C o.n n n n n n n C o.| n n n C n n n n C n n C o.n n o.C C C o.k n n n C C n N n C C n n n n n n o.C C n n n C n C C o.n C n n n n n | n C n n n n | n C o.n C o.n n o.C o.n C C o.%.0.w.T.&XeXNXBXzX3X$XA.c.&.+.+.N n n C n C o.n n C n n n k C C n k C n n n k o.o.k C n k n n o.n n k C n C n n C k C n n n C o.n n n n C o.n n k n o.k k n n k n n n n C k k n n o.C C n C n o.+.&.8.0.v.M.J.z.0.%.+.C n C C n C C C n n o.C | o.| n o.C C m C C C n C n Z C o.Z n C C C C n C n C C C C C C n C C C C n Z o.n C n C n | N Z C C o.C m C o.o.n n o.| C | o.o.n C o.n o.o.O.@.0.0.0.q.0.0.;.&.o.o.n C o.o.o.o.C C n C n C n n C | o.C n O.C C C C C C C | n n C C C C B C C m N C C n n n n C n C n n C n n C C C n o.o.+.+.o.o.k o.C n k n n n C C n n | n n C k n C n n n | n C C n n n n C o.k n n n o.C n n n n n n n n C n n N | | [ ",
"n n n N C o.o.n n n o.k o.n | n k o.n n n n n C k n n n n C C n C C k | n n k C n n N n o.&.&.0.e.H.K.K.S.w.0.%.%.C n C n n | k C C n o.k C n n n n n C n n o.n C n C n | M o.C C C n n k n | k o.C | n k n C C n n n C k o.k o.n C n n n C C n o.C M | o.n n n C n o.n C n o.n k n | k n n n C n n n n | | n o.C n k o.C n k o.n | n n C n n n n C n n n C n n n C k n | C n n n n k o.n n n o.C N C Z Z Z Z o.C n n n o.C n C | n C C n n o.k o.n n n n k n n C C n n C o.| n n k n n n k n n n k | M n n k o.k n C C C n n k C n n n k | n k o.C C n n n o.C n n n C n k o.n n n n n | | n o.o.k n C n n n n n n k o.C n n C n C M | n k n n k n n n | k o.n C +.%.q.S.W.rXcXJXJXFXsX1XL.w.9.+.o.C n n C n n C k o.n n n n n n n n n n C C n o.n n n n n o.C n n n C n k o.C n n k o.C k n n N n C C n n n C n n n o.k C n n n C C n n n k o.o.n o.n n n n n n C o.%.%.%.&.8.h.&.$.%.o.C N | C C C C C n C n n C C n C C C C C C N o.C C | C C N C n n n C m C C | n C C o.n n C n n o.n | C Z n o.N C n C C n C C n C C C C n C C C C C C C n | C o.o.C Z ..;.q.Z.S.H.A.A.c.0.&.$.n n o.O.n | C | C C C C o.o.o.n n C | n n C n C C n C n Z C C N | C C C C o.C n n o.n C n o.C C n C C n n n n C C n N n n C n C C C n n o.n k k C | k C k n C n n k | n o.n n C n C k o.C C n k n o.n n n k n C C n C | k n | o.M o.| t.",
"M n | C N k | n C n C n C N C n k C n o.n n n C o.C o.n C o.k n o.k o.n C n o.o.C n n n C +.&.&.0.q.q.q.0.0.%.+.#.k n C o.n n n n n n k n C o.n n C n n C n n n k n o.k n | k n n n C n C C C o.k o.k n o.C n n n n n C n C o.k k o.C n n n n C k n | n n n o.n C n n n n C n n n n k o.k C n n n o.n n n M | k n C n n C n | n k n n n o.n C n k o.C n C o.k | n C o.n k o.C n o.k | n n n N C +.+.%.&.&.%.%.+.+.C o.N k n n n k n k C C n C | n n n C n n o.n n n n o.C k o.k n n o.C o.C n o.C o.n n n o.n n o.C n n n n C o.n n C C n n k o.C k n C o.k k o.C n k o.n C C C n o.n n n M | k C n n n C o.k C k C n C o.k n n C o.k n n n C C o.| M | n n n N C +.;.w.H.W.rXVXIXUXJXzX2XL.w.h.%.C C C k o.C n C C n n n o.C n n o.n C n n C o.C C C n C C n n n C n n n | k o.o.k | n n n o.n n | n n o.C n n o.n n n o.C n C n n n C o.k | n C n n n | n o.n n C C o.O.&.+.&.&.&.+.+.o.N n N C n C m C C C C o.n Z o.n C m C C C C m N n C C C m C C C C C C n C B C C n n o.C C C C n N C C C C n C Z n C C N C N C Z N N C C n C n n C n C o.n o.C | o.o.&.;.Z.K..X&X%X$XL.w.&.&.+.o.n n o.C C Z C | C C n n C C C C C n o.C C n C C C C C n C C C n C n C C n n C n n C n k n n C n n n o.C n n o.o.C C C C C n n n n n n C o.C n C o.C C k o.C n o.n n n o.n n n n n C n C n C C C n C n o.C n n n n C o.N | n N n n [ ",
"k n n N C n | C o.C n n n n C o.C C n n n n k n k C n o.n n n n o.C C n o.k C n C k n n o.o.o.&.&.&.+.&.%.&.O.o.o.C k o.| n C C o.k C n n k o.k C n n C C C o.n o.n o.n C n n n C C n o.C n n n C n n n n n n C o.n o.n k n n n C n k n o.n | k n n n n C n k n n n n n n o.n k n n | n o.n C n k o.C o.n C n n n n o.n n n n n o.C C n C C n n n C n n n o.C n o.C C C n n C C C C n n n n n o.o.;.0.0.q.Z.Z.0.#.Z N n n n k o.o.k n C n n n n n n C C k n n C n n n n n n n k n C n o.k o.| n n n n C n C n n | n k C n C n C k o.C o.C n n C C n n C C k n k o.k C n n k o.k k o.C o.n C n n n C n o.n n C n o.C o.n n n n | n n n o.n n C n C n o.C n n k o.C @.%.z.S.Q.2XbXJXJXAXeX&XT.H.;.%.o.C C C n n n n n C n k o.C n n o.n n n n | k C n n C n n n n C n n C | n n n C n n C o.C n n n C o.k n | k o.o.C n n n n o.k C o.n n o.C C n o.k C n M k o.C C n n n Z o.o.o.o.o.o.n k C C C C n o.n C n C C C C N n N C C C C n o.n n C C C C C C C C m C n C n | C n C C n n n n n n n n o.C C C C | N C C o.n C C C C C  .C n n Z C  .C C | C o.C C o.O.&.q.L.&X0XzXzX9X$XH.0.&.#.o.| n o.o.n o.| n o.n C C C n C C n C C n C C | N C C C C n C C n C C C k n n C n o.n n C n n o.n | n o.o.o.n n n n n n n n n n o.k o.n n n n C n o.n C C n n C k C n C k o.C n k | n o.n o.C n n n k n C o.k | n n n | C n n N o.n a.",
"k n | C N n | n k n n C | C n k C n n C n C o.C n C C n n C o.k n n k n C n n n C C k | n n k #.o.o.A +.O.o.o.C n n n k k N n o.C n n n n | C o.n n k o.C n n n C n n n n C n o.k n n n n n | k n n n o.k C n n n n C C C C n | n C o.n n n C o.n o.o.n n C o.n n o.o.n n n C C k C n N C n C n n n n n C o.k n C n n n C n o.n k o.C n C k n C n o.k C n k n C k o.n n | k C n n C n n n C C O.;.q.A.H.H.L.H.0.9.%.+.C n n o.k C o.C o.C n C n o.k n o.o.n C o.n o.n C n C C o.n C n k o.k n n n C n n C o.n C k n n C k o.n n n | n k n n C o.C n n n C n n | C n n n | n C o.n n n n C o.k n n n n C n n o.k n n n n o.n N C o.k n n C C C k o.k k n n o.| n C o.&.0.c.U.&X0XzXvXlX7XR.Z.c.;.%.o.k C C o.n n C n C n n n n C n n C C n k k o.n n C o.n o.k | n n k o.k n C C n C n n k n C n n n C n n n k C k n C n C C C o.n n n n n n k n C n n C | n C n C C n n C C C | C n o.C C C C C o.o.n o.n o.n Z C o.n o.n C n C o.o.n o.o.| C m n o.n C C C C C C B C C C C N n o.C n n n o.n n n C m C C C n C n C n C C m C N C o.n C C N C C o.n Z | C o.O.9.w.U.3XBXKXGXcX&XL.0.&.o.O.n o.n n o.n C o.C o.| Z | o.n n o.n C C C B n Z C C m C C m C C n C n o.C n C n n | n n n | k k n n n n k | n n n n n n C o.C C n n o.C n n n n n n n n n C o.C C n n n n n C o.n n n n k C n C n o.C C k o.n o.n C o.n n o.x | n [ ",
"C C n C N n k o.C n n C C n n n C o.n C n n k o.n n n n n C C n n n n o.n C C n C n o.C n n C n n C k o.n n n n C n n n o.C o.k n C n C k n C n C n o.k k n o.n n o.k o.k o.| n n n n n n N o.C o.C n n o.C n | k o.k n n C n n n C C n n n n k n n C n n n n C n | n n o.n C n o.C o.C | n n n o.n o.k n n n C C C | k o.C C n n n n n C n n n C n n n o.k n C n k k C n n k n n o.o.n C C Z %.0.D.U.oX1X&XW.L.w.%.+.Z n | n C n n C k n o.C n C o.n n n | M k | k C n n C n n C n n n C C k n n o.o.n n k n n o.k n C n n C n | M o.n n o.n k n C C n n o.n n n n n C n n C n o.n o.k n n n C C k o.n o.n | n C k o.C n | k o.C n n n C n | C C C n n n o.C | k +.+.0.c.S.T.%X1X1X&X$XL.e.0.&.%.M C n k n n o.n C n n C n C o.k n C k C C n n n n n k | n o.k o.C C n o.C C n n C k o.C n n n k o.n n C n C C C n n n n n n k k C o.n o.n n o.n C k o.C n n n | n C C C C C n n n n n n n n C n o.C n o.n o.n C m o.n o.| C | n o.o.n C C o.C C n O.n C C C C C C n o.| C | o.| C | C n o.o.| C C C C C C | C | Z o.n C C C C C n | C C C n o.n o.o.C C O.O.0.H.W.0XAXIXKXBX*XJ.z.&.o.C n o.C o.n o.| | C n C n | n o.o.n o.n | C C | | | C C n C C C C o.o.n o.C k o.o.n M | n C n n o.C o.n n k k +.o.N N C C C C C C k k n n o.o.n n o.o.n n k n k n C C n n C n C C n n n o.k n n C n k n n n n n o.n k n N | C k o.n [ ",
"N C n C C C n C n n C o.k n C n n k n n C C o.k n | n o.n n n C o.n n n n n n C k n C C n n C N C | | | | C C n n n C C n n k | n n n C o.n C n C o.k n | n n n n n n C n | M n n o.| n n O.@.C k n o.C n n N C o.k | n o.n n o.n n n n C C C C C n n C o.k | n k M | n n n n n C n k o.k n n o.n n C n n C n C n k C o.k n n n C C o.k o.k | n o.n C n C n n n | n n C C n C C n n n n C Z o.0.w.L.&XlXNXzX0XU.H.0.&.o.o.n | C C n n n n k n C n n n n n n | n C o.o.k n n n C o.k n C n n C C C n n n n C n C C o.n o.n o.n n n n n n n n n n C o.k n n n o.n n o.C o.k n C n n n C n n C n C n n C n n n M | n n C n n n o.k n C n o.k n k o.n n n C n k n | n A Z +.w.Z.A.K.T.T.T.H.S.q.8.%.#.M C o.n n n n C o.k n n n C k o.| n n C n o.n n o.n C n N C o.k n n n C n o.k n n n C n n C C n C C n n n C n n n C C o.k | n n C C n n n n n n n n n n n C o.n n N C N N N n n n C C n | n | o.| | o.| o.| o.C C | o.n o.| o.o.| n o.| | o.C o.| n C C C | C C | o.n C C C n C C o.n o.C C C | o.n o.o.m o.n C C | o.C C | C | o.o.n C | o.n C C o.C C O.@.&.D.T.7XvXFXFXzX&XH.k.&.o.o.n O.C | C C C o.n o.o.| o.o.o.| o.| o.C C C C C C C | o.C o.C C C | o.n o.| o.n | o.n C o.k C n n k C C o.n n n C C n C N k C N C n C n n n n n n n n C o.n n C o.k n n C n C C k C n C n n C n C o.n n C k C C n n o.C n C M | n [ ",
"n n | C o.C C n n k n n o.n | M n k o.C n n n n k n C n n C n n n o.C n o.C n n C n k o.C n n n n n | C n C n k o.C n n n n o.n n n n n k o.C n n k C n C C n n n n k n C n | o.n | o.M +.o.d.r.C C N Z o.| k C C C n C n o.C n n n C C n n o.n n o.C C k o.k N o.C o.n n o.n n k o.C n n k o.n n C k n n k o.C n n n o.n o.n n C C C n | k o.C n n n C n n n n C C n n n n k o.C N C n | o.+.0.A.$X0XCXPXJXcX&XH.0.&.o.o.k N C k n C n n k C n C o.n n C n C C n k o.C n n n C n n | o.k o.C n n n k o.k o.C n n o.o.C N n C n n C n o.C n n n C k n n o.C n n n C C k n k o.k k o.C n n C C n n k C n n n n C n n C o.n C C n o.n n n n C o.k | n o.k n o.n | | C o.+.%.0.w.z.c.H.c.w.0.9.&.C Z C C n n C n n n | n n n n k o.C n n o.C n n n k n C n n n o.C C C n C n o.C n C C k | k o.k o.C n o.n n n | n k o.n C n n n n n n n n n k C C C n | k o.C n n C k o.C n k o.C C n C n n C n o.n o.n C C n C C C | C C n O.n n n C C C | C n C C C n o.| C n o.| C C o.| C | C C | C C C C C C C | C C o.| C | C C o.o.n o.| C n o.| Z | C o.n o.C Z | C O.o.&.q.D.W.7XtXtX1XT.H.0.&.o.C | C C C C n C C C Z | C | C C | C C o.| C n o.C o.n o.| C o.o.n o.o.| o.C n | n | n n | k o.C n n C n n n n k n n o.C C C n n C k o.C C n n o.C n n n o.n n o.n C n C n o.C n n n k n n C C k n n n n n k o.C n n | k C n o.N | n t.",
"n N n N k n C n C o.n n n n n | n n C n n C C n o.C n n C o.n C n k n C k o.C n k n n n n C n o.C n k o.n n n n C n n C n n n n o.n n o.| n n C C o.o.k n n o.k C n o.C C n n n n o.C x N 8.{.d.o.o.M N | n k o.n n n C n k C n C o.n n o.k n n n n n k | n o.C k n n n n n C C n | n C C o.n n n o.o.n n n C n n C n n n n C n n n k n k o.k n C n n n o.n n o.k C C C C n N C C k C n M o.@.0.H..XsXFXIXKXcX&XJ.0.&.| o.k C C o.n n n n C C n n k n C n n n C C C k n C n n n k C n k C C n n C n n C n n n C n n k o.n | k n n C n k o.n n o.C C k | k n n C n n C C n | C o.n n n C n n C k n C C n C C n o.n C n k n n n C n n C C n n C n C N C o.n n n n | n +.#.&.&.&.0.0.0.0.0.%.+.o.C C C n n C o.n C o.k C n C n n C n n | k n C C n o.C C n n n n n n k n C n k C n n o.n n n C n n n n n n n o.M | n C n n n o.o.n C n o.n C o.n n k n k o.k n C n n n n n | n k o.C n n n k o.n o.o.C o.| | o.| C n o.o.C o.n | o.o.| o.m o.n o.| o.n C C C C C | C C C n C C o.n n o.n C | o.| C n o.n C n C C C n C n C o.n o.n C | C C o.n n C | C n o.C O.o.+.0.S.H.Q..XW.U.K.z.;.+.O.C n o.C C | o.| n o.C C n o.| C C C C n C C C | C | o.n n C n C o.n n C o.o.o.n o.k o.n k o.C n C n n n n C C o.n o.n n n k n C n n C n n n n k n C C n n n n n C o.n n n k n C C n o.C n n o.n n o.M | C o.C n C n n n C C o.k | | a.",
"M C | k n n n C n n C o.C o.k o.n C n n n o.C n n n k o.n k n n n n n C | k C C o.n C C n n n n C n k n k n C C o.n n k n o.n C n n n n C n n C n n C n n n C n o.C n C n k o.C N C N x +.w.>XI.@.| n m C o.C n C n k n C n n n n k n C C n n n o.k n n n n n n o.n C C o.k C k | M o.n n n n n n | n n n C n n n C n n n n C C n o.o.n o.C n n n n k o.C n n n n | k o.o.n C C k n o.n o.+.o.&.Z.Q.7XvXFXZX0X&XS.0.&.n C C k o.C n C C | n n o.C n C n n C C k C C n n n o.o.n o.C n o.n n n C n n C n n C k n n n n k n n o.C C n n n n n o.n n n o.k C n N C o.n n n n n n C C n k n o.n | C | k n o.n n n k o.n n n n k k o.n n C n C n n n n n | k n n n o.C n | o.o.O.&.&.%.%.%.%.+.o.o.C o.n C n n k n n C n n C n n C n n C n n n C n n n n n n n o.n C n k o.C o.k n n n n n n k n C C n C | k n n n n C k o.C n n n C C n k n n n n o.C n o.C n n C n n n C n k n n n n o.C C k | n o.| C C C C n o.C n C n o.C o.o.n C C o.C n o.C | | Z | C | o.C o.| C n C n C C o.o.| o.| o.n o.k o.n o.| C C C C o.C C C | o.| C n o.o.n | C | o.o.n o.n C o.o.o.8.q.Z.q.S.S.c.q.;.o.o.o.C C O.n C C n | o.| C | C | C C C C | Z n o.C Z n o.| o.o.C C o.| o.o.| o.k o.| o.| n n o.k n n C n k C n C n C n n n C n k o.C k n n n n C n C n n k n o.k n | n k n C o.k n C o.C M | o.n n n C n | n | k C C n o.C n N | C N | | a.",
"n C C C N C | n C n n n n k n C C o.k C | k n C C C n C n C n C n o.n n n n k C C n n n o.n n o.n C o.n o.C n n n n C o.n C n o.o.k C o.n n C o.C n n n n n o.n k | n n n n C N x n C C 8.m.6X|.&.#.n n v o.M o.n n o.C n C o.k n C n C n C n o.C o.k | o.n n o.C n n n k | n n n n n n n C o.n k M | n C o.k C k o.n o.| n k C n n n n C n n C C C n C o.k n o.n n o.k n n C N n n n n k o.o.;.Z.F.%X7XtX0XoXT.c.0.&.C o.N n n n C o.k o.k n n C n o.k n n o.k n n n C C n n n n n n n n C k o.n o.n n n C o.n n o.n | k n C n o.k n C n n n n n C C o.n | n o.n n o.n k C n n n C o.n n n k o.k o.n n n o.n C n n C n C o.n n k | o.k n n C n k n n n n o.N C N n n k C o.o.o.o.+.o.o.o.n n C n n n n n C n C n C k o.o.n C n C o.k C k o.C n k n o.n n C n n | n k o.C n n C n n o.C o.C n n n n C o.k C o.n n n C n n k C C n C o.n n o.n n n n n C C n n C | n o.n C C C o.n k n n o.n n n o.n C | C C | C o.| o.n C C | C C | o.n o.C C o.C C C | C n o.n o.n o.o.o.| o.n n Z C C n o.o.o.n o.C C | o.n | | C | C C n C C o.n o.C C C C C o.C | o.C C o.n O.&.:.;.q.q.0.&.+.o.o.Z o.| o.| C | o.Z n o.n o.C o.n C | o.n C o.n o.| C C C n | C m o.n n C n | n n n o.n o.n C n n C n C C o.n n n n n C n n n | k o.o.n n C C o.k o.C n o.C C n | M n C n n C | n n k n | n n n o.n n C o.k n n k n n k n o.n n | N | n p.",
"x C | C M n o.C n n n n n n C n C n n n n C C n n n n n o.n o.C | k o.C n n n n C n n n C n n n k o.C n n o.n C n n | k o.C n k n n | n k o.n k n n n n o.n o.n k o.C n C n o.k n | +.O.0.E.nX;Xk.#.+.N C C N n k n n n n n | k | n k o.n C C n C n C n n k n n n n C o.o.C n n C n n n k C n n o.C k o.C n n n n C o.k n n | k n C n C n o.C n n n C n n n n n | n o.n n o.n n n C n n N C o.&.q.Z.A.T.W.W.T.S.0.&.+.| k o.C n n n k o.n C n n n n n n n o.n | n o.n n C n o.n n n n n C n n n n o.o.C k n n C n n n C o.C n n k o.C | n n n n C n k o.C n o.k n n o.n o.n C n n n C C n n o.n o.C n n n n k n o.n n o.n C n C o.C N n o.k o.n o.C n n C n n C N C k n C C C C o.n n n | n o.n n k n n n | C n | M n n n k o.k C n C n C n n n o.k n n o.n C n k n n n n n n o.C n n n | n o.n k o.n C n n n o.C o.n C | k o.C C N n C C n n n n k C n C n k o.k o.n n k o.n n n n n n C n n o.| C C o.o.C o.n | C C C n o.C C o.n o.| C Z o.n C | o.n C | C C k o.o.| C C o.n n n n C n n n | o.| n o.| C n o.n o.C | C o.n o.o.n o.| n o.n O.n o.| C C C o.n o.C +.&.#.+.o.+.o.Z C C C o.o.n C C | C o.n C | C n | C C C | C | C n o.| C n o.N C C o.C C n | n | n o.o.n | o.n C n C n n | k k o.n C n n o.C o.k C n C n n C C k n k n C n C n k n n n o.o.C n C n n k o.n n k | n o.n C n n n o.n o.n n n C C n n N | | a.",
"n n n N C n k n k C n C C n k n o.k C n n n n n o.k n o.C n k o.k o.k n n C o.n n n C C C k k | n | n C n n n n o.n n n C k n C o.n M | n C n C k C n C n n C n n n n C n C C o.n o.%.%.e.;XCX5XM.;.%.M N o.C | o.n C C C n C o.n n o.k n n n n C n n n C o.C n n C n k C n n C n n o.n C | n o.C n n n n C C n n n C n M | C o.n C n n n n n n k | n C n C n C k n n n n n | n C o.n C C C Z C +.0.q.w.e.S.q.0.%.%.o.n n n n C C n n C n C n o.n o.o.n n n n n C n n o.k n n n C n o.n n n C C n n n n o.n C o.C C n C C n n C o.k N n C n C C k n n n n C k | o.n n n C n C n C o.n n o.n n n C n n C n C o.C n n C C n C n | k o.n | k | C C C n n C n n k o.n C o.n N C n n n n o.n C n n n C o.C n o.k o.k n | n o.n n C o.o.k n n n n C C C o.n n n n o.k o.n C C C n n n o.k C n C n n n n C C o.o.k n n n k n n k o.C n o.k | n n n C C C o.o.k C n n n n C C n n C n n | n o.n n C n C C C C n n C | C Z C C | C | C  .n o.n C C | n C n o.n o.n o.C n n | C N n n n C o.n C o.k n n o.C C C C C C o.n o.C C o.o.n C | C C n o.o.n o.| o.n o.n C  .n o.o.C C o.C C N C o.n C o.C n O.o.C | C C n o.C o.| o.o.n  .C C C o.n C C C C o.n n C n k n n n C C C o.n n o.n n n n n C o.n n n n C C o.n C k n C n n | n C n n C n n | n n n | C o.n o.n n k o.n n C n n C o.n o.n n n k o.n C n n n n C C n | N | o.n | | a.",
"M C n C C n | n o.C C n | n o.C n n o.k o.n C n C o.n n C n n k o.n | n n n o.n n k k o.n n o.k | M o.n n o.C n n o.n k C n n n C n o.n k n C n o.C o.C n | C C C n n n n C n | N %.%.0.Q.9XGXwXQ.A.8.) Z C n n C n n n n n n C k n n o.o.n n | n o.C C n n n C o.n n n C n n k o.C C n C n n n n o.C n n n | C n C C n n n n C k C C n n | n C o.C n o.n C n n o.k n n C N k o.n k n n C C C M o.&.9.9.0.8.9.&.o.+.C k n o.C n n n n C C n n C n | n n o.n n n C k n n C o.| M o.C C n n k n | n k n n n | M k n n k C k | n o.n | n n n n n n o.C n n n n o.n C C o.n C n n n n k C o.n n n C C n n k n n C C o.k k n n n C n k n C n n n C n o.n n n n C n n n | o.n n n C C C n n C n n C n n n n C C n n n k o.n n n n n C n n C n n | n n n n C o.| n k n C n n n k n n | n n C n n n n n C C n k C n n n C n C n o.k n n k o.n o.n n n n n n C n n k o.C k C n n n n C o.M | C k n n n n n C n n n n n o.| o.| C C o.| C o.n o.C C C C o.o.| o.C | o.Z n | M C | n n n n n | C k o.C n n n | C C n o.n o.n o.C n o.n C m o.| C | | C n o.| C | C C n o.| C C N | o.o.Z C n | C C C | n | n o.| o.o.| | n C  .C C C C n C | C n C o.n o.n n | n | n n C C o.o.o.n | n n n n n k n n o.n k C C n k n C n n n n N n o.k o.n n o.o.n C n n n n n n n C k n k C C n n n n o.n k o.n n n C n k o.n o.k n n n n n | n N | k a.",
"n n n C N n | C C n C k C n C n C n C | n n n n n n n n C k n | C N n C C n n n C o.n n C C C o.n n n n n n n n n n C C n C C n k n n n o.C n n C n k o.k n n k n n C C C k n +.@.0.H.Q.2XNXKXSX9X&XL.e.9.%.o.n n C C o.k C n n C C C n n n n n n k n n n C k o.n n C n n n C o.k n n n C n C n n k n C C n k o.n n n n C C C k C n n C o.k n n C n n k k o.C n C o.o.n n C o.k n C n C n n n o.o.o.o.%.+.o.@.o.C C Z C n n n n n o.n n o.k n o.k M | n n n C n n n n C n k n | k n n n C o.n n o.C n o.n n | n k n n C o.n n n n n o.n n o.C n C n n C C n n n n k n n n C o.k n C n k | n n n n n C o.C n n o.k | n n C n n n o.n C n k C C n n n n o.n C | n k n n n C n o.N C n n n C k n n C n k o.n C C n n C n n o.C n n C n n C o.k C C C n n n M | o.C n C C C C C o.k C n n C o.k o.n n n n n n C n o.n n n n C n n C | n n n n C C n C n n n n | C n C C n C C n n n k n C o.n n o.n n C | n o.n n C C n C C C n C C | C | C | C n | k n n | n n | n n n k n n n n n n n n n C n n o.| n n | | n | C C | C C | C o.o.n C C o.n C o.n C C C C C C | | C N Z o.o.| C C o.o.| o.n C n o.C C C n C C Z C C C C C C C o.| C C o.| n o.| n n n n n o.n n C o.k | | n o.C n C n o.C n n C C n n n | k o.n C n C C o.k | n n n n n n C n n n C n C n C C n | k C n C C n n n N C n o.n n C o.n n C n n C C n C n C M | | t.",
"n o.n o.n C o.o.o.n | C C o.| C C n o.C C | C C C C C C C C n C C C n C C C n C o.n o.| C | C C C C n C C O.| C o.m C | C C n C C | C C o.o.| o.C o.n o.| C n | o.o.o.n n O.3.m.Q.oX2XwXNXKXUXIXCXxX2X;XE.m.k.@.o.n n o.o.o.o.| C n o.C C C C Z C C | Z n o.C C o.o.| k C C C C C o.o.C | C Z n C C n C n o.C C o.o.C C C C C n o.| C n o.| C C | C | o.o.n o.C C C | C C n O.o.n C C C C C C | C C o.n o.| C n | C C o.| C C C o.o.C n o.C C | o.| C n o.| C C o.k o.o.o.| C m o.C | C C Z | o.o.n Z C C | C | o.o.C n o.C C o.n o.| o.n o.o.| o.n C | C C n C o.o.o.o.| C Z C n C C C C n o.C o.C n o.| C n o.C C n o.| C | C o.o.n o.| C | C n o.n C n o.n o.o.C o.n | C C o.| C C | o.| C C o.n C C C C C C o.o.C n o.C C | C C | C m o.C m C C o.n | o.C C o.| C C C C | C n C C C o.| C n | o.n o.C C o.n o.o.n o.| o.| C C C C C Z | o.| | o.C C C | C C o.| n C o.n C | o.o.C C C | C C | C C n o.| | C C | C C C | C | | C | o.| o.n o.o.o.C C C | C C C | C n o.| Z | C | | o.C | C C C | C C Z C C C n o.| C C o.| C n o.n C C n C C C C C C C C n o.o.n o.n C C n C n o.| C C C C C o.n o.C C n | C o.C o.n C C n C n C C C | o.C C o.o.C C C | C C | C C n o.n o.| C | C | C C C C n C C C | o.C | o.| C C n C C o.C Z | | C C n o.n o.| o.| o.| o.C C C C n C o.n o.| o.o.n o.| C C Z | C C C o.| n | o.C o.| p.",
"n o.| C C | o.n n o.C C C n C C C C | C C C | C C C | C C | o.| C | o.C C | o.C n o.n C C C C C C | o.| | n o.n o.C C o.o.| o.C C o.n C n n C n o.n C C C C o.o.n n n o.@.y.B._.;X<XsXMXSXIXLXIXGXZXxXqX>X X^.y.@.C C o.n n o.C | Z | C C | C | C C | C o.o.n C o.n o.o.| o.| C C m o.n o.n | C Z | o.C o.o.n C C | | o.| C | o.n C C C C C | o.C C C n | o.n C C C C C C C | n o.| C | | o.Z | o.n C C n o.| o.o.n C n C C C | o.n C C | C C C n C C C C C | o.o.| n o.n C C C o.C C C C | C n | C | C C o.n o.o.o.C C | C o.n C C C C o.n n C | C C o.C | o.C | k o.n C C | C o.| C | C C | C o.n C | C C C | C | O.n o.n o.n o.n C C C C C C o.C o.| C | C | o.o.n o.| Z C n C C C C n C C C n o.C | n C | C o.n C C | C C C C | C C C o.C C n C | C C n C | n o.n C C | C C o.| n o.n C C C C n o.C | C | C C | o.n C n C C | o.| C n C n C C n C C C C C | n n O.| | C C o.o.o.| o.n o.n o.o.n Z | C C o.n C C C | C o.n o.C C C n C n o.C o.o.| o.n o.| C | Z C C C C C C n Z C n C o.n C C o.n C | C | C C | C C C n C C o.C o.| | o.| C C C  .C n | o.n | C | o.C | o.| C | o.n C | o.n | n | C | o.o.n n C | o.C | o.C o.| Z | C n C | o.n | o.n o.n C o.n C o.| o.n C C o.n Z n C | C o.| Z | C n C o.C C C | o.| o.n C C n o.| C o.C o.C C n C n C n C C | C o.C | o.n C n C o.n o.n C | C | o.n n o.o.n o.C o.n p.",
"n o.| o.C C | C o.C n C | o.| C C | o.n C n o.C m o.o.| m o.n o.| C | C O.n | C o.C C C | C n o.n o.C  .C o.| C C C C n n o.| C C n o.| o.n n o.n C n C o.n n o.o.o.n n n o.@.&.k.m.Q.;XtXZXIXHXxX1XQ.C.k.9.%.@.C n C n n o.o.n | C | o.C o.| C n o.| C | C o.| C C o.n C n C C o.n | C C C o.n | C | C n o.C  .C | C n n o.C C o.| o.o.C Z | n C Z C C C C o.| C C C n | C | o.C C C C C n o.n | C C | C | C C | C n o.| Z | o.| o.o.| C C C n o.| o.C C C C n C C o.n C C C | C C n o.C C n C C C C | C n o.n n C C | | o.n o.| C | Z | n o.C C C C n o.n | C | C n o.| C C C C C C C | C | o.| o.n o.o.n C C C C n C | C | C n C C C | C n o.| C C o.C o.| Z C | o.| C C C C Z C C n C C C | o.| n o.o.| | C n C n C C C C n n o.| o.C | C | o.| | C C o.n o.C | o.| n o.C C o.n o.n C C Z C n o.C C C C Z | C | C o.| C n o.C n C C o.C C C C C C  .C n n o.o.| n o.C C C n n o.| n o.n o.n C C C C C o.n C C n n o.C n o.n C C Z | C n | C n o.| n C C C C C C C C C C C | o.| C C o.n o.| C C C | C n o.| Z C n C | Z n o.| C | Z C n o.C n o.o.| o.| C o.C C o.n | C C Z C C C | o.n | C n O.n o.C C | C O.n C n n o.| C | C n o.C C C C n k o.n n C o.o.C C n C C | C | C n | C o.| o.| | C C C C C o.n C C C o.o.n n o.C | o.n C n o.C n o.C C C C n o.n o.o.| | C o.n o.C C C C C | C n o.| o.| C | | n | | M | | [ ",
"| o.| o.Z n O.C | C o.| C n C C C C | C Z | | C C o.n C C o.o.n C C o.n C | C C | C | C C C C | C C C C C n C C o.n C | o.n o.n | O.n C | o.o.C o.| o.| n o.C | n o.o.C n n n | %.8.e.A.&XwXKXNX1XL.c.0.$.+.n n n n C o.o.n C | C C C n C n C C C | o.n o.n n C n C | o.o.o.m C n o.C C | o.n o.C | o.n C | C C n o.C C o.n o.C n o.n n | C C C C | C | o.n n C | C | o.C C C n C | o.n C C | C C C n o.C o.n C o.n o.C C C C n k o.n o.C C | o.n o.n C | C Z | o.C | o.| o.n o. .C C | C | o.| | C C C | o.n o.o.| n o.C n C | o.n C C C C | C n C | o.n o.C C C C C | o.n C | C | o.n o.n C n C C o.n | o.o.n C | o.C C C C C o.| | C C C C | o.n C o.C n C C C o.n C | o.n C | C | o.| C C o.n C | Z C C o.n o.| o.| | C | o.o.n C n n o.C C C C o.n o.n C C C C C C C | Z | | C | o.| C | C C | | o.n C C C n o.C C C C C | C C | C | C | C o.n C C | o.C C C C o.n o.C C C o.n C C | C | o.C | C C o.n o.| | o.o.n | O.n o.n C C C | o.o.n o.n C C C | C C | o.n C | C n o.C C | o.n o.n C C | C C | o.n C | C o.| o.C C | o.n C C C C | C C | n C C C C | | C o.n C C C | C | C Z n o.C C C | o.n C C C C C | | o.n o.C C o.C C C C | | Z o.| o.o.o.| o.n C | o.C n o.C Z | o.C C C C n C C C C | o.n n o.C | C n | C C | C C | C C C | C C | C | o.n o.C C | n C | Z C C | C | C C | C C C C C n C C C o.n o.o.n | | a.",
"n o.| o.o.n o.| n C | o.C | C C C | C | n o.C C n C C C n o.| o.C o.C n C C n C C C C C C O.| n C n o.C | o.C | | o.n o.o.n o.C C | C C C C n C n o.C C o.n o.| n C o.o.O.o.o. .o.+.O.;.H.;XCX5XL.9.%.C n | Z o.C C o.o.| n | C o.| C C C | C C C C C C C C C C o.| n o.| C | C o.| Z | C | C C C o.| C C C n C C | o.n | o.| C C C m C o.n o.o.n C C C C n o.C C C n o.| C C C n o.n o.| C o.| C C n C C C C C C n o.C o.n C | Z C o.n | C n o.C C n C C C C C n o.| C C C o.n C C o.n o.| n o.C n o.| n o.| C | o.C C C o.| C | C C C C C C C o.C o.n n C n C C C C C C n n o.| C C C n o.n o.| O.C C C n o.| C C C o.o.n Z C o.C | o.C o.| C o.| C m n C C C C n n o.n o.| C n o.o.| C C | n o.C C n n o.| C C C n C C n o.| C C C o.C C C C C C C n | C C C C n o.n o.| C C C Z o.| C C o.| C C n o.o.| C | C | C C C o.| C C n o.| C | C C | Z | o.| C C C C o.| C C Z | | o.o.C C C C n o.C C C | o.n C | C | C C n o.| C o.C C | n o.| C n C | o.n C Z | o.| C | | Z | o.C o.n o.C C C C C n o.| C n o.C C | C C n o.| C C C n C n C C | C  .C C | C C o.C | C n n o.| C | o.C C o.n o.| o.| C o.C | C C | C C n C C n C n o.| C C C n C C | C | n C C o.C Z | C C C | Z C o.n o.C C C C | C n o.C n o.C o.n C | C n o.| C n o.C o.n o.n C n | o.o.n o.C C C C Z C C C | | o.| n n C C C o.n o.C | o.n o.C | o.N o.| t.",
"n o.n o.n o.o.o.o.C C n C C m C C C C Z o.n o.| o.| C | C C C C m o.| o.C | o.| Z | C | C n n o.C C | C C n C Z C C o.n n o.| C n o.n C | Z o.| o.n o.| | C C o.| n n | n n n +.o.M +.=.w.oXBX2Xe.8.#.+.o.| k o.o.o.C | n o.n o.n C C C n O.n C C | o.n C C o.C C C o.n C C C C n C C C C C | o.C n C C C C o.| n o.n o.C n C C | o.o.o.| C C m o.| C | C C | C n C C C C C C | n o.| Z C C n o.C | o.| C  .n C | Z | C | C C o.| C | C C C C | C | o.| C | C | o.n o.n C | n o.C C n | C C o.n C C C C C | C C C n C | C n C C o.n C | Z | C | | C n o.+.Z o.| o.n | o.| o.C C Z C C | C | o.| n n C C n o.C C | C m o.| C | C n C C n C n C C n C C C o.o.C C | o.C | C | o.n C | n C n C Z C | C | o.C | C C C | o.C C C C C | o.n o.n C | C | C | o.o.n C | | o.n o.C C C | C | n C n C n C Z | C | n C C C C o.n C C n C C | o.n o.C C C | C C o.n o.n C | C n C C | o.C C C m C | C C C | | o.n o.| C C o.C C | Z C C C C | C C C C C C C o.C C n o.| n C n C C C o.C C n o.n C | C C | C Z | C C | o.| C C o.n C o.n o.n C | o.| o.C C C C C C C o.n C n C Z | o.C C C C C n C | | C C C n C C C Z o.n C C C | o.C C o.| o.n o.n C | o.| C C C o.o.| o.n C | C | C | C C C C o.n | o.| C C C C | | Z | C | C C C C C C C C C | C | C | o.n O.o.n n C | C C | n | | o.n o.C n o.O.o.| o.n n o.| C C n o.| C | o.C |  .p.",
"n o.| o.C n O.o.| C | C n o.o.o.o.| C | | C n o.C | C C C C C C C C C C n o.n o.| n n o.C | o.| | C | o.C o.| C C C | C C C o.C o.n o.| | C C C | C n o.C | C n C o.o.o.o.o.C x n n Z o.+.C.pXOX8.C x N | o.B C n | n n n C o.| o.| o.C o.n o.| C C | C C o.C C C o.n C | C n C o.C C | C | C n n o.n o.C  .o.n o.| C C n C n o.o.n C | C C C C C C C C C | C C o.C C C n C Z C o.n o.C C | C n C | O.n o.n o.| | C C C C C C n o.n C C C C C C n o.| C n o.n o.| o.| C C n o.C n C C O.C C C o.| o.C n C Z C C C C | C | o.| C C C C C | C n o.| o.o.| C o.C C o.n o.n C n o.| | o.| C C o.| Z o.n C | o.n C | C C C C C C o.| o.n C C n C Z | | C n o.n o.C C C n o.o.C o.n C C n o.| o.C C C C C C C n o.| Z n o.| C | o.C o.C n | Z o.| o.| C | C C o.C C C C n o.C n C C o.n n o.| o.C C C n C C C C C C C Z | C | o.n C | o.n | Z C n n o.| o.n o.C C n C | o.| C C n C C C n C C n C C C C n o.n C C C n C C C n C C C o.n C C m n | | o.| C | C n o.o.| C C n C n o.C C n C n o.C o.C C o.C C n o.n C C Z | C | | o.| C n o.n o.| C Z | n C n o.C C C C C C C C | C C C Z | C C n C C m C C C C | C o.| o.n C C C o.C C o.n | C C C n C C m C n | o.n o.n o.| C n o.| C C C | C C n o.C | Z C C C C C C C C | C o.n C | C | C | C C o.n | o.| C C o.C C | C o.| C n o.n C C C n o.n | C C C C C C n C o.C n | N o.| [ ",
"n o.n o.C n | n o.C o.n o.o.n C n C C o.n C C | Z o.n C o.C C C C C | C C | o.n o.o.C C C C C C o.n C n o.n o.n C | o.n C C C C | C C C o.n C | o.n C C C o.n o.| o.n n o.| | o.| $.C C @.f.6XE.@.o.C o.| | O.| o.o.o.o.o.o.n C n o.n C | o.n C C  .C C C C C C n o.o.| C C o.| | C n o.n o.C C o.C C | C C | C C C C | o.C C | n o.C o.n C C | C | o.n C C C C | C  .C o.| | C | C | C n o.C o.C C C C | C C C o.n C | C C | o.n o.| o.n C C  .C C C C C | o.n C n C C C C | C o.| C n | C n o.C n o.o.| o.n C | C Z C C n C C C | C | o.n C C C n C C C C C C n o.| C C o.n o.C n C C C n C C | o.C C | C C C | o.n C | C n C | o.C | o.C C | o.n o.C C | o.o.C C o.n o.n o.| C o.n o.| C | C Z C | C o.n o.C C | o.n C n o.n C C | C C C n C C C | Z n o.n +.C C | C o.| C n o.o.n o.| C | C o.C C | | o.n C | C C C | C C C o.n C C | o.C C C n C | C | o.+.C n C C C C | C | o.C | o.C C | | o.n o.| Z C C | C | o.o.C C o.o.C o.o.O.C C n C C o.n o.C C C C | o.| o.n C | o.C C | C C C C n C | o.n o.C | o.n C C C n C C C | o.n o.C C | o.C C | C | C C n C | C o.n C | C C C | o.C o.o.| o.n C | C n C | o.n o.C C C C | C C C C | o.C o.o.C C C n C | C C C C C | o.n C | o.n C C C C C C C | | o.n C | C Z C | C C C | Z C o.n C C C C n C C C C C C C C C C | o.n o.o.n | o.n o.C C | o.n C | o.C | C | o.C | n a.",
"C o.C C N C C C C C C o.C C C C C N N C C C N o.C k +.C N C C C C C C C C o.C C C C C C N C +.N o.C C C C N o.C C C N C C N C C C C N C C C N +.C C C C N C N C C C k +.n C N C N o.| M Z y.XXN.@.n C N +.C C C C C N C C C C C N C C C C C N C C C C N o.C C C C C N C N C C C C o.N C C N C C C o.C C C C C C C C C M A C M C C C C N +.n C C C C N C N C C C C N C C C N C C C C C C N C C C C C C C C N C C C N N C C C N o.C C N C C C C C C +.N o.C N +.C o.N C C N C C C N C C C C C C C C C C C o.C C C C C o.k o.C C N C C C C N C C C C N C C M C C C k C N C o.N n +.C N C o.k C N C C o.C C C N C C C C C C N C C N N C C C C M N C C +.C C C C M M C C N C C C C C C o.N C C N C C n C C N N C C C C N M +.N o.n C C C C C C C C M +.C C C C C C C C C C C C N C o.C C C C N C C C C C C C C n C C M C C C C N M C C C o.n C +.C C C C C C C C C N C C N C C C C C C C C C C C C C C M C C C C C C C C C C C C C k C C C C C C N C C C C C k +.C C N +.C C C N +.M C C C M C C C C C C C C N C C C C N o.C N C C N C C M +.N C C C C C o.C o.C o.C o.O.o.C o.C C o.o.C C o.C o.+.N C C M C C C N +.C C C o.C C C C C C o.C C C C C C C C o.C C C C C N C N C C C N C C C C N C C C C C C C N C C N C N C C C C C C N o.o.C C C C C C C C C C C C C C C C C N C C C C C C C C C C C C N N C C C C M C o.o.N +.n a.",
"N C C C C C C C C N C N N C C C C o.C C C C C C C N C C C C C C N C C C Z N C k N C C C C C N C C C C C N +.C C C C o.C C C C N o.N C C C C o.N M C C C C C C +.C C n +.C C o.k C o.C C N @.N.k.Z n Z C k C N C C C C C +.M C C C C N C C C C C N C C C k C C C C C C C o.C C M C M +.C C C C C C N N C C C C M C C C C C C C C N C C C +.k M C C C C C C C C C C C C C C C C C C C N C C C C C C N C C C +.C C C o.C C C C C C C C C C M C C N C N k n C C N o.C +.M C C C C C o.C C N N C C N C N C C M C C N C C N +.C C C C N C C C C C C N C C C C C C C C +.C C C k C C N C C C N +.C C C C N o.N +.k C C C N C C o.C C C C C C C C C C C C k C N C C +.C N C o.C C N C o.C N +.C C C C C o.C C o.C C C C C C C C +.N C C C C N o.C N C C N o.C N C C N C C o.N C C C C N C C N C C C C C C C C C N +.o.N C C C C C C C C C C N +.C k C N C C N o.C N C C N C C C Z C +.M C N C C C C C C C A C C N C C C C C M C N C C C C C N C C C C C C C N o.N C C C C k N C C C C o.C N C C C C C C C C C C C C +.N C +.C C C C C +.C C C C o.C C C o.o.C o.Z o.C o.C o.C o.C o.o.Z o.+.o.C +.Z C C o.k C C C C N C C N C M N C C C o.N N C C N C C C N C N C k C C M +.C C C C C o.N C C C C C C N N C C C o.C C C C C C C C N C C C C N +.C N C C C C N o.C N C C C N C C C C +.N C C C N +.k C C C C C C C C C C N | C M o.n a.",
"C o.k C N C C C C C N C C +.C N C C C C C C C N C C C C C o.C M C C C C C +.C C C C o.N C M C C N C C M C C N C N C C C C M o.C C N C C C C C C C C N C C +.N k C C C N +.N C C N +.C o.C Z y.@.k M o.C M +.o.C C C C o.N C C C C +.N C C C C C C C k C C C C C M +.C C C C C C C N C C C C M C N C C C C M M C C C C C C C C C C C C +.n C N C C o.C C C C C +.C C o.n C C N C C C N o.C C C N C C C N C k C C C C C C C C C N C C C C C C C C C C +.n C C C o.C C C C C C C N C C +.C C C C C C C C N C C C C C C C N C C C C k +.C C C o.C C C C C N C C C C C C o.C +.n C C C k C C C C o.C C C C C C C C C C C N C o.M C C C C C C C N +.C C o.C C M C C o.C C C C k +.C N C N C C C C N C N C C N C C C C C C N C C C C C C M N C C C C C C N C C N C C C N C C C C C C C C C N o.C C C N N C C N C C C C o.C o.N C N +.C C C C N C N C C C N o.N C C C C C C C C C C N o.C C C k M C C N C M C C C C V C N C o.N +.C C C N C N C n o.C C C N N +.C C C C C C N C C C C C C C C C C C C C N C C C C N N o.C k C C C N C k C C o.C o.C C C k +.C C o.C C n C o.C C C C C +.k o.C o.n o.o.C o.C C C C C o.C C C C C C C C C C N C C C C C N C C C +.C C N N o.C N C C C C k C C k C C N o.C C C C C C C C C k +.C C C C N C C C C M C C C N C N o.N C C C C C C C C C N N o.C N N +.C C C C C M +.C o.N C C C o.+.C o.| t.",
"N o.o.o.C C +.M +.k o.C C k C C C N k +.C C C C C o.N C C N C C C C C N N N C C C o.k C C C C C C C C C N C C C C +.M C C C C C C C C C C C N C C C C C C N o.C N C C C N C C C C C C o.+.N @.o.o.o.o.C | C C C N C C k o.C N C C M o.C N C o.M o.N +.C C C C N o.N C C N C C C C C C N C C C C C C C C C C o.C C C C N C C C C o.N C k C C o.C C N +.N C C N k k C N +.M C C C C N +.M C C C C C C C C C C N C C N k +.C C C C N C C k C C N +.C C C C N C C k C N N C C C C +.N C M C C C C C C C C C C C N C N C C C C N C C C o.N C C N k +.C C k +.C C M C C N N C C C C o.C +.C C C N N C C C N C C C N C C C +.k C +.N C C C N C C C N o.C N C C C C C M C C C N C C C C C C C M C C C C C C C o.C C M C C C C C C C C M C C o.C C C N C C C C C C C C C C C k +.N C C +.C N +.M C C C +.C C C C C C N C N C C C C C N o.N C C C C C C C C +.k C C C M C C C N o.N C C n C C C C C C C C C C C C C C C M C C C C N o.C N o.C o.C k N +.N C C o.k C C C N C C o.C C C C N C o.N C N o.C N o.C N C C C C C C N C C C C C o.C C C C k C C C o.C C C C C C +.C C C C C C C C C C C C k o.C o.C C C o.C C C C C o.N C C C C N C C C C N C C C C o.N k C C +.C C C C C N C C C o.N +.C k +.C C C C C N C M C C C C N C C C +.k N C C C N C C C C +.k C k +.C N C C N C C C C C C C o.k N o.C N C C N o.C +.M C N o.C N o.| a.",
"N C k C C C +.C +.C C C C o.o.o.n o.o.+.C C C C C C o.C o.o.C C k C C o.o.C C k o.C C o.C C C o.C C k o.o.+.C o.o.C C C C C | +.C o.C C C +.o.C k o.o.C o.+.C C C o.k o.o.k o.o.C C C +.o.n +.o.k C C C C C C C C C C o.k C C o.C o.C C +.C C C +.o.n C C C +.k C C C C k +.o.C +.C o.C o.o.C C o.C C C o.C C C C C C C C C +.C o.C C C C C o.C C k o.C C C o.C +.C C C o.C C o.o.o.C C C C C +.C C k +.C C C C C C o.k C C C C C C C +.C C o.C C C k +.o.C C o.o.o.k o.C C C k o.+.C o.C o.C o.C C C C C k C C C +.C C C C C C k o.+.C C C o.k C C C o.C C C C o.C o.C o.C C o.C C C C C o.k o.C C o.k +.C C C C C +.k C C o.C C C C +.+.o.C C C C C C C C C o.C C C o.C C o.C o.o.C C o.k +.C o.C k o.o.o.C C o.C o.o.C C C C k +.o.C o.C o.C o.k o.C C C k o.C o.C C o.C C k o.k o.+.C C C k o.n k C C o.C C C o.k o.k o.C C C C o.k o.+.o.C o.o.C o.C C C o.C C k C o.C k o.C C C C C o.C C o.n k +.C C C C o.C k o.+.k C C C C C +.o.C o.C C C C o.C C C o.o.C C C C C C C C C o.+.k o.C C C C +.k o.o.o.C +.o.C C C C o.o.o.k C o.+.C C C o.k o.o.o.o.C o.+.o.o.o.C k o.+.C k +.C C C k C C C C +.o.C o.C C C C +.k o.C C C C o.k +.k o.+.C C C C C o.C C C C C C +.C C o.o.C C C C C o.o.o.C C C C +.C C +.o.C C C C o.k C C o.o.o.+.o.C o.C C o.C C +.k C C o.+.o.o.n o.C C C o.C C o.C C C k C C C o.k C o.C M o.| a.",
"n o.+.C C C +.k o.k o.C C C o.k o.+.k k C C C C C C k +.C o.k o.o.C C C o.C o.+.+.k C C C C C +.C | +.C o.k C C o.o.C C C C C k C C C C C k C C o.C o.C C k o.C C C +.C | C +.C C o.C k o.n n o.+.C C C o.C k C o.C C C o.C C C k C C C n o.k o.k o.o.C C o.C o.C o.C C C C n o.n C +.k o.k o.C C C C C C C C o.o.C C C M C C C o.o.C C k C C C o.o.+.k C C C C C C o.C C C k +.k +.o.C C o.k o.C C C C C o.C C o.o.o.o.C C C C o.C C C C C C +.+.k o.C C C C C C C C o.C | C o.o.k C C o.n k o.C C C C o.+.o.+.C o.k o.C o.C C C C C C C o.o.C C C C C C C C C C C k C C C C k C C o.C C C +.C C C C C C o.C C C C | o.C C C C C o.k o.C k C o.C C o.C o.C C C C C C C C C k +.k +.C C C C C o.o.C o.C C C C C C C C k C C +.C o.C C C C +.k C C +.+.k o.C C o.C C C C C o.C C C C o.C C o.C o.o.+.o.C k +.C C C o.o.o.+.C C C C o.o.C C k C C o.k C C o.C C +.C +.o.C o.C n +.o.+.o.C C C C o.o.+.o.o.C C +.C C C o.o.C o.C C C C o.k o.o.C C o.o.C C o.C C C k C C o.C C o.C C C C k +.C C C C C o.o.k o.C C k C C C C C o.k o.C C C o.C o.C C C o.C C o.k C C k o.k C C C C C o.o.C C o.+.o.C C o.k k +.C C C C o.k +.C C C o.o.o.C C C C C o.o.o.C C C C C C o.C +.C C k C C +.C C C o.C k C C C o.C C C C k o.C C C o.o.o.C C o.k o.k C C o.o.C C C C o.C C C C k k +.C C o.C C C o.o.n +.C o.+.C C C C +.C o.o.N o.o.t.",
"k o.| o.k C o.n C C C C C C C C k o.+.o.C C C o.o.C o.k C o.n o.+.n C C C C C C C C C C o.C o.k C C C C o.+.C C C k C C o.k C o.C C o.C o.o.o.C C C +.k C C C C C C C C C C C C C o.o.o.o.o.o.k o.o.C o.o.M +.C k +.C C +.C +.C +.| o.C C C +.| C C C o.C C C C C C o.k C o.o.+.C o.| C C C +.k o.C C C C C C C C C C C C C C C o.k C C o.+.o.+.C C C o.o.+.o.C C +.C C o.C C C n +.C C o.C C C C C C C C C o.o.C C M +.C C C o.o.o.C o.o.k o.k C o.C C C k +.o.+.C o.C k +.C C o.+.C C +.o.o.C C C C C C C o.k o.C k +.+.C o.C o.C C o.C o.o.C C C k C C C C o.C o.+.o.+.C C C C C C k C C k o.+.C o.C C C o.o.C o.C C o.C C C o.C C C C o.C C C o.C C C C C C C C C C o.C o.C o.o.C o.C C o.k k o.C C C o.k o.C C C C C C C k C C +.k C C C C o.C C C C +.o.C C C C o.o.o.o.o.k o.C C o.o.C C C C o.C C o.o.C o.n o.C o.C C o.C o.o.C +.k C C C C C C C C C k o.C o.C o.o.o.o.C k C C C k k +.C k o.k C C C C n o.o.C o.C o.C C o.C o.C o.C k k o.C C k +.k +.+.C +.C C C k +.o.C C C C o.o.o.C o.C C o.C C C o.C C C o.C o.C o.C C C k C k +.o.C k +.C C +.C o.C n o.C o.o.C C C +.k C C C C C o.C o.C | C C C o.C C C o.o.o.C C o.C o.k o.C k o.C C k +.+.o.k o.k o.o.C +.o.o.k o.o.C C C o.C C C C o.C C C C C o.C C C C C C o.C o.C o.C o.C k n o.o.C C o.o.k C o.C o.o.k k +.C C k o.o.k o.C C o.o.o.C k C o.#.k o.| a.",
"o.o.n +.o.C o.o.C C o.+.o.k C C o.o.M C o.C C C C C +.C C C +.o.o.o.+.o.k C o.C o.C C o.+.k C C k o.C C C k o.C o.C C C o.+.C C o.C C C o.k C C o.o.n o.C C o.C o.C C C o.C C C k C C k +.k o.n C C C o.n n o.C o.C C C o.C o.k C C +.k o.C C C C C C +.k o.C C C C o.+.C C C k C C C C o.o.n o.C C C o.C o.C C M C C +.C C C C C C C o.C C k C o.C C C C k C C C o.k C o.o.k o.o.o.k C o.o.k C C C +.C C C k +.C C C C o.C C C k o.C n o.+.C C C C C C C o.n o.n C C C o.C C C C k o.C k C C C C C +.C C C C C C C o.o.M C C C C C C +.k C o.n +.C o.o.o.C C C C C C C o.k C o.C C o.+.o.C +.C k o.C C C C k +.+.k C C C +.k o.o.k o.C C C C +.C C C C C C o.C C C o.C o.o.k C C n +.k C o.o.o.+.C C C C C +.C C C +.C C C o.o.C C | o.C C C o.C C C o.C k n o.o.C C C k C C n +.C C C k o.C C o.k C C C +.k C +.k C C C C +.k k C o.n o.C C o.o.C C o.+.k o.C C C C C o.k C C C o.C o.o.o.C o.o.o.+.M C C C C o.+.k C C C C +.+.k C C C C +.o.o.C C C o.C o.C C o.k o.C C C o.+.k o.C C C o.k +.k C C C +.k o.C C C o.+.k C o.o.C C o.+.C o.C +.k +.o.o.k o.k +.k o.+.k +.k C C C o.C C o.C C +.k C C C +.k o.+.k o.C C C o.k C C o.n +.C C C C C o.C C o.k C C +.C C C C C C C C o.k n +.C o.C C C C C C C C C C C +.k o.C C +.k C C C C +.k o.C o.+.k C C C C +.C C C C o.o.o.C C C o.o.C C C C C C o.k +.o.C o.o.N o.n a.",
"C o.o.o.N o.o.o.o.C C o.+.o.C o.C C C C +.o.C C o.k +.| o.C C k C o.o.o.C C C o.k C C C o.o.o.C +.C C C C C C +.C o.C C o.k +.o.C C C o.C C C C C +.n o.C C C +.k C C C o.C C o.o.C o.C C o.k C C C C C +.o.C C C C k +.C C o.C C C C k C o.C C C +.C o.o.k o.C C C +.o.C C o.C C k +.C C o.C C o.o.+.C C C o.+.+.o.k o.o.o.C C C C k o.C C C C | +.C C C C C +.o.C C C o.C o.C C o.C +.| C o.C C +.C C C C C +.C o.C C M M o.o.n o.C k o.o.C C k C o.C +.o.C C k o.C C o.C o.C C C C o.k +.C C C C C +.k o.C C C C +.C o.C C C | C C C o.C +.o.C C +.k o.C o.o.C C C C C C k +.n o.C k o.o.o.C C C o.C k o.C C C o.C C o.k +.o.o.o.o.C o.C k o.C C C o.o.o.C C C o.k o.+.o.o.C C C o.C o.C C C C C o.+.k C C C o.k o.C C C o.k k o.o.C C C +.C C o.C o.o.k C o.C C M o.o.o.+.k o.C C C o.k o.C o.C C o.C C o.o.C C C C C C C o.+.C C C C C C +.C C C C +.o.C C k C C C C C o.o.o.C C C o.C C C o.C o.C o.+.C C C C o.k C C C k C C C C C k o.o.o.k o.o.C o.C C C C o.k o.+.C o.C C k o.o.n o.o.C o.C C o.o.o.o.k o.C C C C k n C k o.+.o.C C C o.o.n o.k +.o.C o.C C k o.C C C o.C o.C o.C k o.| C C C +.o.C o.C C k o.C C C o.k C C o.C o.k o.C C C o.C C C o.C C C C C o.C C C +.C o.C o.k n o.C C C o.C C o.+.C o.C o.k +.C C C C C C C C +.C C C C k +.C C o.C C C C k o.C C C C k +.C o.C C +.C C o.o.n o.M o.o.k o.| u.",
"k o.o.o.C C o.k o.C k C k C C C o.C o.k k C C C C C C C C C C C C k C C o.C C C +.o.C C k o.C C o.C o.C o.C k o.C C k C C C o.n C C C C C o.o.C k o.C o.C C o.k +.o.C C C C k o.C C C C C C +.o.C o.C C k o.C C o.C n o.C o.C C C o.o.+.C +.C C o.k C C C C o.o.k o.k C C C k C C C | C C C C C o.k n C o.o.n k k o.C C o.C C C o.o.o.o.o.C o.C C k o.C C C o.k C C C C k +.C C C C C k C C C C o.k o.C C C o.k C C o.C +.o.o.o.o.C C o.C o.C o.o.C C C n k C C o.o.C C k +.C C o.o.C C C o.o.+.C C o.k +.C C C k o.o.k C C k o.+.k C C +.k k C C o.C o.k C C n o.k o.o.o.C C o.o.+.C o.o.C o.o.k C C o.+.C C C C C C C C C C C k C C C k C C C o.C C C C k o.o.C C o.o.k o.C C C C k +.C C C C o.C C k +.o.C C C +.C +.C C o.+.o.C C o.C C k o.C C C +.o.C C C C C o.o.o.k o.o.C C C C C +.C +.o.C C C C C k +.C C k o.o.o.C C o.C C o.C C o.k o.C o.C k o.C C o.+.C o.C o.k o.C C k o.C +.C C C C k C k C C o.C C C +.C o.C o.o.C o.C C C +.n C C C o.+.o.C C C C o.o.k C C C C C C +.C +.C C o.n k o.k n C C +.C C C o.C +.o.C C C C C +.C C k +.C C C o.C C C C o.o.+.k C C k +.C C C o.o.o.C C C o.k C C C C C C +.o.C C C o.+.C C C C +.C C C o.k o.+.C C C o.k C o.o.C C o.k C C C C +.o.C C M o.C C C k C C C C C C C o.o.C o.C C o.k o.o.C o.C o.C o.C C C k o.C C o.o.o.C +.o.k o.C C k o.C o.o.M o.o.k o.+.C o.| a.",
"k C k o.C C o.C C C +.o.C C C C C C +.C C o.C | +.k C C +.C C C +.o.o.C k +.C C C o.o.k C C +.k C C k o.C C k C C C o.+.C C +.k C C C C k +.C C C C C k o.o.C C C C C o.C C C C o.C k o.C C k o.C C o.k C C o.C o.o.o.C o.o.C o.C C C C k o.C o.o.+.C C n o.k o.+.C C o.o.C +.| C o.+.k C +.C C C C C C k o.C o.+.+.n C C C k o.+.n C C C +.o.C C C C C C o.C o.C o.+.C o.o.C C o.C C o.o.C k C C C C C C o.C o.C o.C C o.o.M o.k +.C C C C o.C +.C o.o.o.o.C o.C o.k C C | C C k o.o.n C C o.k C o.C o.C o.o.o.o.o.C C C C +.C C o.C o.o.C C C C C C C o.o.k +.+.o.C o.C C C C o.k C C C C C k o.+.o.o.C o.C o.C o.C | +.k C C o.C C o.+.C C C k +.o.+.o.C o.n C +.o.o.C C o.C o.C C C C k +.C C C C C o.C o.C o.C C k k o.C C o.C k o.+.o.o.C C C C k o.C C C C C C +.+.k o.C o.+.C o.o.C C k o.C k +.o.C o.C o.C +.o.k o.C o.C C C C C o.C C C C k o.C C o.C C +.C C o.n C C C C +.C o.k C C o.C +.o.C C C +.o.C o.C o.o.C C C C k o.C o.o.+.+.k C C C k o.C o.C o.C C C o.o.C C C o.o.k C C C C o.o.C +.C o.C o.C o.C C +.k o.k C o.o.k C C C o.o.k C C | +.C C o.C C o.C o.o.C C C o.n C o.C C k +.o.C o.o.k C C o.k +.C C C C C C C C o.k C C o.o.o.k C C C C o.+.k o.o.n o.+.C C C C k o.o.C o.o.o.o.C o.o.C k o.C C +.k C C C k C C C C C C k o.C C o.o.C C +.C C o.o.k C C C C C C o.+.C +.C C | o.o.o.N | o.M | | a.",
"C o.| +.+.k o.o.o.C C C o.C C o.C C o.C C C C +.o.C C o.o.k C o.C k C C o.C C C C o.n +.o.n o.C C o.C o.o.o.o.C C o.C C C o.C o.C C o.C C C o.C C o.o.o.o.k o.C C o.+.k o.+.k o.C C C +.o.C +.C C C o.+.C C C +.o.k C o.k C C C k C o.C C C C C n k o.C o.C +.C | C C C C C C C C C o.C k o.C o.k o.C o.C o.C C k o.o.o.C o.C +.o.k C o.C k C C C C C o.+.k C o.C k C o.C o.k o.+.k C C C C o.+.C C o.o.o.k C C C C C C o.k o.o.o.C C C C C k +.o.C o.k C C C C C C +.o.C +.k o.C o.C o.C C C C +.k C C C C o.k o.C C C C C C o.C C C C C C C o.k o.C C C o.o.C n o.C k k C C o.C C C o.C C +.n C C k C o.n +.k C C k +.| C C o.C C C +.o.C C o.o.C k C C C +.k C M o.M C o.+.k +.k o.C C o.C o.k C o.C C C C +.C C C o.o.C C C n o.+.C n k o.C o.k C o.C C o.+.o.C C M o.o.C C k C C C C C C o.C C C o.C +.k C k C o.n o.C C n C +.o.k +.o.k C C C o.o.C C C o.o.o.k C +.k o.C C C C o.C C C o.C C C C C o.C o.k C C C k o.C o.C C o.o.C C C k o.C C o.C C C C C C C C o.C C o.o.C C C C C C o.C C C o.C C C C C C +.k C C o.C +.C C C C C C o.C C o.o.C C C k k C C o.C C C C C +.k o.+.k C C C C C o.C C C o.o.C C C o.C C C o.+.o.k o.C +.C o.C C C C C C o.k o.o.n C C o.+.C k o.C o.C +.C C C C o.o.k C o.C C C +.C o.C o.C C o.+.+.o.k C C o.C o.C C o.k C C C o.C C +.C C C o.C C C C k C o.k C o.o.M o.C o.+.k #.| a.",
"C o.o.o.C C o.C C C C C C C k +.C o.| C C C C k C C C C k o.C C C o.C C C o.o.o.C o.+.o.C C C o.C C +.o.C C C o.C C o.o.o.C C C C o.o.k o.o.| C o.C k o.+.C C C C C k +.o.C C C C C k +.C o.C C C o.n o.o.C o.k C C o.C k +.C C +.| o.C C C o.o.o.C o.+.C o.C C o.C o.o.C o.C C C C C C C C C | +.C C C k +.o.C C o.k o.C o.+.C +.o.C C C C o.k o.+.o.C C +.n o.+.k C C C C o.k +.o.C C C C o.o.C +.o.C o.+.C C o.C o.k k C C C C C o.o.o.o.C o.C C C o.C C C +.+.k o.C C o.k +.C C o.+.+.k C o.o.C C o.o.n o.o.C C C +.o.C o.n C C C +.C C C o.+.C C C +.o.C C C C o.k o.C o.C C C o.C o.k C o.o.C C C C C C o.k C o.n C o.C C C C o.k k o.C C C C C o.C C C o.k C C o.C C C k o.o.C C C o.+.o.o.C C o.C C C k C C C o.o.C C C o.C C C C C o.o.+.o.C C C C o.k k o.C C C C C o.C k o.C +.o.C C C C o.+.C C C C o.o.C C C C +.o.o.C C k o.o.o.C C o.C o.C C k o.C C C C o.k C C o.k n o.C C +.C C C +.n o.o.C k o.o.C C C C n o.C o.o.C C C o.C C C o.C C C o.o.k +.C C C o.C k k +.C C C C +.C o.k o.C C C o.o.C C o.o.o.C C o.C C C C C C +.C C C C o.C C C o.o.+.o.C C C o.o.C C o.k +.C C C o.C o.C C C C k +.n C C k o.C o.C C o.o.o.C C C k +.C C C C o.C o.o.o.C C C o.k C C k o.o.o.C C C C k o.o.o.+.n C C o.C C o.C C o.C k o.o.o.o.C C C C o.C C C o.o.k o.C C C C C k o.o.C C C C o.o.C C C o.k o.o.C o.o.k #.o.a.",
"M o.n o.k C o.o.+.k o.o.C o.C o.+.k +.k C C o.C o.C o.o.o.o.C +.C C C C +.k o.k o.k k o.C C C C k o.k C C C C C o.k k o.C C C C M C o.o.k o.+.k k C C C o.C o.C C o.o.C C C C C o.k o.C C C C C +.k +.k C C C C C C C C C o.o.+.C C C C C C o.k k C k C C C C C C C o.k k +.o.C | +.C o.o.C C +.C o.C C o.C C C C o.o.C C k C o.k C C C C o.o.C C k C C C C k o.o.C o.C C C C +.k C C C C o.C k o.k C C k C o.C C o.o.C o.+.C o.C C k +.C o.k n C C +.k o.C k o.o.C C C C C o.C C C C k C o.C o.n o.o.k C +.C C C C o.k k +.C o.C C o.k +.C C C o.C C C k o.C C C o.o.o.+.C C C C C k +.o.o.C n C C k o.o.C C C o.C o.+.C C k C C C C C +.C C C C C +.k o.C C C o.C C C o.C +.o.k o.o.C C C C k o.o.C C C o.C o.o.C C C C o.C C +.k C C C C o.k C C C C C C C C +.C C C C C k C o.n o.o.C k C o.k C k C C o.C o.C o.C o.k o.k o.C C C C C o.C C +.k +.k C C o.C C C C C o.+.o.C o.+.o.+.k o.k o.o.k o.k C C C C C o.C o.k o.+.k +.k +.k C C C C C C C C o.k o.k C o.C o.C C C C C o.o.C o.C k o.C +.C +.C C k o.o.C k C C C C C C o.C o.k o.k o.+.C +.k C C C C C C C +.C C k o.C C C C C o.C C +.k +.k o.C C o.o.o.C o.C +.+.o.C C k C C o.C o.o.C C o.o.C o.k C o.C C C C C C C C o.C C C C C +.M o.o.o.k o.k k C o.o.C C C C k C C C C C C C k o.+.k C C C C o.o.C +.C C o.C C +.C +.C C C C C C C C C +.M o.N o.o.N o.| a.",
"C o.| +.+.o.o.k o.C o.o.k C C C o.C C o.o.o.C C C C k n C C C o.C o.+.o.C C C o.o.C C C C +.C C +.C C o.C C k C +.C C C C o.+.C +.o.o.M +.C C C +.C C C C C k C k o.C C C C k C +.o.C C C o.k o.C C C o.o.o.o.C o.+.o.C C C o.k C C C +.o.n o.C o.C o.C C C o.o.C C C C +.o.C C C k C C k +.o.k C C o.k C C C +.C C o.C +.k C C o.C C o.C o.o.C +.k C o.C C o.k n o.C C o.C o.C C o.C o.C C C o.o.+.C C C C C +.C C C C C C C C o.C o.C o.C C o.C C C o.C C C C C C C C C o.C C o.C o.C o.C k o.C C o.C o.k C C C o.C o.C o.C o.C o.C C n k o.o.C o.o.k C C C o.C C C C C o.C k o.C o.C o.C C o.C C +.o.+.C C C o.o.k o.C o.o.+.o.C C C C o.o.o.C C C o.+.C C C +.C o.C C C C C C C o.C C C C C C C C k o.o.C o.C k k +.C C o.k C o.C o.C o.C o.C o.k o.o.C o.C o.C o.C o.C +.o.C o.C C C C C C o.C o.C C C o.o.C C C +.+.C C C k C C C o.C C +.C C C o.C +.o.C C o.o.C C C C +.C C C k o.C C C +.C o.C k o.C o.C C o.C +.C C o.C C C o.o.+.| C o.k +.C +.o.C C C C o.+.C +.C o.C C o.o.k C C C o.C C k o.o.n C C o.n o.C k +.C C C o.C o.C C C n o.o.o.C +.C C o.C C k o.o.n C o.o.o.C C C o.o.| C C C C k o.o.C o.o.C C C C k C +.o.C C k o.C C C C +.k n o.o.C C C +.o.C o.C o.n o.C C o.k o.o.o.o.o.+.o.C C o.o.n k C +.C C +.C C C o.C k C +.C C o.C +.C C o.C C k o.+.o.C C C C o.o.o.C C C k o.C o.C C o.C o.o.C | | a.",
"C o.k o.n C o.C n o.C k +.o.C C C C C C k +.C C C C o.+.C o.C k C k C C o.C C C o.C C C o.k o.C o.C C C o.C +.o.C o.C C C k C o.o.M o.o.o.C C o.o.C o.C C C o.+.o.o.C C C o.+.o.C C C C C C o.o.o.C C C k o.C C C k C C C C C C o.C k o.k +.o.C o.o.C C C C k +.o.k o.o.n k C C o.C C C C o.C C C o.C +.C C o.k o.C n o.C o.C C C C C +.k C o.n o.C C C C o.o.o.C C o.+.k C C C C C C +.k o.C o.n k o.C C o.C o.k C C o.C +.o.k C +.k C C C +.k o.C C C | +.k o.C C | +.k C C C C +.k C C C n +.C C C o.C C C o.+.k C C C o.o.k +.k o.o.o.o.k o.C n o.+.C C C +.k o.C C C C +.o.C +.k C C C +.k o.C C C o.k C o.C C C C C C C C +.k o.C C C o.k o.C C C o.k C C o.C o.o.k C o.C C C C +.o.k C C o.C +.o.k o.C n o.+.o.C C C o.+.C C C C +.k C C C C C +.+.k C C C C o.o.k C o.n +.o.k C C o.C +.+.C C C C C k o.C C o.k C o.C C o.+.C o.C C k o.o.C C C o.k n o.o.k C o.C C o.k C C o.C o.o.C C C C C C o.o.C C C C k +.o.C C C o.C C C C k C C C C o.C C C C C C C C k k o.C C C C k o.+.o.C C C C C o.k +.o.C k +.o.C C o.o.C C C k +.o.o.C C k o.C C o.k o.C C C C o.k +.o.C k o.C C C C k +.C C o.C C C +.n C k o.C C o.C C o.k n o.C C +.C C C o.k +.o.C C o.C k o.k +.C C k +.o.C C C +.C M o.o.M C C C C +.C o.C k o.C o.o.C C o.C C o.+.o.C C C o.k o.C C C C o.C k C C o.C C k k o.o.C C o.o.o.C C C o.N o.o.M o.| a."
};
