/* XPM */
static char *SCIFI[] = {
/* columns rows colors chars-per-pixel */
"512 512 184 2 ",
"   c #0B0A07",
".  c #0E0E0B",
"X  c #110F0C",
"o  c #0F110E",
"O  c #13120E",
"+  c #1A140E",
"@  c #1C190F",
"#  c #0E0E10",
"$  c #110F10",
"%  c #0F1210",
"&  c #161512",
"*  c #191714",
"=  c #161815",
"-  c #1A1916",
";  c #151619",
":  c #181718",
">  c #161A19",
",  c #1D1D1A",
"<  c #22130E",
"1  c #241612",
"2  c #211C16",
"3  c #2A1C16",
"4  c #211E1B",
"5  c #2A1E1B",
"6  c #1F201D",
"7  c #242016",
"8  c #2B2115",
"9  c #23221E",
"0  c #2A241E",
"q  c #22281C",
"w  c #2D291E",
"e  c #302217",
"r  c #342817",
"t  c #31261D",
"y  c #332A1E",
"u  c #38291D",
"i  c #171C21",
"p  c #1C1E21",
"a  c #201F20",
"s  c #172020",
"d  c #1D2221",
"f  c #1F2826",
"g  c #1D2528",
"h  c #1E292B",
"j  c #252422",
"k  c #292622",
"l  c #272825",
"z  c #2C2A25",
"x  c #252629",
"c  c #292728",
"v  c #262929",
"b  c #2D2D2A",
"n  c #312722",
"m  c #322C25",
"M  c #392E25",
"N  c #322E2A",
"B  c #392F29",
"V  c #2B3027",
"C  c #2E302D",
"Z  c #353126",
"A  c #3B3226",
"S  c #3D3927",
"D  c #34322D",
"F  c #3A342D",
"G  c #35392F",
"H  c #3D392E",
"J  c #272D30",
"K  c #2E2F30",
"L  c #312F30",
"P  c #2E3131",
"I  c #2F3639",
"U  c #353532",
"Y  c #3A3632",
"T  c #363835",
"R  c #3C3A35",
"E  c #353738",
"W  c #393738",
"Q  c #363A3A",
"!  c #3D3C3A",
"~  c #47361E",
"^  c #402D24",
"/  c #423425",
"(  c #483426",
")  c #463A25",
"_  c #4A3A26",
"`  c #41362C",
"'  c #433A2E",
"]  c #4A3C2C",
"[  c #513D24",
"{  c #503F2B",
"}  c #413732",
"|  c #423C35",
" . c #493E34",
".. c #423E3A",
"X. c #493F3A",
"o. c #3D4036",
"O. c #37403F",
"+. c #3E403D",
"@. c #4F4126",
"#. c #4C412D",
"$. c #52442C",
"%. c #444136",
"&. c #4A4235",
"*. c #4D4935",
"=. c #43423C",
"-. c #4A443C",
";. c #47483E",
":. c #4D483E",
">. c #514435",
",. c #594431",
"<. c #524935",
"1. c #5C4D35",
"2. c #51463C",
"3. c #524A3D",
"4. c #5A4D3D",
"5. c #5F5237",
"6. c #5B513E",
"7. c #605337",
"8. c #62543D",
"9. c #64583B",
"0. c #363D41",
"q. c #3C3F41",
"w. c #413F40",
"e. c #3E4141",
"r. c #3F4648",
"t. c #444442",
"y. c #494642",
"u. c #464845",
"i. c #4B4944",
"p. c #444748",
"a. c #4A4748",
"s. c #454949",
"d. c #4C4C4A",
"f. c #504741",
"g. c #524C44",
"h. c #594E44",
"j. c #524E49",
"k. c #584F48",
"l. c #4F5046",
"z. c #4E504D",
"x. c #565146",
"c. c #5B5245",
"v. c #54514B",
"b. c #5B544C",
"n. c #5D584E",
"m. c #464C51",
"M. c #4B4E50",
"N. c #4E5251",
"B. c #545451",
"V. c #5B5651",
"C. c #565955",
"Z. c #5D5953",
"A. c #535659",
"S. c #585758",
"D. c #575959",
"F. c #5C5C5A",
"G. c #615444",
"H. c #685C43",
"J. c #61564C",
"K. c #62594D",
"L. c #605751",
"P. c #635C54",
"I. c #695E55",
"U. c #645E59",
"Y. c #685F59",
"T. c #5E605F",
"R. c #666057",
"E. c #696156",
"W. c #66615A",
"Q. c #6B635B",
"!. c #6E685F",
"~. c #70665E",
"^. c #71685E",
"/. c #666461",
"(. c #6C6661",
"). c #6E6963",
"_. c #726B64",
"`. c #786F65",
"'. c #746E69",
"]. c #75716B",
"[. c #79726B",
"{. c #7B7671",
"}. c #837A73",
"|. c #867F7A",
/* pixels */
"Y F D H F } F F F Z B Z F D F N F B Y Y G D m Y F ' Z } Y D F Y D G D z D D b b z 7 & : + : - , , : - 7 , & 6 & : 0 9 , - & - - 6 - : + , & , , - + * = O 6 - - & > - 7 & = , q , : , - : - - j , * 9 = , : - , : : , , - - : - , , = : 7 = : , - - : - , - , 7 - - , - 7 - * 6 6 9 9 , , 7 , : - 9 - - - - 6 * , , & O & , * & X - - + : + : : - 2 4 - - , : 4 * * : & & : 4 0 9 : , 7 4 * O 2 * - k z T T T W E T ! T U W E W ! w...! ! R t.R ! ! ! ..! R R R R Y R R Y R Y G Y Y R T U N R Y N W T R R R T ..Y ..T R R U ! ..Y & , U L ! ! z N R N t.t.U q.t.U W T T U Y T ! U T D T T W R W E ! ! ! U T T R t.E ! ! ! W ! ! E ! E ! T b o.*.%.o.*.o.' D o.R Z | - , : - * , + & : 7 : & , 7 : , - - : F } B B z N B Y B Y L R ....! ! T ! ! ! ..E T R W T ....q.W ! Y W W q.U ! w.q.! t.q.w.R t.! ! ! =.! R w.! t.! ! W ..! R ! W w.T ....w.q.W w...U W ..R R ! =.t.U R R R F M o & : * & . = = & : * * * F K.!.P.c.n.E._._._._.[.'.Q.'.`._.{.'.{.[.'._.'.)._.(._.^.`.[._.(.Y.~.(._.~.Q.Q.Y.~.Y.U.I.Y.P.P.U.Q.Q.U.(.W.E.~.~.W._.!.~._.I.~.!.W.P.(.Q.(.Q.K.~.",
"Y Y Y F D Y F Y Y }  .} F Y F H F F B F F F R D D m z F Y D H D H D D D H b 6 - 6 - : 2 0 4 7 6 9 6 , 4 6 7 9 9 9 k 9 , , q , : 7 6 6 , , , 9 - & * 6 O 6 - , q , & - j , , , , , 4 , 9 , , , q , , , : 7 , , , 0 , , , : , , : 7 j , 6 4 = 6 6 , , : , , , 9 6 , 4 6 , - , > , - , , 9 - 6 , , j 7 , 6 - - 6 , 4 : , : & , : = : & 6 = - 2 * - & , 4 - - 7 k 4 - , + - : - O & & : 7 : - - : - 4 - , U T w.L U ! t.T ..R Y U W T T ! q.t.! t.....W R ! R ..D R =.F =.F R U D D Y R R Y R F L R N W N Y W T U F T Y U R T W L ! T c , L E ! T z N Y U D U U W ! U U T R } X.! U b U U T q.! R ..T U t.t.! ! T ! q.! T w.! ..! W ! U ! ! R T %.*.;.*.%.R %.D D T R H 7 j 4 0 j 4 7 j 0 9 4 5 0 7 7 0 4 4 O m ..z m m m Y } R ..R Y R T R W t.! R W ..t.R ..t.W W W W R W q.U ! q.W w.! ! ! ! ! W ! W ! W t.t.! ! ..! =.t.R ..W q.W w.t...W q.w.! ..W ..Y F ! t.a...R ....U Y R H G k = O O & O & X X X & & : & q R R | R R =.=.=.t.&.i.t.X...y.a.t.d.f.X.y.-.y.a.} =.&.y.-.-.....| .. .} =.}  .Y  .Y W R ....R W z F T } } Y Y =.Y | =.} .. .X.R T T R ....X.R | ",
"} R D F Y H F R Y } H Y } } Y D Y R F R Y Y D D B D R F F F H } R F M Y D : - 7 j 7 7 0 0 2 , j , 7 b l 9 q w b 7 j l : : 6 - & & , & & , & & O = - & * * O & & : & = : o & & , , & O O & & * = O & & X + : O = & & : O X = O , : & : : * & , * O - O > * - : - : * - & * O , & , , & : - - + , = & * - , & o & , 4 l : * X + & & & - * : & - - - * - - - - & , - : , 9 q , , 4 6 , 6 : , 4 , 4 : : + D ! W T U W ! ! W Y T T U ..T =.! T ! Y Y ..U ! R ..! | Y ! Y %.R Y G m D R Y U R D D D D L U N D Y L U Y W Y ..N W T R U K b , K T w.! U U L T ..! T R b U U D F Y *.=.=.R U B U T U ! U R W U t.! b R ! ! ! W ! q.! ! t.q.T U W T +.o.%.o.*.G +.Y b D C Y U j - 9 j k 4 , j , j 0 4 5 , q 4 9 4 * N ..b N m F Y Y F W Y R W U U ! W ..! R R ! ..} ..U U U q.W Y W U ! W W ! w.q.R ! R ! ..w.R ! ! ! E ! R ! ! ! ..! w.! w.! ! ! R t.t.} w.Y W w...t.a.t.t...R U O.Y F Y F l & O 4 2 k 0 9 N k 0 0 - = 4 Y U Q ! Y F R N N T R T Y ..T R w.! L Y Y Y Y R F F ..} ..N Y T Y T c N G D N m N U N L U D D U z D T R R U b N L b D Y L R N U N L T N U D D R ",
"Z D G R R Y Y F Y B } R D Y | R Y B } } Y R F F G F B F B D F D b M D D & = * , 9 V w - k q D D z G U D w z C D z z : Y b.b.n.n.v.g.x.x.x.c.K.n.3.K.n.n.n.V.b.b.b.V.v.V.v.v.v.v.v.v.v.v.C.v.v.V.Z.V.B.v.Z.Z.P.Z.j.x.x.V.Z.Z.v.v.b.g.3.n.b.J.b.n.b.b.b.b.b.b.v.b.Z.V.V.V.v.b.v.P.I.b.n.b.P.v.c.b.c.b.n.n.v.P.P.b.Y : 4 4 : : = = : & 0 G z D B D R R Y D F D 9 j j x D U l k j Y 9 0 b l j b a l m q = c T U R W ! R W U w.W R ! ! T R ! =.t.;.R R ! ! ! =.R =.R U =.=.R Y R F Y U z U Y T R D N U U N D U T U W T ! U U R R E b U x & U T e.q.T N ! R ..e.! p.! T U ! R | &.;.R N R U b w.U T E ! ! T t.t.U D ! U ! E R E ! R ! ! W T W R =.;.;.*.o.T =.T b Y R U Y , , l D z k z 4 0 b z l k k b l z j & ' ..z U B F U D D Y Y Y U ..N W ! ! R q.R R Y ! W Y W R w...W Y W W W W U T ! ! W t.q.w.R w.! ! ! ! ! ! ! q...t.t.W W W ! q.! ..t.R a...R ..w.R t.t...R ! e.R o...R =.G N . : : l z b 0 b l j 4 k : 7 } T G D z R U R R U N D T ....R w...w.....Y R } =.....t...R ....R R ..} B | R Y T R Y N R N Y T V Y T R ;.R Y G T W R R R N U U T R W Y b R D D ",
"b D G D F D R R R F R R b N U R T Y Y %.R T C U Y R F H Y G F Y R =.} Y F N N b D R D b b C D ! D D D D D D G R N l F P.b...=.i.=.=.=.i.y.:.y.:.S g.x.=.t.y.=.i.t.t...=.! t.=.=.=.i.t.=.t...y.i.d.t.=.i.=.i.;.=.;.| ;.g.t.t.t.t.=.| ..h.;.:.-.i.-.a.&.;.y.y.=.=.t.y.y.a.y...W i.y.;.y.y.y.-.i.i.i.-.i.} -.;.g.=.| j j N ' B 0 0 : 0 P.W.L.I.W.!.(.).[._._.).B.l D C T D T D G R b D G z l N N N l k : L U W W R W U ! ! U T ..! U T ..! ..R =.=.R ! ! R ! ..=.! R =.=.Y Y Y U B Y Y b Y G ..U Y D T z U T ..! Y U L Y W R U U L R c X ! ! U +.U T Y } Y R E U P R U T Y ' } F Y R W W T ! ! E ! ! R U T +.! ! U t.T R ! q.! ! ! T U ! ! ! =.%.%.=.R T =.T b l U U C q k l b N D b N D k m N N b k B k k = Y } m N D Y T B R R D W R R w.! t.t.W =.w.W T T R W W W ! U U E W R W W W R ! ! ! ! ..! R ....Q T ! R w.t.a...w.! w.w.q.E W ! E ! ..w.T W E t.q.T t.y.=...R =.R R Y &.D F & 2 H &.-.c.h.c.3.h.3.A 0 j H Y b D N N L R ....Y R ! ! U T t...w.R R | Y w.y.....} ..y.W ! W R D ..Y Y ! R T R U R U U ! R w U D R ..D T U D N Y T Y R T U Y b V U U Y U R ",
"D b D Y Y G R R U D U R Y ! ! ! ....+.u.U l C W U =.D Y N D m Y } ..;...} R ! T T C Y l b G U b C b b N D H G R b k Z.g.q U U b b P U U Y U R F : t.t.D U U T T U b T U U C R b R R C D N b V D Y ! U D b D C D z T D F D N U b D U U Y Y D D G j N U U D Y T U D N U D U U Y b N W T R L ..=.R R U D m F R N D R N q Y Y ..N D 2 D i.-.t.R =.t.=.a.j.d.d.v.v.U b Y R T D F =.R o.H T U U U U Y Y b - b ! L T W ..W ..! K ! t.! w.R R T ! ! ! =.=...! ..T R ! =.+.Q R R Y Y U Y U N N ! ! t.=.N Y =.N N Y U ..L T Y R Y R T Y ..T b & Y =.! Y N Y R T T ! U U ! T W U Y | ! Y R Y T W ! t.q.U W ! U U i.! D +.R R =.! R ! ! q.! U ! ! W +.T R ..T o.C Y R T b G U D : l k b D Y m N D D z N B m m k N k & D ..z N U F D L W ....U ! R R q.! R R ..T Y R N W ! U Y W E W ! w...W ! ..! w.! W ! W ! t.! Q t.t.! ! ..w.t...a.....X...W ! q...L ! ! R w.! w.! W W ..X...R =.W R R ..D B & , z N R %.R %.&.H H m , ` } z D Y G Y N Z Y R ! } D U H B Y R Y ....F } w...R =.R R R ....R ..Y ....| R ! T ! R Y R ! o.Y C Y T ! | T R U U U Y W R U P U , + : , D U U R ",
"D Y N D m U U U V D b U R D Y R R ! +.R T G D U U | U Y D D z Y b Y R T T ! U W T D T 9 7 c R m w D G N D R Y Y 9 Y g.U D T R T T ! U T R R ..R 9 -.=.Q R R T Y T R U U D Y R T U T T T Q U D Y Y T R R Y G Y R G ! D F Y D G F G D H D U F U T G Y U N U Y Y T T Y R R T R T R } ..T R ..Y =.+.Y } Y F R D Y Y T N : N Y &.Y D q , l N T ..U t.t.Q e.t.t.t.t.D Z G Y =.Y G %.U Y T D D T U b Y N l , K ..T ..W R ! ! R U ! t.E ..W R t.y.! =.t.=.=.t.....=.=.! | R R U D D T U D M D R U =.R R N ! j b U T R N T L U W T ! T R N 4 - N ! ..R k U R R W R W U E L b ! ! T T R T T | W ! p.! ! U R e.T R R R t.Q } ! ! ..T t.w.R ! E W ! T D R +.T O.T T ! ! Y T T R x 0 D B b U D z Y b N N z N z z z b = D ..z c Y Y N Y U T F Y W ! W q.W T W R T ..L W F ..T ! E W W ! U ! 0.W t.! ....w.! U L ! +.! t.q.! T ..w.a.w.R ..w.a.W ..W ..W ..W U t.R R ! w.....W R | ....R R =.Y R N . 6 4 j N b D T b k j 0 & -.y.m R U F T G D m ..N R Y N D Y ..Y B D ..| ..-...-...R R ..} R T R W T =.=.=.R Y U U G R R +.Y C R R R R R T T U U U R Y Y L j - V 3.D z U D T ",
"D D z U U N b N D D D D Y ! T T ! ! R U T b b U ! =.H R } Y U N N Y R R T +.T U U R T * = l R G Z b D N U G R b j F -.! R W T ! T T R ! R R R R 9 %.g.Q Q Q Q Y U Q ! T W T ! R U W Q R R R Y ! R ! +.R H G R Y D R +...R R R R =.Y R F R D B T D D R G G R U D U Y R R ..T Y T T R R ..X.Y Y %.R Y N F Y N F F R C + 0 Y Y | Y 0 : N Y F T ! R =.t.s.u.t.t.t.l z D R R Y Y Y G R R R D N U L T D 0 , Y ..U W U ! ! ! T q.E R T R ! ! t.t.=.! =.R ! =.=.R T ! ! ..R ! R D R ..L F z l R D R T L D R N Y N T =.! F T T T R T W L T j & F ! Y Y z z ..! ! Y N N E E L ! R T W D T T R W ! e.! E R W ! U -.-.;.R R t.U p.U ! ! ! ! q.! q...=.U ! +.O.R T +.Y U T R Y R 9 z F b B N z F N z N N D U N z D z : F X.U N L L N L F F Y ..L T W ! T W R R R ..W L Y R Y U ! ! U ..w.W ! E w.U ! U U E ! ! q.! t.! w...i.y.w...y.....| w.| | W R R ..W ..} ..T W W ! ..T ..=.....R R =.H Y b . : 4 N b N D l m Y z k : | ..U R T N m Y R U T W T B M D D } Y Y R W Y ..| } ..w...R R t.T W ..=.! ..! =.t.R T +.+.R y.%.Y D R R %.R Q U T l U T N U W N l Z F g.=.O Y D C ",
"b D U b b G D b D Y U ..D ..b U T =.T U U b l T =.=.| Y T U U R | Y D G R W U E D T D j @ l m z R Z D D D G R D - Y :.R R R T D T U Y U R R +.R , :.g.W ! =.! ! T U U D U =.+.+.t.y.d.t.t.=.O.y.+.t.i...=.U ! t.t.=.d.:.:.z.u.| 3.=.=...Y D C D N G D G D R Y U Y Y R R T R D T =.Y R ! R +.G T R T Y Y F G Z F R R & 0 z t m 7 - , R R R t.! ! %.t.t.u.t.e.+.D b D R Y Y R R D ! T R ! U U T U b l : =...T U W T T ! ! b x D U Q U =.o.R R R Q +.+.=.R %.%.=.T Y ! =.| R =.R R T D N U Y Y B Y R Y N N L W R L N L W W T U T W m b : U ......z Y } T T F T T U ! q.U U I ! U U U q.! W 0.Q U q.! W +.R ' =.R U Q R T ! R t.T U T ! ! ..=.! ! ! R O.=.e.Q D C R R ! x 4 m z N D m z b Y D U U b N z N 4 - F ' G z z D B N ..U N Y R W W W R N ..Y Y ..Y w.Y E L W W R W ! w.E W E ! ! ! R t.T w.w.i.a.! d.a.d.j.s.y.g.v.i.-.} | | -.g.i.i.t.=.i.i.t.d.! t.! T W R R =...R R ..Y R U & & 9 N U G F U D b m k O | ;.L D R R D R Y Y ..Y H R R Y F F R D F ! ..U Y B ! R ..R R T ..T ..=.R ! R ! e.W ..w.R R =.| t.C D Q d.=.Q Q W N R Y W D T R =.D ' F D V G U D ",
"U T U D U R N U Y R U U ! ..q.R U ! ! ! T D D R ..=.=.Y H ! D R Y Y N F R T R ..+.R R 0 - q z D D D b Z D Y Y F , H g.U R U R | N N G R R Y Q T j l.=.W U Q U R T T U Q =.=.R G E +.R R T U %.Y Y H R Y +.R =.! R Q =.R =.=.R G G B D Y G U D Y D Y Y D D T Y R U R Q D R T } Y U D R T D =.R R R R Y R ! | D Y Y N & j z 4 j 4 - 4 U D Y ! +.=.=.d.u.i.e.+.=.l z U +.=.R T Y T T R U U D Y Y N D D * ;.=.T W ! U R P = & = O C U R R =.+.Y t.+.+.e.+.R =.R =.R =.! ! ..G ! U R T D N R R a.R Y Y Y N N Y W W R Y ! Y T N T Y N G z 4 N ! W R T R y.R N Y N ..W E Q E Q r.T ! q.U t.W W L p.! t.p.! R R R T Y ! T N ! t.! t.R E q.q.t.w.! ! Q Q +.R ! ! ! T U ....N 0 x b m G m N m k N l N N U Y z N n - ' &.F U Y U ..N R Y ..W ....W U W ! W W W W w.U ....W ! R U E =.W ! ! ! ! ! ! ..g.d.t.a.i.v.i.j.V.i.j.j.V.C.l.b.:.y.| f.h.f.g.v.i.v.x.k.k.i.i.i.d.t.N ....R Y U R Y R R Y & 4 7 k B F Z D C b G z . =.-.D U U Y D R A T ..F Z -.! R R B T T t.R t.T B } T ! T R R ! R ....=.! Q =.q.! T W ! ..U ..R =.C T Q =.=.! +.R U T T U T Y D i.l.= j C G U N U ",
"b U U U D b N U U R D T T R R ..b ! Q +.+.U D ! R =.R Y ! =.U D D H }  .R W ..T R ! ! - - l l Y D G C V D Y D m , F 3.Y ! =.Q ! R R T ! ! ! T ! q ;.j.! =.! T R C ! T T t.Q Y R T G T Y Y o.R R R U R Y D C +.R R +.+.Y Y G R R G Y D D z Y U R R Q D R T F G Y ..R T R R R ..T Y ..R R Q =.R R R Y ..R ..R G Y T G : m Z 0 z k 5 , F Y Y R R =.:.l.d.y.! t.! l l F R R T o.R Q T T Y R U U G Y G m * ....U ! ! U t.k 4 M g.i.& R R T O.+.+.;.=.R =.Q +.;.y.R =.R R R R Y U R W ..N b D ..=.W T } T N N | W ! U T ! U Y R W U U z 0 , N R Y } U +.T H T R N Y N W q.E E ! 0.q.q.! q.U T R W W E ! Q o.R N U ! U T ! ! q.q.R ! ! W t.! q.U ..p.T +.R ! R U G D =.T T l x z Z D N D N z z k N N N n A n k , ` ' N z m D Y D R R R R W ! U W U R W W L ..L ..W w.R W U w.W ! ! E q.! E T W i.R T R Y R ....R =.t...R &.i.i.Y ..} y.g.h. .T ....X.R w...} ! =...R ! Y Y R D =.R R Y R F - - 9 D D F b D Y Y U k - =.} b W T M D Y D Y Y H Y M G F Y T N W ..Y W R R R ..T Y ..R ..y...} =.R t.t.D W ! ! w.U ..p.=.! D O.T +.o.R ! ! T W ..T U Y D T =.+.G U U U U U ",
"P U U U b U U U C U R D U U ! T T E +.! ! U L ! Y =.R R R ! +.=.}  .h.&.` N D R R ! Q 7 , w D U R U H D T =.D b , G 3.R R U Y T R L R ! +.W =.! 9 y.i.T +.Q =.Q ! ! ! ! ! Q T Y T =.T U R R T Y R G D T D D R +.Q R +.%...! Q G R D T D 4 G R T D R U | Y T T ..R ! o.D R T Y R y.Q R ! R +.G R F R ! ..=.R Y ! T m * - m m A H 0 , G R R R t.t.y.d.+.+.R u.t.b l D Q ! =.G Y R U T R R D R Y D b k O  ...T U U T R D z :. .-.= T T +.o.+.=.+.t.+.! R =.;.! R Y R R Y Y U ! R E Y T D R F =.T L T R b N T ! ! U R Y U Y N R W N Y j & N T T W U T R R R T U Y T E ! ! 0.q.q.e.t.! q.Y T p.! T R +.T D R U W T L Y W U t.U T ! ! ! T t.! ! ! W Q R ! ! ! R D b T N U 9 j m b b D b N U N Y D n R D Z n n : ' ' N m D D U W Y U T R W T W R U ..Y Y N R R U t.R U ! ! ..w.W R ..! ! ! t.! t.! R R R Y Y =.............-.} Y T T X.-.;.R R =.=...R ..=.....w.} T Y =.=.! ! | R D T D N , k 9 m l D T D D D D z - =.i.D N U D C B F =.F Z B Y Y R R R Y Y } ..R ....H Y ..} } R R ..R ..t...=...=.t.t.R ..T ..! R T D T o.R +.Q ! R T ..=.T T ! ..! T T R D U b N D ",
"R U ! U U D U K D D R U T Y T R T E ! E ! N ! } R T | U T ..T T } <.h.3.X.M N Y ! D R , * b z D Y U Z Z U U U D = M :.D F T R U T T R Y ! ..y.R 4 g.=.W ! t.+.e.Q =.Q ! T R Q T D U R +.R ..U Y R D G R l G +.+.=.! o.+.O.| o.U D T ! Y k D H T R ! ! R R ! W ..+.T =.R R R =...! ! T ..R R Y =.=.R Y =.o.H | Y R B : , - 8 2 9 - * G M Y R R =.i.t.i.t.t.t.t.j x Y Q ! R ..G +.T Y D R N N N N N k : | R D U U U T d.t.A A G D Y +.+.T =.t.Q R o.R o.R R ..| ..=.F U ....W T R D l N D N Y b Y T T N T U W T U Y Y T F b Y U U N 0 ; 0 R E ! N N Y ..U ! ! R U L Y Y q.0.! ! q.q.Q t.t...! T W Q ! R ! U D W w.U U T Y W R R ! t.e.! T ! D R U T U b D Y ! U D U l N 6 N D m k N N U U b m c N D z M z # A #.D D D T T D ..R U ! W W ..T W ..Y R T ..U W ....! t.T w.! U ..W W ! w.! T R T N U | =.R D R R W } R Y Y Y Y N N ..| ....R ..Y D Y | ..R Y Y U z U ..t.R =.=.R Y T T Y & , 4 m m b D D D Y U N - :.j.T F =.R R F Z +.Y m D R Y F N F Y Y F Y Y Y ..| Y ! R Y U T G U Y ..X.=.R Y ! Y ! ! ! G T ! Y G F S Q Q +.+.Q Y ! ..T ! T ! ..W N T U U R Y U ",
"U U U R C D U N T U R ! N T T N ..U U b x R R T Y R R ! T R Y Y X.2.f.&.R D j R T T T 6 , z z Y Y Y D G U D R D , F 3.D F R T R E U w.U e.! W R , i.g.U T ! ! ! Q ! ! ! t.t.=.T +.R +.R G R ! R =.R T T N R t.+.Y =.R R R t.=.R R R R ! l C R R T R ! T R R ! ! y.+.R T +.R ! ! R R +.R =.Q =.o.R ..Y Y T H Y N Y U & - j D G b l 6 m Y R ..G Y ! ..e.+.t.+.+.z 0 D F R T R R ! Y R Y R R D b G B z : } %.T T R T b ..V.R > G ! U =.G Y o.R +.%.+.R +.Y R ..=.R X.Y Y ! ....T N Y B D D N R Y U N Y N R U T ..W W Y Y U R L N ..N & , T R W D m R T U } D R Y U L Y Y Y W q.E W U ! ! ! ! ! T Y R Y =.! U U U Y ! W W T R w.a.! ! Q ! W G b ! ! T W T T U R T T U N D 0 l B D U N U D D Y m N D N F B n = | :.D D D ! E C U Y ! U W W ..L Y Y Y ..R R Y Y Y N U W ....W E W W ! R E R Y N j , , 9 , : 4 j j 4 , , 4 - j k z ....R N k j , j 9 4 j 4 , 4 4 , 4 T ! =.=.=.Y ..} G ..} : j 0 k m D G o.G H N z + | t.W ;.Y =.| F R U U F H =.Z F Y ` R U Y =.Y Y B R ..G N N N Y M D N } =.;.=.! ! R R s.W T w.Q T b H H +.e.+.u.! N N ..W t...R U U Y U F Y U U N ",
"N Y U W U U U U T b D N T Y W ! ! R Y U T U R t.......=.Y T Y ..| %.| } H M k R Y R ! 4 4 7 z D D Y D C D D C z , H :.V D F R ! ! R E T U R ! R , ;.i.T ! T +.! Q +.U +.+.+.U C D D l U D D b D D b l z l D =.W D C D C l b b z z z b b 9 D R U ....R R ! t.! t.t.U R +.Y R +.R t.R U ! O.%.+.R ! =.%.o.U F D G Y R : l N Y | Y b & Y Y R Y F ..! ! +.+.R ! =.D w Y D ..G D Y R +.Y D R Y G C R N b & Y R U U U T T W y.;.Y R T T R F Y +.o.R Q R R T R ! =.+.Q Y D R W W q.U U F m z Y Y R T U U L N N U U ! U L W N Y N R b U x . : D U N N z R t.Y Y Y ..Y D Y U W W Y E ! U R T U ! Q ..T U Y +.R R T P U T T U ! ! R ..R q.! e.E ! T V +.Q U U U U T D T Y L U D , z m D D D D T N D T D Y l N N z , N X.N N U N R U R Y R R w.W R U T R ..R R Y ..U Y U W R T R ! U ! W R Y L ! ! N l a , 9 4 j a : a j a j j j a j N R | R N j j a a 4 4 9 l a j a 4 D t.R R ;.R | Y R Y G D O 4 j z 0 N N b U D m t o =.| D R =.R D Y R %.R R Y R F Y F R R T Y Y ..Y T R =.c T .. .=. .M N D %.=.=...t.t.=.! T ! Q ! ! k Y D +.t.Q Q Q T b ..! =.R R W N U L T N T U U ",
"D U z R D U b b N U Y U T R ! ..R Y T T T U ! U =.! Y Y R Y U } b U Z F z b l R R Y T j * + - : - - + & - - - & & | i.R R Y R t.! ! T ! ! ....} 4 y.i.+.! R u.=.Q t.Q U ! T 7 6 - - , : - , @ , O & & * - Y U b & * * * & @ - * - : : - 9 D R Y ! ! =.R Q +.t.=.R =.+.+.o.R R Y +.R T R +.R R R Q o.=.+.=.H G R Y D 9 7 U =.R %.z 6 F Y G Y Q R U ! =.R U U R x b U ! ! R ! Z G Y +.! ! Y Y Y Y b z & ! %.R D U T N R N D C G D Y +.R R R =.T +.=.R Y R =.=.Y R W N T Y T W R T D z D D R W Y b N U D N N U T Y Y Y U L L F N L z & q D L L U z b Y R R Y T Y U Y T W L ! W R U ! q.b W R ! t.R +.T R +.W T T T E ! E R R W ! ! ! ! ! ! R D +.E W ! ! C U R } R N D U j z R Y T D B F N B N F Y N Y N 4 - N ..m D Y R D D D B T R ..! ! R ! ..W T ! T W W R N T E R U w.! W ..E T U T W U L Y R b T U R R Y T R T Y ..R R ..y.....R R R ! U ! ..R R R R -.y.t...Y Y Y Y +.=.R F X.F , - 4 z b U T m Y D D b + +.Y B B +.G B Y Y F Y R =.U R } Y R Y H Y ..U ..Y i.! b } y.g.g.| F D k G y...t.d.+...! e.t.! e.W z T O.R +.Q o.+.T D ! ! t.=.T E N U W N Y N N z ",
"N Y Y D D U N R ! E T U U ! U ..R U t.R b ! ! ! ! T N } ! R F Y R b z B k 4 U ! U T ..4 & , , q 6 j : j , b b 9 O ..:.Y R R ..R ! ! ! t.+.! t.R j v.y.! t.! R ! ! W ! U 0.! T U U U b b U U G D D C D T R Q R U T U C D C U D U C D Z D U O.%.=.R ! Y R +.+.R =.y.Q O.=.+.+.Q =.! R R Q U W U R R =.+.R Y Y D G G D 9 9 D m %.H z 6 N D G R U G R R =.! ! R T b l U U G R ! D D Y G R R F Y D U b k : H X.T G D G Y U Y Y R z z Y ! U R R R T T T R ! ..R ! R R R U D U Y ! U U D z z Y R T U N U T b N N T } Y U W b N b Y N L N 4 9 x D D b l z D N Y Y R Y U F U ! E q.q.Y E ..0.W U ! q.! +.R L T t.! U T Q R T U b U ! T ! Q T T ! ! U W U Q R W U N D U b b N b l l N R C b N B F B b z D N D B k 4 k T N Y U N F U Y T N T ..U W ..W R w.! W W Y Y T R ....W | ..w.W ! ! W ! R ! U T ..W W W ......W ..w.......w...X.:.i.! R ..w.R w.W W ..R T R t...-...=.U F =.=.| D G Y H + 9 4 j b T D b z z D k & N } B F Y R N B R U F ..a.F R R F Y | Y &.! R R T ..Y Y f.g.v.j.-.Y B b k Y =...t.=.t.t.e.e.R e.p.U e.! R p.! R ! U U T ..=.=.T ! ! U T ! T N U L ",
"N R R Y D U T U =.! U L D =.! ! G ..R b U W ! ! R U T R +.=.o.R t.T z a m T ! U U R F 4 2 - & , : 7 : & 7 6 U m 9 Y &...R t.R =.q.q.e.=.! ! a.t.9 j.v.R +.! T T C T q.q.r.! ! w.t.! q...=.=.=.+.;.e.;.+.d.=.T Y +.;.R o.=.;.+.Q R O.R Q R R +.+.R R O.t.+.=.O.u.t.! ;.! =.Q W =.=.+.R +.! ! T Q o.=.o.Y G ! F =.U C 7 k D =.%.Y l , D B } R Y N } T R =.=.! T D 9 D Y Y Y Y Y ! o.Y =.D H T Y D G 9 6 Y Y D D Y Y D D Q Y F Y G G R U Y Y R C Y Y R U ! R Q R ! U ..U D Q D T R Y z F Y R R N U T U D N N R R Y Y Y U L U T B U b & x N U U c 0 D R U T =.=.T T Y T W U q.! W W ! T ! E q.0.! W =.U ..R U T R R W T ! ! T ! ! ! Q s.! t.! ! ! I U T b T D T R T b U m l 4 k Y b N N N D m F D Y D b m z 0 , k G N F D D Y Y R R T ..W Y W Y ! ..Y W W R W Y W ..T W | Y L W ! ..E ! W U T R R T R ..| ....| | W W } W | | -.y...R t.t.! ! ..W T R R } R X...-.w.Y Y Y R H R R } } R & 9 k b N z Y C D R b 0 : H R N m R Y U U W R R T R Y A } ....-.R i.N ! Y R W Y Y y.i.v.i.y.Y F N b ! +.! +.t.i.s.=.Q =.s.+.I E 0.t.t.E U q.U D R ! i.! R R T T R N N U U U ",
"U F D F Y N ! T U W ! T Y U U R ! R R D N R ! W ! T ! R ....=.Q e.W ......=.R R F R T 2 : , , 0 q j 7 , = : : * 9 Y y.T ! ..R =.! q.R R R =.t.! , i.j.Q +.! W ! Q T Q q.! U E R ! ! ! ! ! R D R o.+.+.=.y.t.! G T R ;.+.=.o.! R R Q D Q R Q Q ! o.R O.=.! R =.i.u.+.+.+.Q +.! U +.R T T ! ! +.=.u.=.=.R R U R Q G B : w G =.=.H w : D M H Y Y T R ......! ! ! j j b D G D m F Y R =.R Y G Y G F N z 2 l D H D D D F R U F T Y =.G U U R =.R U R G R Y R U U T D R ..R =.R R U U D n c L U R D R U N M U U R =.Y N L T N l N Y T b N N N D D U D N U D U T ! ! E E T ! T T ! p.T ! L T r.Q t.T U ! U ! ! U U R W ! T ! t.! E ! E T e.q.Q E U ! ..T R T U U L W T N U U c 9 0 z B D F U z D F Y Y D m N N j , - m N D U D D R R R Y w.W ..! ! T ..R W t.q.T ..Y Y Y Y R | ! W W U ! ! W R Y L ! R Y ..Y W ..W Y | w.W ..Y | a.X...w.| W | w.w.! ! ..R R | ..X.y.y...=.=.R ! R Y D U N O , N U N D Y G k U D 2 : H ;.D Y Y Y Y F L ! T ! U Y } | t.=.T R ! Y B ! a.T Y F X.:.%.=.&.Z Z z a U p.e.! T a.R ! e.t.u.+.C ! ! e.u.q.t.! ! U T ! t.R T R R Y U T U U T U ",
"U Y U U U R U =.T R R R =.T =.! R T ! R b ! ! Y U R ! Q =.U t.G ! M U R R R ..=.Y R D : , 9 9 l j j b b 9 9 4 j - Y d.R L ! R R ..t.t.! ..! =.R 7 i.=.! =.+.Q T ! T 0.t.q.R M.N.M.d.d.N.B.i.i.v.v.v.j.l.d.i.O.+.d.v.B.N.z.d.z.z.z.z.u.y.R ! Y +.Q R =.Y =.t.R t.y.R ! +.=.=.Q =.p.t.R Q ! +.e.Q =.u.Y D G R G R R D , m G =.| | m 7 Y Z F R ! R W T T Y U ! R 9 x z D U Y D U G o.=.H Y b G Y U U m 9 : 6 x Y D R D R U D Y G U U U T U U Y R Y R U Y R U W R U T T T ..U N R b U N z U R Q D D c D N N b U G D U N N N N Y T l D U F N D Y U D Y U Y D Q Y U R w.U U U N R 0.U W T U ! R Y T Y ! U U R R ! R ! q.W D Q ! ! ! e.W U t.! U W ! ! Q ! ! T U ! U Y U D T D z l b N D Y Y Y D D Y b N D N k l , , k z U U D U U ..R W R ..W R ! W ..W T Y W | W T N R Y W R T ..U ! ! U W R L N W U W W Y F W } | ..w...X.X.} w.y.} | | ..w.R W W 0.W ..R ..Y =.y.a.=.=.! | Y D R G U G O 9 j j D D G U D U N j : } ..T T W N R W | R ..! R =.R ......W R ..R T t.R ..W z R ..Y =.Y m m 0 b U R p.t.R ..p.+.t.t.=.! U e.W t.t.q.q.W T N ! R ! D W R Y N U R N L T Y ",
"m R D Q U G ....R Y Y R t.Q =.! +.=.Y U z R U Y R ! R } | ! ! ! R R =...Y Y =.=...Y Y - 2 4 c D F z U R Y G D D - | j.Q D G R Y R ! e...T ..t.R 4 i.i.e.! ! p.Q ! T e.! q.t.d.p.N.t.d.d.i.d.d.v.i.i.y.t.l.+.=.y.y.d.d.d.v.i.l.v.z.s.a.t.=.R R W ! ! +.! +.t.+.Q y.+.Q =.+.t.t.+.e.Q G t.e.+.+.=.Q =.R R R R ! +.! R - N D =.R R 0 0 R Y | X.Y Y U T R U R +.D l l l U D b Z D Y ! ..R D =.Y ..D G N k j , : - 4 9 , 9 l 6 9 , 9 4 4 , 7 , , : 7 9 6 4 : = = , 9 - 4 - 4 , - 4 : 4 4 , - , 4 - - : : O - - , 9 - 4 k z N b D b c D N D b Z U U D D U D U U D R ! ! U T D W T E U E ! ! T U ! ! ! ! ! Q ! T U +.Q ! W E ! +.! ! q.Q ! t.e.! T Y U Y W T T T U N ..! U D G D x 0 j D N D F D z N B U D N D z 9 , : c D U L ..T Y W ..T ! R ! ! ! W ..R T R T ! R U ..L Y T T T W ! ! T T R ! W N ! W ..W U W | | ..X.} ..Y ..f.d.w.W W R Y W } ! w.W w.R Y R ..t...F Y ! ..| U Y ! T N . - 9 b N D D R R N z z * Z  .c Y N Y w.Y W ! R W Y Y ..! =...R R W F ! ! } W w.0 0 N z m b l 0 : U q.W R t.t.t.p...=.! +.R D t.T R =.Y ! R U b W R ..R Y R R T R T T U T U ",
"T U F o.Y G b R Y R =.=.Q W Q t.! =.R Y L Y W Y R R ....U t.q.! Y ! D ..D =.R ! ..R F 4 0 4 b U U D l D D Z Y G : R v.! ! ! | T Q +.e.=.-.....R 9 i.i...! t.t.E 0.E E q.r.t.! R ! Q ! U Q D +.U T t.T D R Y y.z.G Y ! Y T +.R =.R R T T W ! ! ! +.! R ! U +.+.i.l.+.+.Q +.e.! r.+.Y Q +.! R O.! o.=.R T Y R R U =.N 4 b U | X.D 9 j Y N D Y Y R R =.Y T Q Q U b 7 l D D G Y R R D Y H Q ..R R T N R b k , 9 : - , - - 9 - : : 2 O O 6 , = = O , = + O j b b U z k k N , & & * : O = 4 : - - + , + : 6 - - & - 6 ; X & , D Y b D D T U U R D U N D Y N N D R U U U U q.L w.! E Y T ! W Q E ! Q U E W U W E W Q b l U q.w.Q W T ! t.+.Q +.W R W T Y W T W Y U G U U U D U T b 0 l b D N N D Y Y D Y D T N z 9 , , j U T U Y R U U R R R T R t.w.! w.......U =.R ..W W ..T Y ..W R W U W ! U ! R ! ..T N T Y Y | w.| W } w...y.y.....} y.....R R ....Y ..W R ......;.=.=.Y | | R ! N U : : j l D D N D T D z m , H } 0 Z Y N Y Y | w.R Y R | =.Y t.w.R ..R Y R =.a.....! b - - 4 0 9 9 R R p.R ....t.t.=.=.=.Y t.t.N R Y ..! T ! q.T b T U =.! T ....R R D m U N N ",
"F U Y T U Q ! T R R T ! R U ! ! R =.G D z L } T D D R ..R T R ! R T e.! =.U =.=.Y R ..b 4 9 l D D N z D b D D l , Y i.! ! R e.+.R T =...R ! ! W + j.v.Q e.e.t.r.! ! Q E ! e.! q.W ! ! +.=.R Q %.....R U U D =.t.+.R R +.D +.! =.=.! R U l R ! U ! R R +.! =.+.t.s.+.R Q +.e.! ! +.R t.t.W +.t.e.U T R G R Q Q ..=.D , 0 F X.=.-.9 9 R F D R R =.! ..Y T t.+.Y b j l D T D | t.D Y N T =.R U R U Y U D k j 4 , 4 , , 9 , = : 4 4 - 7 6 9 & , , : : : - D U b B U N z N j & , , k 4 4 : : 7 , 4 , , , 7 6 : , 9 , , 9 : * , N G b N N D L D N G F H G Y N T T U ! R L R R q.=.! t.e.q.! q.e.! ! ! ! u.I W U ! ! b 9 j U Q R +.Q +.! t.t.=.U R R Y R ..N ! U b U T U D z b D T l j 0 z D N Y N D N N N T U m j 4 : j z B Y Y Y W ..R R t.W ! ! =...! ! W W R ..R ! R R R T U R R ! ..! W Y U U R ! T U T N U R ....| w...} } i.} } R ..w...W R Y W W ..Y | W Y i.t.t.=.R R R R ! R U U : 9 j z D m 0 D D Y b b : R ..m Y N } B Y Y R a...T =...Y R t.! R ..} =.t.i.} ..y.t.T z k N z Y ..Y R F ..W ......y.d.=...t.Y ..F a.! Y E E D U R R =.R R ! R R Y R U T T b ",
"Y G F =.U ! =.=.R =.+.=.t.! ! ! R =.T U D R R ..Y ! R ..R Y Y R T =.p.! ! ..Y R ..T U , 0 : k b b T G Z m Y R N & Y d.R U ! ! =.+.! T R T ! ! t., v.x.+.u.e.! 0.! 0.E U ! r.e.! e.! U +.! ! T R R Y R T b R =.! T T R R Y +.! =.! Q U G b R R ! T ! Y Q R ! ! =.s.=.+.+.t.=.+.T =.+.Q =.! e.+.e.=.U R +.e.R R R R U : A &.c.n.<.M , R R G Y ! R +.=.Y Y H Y Y l 0 N Z T Y D R Y U G D =.Y N T D Y b D Y D b 4 q , 6 9 9 0 j , k 4 , j 9 , , : , 9 , , b D m m D B j N j , j j a a , , j j 6 k 9 9 7 , l j , , 9 , , j * & 4 N D U U b D R U z z D Y Y D N N U R R N T Q i.t.W w.! ! ! ! ! ! E W U ! ! Q W U ! U b : U Q T t.t.t.! +.! ! ..T T W W ! w.U T R W Y b j b U c z U b 0 D D Y N Y D Y N R U N N D k j 0 4 B Y Y Y Y N L Y ! ..Q W t.R ! ....! T ! +.! R ..T R R U R ..R E W Y T W U U R U U R R ....} W } W } R i.....! R R W X.R ....W R ..| Y | i.w.| ;.R R %.%.=.U U b & 4 l D N Z m R Y Y M z : } ..Y R R Y | R t.! ! t.U =.t.y.....Y ..;.! ..-...i.i...;.y.} R F ..R X.Y Y ..R Y } =.....t.t.=.p.Y } ! ....! ! ! U D R L Q R T ! R Y N U U ! N T ",
"Y D R G G T D } R R +.r.t.e.! ! T ..D z D U D R R R U D T D =.Y =.p.+.=.t.U R ..e.! R k - k C ! c b T D Z D H C - ! d.F ! ..! +.! ..D ! y.w.j...; i.g.s.Q R t.t.! ! ! K Q s.=.U ! t.! W T ! R R T ..G D U R t.t.! ! +.R Q =.=...t.! T T b U =.Q ! T U T +.t.+.+.;.Q =.+.=.+.! e.=.O.r.R R T +.e.t.T +.R +.+.U t.! P : l D  .` H 2 j Y G D t.o.R +.=.H D Y t.R z 4 m N D Y U ! U U R D D T U R Y Y R G Y M F m D 0 9 x N b z l l 9 b l B l k , 0 7 6 = 0 l N N U b z N j a z b l 5 k l k j m 0 j D l 9 k z 9 l 4 4 : x : , & - j U U U c D b D D l Y G Y ..Y U b N U N U ! T b ! T Q U W U U I U U U P U ! b P b Y D b U U C Q U U c G D R ! D G U l b D b P c b D 4 b U U U =.R 0 4 N N N N N U U T U Y N b N l 4 , z Y F F N R T Y T Y ..R ..! ..w.T T ! T ! T q.! ..R R R T ..! U T ..! L b W R L W ..=.U U R ......Y R ..X.w.........R X. .Y | c ..| W ..y.X...=.Y T ..Y R W U N : 4 j N m Y N N T Y B N : Y X.B R D Y Y c W t...! ! t.q.j.a.=.R ..} t.t. ...a...=.=.=...=.R ..t.X.=.....! R D ..d...t.a.t.t.D Y y...t.t.w.! R k R q.t.R R T R Y D Y D U D D ",
"Y G R R N R =.=.y.! ! ! +.! T ! ! T F F U R Y t.! R D H H | Y R y.! U Y t.q.....R =.+.9 0 j b U c D U U D Y m b , } i.H R G D +.! R U ! R t.t.a.& g.v.! e.t.t.0.q.R ! q.t.s.! ! ! ! Q t.Y R Y R R R Y Y G N a.! ! R U R R +.R Y ! ! R R b R +.! ! t.W +.Q +.+...d.T O.+.u.+.+.+.+.=.;.;.=.R r.t.d.u.Q ! R +.t.! D D 4 7 G F H b 0 j R U o.R R +.R R R Z D T Y l j m N U N N R R +.Y Z D N U Y Y Y T Y D T U Y U l l N G D N U U U R Y G D z b z D 9 , l l N D N z m k k a n z z b D m D b N z D z G l b k z N j l U C X : O , O b U N l b b D N D l G U D U ! U N T D L ! q.! ! ! t.p.W ! w.U ! T Q U E ! ! Q +.Q ! Q ! T +.+.+.E ! U ! R U ! Y U Y T D U U N U U U Y R R R R Y D 4 z c D L R N b U U N D U m j 4 , 4 Y R R T Y Y Y R ..T R =.R t.! | W R ! ! W w.! R U t.W Y R U ! ..W b L ! R R W T T R ..! R R } R ..Y a.i.X.Y X...R y.y...T U ..W | ..W y.} Y ..Y R R U Y W N N - - j n N m Z R F D m m q H w.U Y U L ..B R ..t.d.! p.p...} y...=.t.t.R R ..y.H X.y.a.a... .t.N Y y. .t.t.U R d.d.t.t.t.e.R T %.=.=.+.=.R ! D N Y W ..T R R U ! R R U R D D ",
"Y R R ! R R ..R ! R ! ! U ..! E ! E Y Y m R | } Y D F F D R Y R R R T W e.U } y.-.| %.l 9 j j b U U D U D m m z - ..i.U Y Y R Y T W Y L ! R y...9 j.g.! d...t.q.! +.W q.e.! ! ! R T D R R | Y Y R Y U G D D =.! R ! T T R R T R U U R U z U +.T +.e.Q ! +.Q =.+.t.t.O.t.+.+.Q t.t.=.;.y.=.R =.y.H ;.T ! F O.O.R b F 6 0 0 H ..Y x 4 U U T D =.=.D Y Y H N R R 7 0 z R ! Y D Y T R Y Y Y T U D T D Q R Y R Y R T 9 l D z D R R U R R R b U D D b b k 0 9 N N m b j j b b 4 N N ..D D N U D D N U N N b b b D D N l b v : , & , * & l D N D D l j D Y N N z z U U N b l z U ..! R N b Q ..U R R D T E ! ! U l D +.T Q U b C +.t.Q T T b Y Q ! O.D k B D G U U 9 N T L T R D k b D U N 4 N m N Y D U U Y D U N z 0 k , , 9 L T T R T Y W R R T t.R t.W R ..R W ! ! ! T ! ! W R U U W W T =.W ..U Y R ! R ! ! D ! W R W R U  .X.| w.Y R ....R a.=.Y U E W ..} w.w.X.T R R w...R t.q...L & l j j m m m R Y F F B ; ` X.N Y L ! Y Y } | ! p.w.! t.=.-.-...| =.R } =.t...A  .=.X.| H ..R ..B ..y.=.t.p.w.a.=.t.! ! ! q.D | =.t.| =.Y R Y N } ..t.T ! R R Y U R D N G N ",
"N D R Y U | R ! ! t.! ! ! R ..! T T ..U N z Z U Z Y G +.t.=.Y H F ..Q ! ! R B Z %.-.%., j 9 l U C D U V m G B l * R =.W =.Y ! Q R R R } =.t.i.! 4 -.i.! t.q.! q.p.q.! t.Q ! N b b 0 z b b j k N j b b 9 0 G ! U N 9 l l q c C l l l l j 7 T ! ! e.! R ! +.+.+.u.t.t.t.t.t.+.=.t.! H y.l.=.=.+.=.H ! ! T +.R T Y G R + 9 U R Y Y 0 > T T Y U Y R R G D D G T R v k k b b Y N b Y D D G T N U R D R R G U Y =.Y Y l b C & N R ! U Y U T T Y U N l N l j j D b n l l z m l k b G D N z U D Y U U N U Y D b b b c U x U I * , 6 , : : & l b 9 D b b T N b D l b b N U U z 4 N T ! t.! 7 U T ..t.! z l ! ! T W b 9 U ! ! Q D 6 b e.+.T D l l R R R T l : b R R N G 9 l U W W b l 9 R T D , = 5 N b N N N N U b D N Y z j q j N F F T U Y T Y R R T W R q.w.R ! U U ! W R T T T w.T T ..R T R T W U U ..W T ..R ! ! R U T T U N Y | ....F R } R R W T Y L ..Y W | X.} ! ..R Y T t.R R t.W & 0 a j m B D } D m z k , -.:.M } Y U U } } R ..w.t.....t.t.....=.=...=.i.R X. .:.%.R ....=.y.-.=.t.....} ..! X.=.t.p.u.! p.N %.` ' ;...t.! N N ..Y t.t.! R R R R D Y Y Y N ",
"Y U Y D U Y Y D T T T U R D D U L U U P z D Y U +.Q e.e.U 9 & O =.Y Y R R ! R U H H Y : - 4 7 b U Y D l m D z b & z j...R +.R Q ! U U ..Y =.R ..- v.C.R =.t.q.r.e.+.! q.W E z 9 6 6 9 j 9 j j 9 0 a , , l U Y N l 6 6 , 4 4 9 : 7 , 9 j b ! +.Q R =.! T e.+.+.t.u.+.u.t.+.+.y.=.R H o.u.=.=.u.l.%.y.W R R +.G D Y U , 0 b Y H F 0 4 D ! T F Q Y R G Y H G D Y b 9 z C D G U R R R U R F l D Y U G +.! Q T R R T b c D l : D R R Y T D U R R U z N j , b b N l N N m z j 4 9 G N b F D D D N U N b D D D D b D D l T I 0 9 : , , : & - 7 9 b D b D D D b - 9 U U N T j z G ..! ! U j ! e.t.! ! k D ! t.T Q c 9 U Q t.! U , Q ! R ! T 9 l d.=.+.Q l - b R R W C : z T R T D l k ..R N b 4 k m N m z Y N c b b D N z z 9 9 0 z G ! Y Y R W W ! ! ..W ! q.! T Y ! ! e.+.D T U ! ! T R R T R R ..U T R ..! =.! R ! ..U R ..Y Y ..X.| Y ! | ......! w.U N | Y | ....! =.Y Y } R W R N R Y & 4 4 N l a N D x N z 4 , ..=.N T T R F T X.| Y ..! R ..! R R ..t...} Y Y ..i.y.i.} =.R ..X.y...Y t.q.R y.-.y.y.t.r.q.! t.s.b =.H &.-.t.! N U N ! Y i.| =.R Y | T R Y H T D ",
"D Y R G C b j 6 j 9 , 4 0 0 j l j 4 l x U t.! t.W ! e.U = * F Y 9 H ! ! U R R R +.=...k , l U U +.Q Q ! Q ! Y D ; B ;.! ! =.R ..Y U ! ..R t.a.y.& h.j.e.t.u.! T +.t.! e.E U U C U U U U N D U U L R U U R T R Y D b D U U G U T U U U U R Q +.! +.Q =.+.R Q +.=.u.p.e.Q =.e.=.| =.=.p.u.=.o.t.+.Y O.Q =.G Y G m F G , 0 Z Y Y Y j 4 R ! R T R T F D D G Y Y F 9 z z D U U b U T D T R D U D N N D D T R Y Y +.Y l b T P 9 , V Y T Y Y R T R N U N N j , N N m z D N B b j k j z b D D b N D U U D b b b b b C U N P E - l , j , : , , : 9 l D D D ! U l 0 Y U R U b k D R U =.U 4 l ! ! p.t.Y l W T ! ! T 0 D Q e.e.! l l ! ! ! +.P l R y.Q t.R z b T R R R l 9 Y T T ..D k l D Y ..N 0 - l k N B N N N b N N U b b j 4 4 b B F T Y R ! ! ! q.t.! W W ! U W ! ! e.! T ! U T W ..! ! e.! t.N.B.d.B.d.d.v.d.B.B.D.B.d.j.j.j.g.w.....y.B.B.j.j.B.j.j.y.d.B.S.a.t.w...L ..T ..R R T W m - : z k j z z k z N m z , ! a.R Y Y W R t.Y | ! ..t.....! t...w.w.R Y ..=.a.y.i...-.=.} R y.-.y.t.....W w.i...y.s.d.p.! t.y.D i.;.%.=.W R W U U R ..=...R Y +.Y Y F | ' H G ",
"F G Y R Y D l b U U N j l z b m c b b U ! ! r.! Q +.! P = R &.Z.v D +.Y R F F R T Y R , - : x I U Q I P C P P l & ..v.+.R Q ! ! R T R ....=.i.t., =.t.! ! ..! ! ! ! U e.W I ! +.Q ! Y %.F | =.! Y T ..! ! ! R T R R C T ! W ! q.=.i.! Q R R =.T O.=.R +.+.Q Q =.d.s.! ! Q R U s.=.t.u.t.u.O.o.t.+.+.t.Q T U N D H F 9 9 D +.o.F 9 9 R U R +.R T Y D Y =.Y D U b k T R R R U T l U Y U Y D U D N b D C R Y Q R R q b ! G b l 6 9 U G Y R G N N D k j 0 4 z m z N z N m N a j C U b N b Y z U N G D U b c C c l b l I ! 9 v j l j 0 , : : : - l D b U U b D N z U T N b U D N R N B R U ! T Q ! T P Q ! U U U D R T U T R R T U T U l U R R R T D R Y R Y R U D Y D L R N G U R U Y R T b 4 4 z z R U b z b b b b b k 4 j : 4 Z T Y ..U Y ! ! ! ! ..q.W U ..q.! t.! q.! R T ! ! T E ! ! R t.t.t.! t.=.i.y.a.=.i.i...y.-.t.....! w.t.f.y.w.a.....-...=.t.a.t...a.y.p.q.t.! ..t.W ..Y z : , j l a N D N k } m D * ..f.N Y W R t.w.W ....y.=.....! w.T t.w.a...R t.d.i.t.=.y.=.....X.t...W a.! t.t.a.t.t.t...t.t.R R l Q ! t.=.U U R Y Y R T t...R R R R R Y R } Y F ",
"..R ..H =.=.! y.w.R t...t.R =.=.U ! =.u.u.! e.! ! e.+.s.+.&.&.| l =.R ! R A F H N D R j , = + o = > & = * : * : - D s.U T R Y } ! T R ! T ..t.q.x j.d.! +.=.! q.W ! ! q.! W R ! +.! ! =.R | +.R ! ..R R Y ! ....Y ! R ! Q W +.! +.R Q +.O.R T +.+.e.+.=.+.W ! t.s.! e.T ! T p.p.p.! t.u.u.t.e.e.t.=.T ! T ! R R D Z - z D R |  .z k U D T T U T T G Z Y ! F D m 9 F R U F T T U Y U U D G U D N U b D +.T T R T z b D l T U l - z D R R F D N N B k 4 l m k z m D D b N x 4 c b U U b U N b U U b U U b b N b N C Q 0.0 l 6 c b b z 7 , - & - C ! U b D C G z N N Y R ..D U T U R U U U T T T ! D U U K T U T T D ! b c U R U U R x U R R Q R R R R U U R R D U b Y U U R N R D N Y Y N U l 0 j z b b N N U N U D B z l 4 , D Y ..Y Y U U W ! E W W w.W U W ! q.T E Q R ! ! T W T ! q.! =.W D R ! R ! Y D U U U Y =.R ! U N U ..g.} Y W R T N } Y N W ..} W ....! ....R U ..R R G Y : 4 c c n m F Z N B j k : F } L Y b N N ..W ..w.y.=.....F R ! t.a.a.....a.i.d.=.t.t.Y X...X...w.t.t.! w.t.t.=.p.a.s.q.! e.w.D ! =.t.! ....R R N R ..t.=.R =.R Y Y | Y Y } Y ",
"Y R ....d.=...i.Y t.t.t.| ....R t.+.Q t.t.! ! w.q.t.! d.A.D 7 b I e.! 0.U F Y R ! ! F - & : : l l j c x l z v 6 & ! d.Y U H n Y R ! w.q.W p.t.t.p i.i.! p.0...w.! q.! w.0.! R ! ! ..! R Q t.=.! R w.t.t.R U T Y ! T ! ! ! ! R ! u.+.! +.T R +.o.! Q Q t.+.=.+.t.t.t.s.Q e.! ! t.e.t.t.s.e.t.! r.! Q Q R T +.Q R R U : b U D R H z , U U U U N U ! R T R N R H D 0 F Z U D R R T Y U U D D D D R D T Y Y R Y Y D C l U b D U U U , j b Y U b l B b z 0 4 n N z N D b D N l 4 N U b T c U D T z L U b b N N b b L U U Q & j l T c l b j 7 , & - , b b b b D U b T D U U C U Y D D D U U R U T W T R T L T U L N T T Y U b U U b T R ! T U U Y Y R R D R R R T U T D D N D D Y T N Y Y R N U z 4 j z k z z z Y N b N b N l l j : Y W Y t.W ! q.! ! ! q.! q.Q Q W Q Q W I ! U ! t.R ! ! +.+.+.Q ! R T ..U T U Y ! ..=.R R w.N D D ..=.=.Y T T Y R } -.T ......W Y R ..! ! Y Y W U T Y R 9 9 j l F B N F Y c c b , t.a.U R N c N ..Y Y Y w.F ! y.....! ..w.q.! t.t.t.t...y.=.X...a.t.Y t...y...t.R w.t.R =.d.i.t.t...Y } R } t.Y R R L N ..R a.=.T R R R } T Y F Y R ",
"} R R =.=.t.R Y t.=.s.R | X.j.t.t.=.y.=.=.e.W ! e.! ! 0.d.d.O.u.+.+.e.! T +.=.=.} Y R 4 4 4 N W q.W T U U T U U : ..d.Q T F F R R ! ! q.t.t.e.q.j i.v.R w.! ! W ! ! R W R ! ! R R ..Q =.! ! =...R R ..R ! T R R ! ! ! ! T ! =.Q t.=.e.+.+.R T +.=.=.Q y.u.+.u.s.u.p.r.U ! e.! q.! p.t.p.+.! ! ! ! r.+.R Y +.Q U ! U , 0 b H R Y z j N U T ! ! T R D D R ..R Z k N D D R G ! U G D Y G D G D D R b G R N G l.:.v b b U ! l l Q l b 9 7 N G l k m G k 0 b m N N Y m D D D b j j N D b U b b N l b b D b l L b b N b I Q , j D D 9 U U b l , , , & * c D U D D U U D D C b D U b D D U D U ! U T U U T T K U U U N U U L U c U U D U U T R D G G Y T Y Y R U F Y H Y Y T T Y U U N Y T N N B N z : 0 m N B R Y b b N U T b b 4 4 c T q.R Y U t.W ! t.R t.p.0.! ! q.e.q.W ! e.+.Q +.+.R R +.+.U U Y U T U T D F R ! Q t.R R T W U ..y.=.Y T W Y Y } ....w.T ..T U W ..Y ..W ..F N F R N : j 9 b D L F Y L N n b p t...B T R N U Y R R R L } a.=...t...=.w.p.! ! ! d.=.=.....R ..! ....w.y.y.q...-.s...y.t.} =...R ..Y t.R ..i.Y T ! W F ..W j...R =.R ..R N Y Y U B ",
"..R =.X.=.y.=.+.t...t.=.=.! U t.! =.=.R ! ! q.T ! ..r.w.b e.s.t.p.Q ! ! e.W ! q.+.Q G 4 , a D T ! U O : : , 9 7 X Y =.G D 0 Y w.U D ! q.W ..t.E j =.i.! ! T T T ! T ! T ! W w.! =.T ! R R R ..R R R ..T ! ! ! w.E ! T W ! ! Q ! W +.+.! +.! +.=.+.u.R t.t.O.t.=.i.s.t.r.0.e.e.W p.+.! p.t.Q ! t.+.! R Q o.R +.R +.G , 9 D =.+.m 0 : W R T N Y ..R =.U ! R R D 0 j m R =.R R U D D D m U D R Q V B U ! T C D %.%.j b U +.R 4 - , , * * * - & * * & X & & j l 4 - - b 4 j j : = : j p x j , , j 4 j j j 9 x b b b l e.I - l l b q N T C D j 9 4 & * - z R C T C U D D D U U D U D D b U U W U U R U T U b N U b U U Y U b R U D U T D Y R U T R D T D } U D D Y D D U Y N D N N N D B N L D N N b : l z L T Y U N D D U U N l 4 4 z Y T R U R w.W E t.T ! e.q.! q.e.e.e.! T Q R Q ! ! R +.R G R Q W U U W ! Y ..! ! R Q =...N R t.i.=.R R Y } Y T W L R ..R Y T Y ..W ..R T U R N N L , 4 , U D T R N U L U N x ..=.b ! ..} U W R w.| } Y R H ..t.w.t.t.! w.U t.d.t.t.! t.=.=.t.R Y y.y.W R s...X.w.t.y.&...y.t.w.N ....y.t.=.=.R R U t.U y.y.W W Y N Y U T T D R ",
"Y | | | %.o.y.=.=.=...i.Q w.w.t.+.+.+.H Y ! ! T t.t.s.E t.R E ! +...! r.q.! T ! ! Q Y - & , l c T Y - j , : : : & Y &.D D D R R U D ! W t.! ..T l ..=.U W t.w.q.! R R t.! W R ..U ! ! R ! =...t.t.W ! t.q.! ! t.q.t.! W W ! R R W q.! +.Q Q +.! T t.! t.O.o.r.s.s.e.t.r.r.e.t.! ! p.=.t.s.r.p.=.t.R t.R R F +.T Y Y , 7 j b G z 7 - T R T N T T Y ! T U R Y Z j j z D Y ! T N N U N G U U U R D ! U R R R Y D X.;.b b : x R d.i.y.y.=.i...y.y.f.j.b.j.v.i.y.k.j.V.v.b.V.b.Z.Z.P.F.U.P.V.P.Z.F.V.W.U.b.+.b l N j k c I - l b c l Y T U b N l x j 9 = : l D D b D T E U D C D T N b U T D U T T N b T b b T U N U b b D D b U C Q T U U U Y U U Y F R U R G U D C T U R ..R U N U D U N b W N Y N , , 0 b L U T U R D G T N l , 4 k W ..W T q.W W E ! =.t.t.q.e.! e.+.e.Q +.e.T +.! ! Q u.+.W D Q T E ! T U ! R ..=.Y ....R L T w.&...W ..} Y ..R | T R W w.Y F R ..Y Y Y W T B B Y U : 4 j N L N N N L L a j l } =.+.R Y Y F W ..w.....R t.R Y a.Y T ! ! ! ! ! e.q.t.i.s.=.=.! t...=.y.....! ..X. ...X.....R t.w.Y R W w.=.Q =.R } Y U W ....R Y Y Y U U D D D D ",
"G R U R =.=.y.%.y.=.=.t.=.T T e.W e.=.| R ! ! w.E ! Q Q 0.! ;.=.Y ! Q e.Q e.U b U R Q & - Y z.=.b D N j k z N k ; m i.T N D R T D D ..! ! ! ! ! 0 -.| U U W Y ! W U U N R R | Y U R t.R ! q...R ! q...q.t.q.W W ! ! ! ! ! R W ! Q ! R =.T ! e.W +.=.t.Q +.O.=.z.z.T e.! ! ! R ..t.! p.+.t.p.r.Q e.W +.T ! R b U G Y , : 7 4 l 7 : l U U D U U U R ..U R G Y Y m N Z D D R Y D D D T U ! R U +.R R U D m F N m b } ` j i.U.).)./.W.U.F.v.;.b.V.B.U.b.f.v.g.k.b.j.B.k.V.d.i.j.d.a.i.y.i.t.a.i.j.t.t.t.! t.! b x b k U I : l C b j U U U N N b z 7 q : , O z D D D D T G D C H T b D U U C b W U Y U N U Y T R b b Y z N Y U D C b U U R U T Y Y ..N R Y D D D R T T Y U T T U U Y U U z N z B b N k j 0 l F Y R T T U D D m z x 9 a b R ! T W T ..! ! ! t.+.r.! t.+.Q +.0.e.W e.t.Q ! r.r.Q E P Q T W U K U Q T Y ..U W U R T N ..:...R } } Y R } | W R ..Y U T ! ..! T ..R R Y U R U : > , N b W N L N U N j = ..i.R ! T } M Y Y | ....w.w.! t.t.Y ..t.w.q.p.r.w.t.d.t.y.=.y.t.R R y.=.y...-.&.......y...N W t.R T ..L ....Y ......T W ! d...T Y Y U Y ..Y D D Y ",
"Y R Y ..=.y.y.v.Z.V.x.d.B.d.s.s.p.j.v.t...R ..R q.! e.U ! e.=.D R Q p.! Q U e.Q b R +.2 4 D p.! l F z N m F z l & F i.T H Y R D m m D ! R W W F , Y R R Y F B N T L Y Y Y T R ....t.! w.t.! ! ! ! t.! R ! ! ! R ! R W ..e.! ! ! ! +.! +.U W +.+.+.O.t.p.d.=.Q d.u.t.t.+.e.t.R ! =.t.u.t.s.s.! +.e.W =.U +.R U R R ! : 0 j D R C 7 l R U T T R ! t...R +.Y R F z 9 D D D U R G Y D R R } R R D Y U R U U D N b l & y.(.U.V.t.U N R N b C b l c b l j x L U c c b x v c c b b K U K x b b D U b b v b b U T R d , j I Q 2 l j v c D T b b l b 0 z j l - & : k D C D T D U T D G D D b c T U T T R R Y T G N N N N l m l U b U D D T D R Y T D Y T U G D N T Y U N Y Y T L N Y Y U U T U U N z m N N j j l N N U N D Y Y U Y b j 9 j 4 T ! R W T R W ! t.q.e.p.! r.u.! +.e.+.Q +.r.Q ! e.e.U U C b b b b b b x b T U t.T Y W U U y.y.=.R N ..W B Y Y L R R T L U N W a.W ..} R R R F N : j p E U Y Y W U Y N L = &.y.Y T R Y R D Y Y w.w.W w.t.t.w...w.a.0.! q.w.t.s.s.t...t.=.t.=.i.i.=.+.Y t...-. .X.y.w.W ..} y...Y Y W ......W R ....R ..R R W Y D R N T T G Y ",
"Y Y Y | =.i.n.v.B.n.i.v.d.j.j.=.=.i.i.s...R ! R e.! t.t.=.t.! b R W Q p.! W e.U Y Y Y 9 & j b l l ..Z z 4 5 0 , & } :.D U U Z N N G F ..U ! w.T b R R ..T } D T T W L W +.! ..R ..! ! T Y ..R R ..! ! q.! q.t.....0.R ! Q R U R e.E ! R W Q =.! ! +.! t.Q +.+.t.t.p.e.R e.r.z.s.=.t.p.e.! u.t.e.e.P t.+.W R D T =.! - m G Y R Y j q U N U ! ! R R ! ! R F R ..N , R T Y D R T T R m Y G F R Y Y b U b D R Y : B W.(.V.U l T U Y R U U R U Y N U U U T R U W T D R T R W N U U L T N T L U E C T T b U P b U v , 9 J I : v p v j c K b N U T m l 0 l k j - * j U R U W T U C U D U D D b G R T U N N D T U b U D G D C N b C T D U ! T U G Y G R T Y R N Y T Y Y Y T U U N U T U Y T U N L N D Y U l 9 j z z N W Y T U Y G U b k 4 j b L R ! T Y R ! ! E ! ! W r.+.! q.! ! r.p.e.e.e.+.E U l 6 j p 9 j j j j d K R ..W W L m N T y...R Y R ....R ....R T ..T U N Y w.t.W } ..=.N Y N : 4 x E L E W Y W N N k 4 =.g.R T N Z U ..t...w.| w.w.R w...0.t.W q.p.t.t.d.d.t.t.t.=.i.t.y.=.! =.y...! t.w.....w.} Y w.t.....} X.W ....! W E T ..R R R ..} N R T Y Y Y F Y ",
"B R Y X.%.=.=.=.Y =.! R ! T T Y U Y R ..T ! ! H T ! p.t.! =.! ! R e.Q R W +.! T Y T D 4 : b U N j G b z : : , : O A h.R R ! b F Y e.D R t.! a.! 4 ..=.T U T R W T B Y B ! R F Y =.R Q ! ! R ! Y E ! ! =.q.W ! R T T ! t.Q t.! r.e.! +.+.O.R t.t...=.t.=.t.z.d.l.y.+.t.s.s.T u.z.s.p.e.+.s.e.p.t.d.+.Q R t.t.T T Y R - z N H &.F 9 * U R ! E ! ! R R T R Y Y Q D k T =.=.! ..R =.U Y Y R R Y T D U U b D 9 - b._.I.R U T ! R R Y U b N N U Y D W U U U D C b E U E ! W R L N U U T U U U E b U T c b U P P b P b : b I , , l v d x U c U D D D N D z l 9 , : = l C ! T b R U U U b b D U N D R N R D b D U U U N D D b D D G b U R C U D U T D R Y U Y Y R T Y Y T Y U U U U L N Y D R W N U N Y N N 4 4 z U U L U U R U D D D l a a , N W R R T ! U ! R T t.q.t.e.Q e.r.T Q U e.p.! R t.R x v x 9 b l j b l D U ! ! ....R m R ..w.R R T ..R R R ....W ..U Y N ! W w.R X...R y.=.R N , : k L N L T Y ..N N j & =.i.Y +.T ....=.t...w.Y Y w.R w.W t.t.p.t.q.t.u.t.s.a.t.y.=.y.Y =.Y =.+.+.R ..s.......w.| w.q.! ......R Y ....! E T ..W Y T ..T T R Y R D Y Y F } ",
"D =.=.F U R ! ..t.+.U R ..R R ! U R T U N Y R Y Y F ! w.t.R L E T q.q.! E q.Q U Z R D 9 = 0 U b k F 0 Z k , 5 0 O =.n.| Y G z R U b D U R p.e.T l =.Q U Q =.L R F R F N T Y } R } ! ! ..! W ..Y ..! W R t.E =.! W E ! ! ! ! ! ! ! R Q T O.=.l.t.d.j.B.v.B.d.B.V.z.+.o.u.u.u.+.=.d.d.! u.u.Q O.t.u.t.r.T o.! T R D m - m R =.%.| l 9 R ! U ! R R U ! T t.! ! ! b z D Y =.=.! ! R D } Y =.! U T D R Y D 9 Y Q.`.i.f N R Y R T N R R U G Y N ! U W T T U U U ! ! E U T b U b ! I b b T U U P U P b I b b P b E C W x b v , j x P , U ! P L T D K U b N b j 9 : = & j U D U U U Q C l D T U D U D ..D b Y D U Y C D R U b b U D U R D N D U Y Y b D Y D D %.Y Y R R Y U ! T b T R F U N N Y U U T Y U N : 4 z U N U N T R U U Y N 0 j j 0 l N Y T T W ! R R W ! q.q.Q r.! e.! Q ! Q ! ! s.! E ! U E W W T R E T E ! R U Y R T U Y ......Y ..T T R W T ! R | D Y U R ..X...R ....R =.m k : : k Y L U L F L Y U N : } X.N F F D Y ..R y...t.R R | q.w...R ! ! E q.i.t.i.d.=.y.=...t.i...w.a.t.t.t.=.-.Y l B t.w.X.Y Y } t.-.| ! w.! ! R R Y W R ......N R U Y D Y Y R ",
"| | Y R R R ! =.t.+.! R R Y U ! T Y N N b T ..N R F R Y R U U ! U U W p.p.! +.R H U Z , : k D j C } m b z 7 j z : R n.=.Y ! G T R D D T t.+.e.! l t.=.R ! ! U Y W L L F L R ....R W W ! ..R ..R Y ! R t.! ! ! q.e.T R ! t.e.e.W ! ! t.+.+.u.=.t.! s.W i.u.s.+.d.o.r.s.O.u.s.r.R d.s.s.i.p.e.u.d.e.e.;.+.R +.R U ! C = 0 m G Y } 9 b Q T R R F G U ..R U T ! ..l l D D U D U +.=.G ..R R R T b N U Y - :.].Z.H D R T Y N T N T R U Y Y T b U U T U L N L D U U t.U L I K K E b U E U c N b U C b U b K b U P P K C K j , x f C d z T U L N T N T ! b U K z 9 , & : 9 C U U U D Q U R R ! U D G Y U b N T Y b U U U D D T D G U C b G Y G G Y G Y D Y R Y R Y | R } Y =.b T Y R N Y U U Y U L U Y Y 4 & j k l U U Y L L L Y D m b j a , 4 b N m R W W N T U W q.q.p.Q q.q.! e.p.0.! E e.E W E +.e.p.! e.q.! Q ! q.T R U ! T D m Y ..Y R R R Y W ! ....=.} =.! Y Y w.t...W Y Y Y } N , , a 0 z N N n F k N n k j A } L W R ..} ..t.Y W a.R W y.-.W =.t.p.p.! ..w.p.t.t.y.t.a.t.t.t.t.t.t.a.s.t.=.} } , k ..a.X.| | w.w.W ..R ..! U ! W R ..R E R } R Y R L U N R } ",
"Y | H Y U Y ..Y =...! ....U T R ! ! R N D Y D D R T t.! R U E E N ..t.t.p.0.W q.! N m , = 9 D j c T k b j 0 0 4 O | b.R ! T b D R W ! U e.W T ! b =.a.! ! t.R W ..W T Y R T ! ..Y U m U t.! R R ! R ! r.t.e.+.t.R ! =.e.! Q t.! Q +.t.R =.t.R t.t.t.U e.! +.e.O.+.m.s.+.O.m.+.u.u.d.u.t.=.t.t.+.u.R +.H =.Y R U Y l , z Z | &.| 0 j =.! U ..D T R ..! R B F R b m D H ! G ! ! ! Y =.R T U ! ! N F l | ~.n.j R R D Y U G U Y R R D Y D D L Y W U T Y R ! W T L b U E U E U b W E U U b x = & v U P U U U P b x U E T j , , b b d U U T U L U U ! T U N U N 0 : * - , - x b U R U G U D U D U b D N D l l D D b z D l V N D m N m b l D b N D z m Z b z k D b b z m l N z j Y b l z j z j j j b l - : 9 , N N N U T N Y Y R G F l , C l 4 j B F Y Y Y L Y R R R ! ! U r.! ! e.e.p.e.t.! ! p.t.t.e.T U q.w.q.! ! ! ! =.T U U b N R T Y R U W ! ..! W ..Y Y ..=.U W ..t.W Y Y R ....L a : > c K c U N N R n k U : ..X.k T T Y ......} ....R w.w.} =.w.w.p.! ! R t.d.t.y.t.d.s.t.=.X.i.t.t.y.d.a.t.=.R , D } w.X.X.w.w...! w.W U ! W W R T ..! W Y ..R Y N R Y R } Y ",
"Y R R ;.R | ..R =.T +.! ! R q.! C D R U D D D z U T R q.U R ! W Y Y Y ..T U ! e.U U Y , : l T C a U k k k 0 > j & | b.G R N T Y D U 0.Q ! N R ! j ! =.! q.! W T R Y R Y ! t.=.R R W N ..q.R Y Y ..} W W t.! +.e.+.Q ! ! t.! w.T U t.Q =.+.+.+.+.Q R ! ! M.t.t.+.e.r.+.;.o.;.+.z.i.p.p.=.s.d.t.R +.=.R o.R R ! G F D , 0 z F | H b j t.! ! T T D U G =.! D N R b l D R N R R Y U D Y W T R T T U Z : E.x.2 G D F U T U Y D T ! R T G T Y T T R ! Y U T b L T I U U E L q.E J U W E ! x : z R 0 D E U U U U T b P K T U , , 6 P 6 b L T L U U b U N U z Y U b z 6 , 6 - + ; = = & : & & , = O & : : - - : & O & : : - - : , - : 4 4 * + * - - & : - , , - - , , 2 - - : : 4 2 4 2 - : & - - : O = 2 : , k z U N L T U Y U R F k 9 c b N 5 : j b U N Y m L ! Y W w.! t.E ! 0.! ! r.q.Q W q.Q ! p.! E ! ! ! ! ! ! ! b ! R W U U Y } -.&.Y Y ..F W } Y R Y R =.R b U R w.| R T B L W m n , j k b L N N B z Y l n , y.a.n Y L ..i.R ..a.t.t.t.| B ....R ..R t.t.t.d.t.d.s.p.d.t.t.=.X.j.t.y.R y.t.=.t.R , Y Y | | w.| ..........R W T T R ..R ..W R ..R ..R B U D F R ",
"| ! D ..Y G F T t.R ! ..T U T W T =.R T N T ..L R ! t.! W ..! N Y ! Q i.=.=.Q =.U R R 9 + l E b 9 b k 2 k 4 9 4 : -.n.Y =.R T b D ! U U ! N R T l R ;.U W E ! W ! E R T ! ! ! t.R ! R B Y E ..! ! e.Q ! =.q.e.=.R T Q R ! +.t.e.! t.p.u.=.! ! =.+.+.+.+.+.t.d.+.e.+.+.R =.=.t.s.p.u.e.R t.+.e.T e.Q R R o.%.=.H Y G : 0 Z R | Y k c R ..T R R D %.R D H S D | D z R ! Y Y R Y Y b Y Y U G R F m : :.P.G Y Y F m D F Y R ....U R U R ! +.R R ! ! U T T L U K ! L K E K ! Q e.T T T R j V Y x.y.: T T U U U U U T U b I x l j b d b ! U W C U N U T D T U D D N 4 , 6 6 j & - & 4 , : , , = 4 , , , 2 : 9 , , j 9 6 7 : 0 : 9 , j - 4 j 0 2 9 9 , - 2 4 4 7 9 4 : 0 4 , & 4 , - 4 - - 9 : a : j , , 7 j 4 N L N U U L D N R c : z N G D 4 , : b N T T Y Y Y ..! Y ! ! E E Q 0.q.q.e.r.p.R ! ! +.t.+.! ! T T L ! t.U T T R W C D D %.R R ..R R =.} } R Y ....! U Y R R W ..R ..Y N U c . , a j U N Y R n L D b , a.j.U L B t.R R ....R =.} W ..w...! q.a.a.! a.! t.t.s.p.t.a.t.t.d.t.p.d.a.y.i.=.a.t.j N ..} | Y w...R w...t...W W ....R w.R ..R | R B Y F D N R N ",
"R R R T Y Q =...! ! R R ! U Y T U R R T L U T T W Y ! ! U ! ! U D ! Q +.Q Y ! Y D U ! 9 O j E q b D z 7 x l = 0 - | c.D R G Q +.T Q e.W E T R R x t.a.R R ! ! W ! ..R R ! ! ! N N ..Y Y R ! R ..R ! ..! ..t.! ! R Y U e.+.e.t.! q.e.u.Q ! U ! t.=.e.! Q e.u.+.O.r.e.O.+.+.! r.r.p.+.z.t.=.+.s.+.+.! R R R R Y H F m = j m A A D m , ..Y =...U R Y R | Y R &.R b w Y =.R Y R Y R ..U G Y b U T l = 3.&.Y G | Y %.F D Y ! G U Y T R ! R +.R =.Q R U =.T U U K K U E U q.! T +.! I E +.i.G &.H Y C L T L K K U U L E U N K b 6 v 6 U ! T T U U U W T T U U U U D l j j D 7 : & , 6 9 7 7 , 9 4 4 4 6 & : , , x 9 , q : l , 9 9 k 4 0 0 B B k 9 - 7 - : 4 - 9 j j 9 4 l j j j j 0 : 4 j , 0 j a 0 , 9 x N z b U L Y N B Y Y l j x N U T m 7 & , 0 F N N m N D Y Q =.t.W q.E 0.Q q.q.! t.T T t.p.! W e.U ! W ! W ! E b W ! T W U U N %.! ! Y ! ! | ..} ..R } R L U T =...=...R W ! W T U = , z Y N W T N N Y U U = t.i.W W Y } } Y } } ..=.....a.t...t.q.t.t.w.t.p.t.s.p.s.s.t.t.a.s.d.t.X.a.....=.=.t.= Y =.y.w.Y | ..w.....R R W ! R W Y T } R R R Y Y U D F b N D ",
"Y ..=.R Y R =.=.! t.a.=.R ..R ..Y R ! N N ! U N T m ! p.K L U U U R =.=.R H +.T Z D U : = l U l C C z N z 0 = D & ..n.Z D m ! Q U T U Q W t.e.! j y.i.W q.! R w.q.! ! ! ..R t.Y w...R T ! ! T R ! Y | ! ..D ! R ! ! U ! ! ! U U ! R T e.Q R =.R R R +.=.o.r.s.r.e.e.e.r.! e.e.s.r.! e.e.+.t.Q s.R +.G =.Y R %.%.R Y : 9 b A H Y 5 j Y U R =.R R Q =.R R R R T 9 Z F %.| R Y D Y R i.T Y R U D C : :.&.U G H R R R R U Y U Y R R U =.R T Q =.T R E ! W U E U U Q W E U E W Q ;.O.U E /.d.& w C T U E T P K U U T b U b W P b l j b U U W U U K U D D C C D U G j c j ;.l - , - 9 9 l z z j j 7 = - 9 q j l l : j 9 b j j N F q k k l j 0 j 6 , * , 0 z D z z z z c z l z 0 l z j j z j b b b j b b D N N L W N T R R D D & 4 N E E c H b : : : z D R ..U G Y Y R ! =.! 0.! E e.t.t.Q t.t.t.+.=.q.q.U R ! T T b T ! T U U D z b R t.R D Y Y Y m Y } ..R R ..R B R =...=.! R Y T L Y U : 0 b N N R Y N Y N N N = } } b m m R D k N N ..T Y W U T U W L L U K U R R =.R R ! D ! R =.R Y Y ..R U b k - N  .j.k.a.X.w...w.R w.W ..! ! ..R Y R R T Y Y U R D N Z D B N ",
"Y T R R U ..R Y =...R t.! Y N T } T U b U ! ! N Y m ! ! t.E Y T U ..;.t.+.Y Y Q Y F D 6 & d U 9 c D 0 m z l ,  .8 | Z.R %.Y F B +.! I +.q.t.! T x i.y.W ..T R t.R c U t.! R Y T R R t.! ! p.+.t.D ..R ..e.U R T R ! Q ! +.! ! +...! ! R W +.=.+.Q +.u.=.o.;.u.+.! +.O.! r.e.u.e.r.+.r.p.u.d.+.d.T t.t.t.H Y R A Y Y , w m F Z m 4 j U T T ..R ! Q =.R =.! R Y l l D R Y o.Y G D R ..R T D U D b , Y X.b Y F G G H Y Y ..! T Y T R R o.R R R ! T E ! E U E ! 0.q.W E E T R Q +.O.e.+.t.C.u.P u.Q ! T P E U P U U U K T U E W b , c K T U W U T T D U b b D U Q b l l y.C & , x 9 D N D N N b - : 6 D U U b 9 U b b b j &.Y C N D B D T T m x 9 - , j D Y D R N R N N Y N F L U N B R Y U T Y L Y Y R U U N U T N W Y N : j N Q 0.c E | b + , : 0 n Y R N R Y D Y =.! ! U ! r.W W +.W t.e.t.! t.+.T ! U N U D ! T U a x j 9 j N R R U 9 B z z N G U l b Y b l N T y.R R ! R R W F R L * a a z F L Y N N N N N : } =.D ! R R ..T R T R R ..T ! R U ! q.! ..T ..t.a...w.=.t.+.t...! ....R R ..U =.! =...d.=.t.y.....y.......R t.R ! W ....W ..Y Y N Y R G D B Y D N ",
"R R U Y R D ..T | ..Y ! T T U R ! R Y N Y Y ! b U R R ! r.! q.! U ! H =.W Q =.+.! ! U 6 & c E 0 x D 6 , d , & z + Y b.U Y U U N T ! ! W e.+.! =.l :.=.w.Y ..! R R T R ....! R D W T ....R R R ..T T T t.r.t.R +.U e.! ! Q =.W ! ! R i.t.Y ! Q y.t.Q =.Q +.Q y.e.+.+.+.r.+.+.W r.Q p.e.R Q t.p.t.O.s.=.+.%.R F ' N 0 0 2 t Z F M j 9 F U | Y G R =.T o.Y R =.R 7 j D R | Y R Z D Z G R D D U b b & }  .G m D N D T Y Y =.G U T Y ..U ! U ! R T U W Q +.T p.Q ! E Q U ! W T p.=.E ! ! I P e.! R Q +.E E Q C U R o.D E E U E P U j j b D D U T T N R U T U U N U N f b u.c & , c l D R D N D , 6 l U K t.E q C C U U 9 %.i.N R U T U R ! ! Y C v - q 9 R R R R q...! W q.! ! w.....R ..! ! ..W E L E Y W q.Y E ! W ! N , x x E I x W b =.R + 9 7 = j Y ..=.T T N T Y R U ! r.q.E t.t.q.t.t.! =.t.! ! E U U U U ! v j , : j j k N ..Y m 9 4 , > 6 4 a : , > , j z U ........W U ..W | Y , 4 l N L L N m Y B ..N & a.i.....w.w.......y.i...w.R w.t...q.p.t.t.t.t...a.a.t.y.a.a.=.y...&...y.t.! t.=.a.w.| w.w.| W w.w.w.} ! ......! U ....W W Y B T } R Y N G D Y D G ",
"F R U F Y T ....y.R W ..! } Y Y R ! D Y D ! T b E U Y ! W U R D b t.F t.Q R +.! R F D , , x I 9 x D H R =.y.;.} m =.b.D Y R D T T E b T D T Q d.l i.:.b | t.! =.R L N } T W W L R W ! U R E T ! ..R Y T R ! R T Q R R =.! T +.! T Y R ..R +.t.=.T t.T +.+.+.t.z.=.T t.u.e.t.! e.p.+.p.U t.e.e.! D t.u.=.| } F R D z = z m | H D 7 j Y R | R U R =.! %.R R Y Y l 0 b R D Z Y Y ' D Y Y U U D R b :  .-.B B U Z Y D G Y Y Y D Y T ! ..! ! U ! W ! ! e.Q Q t.! E W W T ! ! +.t.R C Q U T Q U Q +.Q C Q T W T R R T U P T U R E U T x b U b P U U Y U ! D T R U D b b U i.P & 6 l q U b Y D 6 9 l C U 0.E = C D C U x v.;.! ! ! R ! =.Q +.Q T b b 6 9 k W T ! ......R ! ! ..W W W U ! ..R W ! U W ..W w.Y ..U R T R T , 0 E R 0.j E P v a.=., l 7 , 4 Y =...U T ....q.R W ..! ! ! T ! q.t.t.! ! +.T U R +.! Q W I Q b x c l N N M =.F z z j U N l b N L D N b U U R R ..R ..| Y Y Y Y T & 4 a N N N N B Y R T m , -.d.N R ....T W T T | ! ..W ! ! ! ! t.! ! d.W T t.......=.=.=.| F =.d.! ! R t.! ! w.| R ..w...} ....W =.....W ..R ....R ....R W Y Y F U D F N U Y ",
"Y Y U ..Y T W T T T ! W T Y D R ! R D l N E W P I E R e.Q U U B T =...y.e.! Q Q +.G U , - x C x & | n.n.V.Q.Z.c.' o.b.R R G ! T ! ! D T U G y.=.0 v.i.N R F ! Y Y R ..F Y F B Y ..R T T Y ! U T Y F ! T ! W ! ! t.=.R T U R ..! ! R | R Y +.T Y ! R +.O.O.t.+.i.+.=.+.O.R e.R ! e.q.! t.O.t.+.+.+.=.=.t.o.| %.=.H D - q S Y H Z 7 , H H R R Y Y T R -.H | Q | z l Y | Y M R =.Y D H Y Y D T U l :  .| k D Y M N N D Y F Y U G ..b ! ! E ! +.e.! q.! G T Q R T ! ! E E E ! +.P W U ! W W ! ! e.Q T ! ! W Q T ! b E U Q T C Q +.T T : 9 x U U U C L b b U D D D b b D =.l - : D l N N C 4 - C D C ! ! = C D T U v y.i.+.! ! R ! R Q ! ..! U b D 2 l b G R ! ! ! t.w.! T ! ....U W W a.w.W ! E W U W ..T W L W ! U , j c t.0.4 T U U b y.Y + 0 0 & 4 l ! T R F =.R ! T U U U Y R T ..q...! +.! +.=.T ! t.W T E T U q.E D D T R y...! Y ! Y ..T R W | ..R W Y ! w.W Y W Y W L Y W Y } W - j a N U N T Y U R z D & Y =.T Y ....! ! R Y | W R R T T T T ! t.E z k l z m k z k Z z 0 b b G R ! K R e.! w.R | ......W ..y.R =.w...R ....R ....Y R N T R Y Y T B D N D N ",
"T Y ..R N R W R Y Y U U U U T R U F U D b ! W U ! E p.t.! T W E U R =.i.e.e.! Q +.Q T , - j U 7 j b V F G R U G = %.n.R R R R T T U ! Y R D Y Z 6 x.v.! U Y Y Y ! B B F F Y W U Y F M ..N U ! T ! R Q e.E ! R R ! ! R ! ! Y R ! t.! R R R R Y ! ! ! =.R T o.o.R +.t.=.+.T ! ! t.e.! ! q.;.+.i.r.e.;.=.u.Y ;.R H m 0 * 0 Z R H F b : U R %.%.H +.Y R %.=.R ..! z z F D F Y R R | | m D U U R Y k *  .&.z D m b U T Y F R | ! R T T ..T R ! =.Q =.! U R O.U U ! W E U E ! +.P W T U +.T ! e.Q Q I W T ! I R E W W T W I P U Q T D T b j j b x U U N b N L Y C Y l j m H 9 & , j b U b , 6 l C G R T : C b T T C i.x.=.+.! =.! R Y =.! T ! R D b - j b R ..U ! ! t...Y ..W R W U ! Y T t.R ..W W W W ! T T U U N 4 j N ! E j L L U T x y.} , m b + - 7 D R R T R } Y W U =.! ! T R ! t.! ! R T u.Q ! E U ! U ! T T Q T ! E R T =.R Y =.Y ....W R ..t.R t.R U R w.R Y R Y R R ..W N W R - 4 j z L N N Y b N D z : =.y.R ..w.R a.t.} ..Y R R ..a.R q.t.a.R ..k 4 k b D m m D D N D R b D Q ..! t.+.R y.w.f.a.w.....} t.t.w.......t.w.t.....R R R F ..B R Y Y D D N Y ",
"T Y T U R Y W T ..W T R U ! ..Y T R ..I b U q.c U R t.=.! W ! T D =.+.z.e.I U W Q I T , & x P 9 l D m D Y T R D 9 Q y.R U T D U N D D F R R Y H 7 g.f.U F ! R R ! ..B T ..R q.U Y m m Y Y F Y R W R ! E e.! ! e.+...R T R ! R ! ! ! =.t.Q R Y R u.=.R ;.H o.o.T =.t.+.+.e.e.=.+.Q ! ..! ..! d.u.+.+.d.+.! Y R ..H D - 0 Z H X.H z - Y =.D H =.| R } R i.+.U ! b 7 D R Y F Y ;.F ;.Y F N N W D D - X.&.B Y D M R D D F G U U R ! ! ! ! ! ! T =.=.U Q y.e.Q t.U ! W Q Q Q W E U ! e.I P e.E 0.! ! Q E T +.Q W E Q +.R U U T T T R U U l j l l U N T D C U G Y D k 9 c ;.0 6 9 l 9 b , , b P G +.D 7 b P b P f i.v.+.! +...=.! ! t.T R ! R U b z - b N Y ..U R T R T ..U Y U R W ! L N U w.w.U Y W U W Y N R N a a b 0.W a U b Y U b P y.-., z m , : : 0 N N R } T ! R ! =...Y R T ! e.T T T ! ! ! W W ! ! Q E ! W ! ! U U U W } ..Y L ..w.=...! W W ..w...Y ..! Y R ....} R R T F ..L j 4 a N T c N Y L ..Y z , ..-.T ..! ..w.t...w.w...-.a.=.=.! ! t.Q =.m 4 b Y D F R F A Y R T F Y t.T =...R } y.....W | W ....y...W w...! ! ! ..W W ....Y t.R Y U N R Y N N N ",
"F R N T R W R R R } Y W W w.R N =.! R U U ! T U R T t.! ! ! T U N Y Y p.O.U I e.U T T , = v I x j D N Y R T T D = R i.Y Y R C W R Y D G G ! Y %.z =.-.U R R ' F W T } F Y ..! F Y B Y N N m Y T D ..E U +.! +.! ! Y R ! =.Y R ! ..p.+.! R =.=.! t.e.=.! =.=.+.+.T G +.+.Q +.e.Q Q R t.! R t.e.R ;.+.e.T R +.=.=.R D - q H R R F 0 , R ..H Y H ' =.G R =.=.R ! z z D R R R R } Y R H D G T T U D : ;.i.G Y R N U D R Y Y Y U T =.t.u.=.! e.+.t.+.R Q +.U W p.W p.r.Q Q Q W E ! e.! ! Q ! q.q.q.e.E ! o.+.T R Q U Q R U T U R T T E T b l l b z Z U b b U b T D l N l | k - 9 b : & 6 b U b ! U j P b U C 0 R :.T Q R ! R U U T Y R T U ! N l l , k z D R U F R R U F Y U N Y U R N R Y W ! W ! Y U R U E N a 4 l L U k Y N b U U U b i...O t 0 4 , j = z N U Y R ..U ..T R W ! a.q.! q.D N t.! ! U Q T ! ! q.Q P U ! ! U U U F Y ..Y R w.! R U ! B N w.a.R w.R ..T ..R Y ..R w.W W Y - 4 x m Y W B L L Y G k > } g.R } ..T ..a.y.w.a.=.t.t.R t.t.t.a.! =.N 0 z B F T U D R T L N D Y =.=.R t.W T } ......W W W W ..! W t.! W w.W ......W W | } } } D U N D Y Y F ",
"N N D N N Y Y L T Y N T U T q.U D E E K T =.T B R U ! q.r.R | M l b W u.e.U I T Q Q W , & c U 7 j l G m U R R b , R i.F R R ! 0.! D H R Y R ' | 0 g.a.Y ..=...=.R R G R D F R U Y Y N N N N m Y N ! D Q U D +.Y Y Y U Y R Y R ! ! ! W Q =.Q R R =.=.O.R +.t.o.' =.U O.s.=.Q O.R ! R =.! y.s.+.R =.+.R t.=.t.t.R F l 2 7 D Y R D q , Z Y R R R | H R R =.R R | G 0 G Y =.R ..| Y R Y F D ..Y l m * X.:.m ..D D m =.=.R R R R +.Q ! ! T ..=.=.! =.R y.+.R Q =.! t.+.T ! e.p.W ! p.e.W E E ! ! Q ! s.t.o.t.T Q O.U T Q +.Q T R T C T T T U 0 b l D D U T U D T U D k N =.9 O 0 b x l C U C ! C 6 D c D U c =.:.U R U R U Q T R R D G Y U ..U z k , l k Y R ..Y T T Y D Y Y N R N R N Y Y N Y W Y W Y Y L N j , z Y U z L T U U U b E l i...- n Z , D z : 4 N R R =.! R ..w.! ..Y ..! ! ! T R Y R ! Q R t.t.! T E T D E ! U ! U U Y } ! ..U T q.E W y...U Y ..-.| X...R ..........} F W , 4 c N N L z L Y Y z N : X.:.} | ..Y ..t.w.} ..-.R ....t.! p.t.=.} N k N D b N D D ..R G F D R =.Y t...R ....W R W Y W ..T } W R W ! ! L R ! ......Y Y } W Y D U N H Y N N ",
"U ! Y B z z 4 a 4 4 4 4 & : , j , x b K U ! T B Y Y R ..L G F G l T N e.e.I U +.O.Q P , * j I j 4 N b b G Y T D 7 F i.T G R U U C R Y T R D R R 6 i.;.M Y =...+.! F t.R F Y R T L B T F L Y B M R R F U U +.! R Y ! U Y ! T U ! T ! ! ! R t.=.R o.=.+.=.u.u.;.%.+.e.+.+.s.=.R +.;.=.o.s.u.s.t.Q R R =.R Y R ! +.! Z , z D D A | 0 - D | F =.+.Y Y Z ..Y G ! ..z b H R | Y Y R ! =.Y U D Y D U N :  .=.m F F Y Y R U U G R ! R ;.=.+.t.! +.Q =.Q Q +.R Q R U U e.R E C +.+.e.W E Q ! W q.! ! +.+.Q t.i.Q Q U T Q +.Q Q Q P U P U U C T R D l l b b T D N U T D a z z %.l & : b l l C C ! +.6 C b G G , =.:.R D Y U R R G R T U Y D T T R D j C : z z T T F R R N D Y m U Y Y T B N W F F F Y N Y W B N 4 , k N L l T c L b b b U N P &.R 2 M D + %.H $ & b T b Y N T ! W ! ......! U ! U ! ! =.+.+.R U T U ! ! U r.p.L ! q.E +.T R R ..X.W W U Y t.R ..W t.w...| R ! ....R R ..T R R j : j N N N z D N Y F N , ;.y.| ..=.W y.&.Y ..:...U ....=.s.e.....-.D k D N U b b U F N F U D Y y.y.! R R ..T ..W Y Y W Y ..=.....W ! ..R T R W W R W R W N Y U Y F N T N D ",
"U N T R m m j 9 4 4 4 4 4 , a , j , U E ! W ! k ! ! =.T G ..R N m Y R q.0.U W ! ! E P ; - , 4 ; j N N ! N D D m 9 F X.D Y R Y M M Y G U U U R } l =.| R ....| =.G T ..Y } R N Y Y R W U F Y Y N U F F Y N U ! R ..! W Y ..T R ! +.=.=.=.+.+.+.i.=.y.y.u.+.s.d.s.e.u.s.u.e.O.;.i.s.+.Q r.u.Q +.o.O.R R Y +.Y R G Y m O l m H H F 7 , Y =.T B G R Z H ! ! Y F Y b 0 D F H Y D R T Y R Y G H ! U D * ;.=.Y F D U Y D R R R R b T R R R ! ! t.=.e.t.R ! R Q ! W E T W I P +.e.e.I Q T +.Q T e.O.O.+.+.I Q ! Q O.o.%.T E P O.U T U E W D G Q R U , 0 Y U G T D U T k b D i.z & 4 b v P C Q U l U C U l x H :.T U Y R R T U Y R U G U ! Y R R D l N - w b U Y Y R T Y N L Y F N Y U U R W R Y L B L Y F N 4 4 l K c j D K D T N N N U N N ....& m Z C :.F , = 6 U =.K N T ! q.! ..R W =.Q W T ! T +.=.=.! R T U T q.E e.! ! T +.Q ! =.! Y R W Y W W T ....W ....y.R R R ..R ......Y ..R U , , j N N Y T R F R D m , =.f.Y Y } } ..y.R R =.t.! ....t.p.....t.w.U N N N D Y T F Y T =.Y G R =.R R Y | } R W R R ..W Y w.....w.X...! ..! U w...| Y R R Y D F b N N D N U ",
"N Y R Y R D Y N Y T Y U U Y Y N E Q Q T T U U C ! T } } U U F B m b U ! Q W Q P U e.! & : = , 4 4 m Y N F D z m = Z &.Y R ! G Y D R D Q ! ! ! R j =.i.T ..R =...Y ..Y ..=.Z B L T T Y R Y B n L D B F T U w.! b R T T N R R R ! ! R ! R +.=.=.+.t.u.u.+.o.+.s.+.u.;.y.s.! o.y.s.u.p.+.;.t.t.=.R ! =.;.Q R Y Y | D k - w m H | F j = Y U R ..R R } =.T =.=.Y H z l n D F ;.Y R Y R %.F Y Y U Y D & -.&.Y U G U R Y =.=.=.Y G Y R t.! e.! ! p.Q t.T O.Q T E ! E Q ! ! e.p.! T Q Q Q R R Q =.Q R E ! 0.! I U O.H o.o.+.T P T U U E T T D U U R l 9 j D U U b Y Y z z l :.l - 4 b U D W T 6 U T v U > %.i.G Y G Y R U W T D G | R R R G T T Y N k * z b Y R R R D U B Y U Y z Y U U F Y Y B Y m N F N , : l T L j L b D U b z b b D U b y.-.& Z F b :.R c , = 4 I U R ....! t...W ..! p.T =.R U C ! Q U U R b U b W ! E ! ! ! ! Y H } ! R ..Y T W W R T ..Y Y R ..W U Y Y T R R R ..R U 9 : j z m Y } U Y Y D D & | :.R =.| ..;.Y ....t.! ..| ..w.! Y a.t.! T F ..........y.-.y.y.i.y.=.=.=.Y Y ! =...} R ....W ....| w.Y ..! ! R T W Y R T Y } W F F D Y U R U N D ",
"G Y Y } F U Y R U T R ! R T ! q.t.E q.W U U | m D D R R W U D m m Y U W W I L T W T E & , = j j j B m m m z D z , F :.Z | D F ` Z Y E T W Q R Y - ;.h.W t.R t.} ;.| Y R ! D B U U L E ! W U N R l z D W U ! q.U L ! R L R W ! R ! =.+.! ! +.t.t.d.t.o.+.o.R +.+.u.r.d.t.=.e.e.R +.=.=.=.e.u.=.Y Y Y R +.Y Y R ..Y Z : j 8 R R Y l , U ..R ! R ....} R R R R A 7 k m D H R Y m Y Y G R Q R Y F D , %.-.Z D C R Y R =.;.Y R T Y R U t.! R ! e.! Q E ! R U T T Q p.e.e.Q Q Q Q r.e.T T Q Q t.I e.0.O.Q e.! E o.o.;.Q E e.Q T P R U U C D U D T ! U 9 j D U D U N b l k } K 4 0 C U U Q 6 D Q D Y b %.:.! Y Y Y R R R R R U D R Y Y D Y R R Y N 0 : D l G ..R R R D N Y R R F H Y Y Y U T Y D R L Y 0 4 N ! b 4 L b D U D N m z z N c j ;.R - 3 t z g.i.j 0 = , ! U F R R ! q.! W 0.! t.! Q Q ! D F T N U D N b W U ! R T ! ! ......t...T R W ..w.W R ....T T W ..U U Y Y N R U G Y Y N j , N c Y R N D } F N m q &.f.R | ..=.t...| } =.! R ......w...R =.t.........Y H R =.} ..;.t...a.X.| X.| R R ..R ......Y W W ......W T T ..W R R R Y R Y } Y R D m F D R b F ",
"z F Y G Y R U } B ..U E R R W W Q ! q.b N G U z z Y Y B N N M H m F N W U N R W E D l : & , j c l U N D 7 m D z : Y &.A Y U R m A R W R D U T R 2 y.j.! Y R s.t.Y F Y Y F N m N ! q.U N L Y L N D ! ! ! ! ! K b ! ! R T Y N R w.=.R =.R ! R y.t.+.o.+.;.R O.+.e.t.o.r.y.t.! +.p.T +.O.y.y.Q R R R U R R Y G +.R R m , m F -.x.v.z 7 z N U U T U T G D B U Y j 0 z Z Y +.F D F R H F Y R D G D k > =.:.D Q D Y Y %.t.=.=.t.Y R Y R ! ! p.! ! q.E R T T t.e.t.T e.+.T P +.Q E Q Q Q u.e.t.U E I ! I Q I ! O.o.o.;.+.e.T ! T T Q Y T T Y U T R R N R N j , * 9 j & - - b , : * * x x = * s f = * l H v 6 l b z l l q l b l b z b 9 l j l l 7 4 - * : + l 0 z , 0 4 4 4 m N l k 0 7 5 4 5 j j l k , : X j g & : : , : b c l D b b z l l =.H m i.=.Y i...x k 4 9 j m n Y W R t.q.! W +.p.e.! ..=.Y U U U ! U N U T U U T L E q.! t...w.R W w...t...N R W T Y W R ..F R Y R ..Y H R %.B D j j 4 z F F B B Y Y z D : } -.F Y U ..R ....-.R W ....! ..t.! } =.R ..=.....=...=.=.-...t.} ! =.=.' } H ....R } ..R ........! ..R | R ..Y W R ..Y Y R Y ..Y F D D F Y N N N ",
"D Y Y Y F R N R F D Y T D R w.E E ! q.! T U Y 0 D Y Y Y T G N Z F B B Y U m b N T U T = : a : c v W ! U b N U b - =.;.M F D ! Y m Y ! U Y T R R 9 :.i.t.=.Y ! =.! ..Y m Y Y L F U U L U T ! L L c T ! T E ! E P U ! U ! L U N ! R R o.R +.=.t.y.=.+.;.=.i.R i.+.R =.t.=.t.Q R r.e.e.+.! ! u.! Y R T U D R R +.Y Y N * t &.c.P.v.m l 6 : , 2 - = : + - * 6 7 9 l Z D D R Y Y R G F Y R R | Y z k 6 | :.R b b H ..+.! R ! ..Y T R Q =.Q Q ! ! ! E ! R ! q.e.U +.Q Q e.O.e.r.Q Q e.+.O.I I Q P Q I Q O.O.Q O.I +.+.O.=.! ! ! E Q Q T T T ! R T G U ..| i.y.;...i.y.y.y.g.y...y.X.y.i.t.-.j.i.g.y.y.i.i.i.i.i.i.i.h.v.v.=.i.:.f.;.g.i.g.y.i.i.y...:.=.i.i.f.g.i.:.-.y.y.g.:.X.y.g.g.i.X.i.f.y.X.i.X.y.a.i.W =.t.t.y...c c 9 j , : N m 9 i.! } b.f.D i.i.U c , a , k Y F N L R L D ! T ! Q E =.t.Y T ! U T U ! ! T E E q.W L R T U ..} ! .. .} ..w.R W w.U Y R Y Y R N R ..F R X.X.| R R 4 : l z N L U D M N D z : } i.N F Y L R ....R ....Y | w.W ..R =.Y Y =.Y ....| t.R ..R ..=.| R R | &.X.} R ..Y R ........R ! U T =.T R ..U ....! W R T Y U F F F N Y D N N T ",
"Y Y Y U Y R U R R Y D D Y Y U L N U ! b Y U N N T N t.R C D Y Z D z N Y D D U M z I U : 4 j 9 v v b b N N z D b 9 D  .t U R D M Y F G D N z Y ! : g.:.%.s.! =.=.=.R | T ..Y W c b N U U W W ! L k I ! I Q W C P ! ! U L T U ! ! +.! =.=.=.=.=.R +.+.R +.=.+.o.=.t.e.s.O.+.+.t.r.e.O.! W r.! R Y T R Q H R D R H D 0 0 4 D o.} A 0 b = 7 4 4 , 7 7 - 6 & - , 0 l w m H M H F R Y Y H Y F Y R b l & R ;.U D F Y Y Y +.Y C t.R Q R R Q R U R ! U ! ! ! U ! W r.! ! U W e.e.O.Q r.e.! +.! Q ! q.e.Q I e.r.e.O.O.O.I E +.Q Q e.W R T T Y T U T Y R T T U Y y.V.P.Z./.Z.P.I.U.P.U.U.F.W.U.U.Z.Z.(.n.P.I.W.E.I.R.P.I.U.Q.Q.I.U.L.P.L.Y.K.P.P.Y.I.b.b.P.b.k.h.L.P.I.J.U.I.n.c.j.J.I.Y.Q.P.Q.U.U.Z.(.V.V.U.Y.V.k.V.b.V.L.Z.f.R }  .:.i.} l b ! R k y.Y b :.t.P D , , 4 4 N Y T R W T U R U R R w.! Q =.! R t.R ! W Q E ! ! U t.Y Y B Y ..=.! ..` ..R ..W U T Y Y R D Y W ..Y B Y Y -.' X.! U , : z D N N m N Y N k l : ..-.Y Y ..! U R } R F R R ..| R ! R R } W ....} Y | ! =...i.y.;.;.=.Y =...| ..F =.....R R R ..R y.! t.=...=.=.y.=.R ..R U U R R T B Y N N Y B N N ",
"Y G N U z D R F U D Y Y U R L R W W R N 5 D F z T D ! ! z D D D D D D N Y D D N m U U : , , 4 P C C ! W U j N U x m A m D B N F Z m B N G T Q ! = g.b.Z =.=.y.t.U : , D B m F N N ! L c Y W T W z L W R ! E T z U 0.T U W ! ! T U ! Y Q =.=.y.=.+.r.t.=.+.+.+.y.p.+.e.! ! Q ! p.! Q O.e.e.+.T 0 4 x D F D M G D G m 7 9 m F Y H N 4 q l q 0 w l 6 6 + - H D 6 b m Z Y n D F D R T Y Y Y D F R 0 , | i.D Y Y R R %.! R =.t.R R R R ! ! ! t.e.W ! e.U b T ! W T W Q I e.I U W Q e.Q 0.I Q e.Q 0.e.O.O.+.Q E Q e.e.O.e.Q Q e.+.+.+.o.R R U T T U b R Y U b b D b L b c b T b W b U U K U R P Q P R U U Y N H &.H U U R ..Y N D N U U F U U Y D R D b L N ..Y W D R B D B N Y Y N n Y Y z N N N L Y L Y b z L N N b N T Y Y } =.....b j ..U l y.Y U v.t.U C k j a 4 j R T R T R ! T t.R a...=.! ! ! R R ..t.! t.U T q.W T T R R R R T W t.W ! t.! Y T R ..T T R W N Y Y | Y F R | ..D N , x w N m G D U D L N 0 : -.&.T R F Y F Y N 4 4 N Y Y Y Y T ..! ....w...=.=.=.z.B.v.C.C.i.v.y.! R R ! ! R | Y R Y ..T U y...v.b.s.v.i.i.d.a.t.t.R U T W U F Y Y R R U N N N ",
"B Y Y D Y D } D G Y R R U U T Y T N T Y l Y Y D T =.=.t.G R R Y H D N T N D G D m U E > : j l b v P E b z z n N , m =.G G Y D ` Z m D D U ! R U * :.v.=.y.=.=.Y , 7 D : Y L U U Y N F D Y N Y U L L Y ! P T N U U U L ! ! ! U U U T R t.Q =.=.+.o.+.Q =.+.T e.t.p.! ! e.t.r.t.e.r.! R +.=.! D O 2 0 - H D G D | R T = k Z H H Y z l l 4 l b C C b D 0 Z A Z z Z F Z F Y D G T T Y %.Y =.R G D m 7 i.c.D F D F R ! T O.Y +.! W Q R T ! =.R R Q ! ! T T ! T r.Q Q ! Q e.Q Q r.Q Q I ! Q I Q I Q 0.e.I O.T Q ! I ! O.+.t.+.Q R O.O.+.R R ! U U R ! R Y G Y T U ! T ! ! Y U ..U ! U T U R ! ! R W T U +.G =.=...Y ! ! R R R Y U Y T R ....Y U Y R R Y U R T ..R R Y T D Y Y Y Y T F m N | R Y R W T ..U T R L T L T T N Y D , j l N j x ! U 7 ..F N v.s.! N j b l 4 4 m R W R R R ! R ..W t.t.=.Y R T ..! ..T q.U T W t.t.! ! t.....R R ..! ..t.E T Y W W W Y Y Y R W } Y Y T R ..} T N 4 , k m m F Y D U N N l & ..X.b B N N ..c : 0 m - n R Y ..R ..! R w.T ....=.l.s.=.=.=.X.R | =.! ! t.....w.....R R R R ..i.=.=.=.=.=.....R ! T ....W U U U N T } F N N Y U R ",
"D D D D N N Y N D D Y N N T T R U F Y D D U Y b +.R +.t.R R T T 8 F m Y F N F k B T W 9 = j x x U U D U U U z D - Y -.W Y Y } B R F R U ! U U U : i.j.R ! ..t.U 7 Z n.v.& =.! U D Y B F Y T R L j n Y W ! U E N W L N N U U U U b U C T T U Y T Q =.Q R o.+.s.=.+.u.p.e.e.+.e.! E ! +.Q ! ! 6 9 S Z.;.7 R t.+.t.Q G - 4 m Y H H D z m m z D D D D H m Z Z m G D Y D D F H Y D R R ! Y F Y b m F - V.y.l F Y R R Y T ! T ..e.e.E T =.t.! +.T ! t.R R O.Q I 0.e.0.+.+.r.+.Q Q E Q O.Q W +.0.I 0.0.e.0.I 0.I r.Q +.Q ! +.e.! E ! E T R R +.R U U ! U T R Y T Y ! T Q ! R T T ..Y T T U T T ..! ! R Q D H R R T U Y R Y R R Y R U ..R R U ..U T R R G R T ..T ..D Y Y Y Z b Y F F Y R } ! ..N R U W Y L m Y N Y Y Y Y D Y U N a m 0 j b ..T n ..D l g.y.E C j b b : , 4 F Y U Y ! U U ! U ! w.! R ! ! ! ! U W b D R ! ! t.t.R R =...=.....-.! R ..Y T R U R ..Y T ..R B Y Y Y Y B N Y D , : z j N U U D D Y Y j & ..X.L L B F D l 6 y n.g.- } ......R R ......Y =...t.=.R ..R Y | Y b D +.=...t.=.R R ......! T ..U T T ..T ....! C D R =.U U Y U Y Y U D b B N D N ",
"D m D F N D N U N L U T T N ..T Y Y G N z N D 9 R T =.=.F R R N m D D D m N 0 m N G W 4 j 9 d N j N E T D m D D j Y X.R U B G Y W R ! ! E ! T N , &.j.0.t.T ! +.V x.&.:.l ! U D T L N T T U Y L N L ..W ! E j j l N U c k l b D b z D b D D D T e.=.Q u.u.t.+.=.O.Q e.u.0.e.! ! R ! R p.! ! Q R :.X.Y 0 =.U Q T =.U , 0 Z ' R =.0 l z D R R D +.H m F N 9 D R H F Y F F H D Y Q Q =.R D D z D 9 ..!...G Y G Q R ! W ! W ! q.! ! ! =.Q ! p.W ! r.T R R Q e.e.I Q Q Q I O.O.! O.Q W +.T O.0.0.0.0.I r.e.I I I e.+.0.Q +.+.+.! U ! t.Q Q R R T R ! ! U T ..U Y R U =.U R R ..T ! R T R W R R R ! R %.} R U Y ! R R R =.U ! Y R R R R ..R U Y W Y Y R Y F W L R F Y R R R Y Y R D m F } Y Y Y W U N Y W F L Y L L L Y W R N N a z N b b R U k Y m b j.y.U Q v U T l j 4 l Y R F N W U T U q.t.T D N T =.+.! U t.! e.! T T U W ! t.R ..! U B R U R T W ......W } L W Y R Y Y Y T N m D Y : 9 5 m U m N B U N D 0 $  .-.N m Y G Y %.M :.` ;.0 Y Y Y Y ! ! W ..D W ! ..! ..! ! =.| Y U b F R %.....R R ..Y ..R R ..=.T ..R ..R R ..%.C b R ..U ! U U Y D D m z N D b D ",
"m N D Z Y R N D D T U Y W Y Y F F R Y D N N D B G ! ! t.m N F F l D D N z 0 m m M F D & , , x x j N N E R D Z z 4 R ;.T D B Z T b W ! T U E T F 4 A Y ! ! T U j.i.y | C O.t.! D Y U N q.Y n W W U N T L Y D B l N N K U U U U L U W R ! ! R ! ..Q =.;.u.=.=.t.T =.d.e.e.r.r.T ! R =.! Q T Q v.t.m b C T =.Q R +.T P 7 l Y | ;.| Z k l S Y D Y G R R H R Y Y Y Y F G Y B m H T T T m : , & , N : W.n.C +.R R R =.t...q.! R ! Q =.t.s.d.u.N.e.s.M.d.t.d.N.r.s.s.r.r.s.M.r.u.s.z.p.d.e.r.m.r.e.0.e.0.0.e.r.m.z.u.r.Q W Q W e.! ! ! R R ! +.t.=.t.s.t.a...Y D U R ! U ! T Y U N T Y ..U U T T ! ! R ;.Y ! T R +.! U U T R R R U U Y T Y ..T L R Y ..=.| y...R R R Y } Y F D m D D Y -.....y.......R R W R R ..W | ..} W R R =.T j 5 z l :.Y 2 ..B c z.d.Q Q l U E N z a 4 Y U F L R U U ! T N = & - * Y ! U ! ! =.T ! ! U U t.! +.! =...} B m Y F F Y ......Y W R T Y D Y F Y N F Y ..F , : 0 l z F N D T Y z N a Y | n N U D z f.g.A A D D B N N N T T R Y T U R W Y N Y Y Y M F Y b D | =.R R Y ..Y R R R Y =.y.Y R F Y Y ! -.Y D z N Y Y Y D N N b D C z m b N b ",
"N N D D Z Y F ..R Y R R F } =.U Z Y H l B T N j Y U R U R N N N m F B Y A Z F Z m b U : , x j j b l D b D D m m : R t.U U R T T T T ! T L Y Y N - F ..Y U T Y R C.e.C ! u.G +.! N W Y L Y } W N N K Y b D k F F F T L N ..! E R W ! U W Q ! y.=.+.=.y.y.=.O.u.+.=.p.t.e.! W t.! ! t.+.Q R P u.B.o.C O.=.! +.! ! ! ! 7 l G D ' } l k l D A D D Y T Y Y G D F =.! T H D H F F R b b 4 z 9 j b + d.^.Y T T ! U O.+.e.e.! ! T K e.z.d.d.u.=.u.d.s.z.p.s.r.s.u.p.p.s.u.u.z.e.M.N.r.z.d.r.s.u.p.r.Q Q e.! Q m.m.u.u.t.Q E Q W E E T U W Q R t.t.p.=.i.R i.t.Y D R ! ..F ..R D T T T R R Y =.! W T T T Y =.U U R R R R T R R U Y Y R T ..T R ..Y Y R T =.f.;.y.} D U T F Y H Y Y D Y | ......w.R ..W W W T T w...W ..| ..T ..R ..F N j l 9 =.U 4 ..b N d.u.T C j T t.T N k , N N F ..R ! q.t.! j 4 } I...7 t.+.U Q Q U t.t.Q U ! ! ..T ..t.} } Y ..T ..R ..W R } T T W T Y T m ....Y G D Y j j 4 N Y F D N R Y N N > F } D B N F Y Y f.o.z D Y Y N N z z N R | N N ..L G b b b Y ' R F 9 m D | Y L Y Y R F ....R R ....Y T R U G ..Y D l Y ! N D U U U D D b j D N N z ",
"N k N B m B Y R N Y R Y Y | Y } G U R z z D N m F N D U N N Y L 5 z m D F D D | Y N N & : 9 j b l c D c m z M z 4 } ..R ! D R U T U U W U b F L O =.=.W R t.! W R t.t.t.t.B F Y n m T ! Y Y R N N c N B D b G F D b T ! W q.T T W Q ! E ! q.t.=.t.i.=.i.=.=.d.+.p.t.T ! E U +.+.R ! ! W ! ! U ! t.! ! ! W ! ! ! U U - 9 z =.;.=.G k l S Y T Y F Y D F Z F R R Y Y H T D H Y C , 6 l N z N : t.).i.T Y Q Y Q R T +.s.! q.Q T s.d.u.Y Y Y R =.T R Y ! W P +.T ! I E Q E O.E +.! Q Q +.W ! +.Q e.Q e.0.e.r.Q Q R o.E Q O.Q W E W E ! ! ! y.u.R +.R W ! U U T R U t.R F Y ..R Y Q R ! ! ! ! Y T T ! T ! ! ! ! =.! R ..! T ! ..T T R ..t.T R ..R ..R =.=.Y Y N N R L } N Y Y U Y R Y T F Y F R N W n F L F W Y N F W T D U N B n D k k , } ! > N b j y.+.U C c U r.! U l j , b Y Y Y t.T ! ! U D &.g.i.j +.! ..q.t.Q e.! ! W T R ! E q.T Y W R R R W R t.R ..T W } ..} R U T =.R Y U B D , , 0 j 4 j 4 k z z 0 b & } ;.N z m m L m N | H D B F N N z z m B Y m D L b N N z R Y F F m l m D F Y Y Y  .F H F Y R R R U R T Y N T R D N N G F U D ..D U D D D m D z k b ",
"m F b U D N D N k n n N m D G Z B D F G m R G 0 B U R Y U W N c k D z Y G D Y D B U N 4 9 k j N z N Y m l G N N * Y ;.5 n G b b U N n N b L W Y O | R ! R T b ! ..W U T ! R R Y N W R ! Y U U N b b D m D N Y F B Y D T T w.! T C Q ! t.! t.=.t.p.s.R y.u.=.+.e.t.! ! U T t.e.=.Y N ! +.! W R +.T T P T Q +.T e.! b - b A R ..R k l C R D F Y Z D Y H Y R R o.R T R R O.D D - j D G N l O H ).j.T U G Y Q F T o.t.! t.! t.=...=.R Q +.;.+.+.+.R T ! T r.Q U U W T Q +.! T t.E +.O.Q O.e.W C I E e.0.Q I R O.%.o.z T O.Q W W T ! q.! U a.! T ! ! ..R U c U Q ! R R Q T =.R R =.R U ! ! ! U ! ! ! R R ! T z.R Q =.! ! ! ! R R R ! ..t...T ..R R R R =.} Y z Y T R R Y R D D R Y T N R L ..Y ..W N N R m N N Y Y Y U N N T U Y N 0 k : ..R , Y D l ;.=.K U b E E ! ! N k 9 l D } R R w.! R l.=.} Y N W R =.t.q.! T U U U W ! ! ! ! t.U q.Y T ! ! ! ..} t...! U R R ..R R ..Y U R R R N 9 , - & 4 : * - - 4 * j & Y -.c U z N N n Y z F N N Y B N N b U F F N N z N F D Y } N m D L l 0 m F N U Y F F H R =.D U T R U T Y Y D R R G N F R U U Y D N F N G F D k z m ",
"m m G Y F T N F N D N L B b m t z D Y z 0 D H m m D U ..R Y N m k N N R B U D D Y L b O : j j l j b U M w F B k = ..b.z k U R b L b U N L U W U X ....U w.! ! R | L R N ! R B Y Y F Q ......Y L z L D T T Y Y T T L R W U U ! q.U T p.t.! R ....! =.=.y.s.R +.u.R R ! ! ! s.+.Q Q R Q R T R +.! T W R R R +.T +.! D = 7 G Y %.%.D D m H R U D G H Y Y ! ! +.R R R R T Y 9 , b b F k j = ..!.h.x W D G ! U U U R ! E T T ! R ..R R ! O.%.G R O.+.e.Q T U U Q W e.E e.r.Q Q +.Q W e.Q U Q C P I W E T e.I W R =.T l b T R ! E ! ! q.t.T w.! ! ! R Y R G 9 U t.t.! ! R Q Y Q =.t.! T T R ! ! ! +.! +.Q =.! ! ! Q +.e.! R ! ......! =...! T ..! ..R ..} Y Y N N Z  .R Y Y F R U R ..T N B | Y N T Y N N Y Y Y N R L Y L D U D b N l 4 , } z , | 9 6 i.-.U U b T ! ! R U z 0 , D =...R ..! K s.z.P = ! ! T T ..t.t.R D ! W E U ! T ! w.w.W U U ! ! =.=.R T w.! ! W T R T Y L Y Y Y D D F , 9 l l L U L Y U D N c : Y X.U F L N N B N Z m z N Y B N D N N Y } D n z m Y N b D b Y B b j l D Z N Y Y Y G D } ! T U R Y Y D T l T U F z N b G F z B R D Y B D l k m b D ",
"m m Y D Y D D D N n U Y D b M Y Z m F D z N D D Y N R R D U U k 0 U N U D N D n k N N & : 4 4 K l B Y k m Z k z * N X.k Y N K U b T c T U W U N & Y -.T R R T R R T F R ..Y R R } Y R Y R N L U z F Y W N Y R ..R F ! W T b ! ! Q ! t.! ..R R ! t.! t.y.R Q t.u.! t.! R ! ! +.+.! Q =.u.+.T =.H ..R ! R R R +.Q =.U - l D H &.| m b z F R R R H F } Y ! ! R U R %.R Y - + b G b 9 j . D (.f.b R U R Y N C R Y ..! w.W ..e.! t...u.! G Y +.D R D D W Q W +.Q O.e.Q u.e.e.O.Q ! Q O.! ! U Q U E ! Q r.e.e.Q +.R T j W W ! ! w.q...U ! 0.! ! T ! R Y R T b R t.t.! t.t.+.Y ! R R Q R T ! R ..t.t.! T Q =.=.! Q R ! ! ! ! ! ! ......y.=.R ! =.R w.! T R Y T z n Y Y ..R Y T N R R R D R R T U B F W Y T Y W U ..R U N R U U D m N F z - D N j N B z :.Y l U D W ! t.R R z j , k U T Y N T ! T t.t.U U E U ! E U T T U Q O.+.T U U =.U ..W U ..! R ! R ! ! ......R ....Y Y N Y R R R Y D j 4 j x N N L l b N z l O ....U B N z U N L B G F N N F N N N z Y R z z N N F N z N D z N U 9 k m D ..N Y F Y B F F H N | T Y Y Y Y N U U U D R R Y F H F Y b D m m z N k m ",
"b N F z B U N B N B b B D D m N m N F N z B D 0 N N T U D N z n t D k F 0 N N N B N b , = , , j l 0 & : & & & 4 * z -...N U U ! b b l U b c N R k Y Y N z b N b D U k t b N m N b l 7 5 5 k b z 4 B k N b j c z t 0 z l k k b b b z l b N U b b b C D b l G D R T T b Y V Y T U Y U b U ! T m m j N U b Y C b U W Y + q 9 k Z b 9 D 9 - 7 l j 7 6 q 9 l q l z U l b , j D 9 0 - - - j (.b.5 Y R U Q ..N U U D Y T T N ! ! p.=.G U R D Y D R ! R ! E ! ! Q W t.e.T Q e.! I 0.Q Q ! ! ! ! I v E e.+.e.r.t.Q Q Q U l U ! E E ! W ! q.W W t.! R w.! ! =.U b Y q.R ..t.t.W R w.q.q.R T Y T w.T ! ! ! W U +.U +.t.t.+.T ..=.R ! ! q.R ..=.! ..R R ! ..! ..U R l F T ..R ! T Y R R ..U D D Y D B N Y U Y Y F D N U N N T N N N D z j k D j 8 x * z k : y.=.K b N T ! ! W Y N c j , k F U N N ! T Y L w.! W =.T ! w.! ! ! ! C ! e.D ! E ! w.! U +.R T +.R w...W =.! R Y R Y U Y R ..T Y U N 4 , , ; > p , : : : , ; O N } N z j n B N n z B N B Y m N m Y Y n B b z n b T z N B n z N n j j b N D D G b F F D Y N N D N U D D U C U D b j Y G F F Z N Y b b D m m m D b ",
"z m k n 0 m m j 5 k m k m z n 0 0 z z 0 M 0 4 m n a 5 k k k 0 0 z 0 0 k k m m k n j B 0 4 p 0 k 0 , l j 4 4 0 - : D &.N N N N U W W U T P U R ! j F Y F H Y Y M A Y F Y F H N } R M B m F m k Y F N n m M F | Y F U | } Y Y Y B D Y Y F Y R R F Y Y R H H Y B M  .Y H Y | | H H F | Y H H F -.H } ` } Y | } R F T U : , 4 j b l 6 R Y v b 6 b b k q b b N 0 j c c , j U l , , : j * b.P.7 D N D F =.D G F Y D D E U B U T U +.R U b F b T T U T P U v U l I b b P v V C P P b P v K v I P b E q.! e.q.! U b C C j U p.q.r.! 0.Q q.w.t.t.R U U T U U b x t.p.t...a.........t.t.! T w.T t...! q.! =.! +.! ! =.a.! t.! ! q.! a.! =.i.=.t...w.! T R ..D l , , m R Y ..T R R Y U R U 9 : , 4 : j 4 , , - 4 : l 4 j a 4 4 4 4 4 j 4 k z N 4 0 , 4 j & Y y.c D N L T E U U T Y l 4 , D U U T T Y W T ! T E T ! ! q.! U D E T R U U R R T =.=.N T +.+.! ! T ..! T ! Y Y T Y Y L D U R T U U 4 - M Y &.&.' X.i.X. .H m 4 c n N 0 j j z n n n z z a z n k k a k j j a z k j 0 l k l N j b j N k b z 0 N 0 k N z n k j N N N b G D H z D m l B m B N l z k z m l m 9 0 k k ",
"0 j n k n j k 8 5 j n m 0 0 0 k 0 m z z k 0 0 4 j 5 5 0 0 z 0 k 9 m 5 k m z z n 5 z j B 9 , l l j 9 j , - * * 9 . N y.D Y Y D N U D U U b T E ..- ..:.i.;.} X.&.X.i.y.=.X.&.g.X. .-.&. .X.......a.y.} ..-...-.j.=.X.i.;.y.f.| y...y.f.:.X.y.y.| f.g.g.i.d.j.y.2.g.i.i.x.b.i.i.i.i.:.i.:.&.-.i.=.i.;.&.&.g.;.h.i.%.b - , 4 0 b j l l b x l l z z m m b b l b b b b l z l 9 7 j l : Y n.Z b Y F G U N U ! ! Q Y R R R ! R O.R R D 9 j l 9 6 6 , 6 , x x : , j , d j 6 > - 6 j > , , j x , : j C ! r.e.T T 9 l j : k t.B.d.B.d.j.k.M.j.B.j.R q j 0 x l j R k.B.B.V.v.C.g.-.i.t.d.d.f.j.B.k.d.B.v.v.y.i.d.B.i.d.d.v.v.j.v.j.v.j.d.v.i.t...R ..R R } } k 4 j 0 U R =.R ....| ! ! ..D k j j j 4 j , 4 4 4 4 0 5 j a j , a 4 , 4 4 , D Y U z : , 0 m 0 =.=.b C c G L W U U Y D z 7 : 0 ..U Y Y Y L U T D U R W U T t.! W ! b T U ! R U R R ! Y ! R R ! R ! ! R T ..T U U Y N Y U U F Y F F , 0 M } :.f.2.-.h.f.2.` 8 4 n z N n k 4 j 2 N z z k n a k z k m z a a k j j j l 0 j z j b n k 0 0 4 k z z D k m k 4 0 0 z z N Y k M Z z m m H D 0 z z m M 0 z z l k k 7 9 k ",
"z 0 0 0 4 k z k j 0 0 n k 0 0 5 t k 0 0 0 k m 4 4 l 0 k 7 k k k 7 k 7 k t k m m n m k 0 j , k b c 9 k 0 k x j 9 = G | N R Y G z l T T E U T U R , M Y b Y B N b T R D B t D Y n m U N U L Y W U T U U L U N Y F N T G D F Y N T D D U Y U ..! ! R R T +.t.N U R H R y.=.+.R =.R U U Y D D G ! ..R U U U D T R P +.Y 2 9 l T U G G b U D H G T q l l b q 0 P J v v b 7 b l b & x , :.Z., F Y U C T P T T U T R ! Q q.! w.R U Y b l k 4 m 0 b b c j l b x 6 6 l j j 6 d v j , l x , d j 9 j U T t.+.T ! b C j j j D t.t.t.t.t.s.d.d.i.y.d.Q D C D z U U ..i.d.a.j.B.a.d.-.a.a.a.a.a.d.j.s.y.a.s.t.t.d.a.a.! t.d.t.t.! i.y.a.i.d.u.a.R ..t.T ..T T ..R Y Y Y R R t.! ..R t.....T | ..R F D N U T W W Y Y U Y Y F W Y L U N N U U ..R N F j , D D 4 =...D C j B U N E T D F z l 9 * l W N U T ! R R y.t.! e.w.t.! q.! R ..R ! Q D ! Y t.d...=.i.y.=.t.t.....t.....W Y L N R D W N Y U D 4 , , b b N D N N T c 4 , j k j b N 5 z N k k k m N k k j k k a k 4 k 4 4 k = x : j 9 j , j k j z N 7 k k m k k j k k 0 k j j j j j z z 9 z z z k m m 4 z k z m 9 m k m j z ",
"0 n k k k a n 5 k k 0 j t k 4 0 z n 4 z k 0 z 5 j z k z m l 0 5 0 k 4 0 0 0 l 2 k l j j - : : j x 0 4 0 7 : k 4 , 9 m B m b U U b N b U T T E ! , } ;.D N B R Y F R m H } N N F Y T ..T D Y N L U T N D Y D A } Y U T Y N N U U R U ! D t.! D =.=.t.=.! R R R R +.=.+.R ..R =.Z D D F D D G ! ! ! R D D D ` ' D G z - 9 l D T D G W R U Z Z b &.&.*.&.&.i.&.;.X.;.&.X.&.&.` %.H 0 &.-.C ! Y T b b I r.W Q Q Q Q e.r.! 0.T L T U ! N Y ! U T ! U ! E Q ! T E E P U Q P ! E U +.T I I +.T Q ! r.Q e.U U E Q Q U I Q Q E W ! q.! ! w.t.q.t.e.! ! o.=.=.u.e.t.t.d.=.t.t.! ! q.! w.! ! Q p.! ! ! w.! ! q.! q.w.E W t.=.=.! t.! ! ! R R ..=.=.%.! t...! T R ....R =.=.t...R ..y...=.a.....Y } ! ! ..R W w...W W R Y | B Y L | Y T ....R Y F N , z N 7 f.-.l N 7 D T N N N G R Y D l 4 , ..Y N ..t.s.! a.w.d.=.d.t.t.t.=.t.=.Y ..! U ! =.y.v.s.y.v.g.i.y.a.i.s.d.t.T E U D Y T R Y Y } U D j j j z m Y L N U T b 4 4 k 5 N 5 z k B k k 5 N c b j k n m z a l a a 4 j j x 4 j 4 , 6 9 , 4 n z z j k m k 0 k k j k 0 j 4 9 , , , j j 9 - Z m 9 z k z z z z j m 0 9 z 0 9 ",
"z m n N 0 m k n m 0 0 j 0 k z 0 n k z b 5 m 4 z 0 0 2 0 z k k 0 0 k z 0 q 5 7 m z z k m , = 0 , : O & O & . O : & & : 7 F R T b ! U U E b U T b & | ..N D T Y Y Y D D } Y D R R Y Y ..N N W T U T N U R U m Y F R R D R U ! U R U T U U R R R =.y.R ! =.R ..R R R Y Y | ! ! R G w l Z z b 0 D F ..R z b D S m z 8 * 9 j b G D T W ! U G D Z 3.J.4.c.c.g.h.x.h.n.c.h.f.4.f.:.:.&.y R =.l T D D D W W U ! ! ! e.Q e.q.q.Q Y q.Y T T W ! t.U W ! ! Q Q E ! Q Q T r.0.e.+.Q Q Q Q ! ! e.r.+.r.W ! e.! Q W Q W Q ! T q.e.! E Q t.0.W ! w.t.t.t.t.+.p.=.a.t.=.=.i.;.t.y.=.=.t.t.! w.t.! =.t.T ! t.t.! ..w.! ! ! W R R t.w.t.t.w.=.! ! =.=.=.R R =.=.=.R Y T R ! a.=.R t...R ....i.....Y ! ..=.T ! R w.R ..R R R L W R ..Y ..Y Y } R N D N U } 7 m m : :.=.D k z Y U D L U b Y Y D N j , N L Y ..N N U k b U D D N U R T Y N U D G C D =.;.R R G } U R U T U ! ..Y Y N D N U D T R Y N D B , j 0 k D Y N F U N N 5 4 z 5 0 z z l z k m k z j a j k 4 j k 4 4 a j k 4 4 4 j 9 l j j l j z m k a 0 z z k m z z j z M m m m m 9 0 9 b l z w l z 0 9 B m m D k 0 z k z z z ",
"0 : 4 2 4 2 4 - : 2 2 : - 2 4 0 4 : j 4 * 4 4 0 4 0 4 4 k 2 q 2 0 k k 0 k 4 4 j 9 7 0 l : 9 z 0 z 3.]  .>.g.2.] ` m 0 - 4 j 9 k k l b x , j b x & D b , b m b z c b z 0 N k z 0 z N c j x l j j l k z b x z 0 2 j 0 4 z l z N l b b j l z l b D b b N b G z b b z k z k l G N l 7 q 9 9 k j m q l 9 7 9 , 6 4 7 , 6 9 l D Z G G Y e.T b R 3.' m z B M j P R T U l D U D R b l b : =.y.b T U W T W P b q.0.! ! ! Q W L L U U U D T T ! T Y U U U Q q.! Q T T R r.Q e.r.! ! ! ! e.+.! E W T E ! Q q.Q Q q.u.p.W ! ! E I t.q.t.Q ! ! ! q.! s.t.+.=.e.t.t.t.i.t.=.s.t.=.t.t.w.! q...t.! ! ! R i.! p...=.w.! W ! T ..e.! ! t.w.w.t.w.=...=.t.=.=.=...R R R =.R ..=.R =.-.R Y ....;.} =.=...t.R ..R ..W ! t.W R t...} L | W Y B N Y } R B N R l 4 9 - =.! U b k D U N U U U D R D l z , , b T w.z b U U N N D C K P U T l U N b j l G +.=.R D Y Y R U T N U U R b b N b Y U Y Y T Y Y D D , 6 j b R L Y N U N N j j z j j k z m z k l k j 4 j j j j k 0 a 4 j 4 0 4 4 q k b 0 D z k N 0 0 k z k N 0 l j z l j k k D Z H m b 0 9 G B b 4 k 7 j 0 l m z b q 9 z l k k z ",
"* & X X * , O * , + - & : & - * : 4 , 0 4 ; = & , 4 - = & : & & = & O : & & & $ : & & = 7 z N k Y 4. . .f.&.&.;.` m 0 - : & O * , - & & - O - - - , - : - * - * & O O & - - * O * & * : X = & = - : * + O X % , 4 * - * - , & - & - & * @ - , : : - X X O * - : : : O 2 , & : & , - - : & , - - : - & & 7 , + : 7 , l b D D z m H Y l +.n.i.Y R U F F T R Y T T D Y D U U U F m , } =.G D P ! P +.Q N T q.Q Q Q W E E U W W ! ! W M.m.A.0.p.p.! e.s.N.t.u.v.d.N.m.N.s.z.N.p.p.r.p.u.z.s.p.! W Q W e.Q q.d.s.t.s.! ! W W q.p.! q.! U ! ! i.B.B.z.C.N.s.i.t.u.=.+.t.t...=.....=.=.! T ! t.! +.! R T T T W ! R ! T ! ! ..T W ! W w.t.t.=.t.i.;.Y ....R Y =.....R R ........} =.Y Y Y } R =.W Y q.w.w.W | W q.R } W W W F Y Y Y R y...Y N m Y j 9 4 Y R U N k U U U T N D N c U l z , 4 l R ..U N U ..U G b b b b U P b U b T l D D Y =.Y D R T T D ! U R W T U b N U D N U T D U N R N , 9 j z N U D U Y N N z 4 4 2 , , 0 4 4 7 6 2 4 4 - 2 j 4 4 4 2 4 , 4 2 k 4 7 9 k l 9 l k q x 5 , 0 4 , 4 j 4 0 0 4 k 0 l m m B l 9 j l 9 k 4 9 4 4 9 , 0 2 , 4 5 - - 9 9 : ",
"- 4 - , , 4 - * - 5 2 0 7 4 , , , - 4 7 j 9 4 9 9 9 , , : : : 9 & , : , = , : 9 , > 4 4 k 0 z k 0 4 z c l U j b c N 4 : , : * , - - : + - - , 9 , : - , : , & , : - - , : , , 7 : : 9 = : - , , , - , , 9 : , : , 4 : : 4 : , : & * + * : 0 , , , O : : 9 , , 9 = & , : 7 6 : 6 , - - 7 7 4 : 7 2 - , - - - & 4 7 , l 0 b I D D R q Y v.=.D R R R Y Y T T G R H Z H Y U R ! Y b 4 R =.U F C W T Q U b R W ! T E E E w.q.T t.t.! R p.w.s.t.p.t.! t.s.d.d.z.C.v.z.p.s.r.z.z.d.d.N.r.p.y.z.s.! I U +.Q Q p.s.t.s.d.! E ! U +.t.T T ! t.p.t.v.C.B.z.d.s.i.t.t.w.R t.W =.=.t.! R ..R ! ! e.t.! ! T ..T T R ..T ! w.t.T ! T R T ..T Y ! t.! y.=.=.=.} R R ....R ......! =.....} R } } Y Y R ..! ..W w.w.! W ..W W Y ..W W } L F } } ..| W N Y Y F 4 4 b l D T m N F D D Y U N b b U c x 9 : l D D D b U U b U U C P U c U U U U U b D =.R T c T U U R D U T U b G b D R U R U T R Y R U l , , 0 z D G D D N D D z l 4 , , - - : : , + 4 - - , - , = , 9 : = : , O : & , j k l 0 j 0 j 6 : , , , , , 4 , , 9 9 : , 6 b l j 9 9 0 l , , : , - - : , , 9 , : , , , & j : ",
"- - - 4 m k m 0 m B z n B z 0 4 : 9 9 k 9 , l l q j j b k k z 0 j ; j 0 j 9 j j 4 k z 0 D k N j 9 B Z N D L L N N N z 4 4 4 - 4 9 4 , 6 , , x , : , 9 4 7 , , j 9 , : 4 9 6 , 6 9 , 9 , - 6 , 9 , , : 9 , 7 4 , : l - , 9 , , , , , 9 , j j : - 6 * , 9 6 9 6 9 7 , 6 j - 9 6 2 Z w A m Z z , & * - , 4 4 , q q l b N B D U D m q H x.} m Z =.;.R R C 9 , H D R N ..T N N D m m j D t.! R R C ! U C U U U U U W ! ! E 0.E 0.e.! W W ! W N b U ! T ! e.E T +.O.Y ! Q Q W T E P +.I +.O.! +.E Q ! W I Q r.W U Q U Q Q Q W +.Q R =.p.e.! m.s.Q +.Q t.t.u.+.t.t.! t.u.p.d.i.t.! p.t.! E ! ! ! t.! t.T D =.! ! ! w.! ! R ..R E ! ! ! ..R %...R X.=.=.R R R ......T ..| | X.&.y.X.=.R Y Y ....W ......} R W W Y ..Y W F } | W ..} W ..Y F Y F Y Y N a b z N N j Y N N R N R R U U b N j j , 9 j l j l l l j c b l 9 , d 6 l b 9 j D Y R U b q j l l c b b l c 9 l j U ! U U U Y R T N z : j 4 c b b N D b N b D z k 9 j l > 0 l 6 - 0 5 5 : , 7 , , 6 , 4 , , 7 : , , j 4 j z 4 k z k , , 9 j 9 l 9 9 9 j j l j j m N m 0 l V j 0 b N z 0 9 - 6 , , j j 9 j 9 6 , d 0 ",
"= , - z M -.&.:.f.&.:.} R Y B b x l N b C w b v b 0 b m z m l U D z 0 k j 0 b b l N N , b b z j 7 z m N N Y F n D m N z j j 4 b 0 j j c x c l z j j b k q l z b , 7 l l j j l b l z a j l 9 l j 9 9 9 9 k b k z 0 6 j , q j 4 6 9 l j 6 j 4 9 j l 6 j l z l V z l z l 7 b N b D Z D w b b D 7 9 - 6 : l k : 4 b l , , G D G Y q %.<.H T R A R Y H D * 6 D 7 U W Y R W R D N F m j B } L ! R T W W Y ! q.U T W ..! r.q.W 0.0.r.! ! t.w.! ! R w.W ! ! E R U T R t.! T T O.E T U ! Q Q +.! P P Q ! Q Q ! ! U ! E E v U q.! p.=.a.t.t.! ! p.d.t.! ! =.t.! D ..t.t.t.u.d.t.t.e.=.t.t.t.p.t.i.+.=.t.! ! ! w.E W U W w.! ....! t.! t.! +.t.R R | Y | =.t.R W ..! w.w...=.} } =.t.| ..Y X.} ..R ..-.t.R R ......| W w...W | } } ..} } | W Y ..Y } N L a 4 z j c a z Y Y D b L W b U D a l j 9 , 6 - , , , : , , - 7 + - 9 , 9 - 7 9 q 4 9 , , 9 , - 7 , & j j , 9 , : j j k j j j j 7 : - 4 0 4 z U b N D N N T D N z k j j l j 9 0 B - - 7 j j z l j 0 4 l 9 d : j j a = a 0 4 j m G l c 0 l b m 0 k k l k j j j 0 N N D D H Y b b Y m D M q 0 7 6 x z l D m U b , 9 j ",
": , j 5 } ..Y F } Y } H F B 0 , , U b Y l m b b N b N k D m k 0 b w 0 x k z D D b b D x l 0 B 5 z m B N c z b m Z R n 5 0 n N l N U K c b U D D z D U N 4 j n B b b U b b N N z N U N K C D Z z D b b l x N l U | j l C j c l I j j j j l b C j U l 7 l G Y G D D U Y N G D m U R Z D m D =.b z 6 7 & m D 4 0 b 9 F Z b U U V -.g.R D T R Y D R R C 6 S g.v.& R ! R R Y Y F Y m , Y &.n N T T ! L R R R t.q.=...t.! W q.q.W R T T L T W U W ! ! T r.U ! E T R ! ! +.o.Y U E e.! Q ! O.U P P ! ! q.U E Q E U ! E j E q.e.p.p.t.t.t.t.+.r.s.+.e.q.t.! R N t.t.t.t.t.y.u.=.t.t.=.i.i.t.t.R =.! ..! T T ! ! ! q.! ! ! q.t.w.! ! ! ! y...=.} ;.Y =.=.R ..F ..! ! t...;.=...R R ! R ..=.R ..! R w.....w.R W ! W ..w.| w.R | Y ..Y } X.F R N L N F Y k k 4 x b k z N R T U N ! U R D U N x b 9 , , , 7 - & + : 9 : * , = , 7 : = , , : 6 6 7 : , : , , = 9 , j - - - : & : - 4 , & , , 4 4 j x m D m N z D D D N U N m N m z z b z b N 7 x z N z j b b D l , 6 q b b a j j j b N N l N D F D } D D D R b D D N z b D G H F H H m l w 0 9 k j 4 b j 0 B D D D =.P > j , ",
", : : 0 Z M 5 2 7 5 z 3 0 4 , , q b k b D U N U l 9 l z 0 l z 0 z z j l b U b z z l U l C w V l 0 N M m Z D z D z D F M , p , l x P T b U C T U Y N N N k N N k T U U L U U z N b U U ! L T Y Y b N b b b T c N %.%.6 U c l U U x C b x b G C l U b l D U T Y R F D R H Y R R T T T G Y U u.q m - 7 = C C 7 l D C R %.P T b &.3.o.R D T +.R G U +.+.Z &.A =.q Y Y ;.%.%.&.A D m , R -.n N W W R N R N R ! q.W R ..W ! W q.q.Y L b k K c b K b j D b D c b l b b v v v C b C b v b b C b b l Q Q U ! ! U c l b d , W r.p.d.d.d.s.y.=.p.s.! L b T T U U U s.d.i.a.i.z.i.d.t.y.i.t.i.i.y.y.=.y...t.! =.=.t.+...=.t.a.t.t.t.! a.y.a.i.....| ......! =.Y R -...........f.i.....w... .=.=.=...t...w.....y.t.i.i.t...w...X.w...X.} w.f.F Y Y Y F W B L j j j j 4 b k N k b z U N U D T N L b j , , , , - , - 7 6 - & : 4 O : : 9 & - , , , 6 7 : * 4 , 4 , 4 , 9 j 9 4 7 6 , , , , 6 9 4 j j N l z m D b F Y D U D U z D N D N D U z N N N B j z N b D U b j b 4 L N k z m j 0 Y N N U R D T N Y U D D F D D b Z F D H F G =.| m z 0 l 0 l q 9 j l j N m D G W P , k l ",
"4 9 j j D z 4 2 4 4 - j 4 4 : j : x l l j l 4 b b z 0 0 z z 9 k 8 q j j j j l a 4 b N : 9 z b z 4 0 m N m B m U z M N 4 O 2 t 7 m D b T C D U U b b l l N F c k z N T U U N b U N c N U T N D N G j j L b c U T U t.T x P b P U l C l l U D C j G b b U D F U N D ! +.D U R R U R R F Z ! p.7 z j l , U D C D D C D D T b :.;.Y R +.R U T D D ..T d.i.w H l U Y Y %.' } } F F z , m y.R W ! N N N N ! R Y T T R U p.w.w.w.w.Y z j , , j 9 d , j : , : 9 , 9 , 6 6 j , : 9 6 , , , , , : - b Q R E ! T b l : : j D u.j.v.F.D.F.U.b.v.v.z.T j 4 9 j , l R j.v.A.Z.B.A.F.v.v.j.v.U.v.d.B.V.v.C.g.v.i.V.i.t.d.a.i.j.d.g.j.d.N.j.d.j.j.T t.| t...t.w.t.W t.g.d.j.j.g.j.g.f.b.k.g.f.g.&.f.y.y.i.X.X.V.a.k.k.g.k.b.g.k.f.f.k.k.f.f.f.y.....F w.F U L L N - 9 x k : - - * : , - , , : * j 4 4 , 9 , : , - - , : - 9 4 - 0 q - , & , - - 6 7 , , + 4 , 4 j 4 j , : & l , - j 9 6 9 9 9 9 j j j N N N M D N m D G D D Y m z b m x b N l k N N T k z D l b c b j : j c c j b l b x 4 N N U D N N F D D D m D D w b Z D D D D Y R F Z b 7 k j 4 , - N 4 0 z m b k D l N m l ",
"0 z m H z z 2 0 z m z k q & , k 9 9 l c 4 0 4 z 7 0 z z Z 0 2 4 z z j b l k 2 k b k 0 - 0 k z q b k 5 N n b l N M m m 0 5 2 ) M , b U N T U 5 4 4 j D k c b j z k N N N D L U U T N D l N U D b L b c l N U b ! T T =.T b L K U l x b l c C D b L 0 b D D ! U T U Y Y U Y D Y ! +.R T D ! u.9 D : , : T b c b C U D l m :.:.R R R T R W ! ! Y R T +.z.o.b C U ..R R o.=.D R D z 9 N y.N ..! F N T Y D Y R R t.R ..W Y W W W W Y m k z j x l c N b U G z C C V P b K b U b b l C D D N b b U Q +.! Q T R D j c b U +.t.s.s.s.p.s.u.u.t.s.! T D U T U R t.t.t.i.a.i.t.t.p.i.t.t.s.d.t.u.s.t.i...t.t.! t.! ! =.w...R t.! R a.....w.W ..t...t.R ..W ! R ....w...t...=...;.=.a.t.! } .. .X...W Y -.W Y } ..| } | w.w.| | | w. .w.| | W | } R R W Y F R z 6 , 9 , > : , 6 6 x 4 x 9 l x p p : , : : , 4 : - C :.v.i.i.=.j.d.=.%.y.y.=.i.i.t.=.i.v.i.y.i.=.i.t.b.i., l l j l l x j l x L N l N Y b D z D D U D U N C b z z 0 0 j l l k j j j k l j z 0 9 l : ; 6 a l 4 l N z l j l N N N j z b z m z k l 0 l l l z D F Y D H R D m z j 0 N b 5 z z 7 z 9 j 9 z l B N N ",
"h.v.I.x.I.n.K.c.b.k.h.h.c.i.f.h.j.h.&.R b.b.V.V.P.b.J.P.b.b.b.V.Z.b.j.k.v.j.I.b.h.2.c.b.Z.b.P.I.g.h.h.b.U.P.F.I.v.c.G.J.G.8.H.J.Z.P.P.I.J.I.K.c.4.4.P.I.b.J.J.f.j L N N b b U N b Y N z b b L U U U N c D b N N N D Y =.l b T N j C l j U x b l T l l D T D U U U D R R D D G Y T U C D T r.w b j 7 , C Z x T b U b l 3.i.D Y Y O.! U ! R ! U T ! C U Q R T U Y Y R Y Y F } D m 0 D y.R U b Y Y B B k n Y t.! 0.! R q.F ..L Y F } :.R q.Y T T ! t.R =.| =.Y ! e.! ! ! T T R W U ! Q R T I ! +.! ! Q q.U T ! t.q.Q +.+.r.! =.T t.t.s.p.! e.t.! q...t.t.t.R t.Q =.! ! ..i.t.=.t.=.=.d.y.t.t.=.! R W R T ! ! ! ..E ! +.t.T ..R ! W ! ..R W ..=.R w.............R w.! R ! ....W ! ..R R ..T ....U ..Y } R ..} Y | w.| B W ..} W ..W U Y Y R R } F R } B 9 9 N D Y Y F D F D N F N D Y F G Y D Y F Y F N , Y t.! s.t.! t.=.m +.R +.=.R y.=.=.=...=.=.t...=.t...U.} > D D D b D l z F Y L N G D D D N D U U b N b N k N N b D D b k N l b N l b N b b k 9 b B N l k b Y N N b b b b N j b F F D N F N N G C H b F G D Y m G H m m l 6 9 b Z b.n.b.b.c.c.c.K.c.c.4.8.h.",
"=.=.=.y.X...-.y...} ..} =.} X.R | ..T U ..w.....y.....=...y.t.+.R s...+...t.a.R | X.R ..=.=...&.' %.&.} =.&.y.%.' X.X.X. .' ] X.t... .;.]  .y. .} ` ` ..} X. .y.c j N b L N D c b 4 k N b p = > ; & O - : : 4 & > ; & 0 k & & & & : & & & * $ & d - - > v = x 6 & & , & o = : = O , : * > b & , & * & : * & & & & > D G d 6 4 k l C U R U W T R U o.Q T U R R R %.Y T R ! Y R F l 7 D R D G N F Y N D } D F Y Y ! ..w.F R w.R Y q.w.s.p.T Y U W ! ! W ! Q ! q.q.r.q.! ! Q W ! ! =.=.U ! E I Q +.+.E Q U ! q.t.! +.+.Q p.p.t.e.+.t.t.! ! t...t.p.t.q.t.a.a.+.t.s.y.R =.! t.W t.t.t.t.! +.+.=.! ! R R R Q ! ! ..! ! t.q.....! ....w.w.w.W =.....w.w.....} ..R t.R =.t.y.=.=.....t.Y } } Y } =.=.......| | } | ....w.X.X...| } W y.! W F ..| } m Y Y Y k B f.J.h.h.J.P.P.K.I.b.b.b.v.b.b.V.Z.b.K.b.g. .n q.w.w.d.! =.! T R T R ......;.} t.=.=.a.! w.Y w.t.b B.=.* b b T W U b D F z Y U ! U N Y D l T N N D b b 0 w D D D N N m U m N D U b N U U D N F R N Y L U R U G N U U R D j c .. .D T } F R D Y Y D D H Y D U b Z m N l k k k F :.| =.=. .H %.%.%.| %.&.=.",
"D N b N D N b z D U T U b l b 9 z b N N U b b N D N T N R P D U U U P K K b P P K U U b D b W N Y U c F m m D b 8 D b b D b N m U b N n D k e 5 z j N N n k U K c j x U U U U U N N U U , ..k.V.f.y.i.g.g. .f.y.( g.:.g.g.f.i.f.-.k.g.g.g.k.j.b.b.h.f.g.v.g.l.g.j.b.c.b.j.h.k.b.v.b.P.b.n.b.b.j.b.b.h.b.x.g.b.h.3.J.x.3.h.;.g.j.v.=.b ! W U E I E Q t.t.U D R U R H R D Y F Y F w , 0 Y T F m k b U F } H F T U ..w.R Y W ! ..F B U t.E W W ! W ! R q.T ! ! U =.! q.Q ! e.W e.! ! Q R T W W +.t.r.P I U ! q.w.! e.Q W e.e.t.r.q.t.=...t.q.t.t.t.t.t.q.t.t.! t.a.u.t.+.e.q.t.R ! u.+.t.p.=.+.! R R R y.! ! ! q.t.W W R t.t...! t.R t.....R ....t.| w.Y Y ........! ! R Y R R ....R } | Y R T R ....w...w...| ..R ....w...W w.R ! w.} W W } Y Y L N R Y : j z z Y Y Y Y Y R U U Q R ! R D R R R N N l : ! ! q.E W ! ! w.....w.t.=...;.y.d.t.=.t.t.w...t.t.U g.} : N N Y Y U U U z Y U U U D N T b D U U U Y U D k 9 - l D R Y Y Y N Y Y R Y ! Y m N Y X.X.R Y U R Y Y b b b z b b c l ....b Y b Y Y D D D Y R Y Z N m 7 l l j 9 k z m F Y R Y D b b F z D D D N D ",
"U T D T b R D G U D G D U N D m j N N U U T U T G B U U R ! ! W U N T T U E U P L L Y N R D D ..R R Y F D M U F G T F T U U L Y ! D Y F N Y Y m m U ! Y n Y B L b : x z N N c L N c c > h.Y.k.j.f.j.j.a.2.} 2.y.` y.y.k.b.v.j.i.:.f.d.g.f.b.V.k.g.j.v.b.g.b.V.v.b.v.b.j.V.V.v.j.v.g.v.h.c.b.V.b.b.b.b.b.n.i.h.V.v.b.f.3.f.y.i.v.d.t.d b D U E E T T T D m N D Y G ! R G F D Y m l 7 7 U ! b Z T Y D Z Z U F ..N ..R W ! T W W W W Y ! ..w.U W Y p.T R ! W W ! Q ! U Q ! +.t.T ! ! ! ! e.! w.T +.! Q T E r.q.E W p.! u.t.p.q.e.Q ! R R ! w.t.=.t.W ! t.! t.t.! t.t.t.t.! t.q.t.! ! ! q.=.t...! =.! U Q ! ! w.! ..! ..! ! q.! ..T ! w.! R R T W ..| y.R Y ! W ....R ....L R t.! R ..R R | ..w...t.w.Y | | w.Y } } w.w.! ..| w.w.W q.W N W W } N Y Y W Y k 4 l z L B N U U U N U b U D ! N D Y U ! N b 4 W ! q.! ! ! ! U q.R =.y.t.=.i.=.y.y.=.=.=.p.R b R Y j.Y & U L U T b U b U G T Y R Y b H U N N z D b b b l , : , b } ..=. .} } ..} } %.&.| } =.i.-.T ..R R U 4 j , a , a 4 j } -.-.L R R F R G F } =.%.H l j q j : j 4 j , l 0 F R Y R F N G F Y F D D N Y ",
"U T U N U D l U D D D D Y D D b U U D Y T ! ! E N D D U E U T W b T Q ! W W Q P b L B m T Y m D R N Y D D A F Y R N M Y ! T ! N N Y B N ! W ..Y Y U G Y N m D B b j j j l N n N b N & :.L.F - z j b K K b c 4 N c c b b b N b x N c b b b T U k U N D b U T b G c b N U U U b U U U T D b D U W C b E D m 0 m b D k F G D D Z G P f , P U T I U U ! T Q U m D } H N T =.D Y B D z 4 9 x b M Z Y | 0 D B U R R R } R W R ! T ! W T w.0.0.T U ! W ! w.p.+.+.e.y.Q ! E T Q ! Q U E =.Q e.=.R T T e.W P U E ! E q.F ! 0.Q e.p.! W ! U e.q.t.t.q.t.R w.R q.! t.=.t.t.=.t.=.t.e.! q.t.t.R =.! R +.! R =.R R +.! ! ! ! w.! ..! t.w...R R R ..t.| =...t.t.R R w.! ..R W Y R ! y...R ........a.t.......t.Y W ..W Y ..Y ..Y E ! Y q.Y q.W q.Y L ..R } W T R R T Y j j b Y Y Y R U U T R T c U U W T T U N l a , T T t.t.! q.W Y w.R | =.=.=.;.=.=.=.t.=...t.! R ! ..f.R j U N U U T D U U N N D F Y T F T T U N U b b b k l 4 , : 4 B H Y Y Z Y Y  .H R | } ..} =.R ..U W Y b l l j 4 j 4 x } R N T Y Y Y D Y F R H H H w l 9 9 j 4 j 7 x k z G Y Y Y G D z D m b D D G R ",
"D U D U b D F U N D T b T R R T T T Y Y =.Y ! ! F Y R ! U T T E t.! R ..+.e.e.+.=.R R T G N N D Y D Y M U b b ! ! E Y B U B T B B T M Z N N N N Y B m F B n N N N l j b L U L n Y N k k...L U z b N L D U U U N b ! U E b D L T Y D Y Y W T R R Y H R ! R Y +.D D T Y Y R R R ..R R Y Y R R T Y U T W R | Y X.F F | =.m Z D Y T U l , j U b C U T C P U U B Y R Y m D Z ..M H z M k j , , z D F Y U G z =.U U R ..W R w.W Y ! W W W ..w.! ! w.w.+.! ! ! q.t.R T E ! Q 0.E U E 0.q.q.W W e.U ! ! ! ! T E U L R W R R B G ' o.R D D Q =.t.w.=.! ! ! E W e.t.+.r.t.p.Q =.+.! e.e.q.e.t.+.T +.+.=.R ! Y R ! w.! T w.a.R q.! t.t.! =.R ......y.w.j.| y...R ....| R ..........R } ..R ..w.X...t...y.w.......w.} X.| w.| w.w.w.W w.w.W W ! E W Y Y ! R ! L Y Y N 4 a N Y b D N R U R U U U ! N U U U U b 4 : t.w.Y W ..t.t.! ! t.R t...t.y.i.y...=.......R t.R R k.y.: N W Y R U T N N G b N N D D D b U D Y D D D D U 9 j 9 , 7 & : 9 z N U N 0 D D U G F Z Y R } ..L W T U Y T N L Y Y } Y U Y W N R R F F Y D F Y F Y D j a z k z , 9 z D Y R N m Y Z z 0 D Z m N D ",
"N Y D D b N D D T R U N ! Y b R ! R N D G Y R D R ! R b U T W U ! U U T E W P r.T ! Y U R ! D T ..Z R R T U ! R ! q.! R R Y T N m N B L B N R z n m n F m E Y m z j l N T ..F m N a k i.N Y U N l l j 4 c U N c T E U E U N N U D D R U U U F U T D Y R R Y Y R T R T D D ..=.R | F R D ..&.R R U =.! R Y G D F ' Y D m R H H ! T c , 9 v U R D z b b M 0 z m m m F m B H m z M G N 7 : , 0 Z Y =.R U U Y ..R U R Y ! ! ..U ..W W ..} Y p.q.q.q.t.=.! ! e.Q t.W e.! s.! E E e.! ! ! T ! U W ! U I U U D D U =.! U T ! R - , Z G T ! ..Y ! t.t...! ! R ..+.=.p.e.+.! +.! ! ! t.! ! t.+.r.Q =.t.+.Q R =.! ....! q.! R R w...R ! p.! w...| R w...i.w.y.y...X.W ....t.y.-.t.W ..X.R R X.W | ....&.W ..} } ..X.w...W W w.w.w.W W U 0.U U q.R F Y W R Y L N Y ..b 4 l 4 - , : m U T U N Y W U b Y U b N x 4 N Y q.W w.T L t...=.t.w.W t.i.R y.s.t.R R ......w.T y.N 4 U N m Y F U T Y Y Y D Y D C D V N N D U T b b N z 9 7 9 , : , - - l z b m Y D Y D Y Y F R T Y ..T ......! F Y | R } Y R Y T R L } Y | Y Y F Y D D U 7 j , k m 9 , z Y H N G b D Z m z Z A D m D ",
"z G D b D U b N N N U N T D U T Y D b D U Y T R R Y U D k U u.W b U U U P +.T U N T U v T t.Y ..W D H D L L Y R U ! q.U W L L U W Y ! N N R N B n Y B ..U N T R D 4 4 0 W W m N k a b t.W N N N j & 2 k $ N N n b c N z U U U b b U U Y T U G U G D G U Y ..R T U R U R D } R R R H F ..Y ..| =...Y } A F M Z A | ! Y F F H m W T c , l v ! K T G N N k m N k m m B b D R F D A ` z m 4 , , 9 D W R ! N F ! W R T | Y Y ..w.w.Y ..w...R E e.0.! ! q.! ! ! U q.! r.0.W ! E E W E ! I q.L W L U ! W U U N T =.t.u.=.Q =.! - , w Y t.t.Y =.t.d.t.t.t.=.t.! +.e.! ! ! 0.! +.=.! ! ! e.! ! ! ! ! =.=.! R =.! ! t.t.! E t...t.t.....d.t.w.t.t.y.a...w...X.t.w.a...t.t.R ..} } | ..y...F R Y w.| ..! ! X.| R y.Y } W Y } W ..w.! w.W W Y Y ! ....L U W Y T T R R T j j 4 m 3.:.6 D N U U T b ! N L U U D j , , a j b k k a j j j j 0 j b j l N l N 9 j 0 k b j l , : l L N B Y N D N T T F G N b b D b G Y N N U N U l m b c b 9 , , 9 - - - N D G D b z N D Y Y ..W T ..R ..R W W | ..=.! R T ..} ....R | | D G F Y Y G D > j , 9 B 0 7 z R | U Y U D G N z l m m D D ",
"N b D D N N G D N N Y U ! R N U D Y U U ! U T Y +.Y b l l Q p.E E I ! ! Y Y ! ! Y ..! c b D F U T N R Y R N Y t.U T q.W R T Y W W W b n F B m B B L m D b D N Y m 4 4 N k N N T k > N  .N U L U 4 4 D h.} p N c b N N N z L ! E U L N T b D Y Y Y D H Y Y R D G D R ..R R D R R ! Y F R Y R =.Y | } ' H m Y H Z H F H A F F H B D b , l U U z b D z w b z C z k B m B G U D m w B D l b 9 : 9 9 Y F ..N Y B R | Y W W q.E F R W ..| T W Q 0.q.! r.r.E U E t.p.r.Q 0.E t.! ! R ! ! E L ! R L Y E ! =.Y R p...=.=.+.Q D H R H Y ..p.! ..R ! ! =.i.p.s.! Q W +.p.p.t.! +.! Q ! q.t.! ! ! e.+.+.R =.t.t.e.q.! ! ! W ! ! ! ! i...=.i.a.t.i.t...d.a...f.a.w...i.g.....t...=.=.} X.w.R R ..W ..Y w.! ....w.T ..w.| B Y W B b ..W W w.W W ! W ..T L W R R N Y ..R R b 0 0 Z ' =.l U U R D D L U b N U b D z x 4 , 4 ; 4 4 , , 9 9 : j j , : 0 j - - j j , - , 9 4 0 k b F N m B U D Y N U N z D z b U N z N Y l z b b N b z D 9 k j j : , , - , 9 l N Y Y B R Y Y N Y W T W R t.Y W | W Y ..T ! W W ..R Y | } =.R Y %.| R D j j 6 0 9 , 9 l Y | F N D B G D Z 9 Z D Z Z ",
"N U N D m D b D N N D U T R U U D W ! =.Y Y T w.R R N k U ! +.U +.! W Q R R T Y Y R Y l m R r.e.Q R D U R Y Y y.+.! R ! ! U W R U R R W R ..M D D ! U U T T U B B a : j c N Y c l j k ..L U U T N m H F Y x b k U N Y N N L b T ! R U R G U N T Y U Y | R z D z N N Y F B ..Y R ..U Y } D Y Y B R B B m m N D F t m w m z B m m m z : 0 b D b z z k m 7 Q W b b N M Y T z D T M Y m T k l , 7 , k } D R R U Y R ! t.R T ! W T Y Y R R W W ! Q W q.t.=.R +.Q Q e.Q 0.q.0.W O.+.e.+.=.Q ! U N N Y N t.q.! t.e.! =.! Q r.! k 7 G =.t.p...R t.w.t.t.u.! ! q.! e.e.q.e.! =.e.Q =.t.q.q.! q.p.e.=.T o.=.t.O.R Q ! R ! t.! ....y.y.R i.i.B.=...=...a.w.k.X.&.t.=.y.-.=.w.t.w...t.} R T W | } t.R t.! ! a.....Y Y y.! ..w.W ..W T Y W W Y W R t.! W U c W W T | Y R R a j M D b b D T T z F T N U U R N D N l k j j > j , , 4 9 & , , , : , , - * & * , : 7 * : 7 & O : , , 4 4 c j d j : : * , - : l b D N G N U D l b N N U N N b 9 0 - , 0 - @ & 9 m Y Y D F F R Y T T =.Y T R ..R ! ....! W ! R Y ! | &.} =.R ! | R | Y 9 9 j 9 9 9 , b D Z D D G N U F l Z w Z m z ",
"z b G z b D D G T b T N ! W ! Y R R ! T T T D U ..! G z z ..! ! Q W Q +.Q R R B S | R 4 U =.! e.+.R G R G } =.+.R R +.e.U ! U R N R F N D N G Y Q U Y ! T W E L N j j b L N N k z 4 j j.T L U W i.Y 7 z z z b B N U Y F T D z U T T W U U U R T F U U ! =.0 8 m 0 k m m n W ..R F B Y B B b N N m Y M m Y n Y m t M M 3 5 0 2 m z , 7 0 z D b P T D z l U b U U 4 m Y ..R W n F B D Y B 0 x , , , m D T R ..Y Z R ! R Y W R R q.Y R U Y L U Q 0.p.s.=.=.o.Y Q ! 0.e.! Q u.! W W e.O.Q +.R T q.E N E t.R e.s.s.e.! ! p.t., : k y.......T t.t.! ..i.s.! ! ! ! u.e.=.! ! ! ! ! i.! t.! ! ! +.Q s.+.+.=.=.=.! +.t.! ! T ..=.i.s.y.=.;.i.t.t.w.....w.t.a.-.i.a.=.X.-...T ..w...} y.w.W ..y.R t...E w...a.t.L R y...w.p.w.w.W w.w.! w.W Y ....w...! L ! R Y R Y } Y B j 0 * c T G U N L T N z U R 0 = 7 j , x = 0 l : : j j l T D U ! Y Y R F Y ..| R Y F R =.} y.&.j.g.v.g.i.y...&.;.g.y.:.g.g.y.&.Y l l b N B b b m D l l N U D b l l l , 4 - , - , , l m D } X.R T Y R ..N ! ! ..=.R R ..R ! | R ! ..R y.} | R R ! Y Y 9 l : 9 j 4 4 z F F D G F Y D Y D D G F m D ",
"b m D b N U D D R U U N T b c x N D c b U k z c b j C m D e.! U C U b D D b D N D N G j D Q ..u.! R R H R R | ! =.R =.=...R T F F Y Y N ..Y Y U ! b Y U E U W n N j l b N N N L c 4 N -.R ! N U T p.U b U N R N W b T N N U b R T Y U U R ! Y R Y R ! =.y.1 k 0 2 8 2 0 1 y.i.R F m F m m B m Z B m M M B 8 t B M D m 2 k M 8 z m m 4 z m N E E U T C 9 P Q D p.T 2 N T ! L 0 B F Y D Z n 0 9 9 , - R R T Y F Z B U D U q.! T ! W W N U U E E ! q.q.+.U e.+.e.Q r.e.q.t.e.Q e.Q Q d.t.Q r.p.r.q.N ! 0.R u.p.! p.T U G G F Z H H ..R t.W ..! ! ! ! t.R ..q.e.! ! p.! t.R =.! e.=.! Q t.W t.+.u.+.+.Q R Q +.! +.=.! q...=.d.i.i.d.y.=.t.t.t...| ..X.w.a.f.R X.:.....R =.....| ....y.w.t...w.w.U =.w.w.w.| ..! | W ..w.Y ..L ! ..W ! w.! U Y w.! W W T ..Y ..R R F 4 l D N U U U D N b U Y U 9 =.W.U.U.W.P.(.(.Z.Q.Q.Y.P.W._._.).).(._.'.).(.!.W.W.Q.I.W./.U.Q.U.W.Q.P.P.P.b.P.P.n.b.b.b.n.b.b.h.:.:.} j j N N N N b b D N D b D b z l b l 9 , : , - @ z D F ..U | } | } ..R T } R ......U ! R =.} ......} X.:.:.&.Y T l l j j 9 j 4 k D G Y F Y Y U G D Y D D H b ",
"Z b D T U b N D N Y U T L b , , j , l b - a 4 , 9 9 6 4 T Q ! b & , , 9 0 , , , - j : j Y =.| ..R U s.+.+.=.Y =.Q =.+.R =.H Y Y R U U M F Y U Y D +.U c U U n b B j j a D L k c j j , F D c T P v T ! T z U D U U Y m Y Y N N k b Y U R Q ! R +.! U =.U g.:.F } } R  .X.| k...y.&.X. .` ` ) A A ` A A ` M ` ` H ` M A M t M M B A m 4 0 0 U ! b N U b j P d.T T R c 2 m F z D N F Y H n n B 0 j , , 6 D N U B Y R T T U ! ! w.W ! ! W L w.W W 0.! p.! Q e.! +.T u.! ! e.e.! ! ! =.+.+.p.r.Q ! p.W 0.W ! +.r.! ! ! q...! D Z H %.t...p.w.R R t.e.t.=.=.! ! ! +.! ! +.e.+.! ! p.Q +.T Q t.+.+.e.t.! T R +.! Q e.o.! E ! y.;.i.y.i.t.} t.y.y.Y t.w.y...y.X. .} } X.....y.;...a...Y } w.q.=.R w...w.t.w.t.w.q.w.w.W W ..q.W w.W Y W ! ! ! Y T w.Y W N ..U U U ..R U - x z N R T N U U b b N > &.'.P.i.d.d.y.s.d.y.a...y.;.=.} =.....=.=.R a.=.X.;.=.=.! ! ! T m b N U N b T D z D b F l D B b , N D ..-...Y j j z b b N b N b D U K N N z k b 6 : 4 * - & , j D Y Y  .......-...=...} Y R ..R R ..} F R -.R  .J.b.i.Y N j j 9 6 4 7 9 m m Z H Y Y } Y R R R R Z F G ",
"D U U D Y U U C R N U U T W b b R U D U U U U T C U U =...W W U U R b b b D U U G T b R =.=.Y &.A Y =.+.=.Y ;.| R T T } } H Y Y L N } } t F D Y m z Y D z k n N z 4 a k c W n k b c 4 j b D D T U L b c b U N U U Y U T b k N m k B T Y ! ..U T +.Q R R Y i.y.i.i.y.y.g.g...R =.=.j.f.g.3.] *.3. . .X. .&.2. . . .} }  ./ ] ( ` A M j 7 0 N ! U E U U > C t.Y D W ! k m D R U N b N m D N Y b 9 0 : : 0 D T R R Y L ! T ! ! ! q.q.! E ! U U L U I ! I Q Q ! q.! R ! t.! p.! ! T +.T +.! ! r.W t.e.e.Q =.+.! r.! W q.+.R - 2 z Y t.d.r.t.t.d.! +.+.t.! =.=.! e.W Q ! p.+.u.=.e.e.Q +.! ! e.=.+.! +.+.Q +.! +.U +.T ! ..=.;.j.y.i.y.=.R t.....t...w...=.X...} &.y...y.-.a.a.i.y.} ..q.! y.=.........t.w.w.W w.w.p.W a.w.W q.w.| w.W L W ! R W U U m ..R Y N T F Y 9 6 b U Y T T N R L U b N (.j.b N b U W l U b j 4 N =.D R b ! ! T Y =.+.! Y R ! R ! Q R U ! U L b T T R R R G D R R R Y M U T U k D Y ..=.U 4 j b N l b b D D D D N N b V m l 4 9 6 , - 4 , b Y Y } Y R ..} =.Y } =...Y w.R ..H } Y ! } 3.h.J.:.} b 9 d j j 9 - , 0 D B | D Y ..R T R =.G Y R H ",
"b D D U R R R T U T Y T T T ! U W L R T U T R ..=.U R =.t.E Q U ! ! ! R D N T E Y R Y =...| y.=.X.;.R Y o.! =.=.=.=.Y =.U R X.Y } B =.} ` m M ` A D N G Y N n N N j 4 b z Y B N z c j 4 b F D N N N N L b U L N N N N U N : k N l U N Y ! ! t.T R =.R ! =.T U Y T U ..D ! =.=.=.! R +.=.=.| } ..R U Y R R ! ! Y N Y Y Y G D F Y m m j j B m R P U I N x b R Y U U ..H c z U D D T b m Y c U D D b , & * l B D E T U L q.E E W W E U E E U q.E w.e.Q K U p.! ! ! t.! ! R ! t.R R ! ! =.! T ! L W e.U ! =.+.t.p.Q e.! D R z l G %.R s.t.! R T ..! ! +.e.+.=.! Q e.Q ! ! +.e.+.r.e.+.! T ! ! t.R +.U e.+.R U ! +.R ! q.! =.i.s.i.i.d.w.! a.t.y.t.} t...} &.y.;.}  .X...-.a.t.y...R Y ! ......R w.W X.t.| d...W w.! ..w...F ..} a.j.! ..w.! ..w...R R L R t.R Y Y L 4 , j j U U U T D U L , y.b.C ..R U U W R L T Y z T Q =.R =.=.=.! Y =.=.;.=.=.t.R ! T Q R U U N N W T Y R D =.Y R R Y H Y R R N G U D U ..-...b 9 l z z l b D N N D b N w 0 m z 9 j 7 4 , , + , b Y ....! ..D F ! R R Y ..R Y Y R R ..U ' <.&.` Z m 7 j j 7 , , : j Y Y Y Y R Y ..T R U | Y Y H ",
"G U T R D R Q ! T U U U U Y D K T R Y Y U Y T W T T U a.Q U T D R ! R G b ! ! R Y G Y ..=.D =.=.R =.=.=.+.+.=.=.t.R | R ! R ..F Y X.| X.m F Y B M R Y F R N D D c N 4 j B N Y c b j j , , 9 D D N L F L m m Y Y U U m U l - l m N R R Y T ! ! =.R +.=.R ! ! +.=.! t.=.=.=.=.R y.=.=.=.} } =.} ..R R D R R ..T ! Y F m m R R Y D Z z 9 l k Z D P ! N b j D R Y D R b } Y 0 k D N D D n N D U Y L T 7 , : , a Y R T ..U R ! W Y W I U E U E U U 0.E E W W T t.Q q.Q R Y R U R =.=.+.W U t.T U E Y R +.! +.r.t.! t.=.t.R R R o.+.+.R t.t.t.t...e.q.+.! +.p.+.+.e.+.O.=.+.e.! p.e.! ! e.! Q e.t.p.Q e.! ! Q +.+.R +.! ! e.t.i.d.t.t...a.a.....t...-.a.y.} ..=.=.:.=.| ..w...=.a.i.} ! L ..W } ....R | y...i...! W W E ..| L w.j.B.j.a.N.t.R L R Y Y Z W ..w.q.Y Y N - , c N c Y D D D N N 9 X.X.Y ..T R R ..! ! Y W N T ! ..+.! Y =.R H F +.+.=.R =.=.Q ! R W P U R R ! ! R =.=.T ..b ! ! ;.t.R R R Y N U b U U Y ....G j c k k U z D U G B F z b z b m j 6 : 9 6 7 : 9 U Y =.R | Y =.R R ..R ..R R | Y R R D  .} ` m k , j , 9 M , , 9 Z T F o.+.R R ..T U Y G U Y ",
"T T U R T U T R ..w.R R ! a.p.t.a.a.a.R =.s.t.t.t.! t.s.=.T +.s.p.+.+.+.u.y.s.t.y.=.;.R ..t.=.+.+.+.Y =.%.s.y.&.F ! R ..R ..Y B &.R } | =.R F N Y T Y F H R Y D N : 4 j c N 4 j c l j 4 9 - : B Y N N N k T Y U Y N U U z B N Y U D ..R ..! ! e.;.+.R ! =.U N N N B Y N D F =.Y =.Y Y } Y H Y F Y T F Y L L U U b b F n k z B F m 0 4 m m D T W U R U j D Y G b U G F -.H 4 b G Y D D U T U D T U b l 9 , , z T T U U U D U L T T W T E K U 0.W ! W W T ! Q T e.e.W ! W 0.=.R ! R +.O.T T ! W U e.! K ! ! t.Q q.+.t.s.Q - + b T ! w.t.q.i.d.t.! t.t.=...+.e.! ! t.e.+.d.e.e.t.e.t.e.p.t.e.+.t.+.+.t.+.p.+.=.t.O.T ! ! e.=.y.;.t.a.t.p... .....i.-.| -...=...;.t.....y.X.i.W w.y.| -...} -...w.w.....y.d.w.q.! q.W W W W a.a.W W E ..s...R R | Y R Y W t...Y N T 9 , k c N N Y T R F N 4 X.y.Q R Y U L U W ! E N l ! ! ! +...;.R ..| %.Y =.! =.t.R y.! U U ! ! ! w.! b R R T E D R ..R R R R S R Y D Y W N Y N N ..&.Y l j 0 b b G D z z Z z D T Z b z k l , j , 9 4 - : Z F =.X...} U R R R ! R | Y | Y z z Z m 4 j j 9 j k m , 9 9 D T Y Y R U Y L R T R U C Y ",
"R ! D U T T T T R T t.t.! w.t.a.t.a.t.! ! t.t.t.t.p.! i.t.! t.t.t.q.t.s.y.i.d.=.i.w.| | ! R ! t.t.=.R =.Y =.i.=.=.Y R R ....R Y ! F R ....Z Z Z N T Y F D D B Y B , a n Y b b F N n c 4 4 4 , , j L R T D T G T B N R D B b D U U T T R R t.! ! t.R %.R =...8 M n m n M A M g.a.=.U F F M m F ` B M F F 0 A A Z m n u m t m 0 m m k - 7 7 k j j l j k : m Y z z Y N w H y.R & l q l j 9 9 l j 4 , 9 , , , & - U T T U C U T U W W U F R D T ! e.U 0.U E W T R e.! p.! ! ! ! ! +.U T ! w.R U W T W U U E ! r.W r.! e.+.t.9 , l =.Q t.u.+.=.=.=.+.=.=.=.=.+.! t.=.+.q.q.p.Q ! +.! ! R Q Q O.T Q +.T T T Y U R Q ! T U Q e.s.+.! +.t...R y.y.|  .w.d.} ..R } X.w...-.t.i.g.t.-.....w.g.....y.a.y.t...R a.d.W N R ....! W } a.a.F ..=.Z Z T t.! W W t.R ..Y ..T R W 4 4 j N U D Y T b m 0 : =.i.! ! R T ! ! T R ! Y G ! R +.+.R ! Y R ..=.=.s.y.=.=.=.e.! U U ! +.! R U N t.t.U U ! R +.=.R Y U Y Y R U Y b b U R T N Y ..y.N b l B m N N z D D b Y D D 9 z m 0 9 j j 0 - , - 7 U Y } Y Y U U U =...R Y ..Y | c z : k Y j l j l j , , j U R ! T ! ! T U T T U U L T ",
"U U C D W R L W U U W Y U U U U Y b R ! ! ! ! R T U N U U ! =...! ! t.R T ! R U U T U D ! t.Q ! e.! ..=.+.+.y.=.+.+.+.R T Y R } D } Y Y Y F ` F B R Y F R F m M l j 4 k n n B L N N a z 4 4 4 - - 4 N m Y Y U U N M B m D U D T +.R o.R Q Q =.! =.;.=.Q y.i.< t 8 8 0 8 8 - i.y.H m A t Z B n Z m m F Z Z t F m A D 0 0 n t m B t k - : j j k 4 4 , , * C %.D D S Y D z H =.G - : 9 0 9 7 4 , ; : 9 9 , 6 : , 0 U U N G T U T Y T U T W U U p.q.U T E E Q Q U ! T ! W T T W R +.Q t.=.t.w.L Y N T K Q r.+.E ! t.q.! D R R Y ;.R W p.=.=.o.;.y.Q =.t.t.u.e.! Q t.e.! ! Q +.p.e.t.W G Q =.T U R O.O.E R O.o.T O.E E Q =.=.y.i.e.d.p.t.t.i.s.=...d.....! ....X.a.| X.a.a.....R ....=...t.R a.....X.....R } R R ..R W ! ! L ..i.R W =.M M N q.w...F ..R ..w.w.W R W : a j j B T T W ! D B 4 =.t.! ! w.w.t.p.+.e.Q R N D ! q.R =.=.=...&.;.o.y.=.y.=.R =.=.U Y ..=.R U ..R R ! U ! ! R =.=.Y R =...R R U D U N L Y R R U L T .. .m a z N b N l D l Y U Y z m N b N k j j 4 j 9 , - 9 D R R U ! R ! | =...=.| R Y T | Y ..z a 9 l l 9 , j U U R ! R ! ! T ! U ! U T T ",
"U N b U U T ! U U W ..! T T U ! T T R U ! T R ! ! R U l z R i.T T ! ! R Y Q G R R Y U j U R ! t...R Y =.t.t.=.i.=.=.=.=.R T D Z Y Y F Y ;.Y } M M G m D F m Y R m 4 j N n m b N F F n c L j a , , : & 4 b U R G T D U L N N D Y T Y Y ! Q Y =.Y Y =.! R &.:.X.} %... .X. .&.h.R ..=. . .] A A ` ` M A ` ` ` Z M A ` M A M t A D m 0 4 , b D 0 b D l j & l H H F m m D z b R t.z : l C v b b b b b D D b j , - 9 x U U T U D T D U R R T U ! ! p.E E Q ! Q ! Q Q =.s.! U ! ! W T +.N.d.d.d.M.d.=.! t.d.S.i.i.z.t.! W R R 7 , D =.T t.y.t.u.t.t.u.+.t.+.t.=.=.=.Q e.e.e.! ! +.+.! Q D ! u.;.=.=.t.Q =.=.u.u.+.! ! Q e.=.+.! ! =.t.t.p.t.=.i.-.j.t.! a.t...} -.-.X.-.w.t.....-.R t.t.R t.t.w.| } ..} ....X.! T w.w.W R t.W t.=.R q...` D N T a...| Y ....Y ....F Y , 4 l l b D b N R c z - y.j.R ! q.R U ! ! ! ! +.+.! T T T R R y.t.| +.=.o.+.y.t.R =.+.T W t.! T R ! R ....! T ! +.R =.Y R t.G T U Y R b U N R T W U U b U L } ..F j 4 b l N b D D N b N l N b b l k j 9 , 7 4 - , 9 b U R G F H | ..R R ..Y Y Y ..Y j 4 j k k : a x b U U T ! t.! T U ! U U U U ",
"L I U ! U T W E R W U W T W K U U U W ! R R T ! ! ! T b b t.t.! ! t.! ! Y Y ....U R R x =.! R t.=.R R R +.=.y.=.R R ! =...R Y Y F  .} Y G Y m D D B m D m m L T U 4 b m c T U N T Y U U N b b j 7 4 - - : 9 B F Y D N N U N R R G R R o.T R W R | | R =...=.f.;.f.y.&.2.g.h.=.} Y Y f.3.2.<.&.&.&.&.3.h.&.&.&.}  . .' ' ' ` X.%...M j j N R R Y D U C 9 z | R G m D D D U N R :.l b ! Q ! 0.I E W P U b D c l 9 , j U U T U Y T U T U ! ! T E ! ! ! E q.Q U ! s.t.+.e.! E e.e.e.u.s.! ..t.d.t.T =.s.......s.d.p.e.W ..R : , w Y U =.u.+.Q +.+.y.+.t.R ;.+.=.Q y.r.! +.p.+.Q e.! U l O.W +.+.! ! +.+.O.+.T +.0.! Q +.e.+.T T ! ! R ! t.+.F T ! ! U i.t.t...-.w.w.y.-.......a.y...t.w.w.t.w...y.y.-.a.y.d.T N ..w.E ..y.W w.t.U N ..D K b ! ....y...R w.| R N F T 4 j 4 N N N N Y D b D & ..d.R t.t.T t.! t.R ! e.p.=.! ..R +.R %.=.=.=.R =.+.=.=.t.=.! U T ! ! R R ! =.=.R R ! ! +.R =.T R R U t.R ! Q E ! R ..R K U U U T b U Y y.t.D p l z V b b N l N D b D b D C b l x l 9 9 , - - 7 D Y D Y ..N ..R ..R R Y N F 4 j x z j , 9 4 U U ! ! Q R T W U K U R E U ",
"T U E U T T U K T Y T N U U D U U L T R R ! +.R ..t.R b l ..! T T q.! W R R R ! U ..U k Q i.=.! ..t.R i.| R =.i.=.R Y ..Y ..=.y.| ' | | Y | Y ..R D N B } G ! =.! 0 b b N L H R R U U U N z x b j , 0 , , : 6 b D Y ! m Y T N Y ! Y R N U T T ! T ! +.R R ! R Y Y R W Y N R R ....=.R Y R W R ! ! ! W ! E U Q ! ! Y U G D D D D D z : 4 l l z N 0 l 7 = z %.N D A D D H Y R D t.+.6 b v v b b l v b j l 9 j j , & - C D T R U m Y W U U ! ! ! E 0.Q ! e.q.q.Q u.Q T U Q +.E e.p.p.e.U U ! ! N U ! ! U U N U ! L E ! R D F F G G R =.=.Q ..t.=.=.t.e.+.=.+.R ! e.! ! ! e.p.+.+.R U j R ! Q ! ! t.+.+.=.T +.+.p.p.Q p.R F Y R ! R N ! R t.R ..R ..Y ..w.w.a.d...| y.-.y.-.=.a.t.w.t...! W ..a.y.w...w.....! ..t.N.d.a.d.j.w.-.! ! Y ! U m ..q.w.=.R t...Y Y Y Y F , 9 j l b U N b G b l : y.d.N t.! t.=.t.=.R t.t.t.=.R ! t.=.R =.=...+.=.! ! ! =.....R D N ..! ! R ! ! ! R ! T T O.Y T ! Y Y o.+.=.Q U T t.R T R Y W U W U W U U U =.=.Y D j b b D D b k U D D z z U G N j j 0 9 l 7 , : : 7 m Y ..F Y | R Z m F Y B , 9 j k l , j 9 R ! U R +.+.T L T T W b ! ! ",
"U N b E U T b j l l c a 0 j j j j j 9 b U Q R +.=...R l U =.a.T ! ! T R U R =...! q.U 0 U +.R =.U w.Y | =.Q ;.:.| ;.H D Y t.=...R %.| } N N F Y U N D R Y D Y F N l D k B T R ! T N T N N N z b k l j 4 , 6 : - 0 D F Y Y G T W R D Y D R ! T R R R R H ! ! +.=.T ......T R ..! ! R Y ..T R R ..R T R ..T R R U Y D Y F F N U D R b 7 9 7 0 j b l 6 9 & Z X.D F D D M Z M V R D i.Y - b v C c C v x x v x b > , : & O 9 D U b D N N U U W T U E U ! ! 0.! 0.e.+.e.W b C p.p.r.W p.r.T Q e.! ! U E b U U Y Y ! L ! q.! D 0 l H U R ! =.=.! =.=.+.t.q.+.! =.=.=.e.! t.! =.! Q +.e.T l Q ! ! T ! R =.+.+.+.W e.e.+.+.! i.D Y u.=.+.a.t.y.g.y.-.y.y.....R w.| ..w.| y.....i.a.s...d.a.=.! p.w.y.t...w.w.t.t.a.S.S.B.j.N.j.N.V.a.! t.+.U Y b ! ! ..t.w.y...Y R Y B U 0 9 l b D D D U D N b & -.y.R =.t.p.! ! t...! =.! ! =.! =.t...=.+.=.=.+.=.t.! ! ..t.! Y D ..t.t.T U R =.t.Q +.=.=.R R =.+.+.R C G ! T W ! ! R ! w.U T E b T U T Y U R Y 3.} 9 , l b l D B G N Z Y D U b D l l x l 9 7 , , - - 0 N N H | Y A Z F Y Z 9 6 N l x 4 j j U T U R Q R W ! D W E U U W ",
"U L b E W ! W j 4 z k j l x , a 9 x j l N D U T U U U b x ! =.D D ! Q W W U N N U W C j U R +.! R ....R =.R =.i.| =.| R R ! ..=.=.R D D F F Y Y U N D R =.N Y } D , N N z T R N W L D L N N 0 B N N b 0 0 j , 6 : 0 D D D F U N R Y ! R T R T ! R ..T R R Y | +.R =.T } R Y R =.! R ..R U t.R T ! R N Y R R Y R R G Y G N D D D | Z : Z m F Y F Y F B 7 l ' F m M F F m F N ! ! Y =.Y j D D U U Y R T C Y D G B 9 : , : l U b U N U U U T U W W ! r.e.I e.W T +.Q U l U W ! ! b e.W b U N D U e.! ! U W L N U N ! q.! ! , & z Y R +.+.Y ! R ! =.R Q t.+.=.u.e.! +.e.s.t.+.e.e.e.D b R Q ! p.+.R T ! Q R ! ! e.! e.+.p.T D ! U T R ! -.y.R } &.-.w.Y L | ..Y R R t.W a...w.a.t.a.t.R t.t.t.t.a.R W R t.t.R t.W T ..w.U L R w.! t...T U N t.s.....t.=...R R B U T : , k l U T U D N U b - -.y.R t.R t.! =.+.e.! +.R =.u.! +.t.y.=.R R %.=...t.! ! R w.+.! a.t.t.! w.t.G U =.+.=.t.! =.! R =.O.+.+.! T T q.! ! R =.t.! T ! W W U ! R U } D H %.:.%.b 0 l b N N w b F D Z G M b m z 9 j 9 9 7 6 4 : * k F F H Z H F ` Y 0 , b k z 4 0 9 F U +.Y R N U T T U T U P R ",
"b U b b b T ! U T Y U E U b b l 0 , k b k b j l b k z z b ! ! U U N b b b b N z j 0 j j T t.t...! ! t.=.%.R =.d.! =.R Y R ! Y H Y e.R Y T U Y T N N U m D B F H D 6 z D Y D R c U U b N N m B m D R N D l 7 9 9 , , l Y F D G D U R ! ! ! ! ! ! ! ! =.! %.+.Y R R ..R ....Y R ! ! ! ..R T T R ! T R R ! U U R T R +.=.R T ! D F Y G 0  .&.f.c.2.c.h.3.' G =.D m Z Q R R N T U F Y Y =.D Z y.f.x.b.n.n.x.g.:.&.g.' A 8 x : 7 T U U z K U T U P ! e.Q e.e.! +.W e.E Q U P U b W T q.L N b U U T q.T U T b D U z N U U U N D M H D R =.R ! ! ! R =.=.=.! +.y.y.! s.! ! ! q.! +.+.T C b +.Q =.+.Q R Q t.Q y.t.q.! ! t.t...T T N b U ! ! ! } Y T Y U U T W B Y W F L T ! ! R ..q.! U ! E E ! D U =.Y Y W M.p.R R ..Y Y R T W ! Y .. .R ..U l ! d.t.t.t.=.....Y Y R } , 4 j b b b U U c N m * ..i.e.! ! =.! +.+.t.! u.Y =.t.t...t.=.=.! ! R =.T T ! t.! R R ! R =.=.=.R t...R Y u.u.+.+.t.t.! T t.T +.! ! E ! Q t.! =.y.t...R R ..R ! R T R ;.Y R | g.&.F 7 w z z m Z z F m 0 B A D N m l D x 6 j : , , 4 , D F F D H } X.0 j j l l 4 7 l D Y ! U T T U U ! T U c P T ",
"T U b U U U b T T U ! W E K j j z x l 0 b j k x l z z z U E R c b z z m l N b C l l z z p.=.=.! ..! ..;.-...! i.t.=.! y.....W T +.T T T R Y R Y F D =.R Z D Y U Y b k D R G Y U T U N L ..B b U D Y B Y U m k 4 l - l Y R +...=.l.t.l.s...T U T Y W T R ..R ! ! ! ! ! T ! =.R ..T R ..T U R U R T T R ! ! R R Y U R D R G Y R R A z 0 t Z D T D N z k 2 U ..A m U U Y Y F Y D M z N U t.l c D R Q ! R T D b K U z l q , : , x D R R T U U C P O.O.! I W O.Q e.e.+.T v x U K T T W U T U W ! D U T q.W ..! N m c R R Q T z V D R U +...! ..! W ! ..R T =.! t.=.p.Q +.+.r.Q Q Q ! T l ! ! ! R +.T R ! =.t.e.W e.e.e.+.+.! q.Q ..T ..W t.y...t.....t...! ..4 Y | ..W ....| a.w.4 Y t.! w.t.a.t.t.w...t.a.p...t.i...R ..t.t.R U T Y T | F n W w.t...R R Y R =.Y R b j j j N b N b N Y N z 4 ..g.! ! t.! =.=.t.Q ! ! R ! ! +.R R =.=.y.=.+.=.t.t.=.=.! ! =.=.R R =.=.%.+.=.+.z.u.e.! Q Q Q i.r.z.l.z.d.e.+.u.y.v.d.l.z.B.v.B.d.l.i.+.! T T R R R Y F Y } ' H , 0 z m z Z Z m F D Y R G N D b z j 7 l , , 7 , , b F H D m 7 j l l j : d 0 R } ..D U ! U U T ! C U E U ",
"T P K D b b ! b U U U R U K U j R U U E L W U U b U U ! R ! U U T U ! R L U W W U b N T ! ! +.R ! R =.a.} y.i.-.p.t.;.......R ..Y R Y Y =.| %.U Y N F =.B D F N z , l Y U U N N b N D b N D N N m N D F D B Y l 7 - z Y ..Y R t.t.=.t.t.U T U T W U R R ! U R ! U ! =.R Q R T ..! ..! T U G ! e.T ! R ! ! o.R R W U T F D U R F | D , w D m G N m 0 z 4 z ` M Y M A Y m Y Z U D M T l =.p.j x D b l T R U U U b Y b l 6 : : - U N U b T E U P E R Q U O.! ! +.Q P x , b E T W W e.Q j b I , b ! ! ! R w.q.! N b Q H R U - * 0 U T R ..w.t.t.W q.! t.! ! =.=.T ! Q +.! +.+.+.t.! b l T ! ! ! Q e.e.+.R R +.e.e.+.W e.+.U W ! ! R R T Y R ..R w.t.t.T W Y a Y ....| ..w...w...b ..d.p.w.w.T ! R t.w.a.w.d.t...R q.! =.T F } R R R | Y W m R ......=.! R ..F D F G & , j z Y N U N T U z - a.j.T ! ! ! t.! t...=.! U =.=.=.! Y =.=.+.O.R y...! s...=.=.R +.=.! =.R =.R =.y.t.=.+.+.+.+.O.z.N.+.o.s.e.! Q W =.t.=.;.y.l.i.;.=.i.o.=.T ! ! T U T U T D F | X.} D 0 l Z z D z Z H H H D Z z b N b c l j j 6 : 4 , , b D N j 6 j l l 6 j l H Y ;.R U Y R Q R ! T T ! E ",
"W P U U P ! R ! U ! U N R T T E E E U E R K W U W R W Q Q +.! W ! p.W ! ..t.W e.! ..t.t.! ! t.W =.! t.! y.;.i.a.....B D U W ! R B ! R ..Y Y Y T Y F D R } N l B F 6 k N Y R z l b B D Y N Y m F D F B k B N z N 9 = z y.D N R ! Y Y G U N U =.! ! R ! w.R T R R ! =.U R =.T R T ..T ! U Y U U E R ..R ! +.=.T O.W ! R H F Y Y ;.H z : m D D N N G N N - l %.m M ` ] Y M q Z R m z D U b =.! - c Y N P Q W U U b N l l 9 6 , 6 7 T T T b P U W e.+.+.E Q T +.O.Q , = : I ! ! ! q.P 9 > & & , b R R ! T U ! ! U k U B w D Z z D H U R ..R R t.! t.p.=.e.! ! ! t.=.y.+.R W Q +.W q.D C U +.! U D T +.e.Q +.Q W U T U T q.L C T U T N Y D T m B D Y Y D N Y m Y Y ....y...| W ..w.w.a.j.p.t...i.} } w.a.a.a.t.} ..t...! H Y } Y =.R | | L m B ..y...=.R =.} D F =.D : a 4 F B Y R U T L z 4 -.k.T T t.....Q ..p.! ! ! t.! ! t.! o.R o.R +.t.t.=.a.t.Y R =...R ..U ! R %...=.+.=.! e.t.Q o.u.d.E T D R T U U T R ! R =.! =.+.R ! T D b ! R R +.R ! U D G D B } ' A m j b b m D D Z D G S z b b D b N b l x 0 9 : - , 0 z j j k j j , j q %.R | ! R U T ! ! E ! T W ! ",
"U U T L T T ! W b N U U T U ! K T U L U E ! W ! T T ! ! ! e.+.U +.W ! W ! ..W R q.w.! E ..R R T =.=.R Y ....X.d.! ......} Y U T T U R =...Y R D Y R D Y ..N Y B D 2 : D N R R U D D Y U N N F N F F F U D N m D z = F i.U D Y ! D R D N x U ! E T T U t.=.U R T R Q ! R R R R W W ! R W Q R R D Y Y ! q.! ! T W t.T U R R U R F F D , z m D b N D D k 4 D | Z M  .&.| H k k F D Y b K P U +.! 7 D T b C U P L U b U v C j 7 = & N R b T R P P U T U T +.! E Q T C T C I e.e.e.! U C b C D P U D U U B T T ! U b T ! U o.Z D | F G R ..! ..t.w.L R =.! q.p.t.t...+.O.T ! Q Q +.W b b R y.+.Q Q Q U e.O.Q O.T T b U U T U C U T T W ! ..R Y ..R Y =.t.Y ....W R R w.......W ..w.w.} y.......w...W ....w.X.Y } F ..R =.Y ! e.U y.R W Y W N R ....R ! R =.! ..R D R 2 , j z D N U N Y U N : ..y.U T t.+.! =.=.+.t.! +.t.=.Q U =.=.o.u.! =.! ..! ! R Y ! ;.=.! ! R =.=.! R ..+.! =.! ;.;.+.y.+.C R D P U U U U ! =.R +.! Y +.o.=.T j U R R ! =.+.R ! U N m z l z F &.} b j z w z Z F F D D z D N G b b m k l 6 7 9 , : , 9 , 4 4 l , : , S H =...U W D T U I U K E U ",
"U E C U U T T U U U T U U U N U U U U E U E ! ! W U T T ! ! R +.! q.R ! t.w.....U +.R L T R T w.=.=.| ! ! +.=.y.......t.w.} T U =.=.t.=.T Y ! Y R Y | G D R Y R Y j * b U D F Y B N D R Y | F B D D Y D k B R N B : F g.W T N ..G D +.D j D U R R +.T =.t.! ! T ! ! =.! ! U ! T ! ! ! ! Q Y T U T ! ..q.q.e.E R U Y R ! D N G M D z 7 z z Y D F R n k , D %.D t A R Y b b b Y m D m b D b U r.! - U U b T N U b T U P b l , , 9 , D T T R Q W Q +.Q O.+.Q e.e.Q Q e.0.e.! ! P W t.E W Q W Q ! ! ! G m R ! U b L E t.z.p.: * w X.W t...t.t.t.! T ! W ! t.! t.t.t.Q W ! e.+.e.+.e.D D O.O.=.! ! ! 0.! E U R R R T U U T L ! ! U E U =.t.! ......d...t...! a.w...W ..W ..W ..a.| ......t.f.w.| ....w.t...y.t.w.R F Y R R ..=...y.! Y R Y l W t...t...X...! Y T L L , j j N U T U N N Y b - ..a.U R ! R T Y U R W R ! W Q R Z R =.R O.Y t.=.R +.t.=.=.R t.=.R T T R ..! R R =.! R ..+.R o.;.T U R R T T T U ! T ! U R W U T =.T R D U ! R R =.t.=.R Y G D D D U k z F | ' j 9 m Z z A A m m N N z D l z z k b 9 0 : 4 , , j 6 l 6 : , b F | Y ! T U W I U T ! E U ! ",
"E U P U U U U U K U U U T U T W E T U E T T U R E ! R e.=.R =.Q ! W ! ! T R Y T ! +.q.W R T U t.! =.R =.! =.3.g.t.-...w.w.N ....! t.=.R ! R W T U U R D N =.R Y R 9 - l Y T | T N F Y F Y R T U D F m Y B D D N k & U y.R T =.W D T Q D b b ! Y ! U U ! ! ! T U R ! U Y R ! U R ! U T W +.! ! U R W ..! u.e.+.T R R R =.R G m Y Y k - z D M N F Y m l 0 z } Z 0 Z z D N 7 D R Y B D T U Q U b u.R k l U z U T T U U b U b c 6 , , , b ! T R ! Q +.U Q E Q +.Q O.I e.U ! W e.W e.U q.! 0.e.q.e.e.P D n Y ! ! U L T ! +.R 4 : z Y U ! ! t.! w.! ! e.! Q Q p.e.e.e.=.! +.! Q =.T +.Q Q +.R Q Q r.e.p.! W ! +.! ! R T ! ! U W w.E ..! t.t.} t...R w.t.t.W ! =.w.w...Y ! ..! w.R | w...} y.w.w.t.Y W w.Y t.t.R ! U Y U ! ! D ! R R F B Y N b ..t.w...T ..t...R N ..U 4 j j z D L U U N U l & -.y.! W ! ! ! Y ! ! ! t.=.! T Y %.O.R +.! Y =.t.! ..=.R +.+.R ! ! R R T ! R R ! ! ..D W +.T Y O.T U U O.T E U R U T U t.T ! T Q Q T T C D T T R R T D N D D b V G b N U 0 b }  .| l 9 m F D D B m N 0 Y z m N z b m l 9 9 j l x 0 D q 9 , m Y Y R R U T U U U E T U K U ",
"U K T D T R U E b D ! C b T P U P ! E U U ! E E +.W Q t.=.+.=.R E W U W ..w.! R ....T T t.t.R ! R =.=.=.! =.&.f.....} i.w.R R ..R ! =.+.R W U R Y W D T R R Y T R , j l D R D T D b D N D U D Y U B U Y N N Y Y 0 - R i.L R R R N F Y U x D T U =.R R T t.R T U R R R =.! W T U W ! W U +.! ! T ! U t.p.! W R +.=.R | R R R Z H Y N 9 b D H F N Y F k , b Y F t j b 0 w 9 F R R G B D ! E T U ! d.D b N G U P U b D D D U N l , : & = b T U b b Q T ! I Q Q +.! I W U U W Q +.! p.e.! I Q r.e.U ! +.! ..T W E T R b R Q U ! ! ! W R ..t.w.w.! ! ! ! W ! +.+.Q +.Q ! Q +.e.W +.+.! e.q.t.t.=.t.=.Q ! t.! T Q ! R w.! ..T ! ! W U w.W ..w.p...} w.q.w.W ! w.R Y ..! W ! U R W ..a.| X.Y ..w.W U T ! N R D z b k c K c l j D c 4 b z j b j ....w.......T ! Y N W n : 4 z m N U D D U z b : ..i.Y R W W R T ! R t.! U R ..W %.=.| ! ..=.i.! =.! R R R Y D =.=.R ! W Q ! R T R =.! T R R +.o.+.T R T C U P R T G T R T T R Q U E C b b T T R R U U D B R D b D m D D m b j Y %.' m 9 l l b z j k z z l b b 0 z z j 9 j 4 q b z z C 9 6 k Y R ! ! T ! T U T T U U ! E ",
"W T P U b U U U U I W U U ! T U U ! ! L U U L ! E P T R Q t.e.R E ! q.! ....U ! R ..! ! ....! ! t.=.=...} } y.-.y...=.R ..t.t.Y } =.t.F Y ! R U U U D +.T +.R Y D , , 9 D b B F D ! N z D D T U k D z m B U D D z - D y.Y F U T N z ! D 0 R ! U +.Q R ! a.t.+.t.T ! p.Q ! R U R ..t.! ! R ! ! T ! Y W T ! T =.R R %.R Y R R Z F M m , m b G B D D m 0 - z =.H H D j 9 , b H Y M M D N N U P E T Q +.j l D b P U P D N U b b z j j 9 & j C U U U D O.I ! ! Q Q I Q ! ! E E E Q r.Q ! U U U r.! ! +.e.t.! ! Q E K T R p.t.W q.E W ! ! W w.W t.! ! W e.U ! ! ! t.! y.t.y.p.r.+.+.T q.! ! +.=.e.t.u.! ! ! ! T ! =.Q R T W ..Y T U R } Y w.W p... .Y B w.t...T ! ..! U w.Y E R R t.Y | | ..R ..W ..T w.R ..B 4 > 9 j 0 , 4 j 9 l : , 4 a 4 z -.W ! ! W Y T U U Y R b , j l b D N } T T L N , ....T ..T R R R U T ! ! R T ! R Y Y t.! Y R Q R T R +.Y R =.R ..+.t.! ! R W T ! ! ! ! ! Q R T R R T D U G T b U Y T T o.T R T R C U b C K D R b R R R Y Y k Z z z b b D U D D b D H ' l 7 , - , & = 4 , - , , , : - = : j j j l b l 0 7 6 l F Y R ! R T ! U T U I q.! E ",
"T U U W T T T T b ! U Q T T U U ! U U q.! K U T Q Q T Y w.! t.t.! W t.=.O.=.Q =.! t.R ..Y ! t.=.R t.;.Y =. .:.f.=.=.R =.=.R F D R ..! =.W U U U R ! U U G Q +.! C l 6 l T U F T N L b N N D N N z N D m l m B b N 2 D =.R R T U b D T D l Q U Q ! ! T =.y.+.t.t.+.+.T +.o.! H R R R R R E r.t.Q ! ! e.t.! ! R ! ....R Z Z } D R R b 7 0 z B B T R N z z D | Y D D F B F N N Y Y D D M Y L N U T T +.O.q b b D T T m b C b D D v 6 6 - , j U Q K C T U U P +.O.T T E ! q.W ! r.p.+.Q O.r.W e.m.! e.! Q W W e.U b Q ! E t.e.q.b Q W q.! e.! ! ! p.+.R Q ! +.T ! t.l.z.z.v.N.t.t.+.+.+.+.+.O.=.! t.e.! ! e.W q.L W w.U T W U L R t...W w.! W } ..! Y ! R R F W ! ..L Y ! w.! ! w.e.t.R R ! R ! W ..! R ..e.b U Y L N } Y L W R Y L L N k R ! ! t.U ..Y T Y Y N Y b - j j a N Y D D l U l ; ..&.U R Y R W Y R U ..! R ! ! R +.t.t.R ..T ! R ! t.R ! =.R R } t.=.| t.=...R ! ! R R E T ! R R ! T Y Y G R T G b ..D T Q R G T U T b b N Y G R Y D G D l m F m D U b G Y U G D U D F Z j l j z j k 9 k 7 9 l z b l z l b l l 9 b b b l , b Y ! R T ! ! q.W ! T L L T K ",
"U T ! T U U ! U T W E t.U T Q ! ! E ! t.! E U E Q R L T W ..! =.=.p.Q =.y.+.R =.t.W t...=.t.R R ....| | ;.:.:.:.X.=.=.y.=.=.R D R W ! D F B Y t.D D =.! B U U C D j , j U m R R D m U R D N R F m k D U U D N D T 0 F y.T D U Y D R D U b U R R ! R =.o.t.t.+.T o.! Q R R +.+.O.+.o.O.Q W ! ! q.q.U W T +.R R ..! T +.G Z ! R ! R U : N D D N U D D m 2 M | | | F F R U U Y G R A F D F m T U T T D o.+.4 b b D Y C U b U D c P b 7 6 * 6 b T U U D C C U r.! U e.! q.r.q.0.e.Q +.R O.T W e.e.b E Q ! ! T ! T N ! ..z } ..! u.W U E Q ! Q e.Q e.=.T e.t.e.! =.s.=.p.! ! e.e.r.Q +.T Q +.+.t.=.T ! ! Q i.! q.T ! ! ! U ! R 0.! t.t.! E t.R q.t...} ..R R T w.W ..W w.W ! W ..! t.} =...R W R T T t.w.m.t.! ..! q.w.t.w.! ! w.R R R R Y R ! R U W ! T ..T U U U N 4 z 4 z U U N U T b j 4 R =.U T R T U W Y R R R +.! R ! ! R T =.R T T R ..t.! } ! R R R =.=.R R ! R R =.! T Y W T U R R W b G N D D U Y G D Y R U D R D b b D N N D D U D Y F Z D D N N H U D D D G m B M G D Z j , 4 z z b D D b N l N m z D B D D D D z Z b l 6 N A R ..W ! ! U T T ..T U ! E ",
"! U U U b R ! L U E U U U E E ! ! ! T =.Q =.W E R T ! T =.=.! y.=.t.t.+.+.! ! y.R Y ! ! ! =...D ..Y | X.....X.&.Y R ..=.! t.=.Y R R y...F N D R D G Y Y R D l R U C , l G D ! T T D N D z B m k m N F U U G U F k , D y.U N W T N T U U b b R o.Y Y =.O.d.=.Q =.+.R ! +.+.t.W y.R ! ! R E +.W e.! q.! e.! ! ! Y ! R ! T R ..W ! R l , j U D G Y D U N 4 C =.H R T B T ! D R =.F D D D Z Y W ! T U U U =.Y 4 b D D b D U C D U b b l l , = , c ! T D U E ! U I Q s.s.u.r.q.U I U r.u.N.A.A.C.p.U ! e.E ! +.W W b =.t.! R ! t.t.! q.! ! ! Q e.q...R U ! W +.+.t.u.! ! Q ! +.Q U U +.e.=.t.i.;.=.t.T ! ! ..R ! W ! W ! R U U ! q.w.R T ! ! ! t.R R R ! y.R | W w...R q.! q.! =.t.! Y | Y =.W Y ! R ! ....e.! w.t.w.w.t.t.w.R ! R W w.! R ..! Y ..R ..! N R } ..U c , 4 k c T R R U L L l j 9 N F ....R Y U R U R ! R =.Y R R R R ! W R R ! ! ! T ..R T .... .Y R ;.=.Y Y ! R U T N U ! T R C l , l l l b j b j j l j l 9 j 9 l b z b Y R D b Z D C D D Y F m T U U G D Y Y D F R Y z , j z G N b D l l b z Z z 6 l Z z l b D m b 9 , 9 B Y ! ! ! R ! U ! U ! W ! W ",
"U U U Q I P ! E ! U ! U ! U w.! ! ! ! U Q W R w.T T ! T R Y t.! ! ! R ! =.=.R R R ..R | D R ..=.t.X.3.=.X.X.2.y...R R ..! F ....X.=.Y ..N U ....Y H G U Q U U U D j j N B T N D L U D D N z m G z D B U U D D D m : D g.N Y R R D N D U 7 D R =.! ! R t.+.+.R R ! Q ! ! t.Q Q t.R U b D R T R D ! q.! r.! t.R Y R R R ..U R D Q +.C 6 z D M m N R D 9 0 m | H F D N T T U F D A Z Z F F U ! N N U D T F | G 4 D D C b U C D c D U G l , , - , D U P U Q Q E Q d.t.e.! ! r.W ! E p.t.e.d.s.d.! e.W ! +.e.! W Q b D ! q.e.p.! ! ! q.q.! W ! q.! E Q R R Q W ! t.t.! R e.t.T E E U ! =.+.y.+.+.=.=.+.i.! q.! w.T ..! D Y W U ! R W ! R ! w.! W t...R %.=.! ....W T R q.! t.R ..=.=.=.R =.Y Y W R W t.q.! w.w.w.! t.w.! w.....W R ....t.R t.! Y | ;.W R R ..T U b b , 4 N N L U U c D Y b b j 4 b Y Y R R Y T U R W R R b =.! R Q R T ..U T ..U ! R ..W U F } R Y R R ..| } U ! ..T ! U C R z 6 q 9 9 l 9 l 9 c 9 j j , j j 9 q 0 l D Y G H Y D D H Y l H R B T b U Y H F F F G Y A , 0 4 N N m z N l j z l D H } , D z q D V b Z 9 > 7 G Y R ! R T W T U E q.Q ! U ",
"U U ! U L U C U T L T E U E T Q U ! E P ! T R ! U ! U ! ! ! R ! T ! =.=.! R y.R w.....R y.x.:.f.a. .&.f.2.g.&.X.Y | R R R T +.%.=.| =.R R R R Y G D T U Y B G U N 6 : l z m D D B m M N Q m D D Y R F z U U D T D O Y j.! D Y U U D U U b D R =.R ! =.i.+.Y Y R R U Y ! ! T Q ! U T R C q z G D T 0.e.+.Q R =.+.! Q T R O.D P U Q D 9 b N Y D U T U N 2 b | H R Z H D D B Y Y R | =.Y | R ! N Y F D G D R v.D , D m F D U D U b D b b 9 6 , 4 , U U T E I E Q +.! E P K ! e.e.! ! e.U ! U r.! ! ! U e.e.0.! U c Z A ! i.=.t.e.! ! ! ! q.t.q.! ! +.R ! ! ! ! s.u.! ! Q ! ! U U T Q +.=.+.R +.+.y.=.s.t.t.! ! R R ..E W U W ! q.! t.q.! W ..a.a.R T ....T ..=.Y R ! w...t.! t.! e.=.=.w.N Y R ..R N ! R w...| ..w.w.w...t.R R t.....! ! y.! =.;.=.| Y R U T N U z & a l z U T ! T T N N c 0 j , - 9 7 4 0 x 4 9 k b j k 9 l k 0 l j m l c N c D b z b m N b N N N M m G k C b b U D D c b D l 9 l l b 9 z l j l l w l D l V z z z G Y G B Y D G b F G V H D ! U D T Z F Y D N D 0 , k x b D z Z b k z l l D D y 9 w z z B D b N 4 = l m ..R R R ! T R T Q ! W U U ",
"Q U U R U T P U U E T U T T T T U Q E ! U T ! q.U U ..R +.! t.U T ;.=.t.R ! ......=.=.=.t.&.&...X.X.&...&.Y | } Y R R ! T ..! R Y | R %.Y Y G D D D z m R G Y Y b k 9 7 D G F Y D t Z U R U G N F Y D Y R Y F Y N * R g.z B ! ! U U U b j Y t.=.R ! +.Q +.! R R =.=.! R ! ! T T U +.+.G = = k G ! +.! u.Q O.+.! ! R R R R T U Q T U 9 b N R T Y Y G D - D =.D U D M F R | G U R R y.;.%.t...U Y T D R Y M =.y.T z b G R b U U D U U D b j j 4 : q T Q E b C +.Q U Q l U I +.e.! e.p.! e.W Q ! 0.e.W W e.U T W j F t.=...t.t.! ! ! p.w.t.! U R T =.R R ! t.t.+.u.T t.! ! Q Q b D +.W =.R Q +.t.t.=.t.=.t.! T T ! T ! W U E q.0.t.q.! R ! ......Y ..T L ..=.! q.! ! R ! w.! T ! w.Q ! R U R R ..W ! t.W y.t.w.T ! R Y ! ! w.......w...! =.Q R o.y.R R R U N T N N & a c b N R ! R U L T U z j , - : , , - & * , : : = - - * & * * - X - & - : : - + : 4 - & & : , O * * & & + * , , , * * * 6 : , - - & - : + 4 , , 6 7 6 7 2 6 : 4 , , , 4 , 9 9 : 4 9 l 0 7 j , 7 0 k k q 0 4 , j j l b F D D F b D 9 z b l v b l b l z b b z z , 9 D Y T D R ! T T E W W T +.W ",
"Q ! Q R P T T T ..T L L L U P E p.! ! W W W W U E E W R =.R ! W =.Q ! =.+.t.} =.Y i.=.=...Y ..W Y |  .Y Y R Y | o.! Q R =.R =...F =.Q R T Y G F Y D H Y T U R ! Y 9 , l N D D U D M Z B Y U F Y D B U N N R R B D , Y y.Y D ! ..b U U D l D =.R U ! +...y.! R ! ! Q ! T t.+.T U U D D R 0 w C D ! e.R e.! +.T ! ! U Y +.D C U E P b , U b U D F U D 0 0 C +.U H G D Y R Y =.R =.t.t.R ..t.q.R ..Y T Q Y G D u.t.4 z C D U D l N D U V G b 7 q , = 9 U W P T D +.U U x l Q e.+.Q p.e.I q.e.Q ! ! q.e.! ! ! T ! b T u.+.=.p.t.=.t.t.p.! U ! q.R =.! R T p.q.! t.t.! q.! ! ! W U U T +.O.O.R =.t.=.t.+.! e.! ! E ! ! q.! T ! r.E W R E t...R Y X...R N } ....T W ! ..w.t.! ! w.a.R ..! +.R ! w.R W w.R ....w...} t.} ! =...R W w...! ! R R Y =.Y ! T R =.U U ..R N : 4 b W R R R T W T w.T c c 4 4 9 , : , j = 7 , : 7 , j , 4 j , , 0 4 , - 4 , , 9 , : - , , - , - - , , * * , 9 7 , * * 7 , - , - : : & : - 2 9 : , 6 j , 9 - , , = : , - O 7 - - - - - , 4 9 6 9 : 9 , - , 9 q 6 9 D m D D m z 9 m D V D D w 0 z z k l l 0 D j > 4 G T Y D R U Y R U U U W W Q ",
"Q W Q T ! W U R ! E ! T U U E U W ! ! ! Y T T T L U R T U ..Q ! =.R R ..=...| y.=.=.! =...} w.X.....=.=.Y %.R R R =.R R =.=...Y ..! T T D U G U N F D G Y | | =.N 4 4 l D Y R j D R b N R U G Y Y T D R U U U D D : D g.| Y R Y T N R U l U U ! U =.R R u.=.Q Y R R ! R ! T U T o.R D o.Z w R U ! ! +.Q R Y U ! T U R Q Q C D ! =.D , x N T Y F Y U z 2 b =.R D Y B F Y G Y U Y y.t.+.t.! Y } R ..t.t.R ..T +.=.=.4 l D D C D b U D N Y C b b 9 : : b b C C b E Q U l P T e.Q Q p.Q U U ! 0.e.E ! ! ! q.U 0.U P Y D b Y y.R ! ! w.t.T t.T ! ! O.+.R ! ! q.T d.p.! ! ! t.Q ! C R i.T =.+.Q +.R =.t.t.t.R t.q.! e.Q ! Q q.E t.! ! =.! t.t.! t.+.t.R t.Y Y T U w.R R a.T w.! ! t.t.+.! ! ! ! w.q.R ....t.....a...X.=.=.R ! ..! ! ..! R R ! ! t.=.=.R ! U G Y N T Y , 4 b N U U ! U N R Y R U Y z l b j x 9 9 0 , 9 9 9 0 , 4 j * : , 4 4 - - x b l , 0 4 , j , 0 k l l 9 j q 0 l , j j 6 6 9 , j 6 b 7 j x 7 9 j 9 7 l j 9 : 0 6 j j 9 7 l 6 6 l 6 9 , 9 9 9 x l 4 j 6 9 j 9 0 j 0 D D H | &.y.-.=.=.=.-.| Y =.%.o.&.-.| } F R X...l 9 L N R U R R C T D T E W ! T ",
"W Q ! R T W T U E U W ! I R ! P ! U E w.W W U W T W w.T U T ! Y ..R Q R o.+.%.=.G } =.R ..T Y =...y.} R =.} ..=.| %.H G ! R ..Y y.U Y R Y ! R F Y T Y Y ! G Y Y D 4 q j l N D l D C b q l z z z 0 l z 0 q 4 , j 4 , D j.T Y t.! Y U T U k N R =.Q R +.=.:.! R ! +.=.Q ! T ! ! W Q +.;.U & + l F Q =.! R R R R ! R T ! ! D U D =.R b 6 l D Y D Y D U z 0 D R Y R Y ! R +.t.! R } =.=.t...! R } Y =.Q R T ! T Y U y.=.* m N N D c C D D D T D Q v * : - z U P E T U U 6 b e.e.Q ! t.! C U C b P b l U P U R b D U R q.t.R q - Z +.F R T R R =.=.Y T T +.Q ! ! p.t.Q q.q.e.u.T T R O.Q =.Q e.! T ! +.s.s.t.! W ! ! q.W q.0.! p.t.d.u.t.! y.Y ..=.t.R t.Y ! W ! T R Y t.r.! w.r.q.r.w.! q.W q...W w.! ..y.t.t.t. .y.R w.W | W T R t.T U U E R Q R =.D Y b T Y Y F Y & j l L T T R L N Y U W U U W T b D z N c m N j b b k l N , : & l N , + - 4 0 - - - O - - : * 4 , 7 9 4 , 2 - 7 4 4 4 2 7 9 4 , 7 , q 4 2 2 7 0 4 4 4 , 7 7 4 * - 4 0 , , , 7 - - , - - - - , , & : - , - - * , - 4 0 0 b N 0 9 b l l 0 l 0 0 k 0 z k z 4 j m l 7 l Y U U U Y W U ! W U W E Q ! ",
"E Q =.+.U T U T E U ! U R T W ! ! U E ! ! T W W U ! ! R ! Y R T =.=.R =.%.;.T U X.=.t.=...! | =.-...! ! =.F ;.=.=.o.=.+.R T B T R Y ! R D Y Q R G R G Y T R R U U 4 9 , - : , , - * : 9 , 7 - - q 6 : 9 : 7 p 4 7 * R j.Y F R R T R Y T l R ! =.+.R Q y.y.U R ! Q Q T Q =.! ! T +.R R D 6 , w D T R ! T ! T ! Q Q ! ! Q T U b Q Q U , b U T U Y T T Z = F Y R R R +.! Q t...t.y.=.+.=.e.R T } ..! +.! Q G D N N G s.T 5 z z D T C b C W +.D e.V = , - - b T Q U j x , +.z.d.s.y.s.W : d d l x : 9 d , j 7 , 0 j U t.t.! - * 7 Y U R T ! T Q o.T R W =.Q ! +.+.+.T ! ! W +.+.D U t.+.=.+.U R q.! u.+.=.t.t.q.r.q.w.E ! w.t.! ! t.t.t.Q y. ...R ..R t.W w.w.Y T w.R ! t.e.Q t.! ! q.w.w...E W W R q.t.=.! a.R ..w.......w.W ..=.a.N N U U T ! Y N Y ..N D Y U T b & l b N R E T T R T U L U Y ..Y G D U N T R D b U N j z k : , b l : 7 l b k & : , 0 4 4 - 2 - * : k M b N D z V G m G M w m F m z Z z D m b D G Z D Z z b D b 7 Z Z m N m w z - : 4 - 2 z , 6 7 , 4 - : 7 6 4 : , j , , 9 9 9 C 9 w z D D z 0 l z l b z b m z D b j U R Y ..R ! T T T ! Q ! ! Q ",
"! E T ! U W T T E ! U E =.Q W e.! T T E W U W W ! W ! U R ! =.T =.| ..=.R =.R +.R =.=.=.=.=.=.;.T ..-.} G F =.| %.%.R R Y ! Y R R R ! D R o.R D R D U D T b T ! b 0 9 6 9 j C b D l k z j b l D l x 6 j l l l x l & Y g.R R U U U R Q C j D T =.R U o.=.y.Q R R ! ! G R C ! +.! R Y D H S Z D V U U W T U W T R U ! ! U ! L U T t.C = - 6 7 - 7 - 7 - - b R F Y ! ! R +.T ! =.i.R ! t.=.=.! =.t.+.+.+.Q D G D R U T d.D j k D D D C D U Q P e.J : , = , : T D T b x l ! u.t.+.e.=.b l l l b x b U 9 9 b , l V l ! R b Y R F Y Y R t.R E Q Y b =.T T ! ! t.! t.e.! E ! U ! +.U R t.=.t.+.! ! ..t.e.! t.t.e.s.e.q.p.q.Q w.w...t.=.+.q.! ! ....T ! R w.W t.Y ! T T R t.e.q.! ! t.! 0...! ! T ....! ..=.s...=.! t.y...t.w...R ..W T b T T Y ! T R Y F ....F Y F B l - a N N U L R N T U Y T L R T U U Y m B F Y U N G Y N 4 , l N N , , C T l , , : = = = 4 * : * - 6 q D q l D U U C b N T b D U U b l C D C D N b D b C b c C C 9 U b l D l b l , - , - l b l : , m k Z Z z m m m m m m k z Z m U l l x l 6 j l d q 9 j , , 9 q x 6 b Y Y R W Y Y U L Y T T W +.T ",
"! ! ! ! U T U T ! P U Q ! ! +.T T ! ! R T ! U W U ! ! E t.! ! t.Y ....=.T | R R ;.! | :.Y ..| =.y.-.=.} ..| =.Y =.=.=.=.%.=.Y ! Y R =.Y %.Y R F Y R R T N b E N D , : , & , 6 j , : & : = = , : , & & = : & : & , & Y h.Y R T G U ! R U b U R q.T T ! +.u.+.Q T U T ! R R p.! ! T R R T - 7 D H U T U ! N ! ! ! U T R T ! b b U T D , , 0 9 C b b z 9 + b =.U R ! ! R =.t.T +.a.Q =.R =.+.! =.! +.R =.t.F R Y R C C R y.D 0 l D D U P R T C e.v : j 4 , : , c T R U D ! T T U ! O.T Q R =.Q T R =.U b ..Q R Y ! u.e.p.R l 9 D R ..q.P T R ! ! e.! T U U U W q.e.! ! e.! =.+.U U t.e.t.+.+.R ! R ! ! t.! q.q.q.W t.0.! ! T w.! w.R q.! =.=.! t.e.! R R W W ! W Y q.! w.t.! ! w.! E W R W T W w.w...! ! R U q.t.t.t.t...| ..! U ! z T =.T Y Y T ..R R ..Y ..Y Y c & j z l T N Y N L U U U b Y D T b 4 z k D k b N k l 9 - 9 l b : , l D c : 4 n Y ' ' B Z A A Z 5 : j b C b D C D b b N D b U D D D D D G D D b U V V C D l D C l C U b b Z l z 9 7 = , j b b 7 9 A m A H y Z F F y m A n l D b D l H A | H  .' X. .| ;.X.i.i.-...Z 9 Y | R Y T T T U R W T L ! R ",
"! U E ! U ! Q T U T Q ! Q R U ! R Q +.t.+.W Q t.R ! Y T ..Y ;.} =.! =.Y | +.R ..| R ! =.| Y Y ..R ..y.X.! ..| ..=.R ! :.=.t...D R ..R ..R R Y Y Z H Y T D N R U 7 , , j k N l 7 z l m z l 0 l w b D k 0 j 7 7 0 z & D i.U R =.U T U W U C T R +.+.o.=.t.t.+.T +.U U U ! +.T T t.R U R F , * z R U U T ! R ..=.! T T ! T T N D U U D - 4 6 9 0 b z m 9 : l =.T R t.T R t.! ! ! s.t.! ! T T R | ! Q =.=.R ! ..R T V R W +.d.b l D U U D T +.R r.U : x l 4 , 4 j P Q R C R U I D T ! ! ! ! Q Q =.+.e.Q R R =.! ! =.e.Q ! ! , & m Y U ..W q.! ! ! ! R U D C D Q =.! U Q ! q.t.T b D +.+.Q =.t.W t.t.R t.! ! t.p.t.T W t.! q.! ! W q.t.R T ! Q t.! ! w.R t.U U W T Y W ! t...! ! ! q.W W ..! U ! ..! R ! t.! ....! w.t.! =.....! U ..D U =...R +.G Y Y F R R T Y F b : 4 , & = & : ; , & : O * - - & O * - : * & & + - O - , , k 4 & b V * - k t ( >.3.2.$.>.<.2.] n + 6 6 w w - q l w q 4 0 7 6 7 x 9 j 9 0 9 9 q x 9 7 6 , 7 , j = , j 6 , , j : , + : + , ; 6 > : t t 0 y m D Z y 8 m 3 O * - 9 l j Z A  .3.<.2.4.n.2.h.3.b.h.b.K.H 6 N Y R T T T ! L U L R b E T ",
"T E U T W U Q U E U T T +.=.! W =.Q ! +.Q =...! ....=...-.| y.=.=.+.o.R R R R R R ..=.;.:.=. .=...-...} ....R ..%.;.R R ! =.+.=...T U Y D D D Y R D T T U N z N l 4 l N U ! R R Y R Y R R =.=.R Y =...T ! T T U D z Y V.T Y =...U U U b l U R o.+.Y R R =.=.O.t.! ! U T ! R e.=.U D D Y F m G T U R U T Q Q t.Q Y T T W T L U T D b * : : * * b b , & - D =.N U R ! +.! Q W T +.=.=.! ! Y ! =.! R t.T +.+.Y U T Q R T D d.=.* l l b b R R T e.C p U l j 9 9 - D U T C U C b C T Q ! +.Q R +.D R ! ..! =.! ..Q ! ! R K U U D Y Y Y T T ! U R +.D U D T b T P ! Q T ! ! +.! T D b R e.T ! ! R q.! R =.T ! R t.! t.! w.r.! ! ! q.! ! ! R w.t.t.t.! T t.i.T Y T =.R R t.r.t.=.w.t.u.R ....! ! ! U W R ! U ! !  .U R a.a.R ..! ! Y T U b Y T T R ! Y G Y U b N Y z z - 4 c N L E L K K U U c z : &.P.P.L.b.J.b.k.V.J.P.L.J.P.Z.L.b.P.n.K.V.L.b.P.P.P.n.b.K.E.P.J.J.L.K.P.R.K.n.P.P.P.E.P.J.J.W.P.b.h.n.b.P.P.P.W.b.k.P.I.R.P.P.b.b.c.b.b.P.I.K.b.K.P.n.P.Z.6.6.c.K.K.E.K.P.c.4.H.G.K.4.c.J.P.G.P.P.c.c.4.c.f.D 4 n l c N m b U b Y U j b z R ! W T U ! T W U U T ! ..",
"U L T E T U T ! T U Q W T =.! Q ! +.Y O.Q =.! ! R R | | R y.y.-.| ;.;.=.U o.=.y.....=.;. .;.=...=...R ..T W R R =.=.R Y R =.t.! R U T R N R Y U D D Y N b D G G z j 6 x j l U v C q b C G Y R D C D b G b b b b b : D g.U U t.! U D U b 0 D R +.R R T ! i.=.R R T W Q ! ! ! Q =.T R +.G y l G R e.T W U +.! +.! T R U W E b D U T b 7 6 l C T U D l b 4 D =.! R T Y ! =.! ! +.=.=.Q ! ! R R o.R =.R T R ! G T b U T R D T u.t.* c U U P R U e.h d b b j j 9 O : v C E P C U C W +.T U W R G ! W R l : - 9 Y Q R Q R E T T W U N W T w.T U ! U R R D D U Q R +.=.U T W ! ! T C N ! ! +.! ! T =.! R R =.! =.t.! ! w...T R ! R E ! W W t.t...! ! ! t.q.w.W ! Y R U q.t.! T W ..a.w.! ..W ..Y Y R R U W ! ! R w.R R ..y.T F ....W ! T T D , & O G U D T U D n N z k = : p c L v J K x U b v - :.E.n.&.y.-.-.y.X.y.f.y.=.;.g.g.i.y...=.y.y.i.:.&.y.y.-. .-.-.3.=.-.k.:.:.v.g.g.g.x.x.v.:.h.;.i.g.y.=.=.%.;.-.3.i.=.&.=.:.g.y.y.y.=. .&.y.-.:.:.=.f.-.:.i.;.|  .&.:.3.3.:.:.:.&.&.&.%.&.&.y.g.2.:.f. . .'  . .} N U z D F F B N N R U q j U R ..R ! E R E U U U T R ! ",
"E U U U Q P T T ! T ! ! T O.T E R =.+.D Q R =.R Q a.=.Y =...=.=.=.=.+.=.R ;.y.R =.e.R .. ...+.y.;.y.T W R =...=.;.+.O.o.=.Y y.R Y R R R D R Y m F Y Y G D Y B k 0 - 5 D m N G D m w D D Z D D D C z 9 l l l j b b & G y.R U R T l C j q 6 U =.+.=.O.o.=.t.Q +.T U U ! T ! R e.Q +.W +.C * O D R T ! e.! ! T W ! R W ! Y T U G T R C : l m U C C D V D , D =.+.! R T ! Q R Q ! ! =.=.=.Q +.Q ;.=.R =.R ! R Y ! U U U T R o.T d.+.- c l U U D s.I d K K j j j j : : c U D b U U b T C U U ! T C T b & 0 %.G F Q R =.R U T U Y Y T ..W T U R T T U U Y V Y R U R ! U +.W U ! ! b K ! q...! +.! Q Y O.R ..! ! e.=.! ! R R ! +.+.p.! W ! q.t.! ! ! t.W ! t.t.Y R L U U R T ! U R R T T Y Y W T R R Y =.! Y W W ..R ..| w.R Y ..R ..T ! U - 6 F F 0 Y Y Y R Y T z U N : 0 N Y Y Y R W T R N l Y U.g.z D U D N Y N D m N F ..U B U U R G } T N L Y Y T ! z b D D } R Y Z Y %.=.! } Y D H R G Y z F N N U D D D R b N U H Y b l U U b D Y U F R G Y G D N l D b w b V D F D Y Y Y N F F F R F N U | H D M Z m F U N j m F Z Y R T U Y D z k l Y R R R t.E U R U T R T W ",
"U ! W b ! U T ! Q Q ! P R W U +.T R ..! ! =.Q R R R =.+.R =.Y y.| +.=.+.o.R =.=.R %.Y =.=.%.=.+.y...=.y.=.;.;.=.=.R R R o.R R R R U Y Y Y | D G Y Y D G D R D m b 0 M =.x.x.c.K.K.R.c.6.x.b.4.n.K.c.g.h.g.b.x.g.&.A U g.R D U l 9 : , j 0 i.z.y.s.l.=.d.t.! T R T D U D W W +.Q T T G R m w G R G R ! ! Q b T U ! R T Y T W b D ! b 7 l C C U C C U V 6 V -.H R R t.U T ! t.+.R ! ! +.Q =.R R e.=.! R ! Y R T b W U U R R T ! d.U & c D U U p.K 6 W I j l z j , 9 : l D U U T l Y U D ! ! ! T U C q ' g.j.& R R W R T N ! ! U W R W E U U T N U D D R b G N R =.b D T U R U N ! ! ! ! T ! ..Q R ;.%.R +.T =.+.O.+.Q +.Q R Q +.! q.U R ! =.! Q ! =.p.+.R U ! b ! U N U ! T E U T T W ..R Y ..} Y U Y ..R U ....W ! =.R D R U ! L Y N - H -.P.& R U Y R Y T N R z 2 F X.b.R.W.W.W.Z.P.b.&.f.b.F Y Y F Y R D G R ! Y F T Y Y =.Y T R } Y R ..R Y R Y F D R } H F U F %.R R H ;.Y Y Y } Y Y F Y Z H D Y Y R F =.H i.i.%.:.| ..=.y...;.;.l.v.:.i.| D G F D Y z H Z m F ' ;.:.;.:.-.:.X.-.-.&.=.i.%. .%.' R } U F 4 z n N Y N D N Y ..} z D ..T R ! ! R ! E I ! T R ! ",
"! ! T U Q W T ! t.! R T U W o.O.! ..! ..=.t.Q R R | ! ! =.| Y =.=.=.+.y.+.=.;.! Y R -.y.+.R t.t.! =.i.t.R Q =.=.R H R Y H F Y | R ..Y R Y R F U Y Y Y R H R D M 7 j , m Y Y D D %.R R H =.Y R =.| F G G R | +.R G Z U j.R R T D l l j b D +.+.y.+.e.! E +.=.R U T T D W T +.R Q U R Y Y z D U T Q +.t.! T T R R ! ! E T U T ! ! T b 6 q C D U T U D Z , D :.T =.+.Q Q ! R R +.Q Q =.! e.t.+.T R =.Q T G ! U ! T R T T ! R P U Q t.D j D b U e.v 9 U U l j c z j , 0 4 U +.N D D G R R T U l U T ;.D 2.' X.C R Q Q W U U ! ! R ! ..R N N W U U U D b C D F b Y ! U U W U R U N L ! T ! ! ..! R =.H =.=.e.=.T ! R R =.R U ! =.Q ! q.! Q t...! =.D +.T U T D U U R Y l ! ! R ....R R R ..R ! U ..R N Y T ..U W =.} y.=.T R Y R T ! D t.T %.A F 0 U ..R N Y D N Y c & j b R R ..e...W R C 6  .;.D } Y | Y b 9 , z B N Y Y Y Y R =.G R R Y ..R D Y R R F Y R R R F F R | Y R R | U Y Y Y G F F Y } Y H D F Y F =.Y R R H =.! R Y R Y %.%.=.=.%.%.=.U U D G D Z H Y D H -.D %.} | R %.-. .y.Y -.H %.H H G R ! R m - l z n R Y Y N D Y D l D R Y ! U ! ..q.! U T U T q.",
"U E W T T ! Q ! U R O.T T T R R ! ! R Y =.! U Q =.R T =.R =.=.y.t.=.;.=.=.u.t.Q Q =.=.+.=...=.w.t.M.y.R R ! ..R %.=.F H R H %.R | | | ;.Y F Y Y D D R R R D D l 9 , , k Y D b m R w G D D N R Y G D N D D D D ! c + C v.U U U U R T Y Y U P O.R D G W W U T T P R U C C +.+.Q C W Q Q R * * m Y E O.! ! Q D e.! ! T T ! T R Y R R G , j b D D R Q C V 4 D :.Y ! o.=.Q =.+.Q R R =.R t.! ! =.+.! R Q Y U +.Q R W R ! T N ! W C P =.s.b j C U Q l j K U x b N b b 9 : - j T U D G D D R R ! ! U x y.v.- m b T ! =.Q R K W T U ! ! U U T T T U L U C D D b U D Y ..N D U T D D c D ! =.! D t.! t.=.G ! =.u.+.R U R R Q R ! +.! ! U ! W ! U ! =.R | +.! Y Q U R R Y ! b W t.! ! R ..t.T t.Y Y Y ! W D R R R =.! Y =.F D F R R R R R U =.i.w 7 l T R D N U F D D T z - 4 z D U U R W ! R k = ..y.B N U R D - & w O m Y Y | %.Y U W Y Y U B W R ..Y Y U Y %.| R R H Y D R H R ;.Y D H Y Y D N G D D D | ! H H R Y Y D l Y F F B b D b Y N H M o.G Y z R Y Y F H Y H F Y | Z Y G R Y } } Y D D F G D D M D | | ..D , 4 m D Y N Y Y D B k k z T Y ! ! R ! W R U T L T ! ",
"E U R ! ! +.! T Q +.R ! ! ! +.! R T =.T T R ! ! t.R o.o.Y +.t.w.t.;.| =.=.=.=.! R +.+.=.=.! =.R ....! R +.R %.| =.=.%.T Y T %.Y H R ..Y | %.G R R D R H Z D N D k , , b R D D D G b b D D D R | R F Y D T R c R U - R v.Y T D c R Q +.+.! E T Y C R ! R ! T ! R T U U U Q r.T C R U T D l 0 D R I e.! e.Q D ! Q W T ! ! ! ! U R R D , b b C U C R U b , D d.%.Y +.=.t.=.R +.R +.+.+.W t.Q Q e.! +.R Q Q ! ! +.e.W ! U T U U D U U t.t., l U I x 6 l v 6 b b N l j 6 & , : b b b G U R T U T N K T B.t.U +.R Q +.U D ! U U U ! T ! L T Y D N U U D m D m N G F U D U ! U T D b D Y ! ! G ! R R ..| ! =.R R T Y +.=.=.! t.! ! U ! ! ! U ! ! ! ! R R R R +.R R G U N N T W ....R ....! } R Y T R R ..R R ..R R F ..Y U R Y N U B U T U ;.y.R T R R N Y Y z B D R l , l 0 D ! ! ! +.! U z + -.y.U D Y R 7 2 y :.h.& H Y R o.F R N R Y Y Y ..Y Y Y T R ! R H | R ! | Y | =.} Y D H F H U G D A Z N D R N ..F Y Y F G Z G b D z G D U D F Y } Y D b N H } } } A } } F G Y Z Y Y Y } H F Y } R R } | m D R ..| H D 7 x z z N F D Y G F z l D R ......! E T U U T E U E ",
"U U U U ! ! ! e.U ! T R Q R U ! ! t.=.R R ! =.! +.T R ! =.;...! =.=.Y %.=.=.Y R =.=.} ! ..! ! =.Y ..} a.+.=.Y R =.| | Y Y F R R =.} ;.R ! R %.R =.R =.H F Y D G w 6 9 z ! G b D m m G b D U D D U N z U U R D R D , D v.G +.Y Y Q Q R U Q E U U T U U U U T +.G T W Q T W ! U U C R Y D D F R T ! e.e.W ! U =.Q T R q.! T T R U D C - 0 D D D D T D C , Z =.%.Y +.=.+.p.+.=.R ! =.! R T y.+.Q ! ! R ! ! ! +.T T W Q +.E b U U ! G N t.=.* l P x , v 9 j C b D b l k , : j j D M Z U R Y Y T T T N b U T U U T R Q D T U N W ! T ! L Y U b U N N U D C F N m G =.N N U D R C b D T T o.Y R =.| R R R R R +.+.o.! =.R Q +.! ! R T T T U t.+...R ! =.Y o.R Y R Y R Q F Y R ..R R ..R R R W R R D Y =.R R =.! R R Y R G R R T U n T U Y Y W O.T m T W U U Y Z R U b ; j b Y ....! t.R T N * ..=.N D | Y %.D &.Z &.6 H U Y H G R ..R R R R ..R Y Y D D U R Y | Y Y H %.H H Y Y Y H R Y D D H F D M D D D R Y Y ..%.H ' z G D Y G G N D Z H F Y D N b H | X.Y Y } Y Z G Y Y Y D Y R D G N } R Y | X.k z D R ..Y F , , z m N Y D N F U 0 0 m R | ! =...! U T E U U U ! ",
"U T T W ! U ! U Q W U ! =.R R R T W W t...+.p.D Q ..U =.i.! T ..=.=.;.X.Y R =.t.%.` F U Y R =.=.R ......| ..%.y.=.=.Y D R Y R R =.o.R R } S R F D O.Y G Z G Y G Z l l 0 U D b U Y C D D D Y b N D D ! R D Y N Y V , Y l.R Q o.R R C Q Q +.W U U R D U U ! T P O.D R T U ! T T U T R ! D @ - m G W ! ! Q Q e.=.! R ..D T U R ..W U U , 9 V D D T T D b 6 R y.T R R T =.T +.+.+.! +.R ! ! +.+.+.T R R ! ! R Y U Y W T O.T U T R U D R U u.R & I v , P x x v U C D m l k , , , D D G o.R G R ! U U U Y Y D R R R ! R D R D U L U T U U U N T U L U b D N D Z m m Y N b b T D U l b T R o.Q +.T R ! +.R T +.=.Q +.Y U R ! ! +.+.U R Y R Y +.U G R | +.R | D Y Y Y Y =.R H =.R Y R ..R Y ..Y F D U N Y U G U Q R D D R R } =.W ..N U T z L U G R Y T T R R U R ..R N X k b R T R W w.Y U l : &.-.N D R D i.=.8 m D Y R Y R Y R R Y Y ..N R ..%.Y Y Y T R R F Y X.R R Y H G Y Y R S R D D T B U F T G z | H R G Y X.Y | Y | H N D F D D F G D R Y l D ..R Y ..Y Y Y F Z Y F ` H G F R R F Y R Y R D D D F D } R F 4 l 0 l N m Y D D Y z z D R | =.=...! ..T R W T U T ",
"R T U T U G R D T R T +.! W U U T ! q.! +.R Q R ! +.=.t.t.=.U ! t.=.;.=.| =.! =.X.&.Y R m H R ! W R } =.R =.=.} ..! R D G =.%.o.=.R ;.R R R T R %.Y R Z V F R Y l 9 l D N D U b D R U D b U D T D N U D D G =.U G , Y x.D U +.Q T U D Q +.U T R U R T U R D R Q C R D Q ! U N Y U T D D 0 & N Y U ! ! ! e.! Q t...R ! U R T ! R U D , l b b D U C D l - T d.Q Q R =.Q R t.+.=.! ! Q t.T Q t.=.! ! T ..U R y.+.! R Q D U U b D U T T Y U d.D , j 9 b v l j U T U G b D j , 9 j Y R R F Y ! R Y U Y Y R D R D | ! U R U U U N U Y T U U N Y U T U D m b m B z Y Y b U U T G b j z Q T Y R T T R ! T U R T R D H R G ..Q U ! R R ! +.Y U R ! R G R D } R D Y F R Y G Y Z R T | ..=.Y R R U D N B U T D D T R R F z Y Y Y R R Y N N j Y U U U N N U G } Y Y U ..} N : j b Y =.R ....Y Y N & -.y.N Y U G } d.R b o.! b U U H R R ..T R W Y R ..| | =.R Y Y Y %.=.=.R R %.Y H H F Y =.Y | Y Y D U Y H Y =.S H } Y Y ' H Z | Z Y Y B D D Z U N ..Y z N =.G D Y N R Y D Y ' F M F D  .B D F } ..Y F U D z D Y F } B = l 4 k N m B Y N F z m F Y } =.....! ! T W ! R R ! ",
"R T R T U U U D U T Q W +.! W U U ! t.! ! +.=.D R U +.+.! ! U t.p.t.R R =.| ..=.| ..| F =.+.+.Y R ..-.} ! =.} T R U D Y U Y Y y.=.=.;.=.Y R =.R =.Y o.R o.R T R z 8 l m D F G N F T Y D D R D U U l G U C U D N U , U y.C e.+.R T Q T Q +.R R G Q R Q ! +.Q T ! R Q U R T b N D G z N m Y N Y G T ! e.! q.t.! ! R T D T Y T T D +.D , j Z D U U D C z , D i.+.R U ! Q T R R Q ! R =.! Q Q R T ! T R R T G %.=.Q Q Q W U U Q U T U U R U Q u.C > d c C j b R U R N R U z 9 4 , , D R Y =.Y Y Y U Y Y Y G F R Y R =...U U L N N Y T N T D L T N U D U m m D b Y F N U F D D D l b R T +.U Y R ! R =.G o.R R T R =.! ! Y U U D T R S R R ! ! R U Y D G R Y R Y R T U R F Y G Y R ..T R ....R T G T U N D D F Y T N R R Y ....U N Y Y N U R m c b N D Y R N Y T Y - 4 j U Y ..R t.W =.} 4 - X...D F D U D F R R T U R R R } ..R R R Y ......Y R } } ..R R =.Y o.=.R Y %.R R Y R R %.| Y F H b =.| H | ' Y =.%.Y z z k 0 z b l z j 9 z z l c 9 k l T ..} R Y .. .&. .}  .z j z m z z l N N b b b b c z R Y F Y N , 9 x 9 z k b l k k 9 l H | =.....;.t...=.! ..R ! ..",
"Y T R U R U U R T ! U ..=.R R ! ! W T +.Q T ! b Y =.t.d.s.=.G ! t.+.+...Y ` y.=.R D R :.R ;.+.+.! T ....=.| R U Y D F F G R ..Y %.R y.R R R | R Y R Y T T T D G N j 4 z D Y b G D R D U U D R D D z T D U U D U U 4 Y v.T R R T T U R Q T ! Q ! q.T U Q R Q P Q Q ! U E T D W R D U U N & - z Y T R ! ! ! ..! T U ..R ! Y R R U U V , 0 D U C U C b j j D ;.G b F Z V D D D C D Z z m b D D C C T D U U N R +.Q R R T D U Q R P T W U ! U R d.b = b P b U R U +.U N N N l j 9 j - F D Y ..F T ..=.F Y D D Y F G Y D G D m l N z N N N N N N z N z N m N m N N z j l l b w l 0 j D Y R R Y D b R R Y U D R N Y R U D D U m D Z G m D U Y D T Z D G D m D G U T Y D b D U D D D Y U D D U D Y b Y D N k z z m D j b b Y N b l N Y Y b Y L l z D m D D b D D D 0 2 4 b N R =.R t...=.R : * -.i.Y =.F H H Y Y ! R =.! ........T R Q W ..R Y Y R Y =.| Y R Y =.Y G ..R =.o.R +.R } %.%.| Y ! R | =.H F Y R D F ! G 6 = 9 d 6 9 , 6 , 4 j , 9 j & 9 &.<.2.i.y.2.<.4.2.2. .4 : 4 9 , x , x q 4 j j 9 j F T Y F F D - , , 6 6 , - 4 - 9 j 4 z Y R =.R y.=.y.R =.=.F Y R ",
"D N U Y Y Y T R R T R T t.t.R ! +.Q =.=.=.u.t.F =.y.d.u.s.t.| t.=.-.%.R &.%...t.%.' %.A Y ! +.y.w.w...d.R o.=.H R Y Y Y Y  .Y Y | t.O.R R Z Y Y R R Y R R D R H z 0 j b m G F U R | D U U D D G ! N D D U R G R D q Y g.D R T P E W T R +.Q Q R T ! E W T ! U T T Q U b T R T U U ! D U - * N R ! ! q.! ! ! ! R Q ! ! R R =.G T G b = , C P P b v C l , D | l 2 b D b D C D V m D D N l D U D E b D N D z U =.Q Q ! T U D D G U U U U T U U +.d.6 j b l b E b R T U L U b c 0 : , : q x D N G F Y c l N m z D D D m m b a k j j z l j k j l z k 4 0 k l 5 j l k , 9 9 9 4 q 0 k l b m b D l z m U D C D N G z z D D Z F l D m k b b b z N D b D k m 0 m m m m m N B b m Z D m k k G N D B m F z l k m z m m B c N b z z x 0 z 4 z N L z b j z m l k l b D z l , 4 c U ..=.i...i.R R 9 - =.g.} } R Y D R | R R =.y.R Y T R R R R ..=.=.Y R R =.F =...=.=.R =.D D %.%.%.R R | H Y =.R R R R R G F Y Y } Y R } D m k m b k z m l b b j l z m 0 F }  .' &.y.&. . . .X.` m N 0 z k m m D b l l N N N T R Y H H F , : 9 j l c b l l v j l w D U R %.R ;.;.i.R H =.Y R ",
"T U L R Y Y R Y R U ! ! Y U Y ! y.R T Y =...u.U R ! y.s.y.i.T | i.H F Y | R H -.H F m R | Y Y Y =.t.s.w.H =.! +.Y Y D F R R } } o.R +.R q l w Y Y | %.Y D U Y D m b 4 l U U D T Y R G N R Y V Z Y D N N ! U b F z 9 D v.U T T T T T R R ! Q ! +.R ! E R R R U W R W U b U N U D U U q m m Y Y D ! ! Q ! W w.q...! ! R T Q T Y T R N 2 H Y ;.;.=.;.=.F m Y y.R l N G D D U C D b b D D Y C U T C G D D l z T ..! Q +.R T Q Q U D U T U D C T l ! y., j d b U ! W T T U ! U b : q 4 , , O : - - = , = l l b m m z z z 0 k z 4 j 0 0 k n 4 7 l z 9 j j 0 5 0 0 j 0 9 j 7 , , 4 9 k j l 9 Z l w z l z V 9 k b l 7 7 0 j 0 9 z z 0 9 0 0 j j : 9 7 9 j 0 9 l , l 7 , 9 k z l z 5 0 9 0 4 z 0 b z 9 4 4 7 9 k j z j j l j a 0 0 j l 9 9 j k j w 9 q 9 0 9 , l q 9 0 : - N T R -...=.y.R D b 2 -.-.R D Y G Y %.R R R =.=.T R t.=.=.=.t.! | &.t.=.=.R =.=.=.R R R =...! =.R ..Y %.+.;.;.=.R =.;.=.Y R R | F X.Y R R Y Y | ..| } Y Y | =.} } &.%.#.A | A H ' #.&. ... . .Y  .A  ...Y Y  .| ;.R Y ......U Y U F A S G - 0 l l C D D D b 0 k m D Y D ! R R H Y %.D k j G | ",
"U Y D T U D U ! R ! Y R ! R =.R +.R +.Q R Y =.U U ! Y i.u.t.R ..y.;.R R R =.X.;.| ;.&.R Y R i.H  .=.R ..;.Y U R %.N D ! R R =.} R R R q & 0 q 8 F Y D H H F U D z k 7 z G D D G Y ! G T Y R D R R T U U T U N R m * U j.D +.T R U D U O.R T R +.T W T T ! ! Q U C R U E U R U U R =.T D 7 9 C G ! ! r.! Q q.! R D T ! +.+.U D R =.b 9 D H } R =.=.R Y z T i.R C Y Y Q ! +.Q Y U R +.+.G D D e.R D j 7 b b T +.=.=.+.T T Q W T U ! C U U U T b b u.=.: j l U E ! R W U R Y b l b j j 7 , : , 7 , 7 , 7 : 6 - , : 9 = - , - : , - : : & 4 - : + & - - - & : & : , , , - : , , : - , , 6 j - & - : 9 * * : & > > : = = : : O : 9 & : 4 2 7 0 7 9 9 q 2 4 7 0 4 0 , 0 2 7 2 4 4 4 4 4 - 5 0 7 2 7 4 2 : 2 2 2 7 & 2 2 4 , 4 2 - 4 : 9 + : 2 : , : : + & * * 4 , j j b ..R } w.........Y D O X...N R Y H R Y U %.R Q y...a.t.R R R Q ! -.=...R =.t.=.=.=.=.R R =.y.Q =.H Y R %.%.R | %.R +.R =.%.=.R Y | R T R =.t.F =.} ;.=.%.X.-.H | &.&.&.&. .' ' #.%. .&.Y :. . .X. .&.}  .&.=.;.%.| y.=...Y R } R B H &...N : 9 l z D b C D V b j l H ..R G R Y D U D * Z q : D ",
"U D D U D T ! Y D U D ! Q R R =.R R ! ! R | =.Z R y...! t.+.b ..Y Y ! Y D U D S G F Y D w D D F F | A R y.+.t.=.%.R U G %.+.Y Y R =.R 6 m H K.B D H D m Z D G Y m 9 l G Z Y +.Y D Y G Y D D D T z T Y U D W P D z ; D b.U ! T R Q =.T =.O.+.! G U ! T U =.+.T C P ! G T R R +.G R N U =.- : 0 D W ! T T ! E ! q.b W ! ! ! D D U D C 6 q v v C b U D l O C d.Q T ..! R R t.! ! t.t.! +.D T T ! ! C 9 9 D D t.+.Q +.Q P T Q ! U D D ! ! U T U D U G z.=.= j U U U R U N N N T Y N B b x c 4 j 9 4 j 4 j j 7 j j , : : - : O , : = O , : - : , , - & , - 6 , : , 9 , : 6 , , , 9 - 6 6 9 9 j 0 , c 6 6 & = , 9 7 j 9 , , j * j 9 : 9 m D z m k z w n 0 z 0 m B m y q n 0 k 5 m m k m 0 l t M Z z 0 0 z w k N m B k n a a m m N j : , , 7 : , , 0 k n k j 4 & 6 l 9 b R ..y.R ..! ..! D N * ..y.T ! } Y F | =.+.Y R R T +.R Q =.=.+.! R o.R %.%.o.y...! =.%.=.Y =.R R ..%.;.=.o.! R | Y ..R %.R o.%.Y Y Y } Y R ! =.R } ;.=.' Y A :.:.=.&.] ' -.:. .&.&.#.g.%.-.-...&.} :. .} ..y.=.=.=...Y Y | | Y R | Y W R G - j k m Z b D m D z j D D ..} R %.Y V D * :.R.A 0 9 ",
"! U D U U R G Y T R R R =.=.R R ! Q ! ! ! R &.Y R t.R t.=.Y b l z F b D Z b C D z t q z l 0 G -.%.U %.+.e.t.e.=.R R T +.R +.T | Y R y.T &. .X.Y Z R m D D Y D H w 9 0 N D Y D H D Y U R G Y Z D Z D U b D U U b D : P.V.T U =.! Q =.Q Q ! +.U U ! ! W U T o.Q R P U T Y U T R R T N U Y z D C G U W ! b R U R q.U U ! ! ! U b R b D , l C D G D D b b - G d.R R T R R R w.! T ! ! ! T K T t.! e.D 0 l D C ! =.! +.R R Q +.! U T W T T ! R G b G U T s.T & N b N U W ..W Y U N N m Y z m b z l c z a l l b , j l k z l 7 m l b k z D 0 0 0 q l k 6 7 2 9 z 0 9 j q l j j 9 j l b l 9 l b l b 9 b 9 - 2 2 , 9 9 j l , , l 6 l k l 9 z q 0 0 9 0 j k z j 0 0 l 9 z z k j 9 0 l 9 9 9 0 l l z l 9 5 k k l z 9 z k k c m l l a k 0 4 j j m k , k l B m 0 0 4 - 0 q j N R ..t.t...R R ..F D : =.X.D Y D Y R =.i.=.R R R R =.t.+.y.t.R ..;.=.=.=.=.=.=.=.Y R =.R Y R =.y...=.o.=.%.=.=.R =.=.;.;.R Y H ;.R Y R H =.o.=.| ....-.=.=.:.:.=.=.;.:.*.&.&.%.| %.:.' &.t.X.R ! .. .Y X.| R :.y.=.=.=.Y | } R T y.W | Y F 9 x b b G F V D G b 7 0 R ..=.| ! D Y V 6 R X.:.H G ",
"! R R R R T ! Y U Y ! U =.=.R R y.t.t.q.q.! t.N ! i.t.;.=.t.R =.=.R R o.-.D R Y R R Z H R H | A =.R H =.e.t.u.=.=.T R =.%.Y Y R R Y o.b.Z A F Y H ' Z Z H F Y R z 9 , N Z F Y R U D U Y C R Y D b D H D Y U b l = i._.! D R R U ! +.+.=.Q W ! ! ! W R T +.Q E T Q y.r.G D R +.T e.! D Q R =.E O.Q +.t.U P U ! t.R ! Q ! t.R W ! R D , c b C C N T D l 7 D z.Q W T ! R ! ! ! G ! r.! ! E E q.r.q.D b 9 l U R t.t.e.W +.Q +.U T T T T U ! Q C c ! Y Q ! v.R - N U T Y U T Y N m B } U N D k N B 9 N B z D N j Y N : , , & , , , 7 2 1 : - 2 * : * & * * - O - & * * * * : & + & , @ - 7 k 9 7 q 7 - - - 4 - q 7 & - @ - 7 l 9 , & - 4 7 x > : - 0 l k 2 k & : : - - X , & & , & 6 , * : : j & 6 6 & - , j 6 & : 4 * * O = ; , & , & & 9 , , , * 8 0 O & & = > x 0 b N Y R t.=.R =...T z : X.y.R R =.=.| =.y.=.+.t.R =.=.! t.R R +.| =.%.y.=.+.=.%.! R +.=.H =.=.i.;.X.=.;.=.=...R =.=.=.;.=.y.=.+.=.R | %.| t.R R ....-...=.=.;.-.-.y.;.%. .*.%.' ' | ..&. .| &.=.=...X. .=... .:.=.! R | -.%.R T ....} | %.F : x 9 l D U D G D b j k D ! =.%.| =.G D C z S w =.x.",
"! U Y U T D =.Y G R H R %.R =.| ! ! w.t.R t.q.T =.t.y.=.=.+.t.+.%.;.R R Y R R =.=.| ` A A F F D R R | R +.Q =.O.Q U R | F H Y H H o.R l.l.C b G H R F H F =.U Y H 9 5 D U Y U U U N G b D b > O O - : : b b - , b.Q.g.U ! ! D D R O.T Q +.! e.b U T ! T T T U W ! +.U +.U R R U +.T R +.+.T U T e.! ! W U ! q.! T Y +.+.Q R U T G b 9 l b U C U U G z , Y +.! e.! W T W ! } D R q.! T U c ! ! R D l l C C +.t.! W e.W T T R Q R T ! ! t.%.! T U G T U v.B.b j U Y F U Y F R ! Y Y T R Y B F Y R R R Y Y N 9 0 g.h.:.b.b.2.g.f.h.c.b.b.b.b.x.c.h.b.b.g.x.b.b.b.n.b.b.V.Z.v.v.n.n.b.v.b.v.n.v.h.b.x.n.x.3.x.c.v.f.g.b.x.v.b.V.h.v.v.h.b.b.g.b.v.V.P.j.v.g.b.v.3.v.g.b.b.b.h.b.b.v.b.v.b.g.g.3.n.b.j.j.b.-.:.g.&.b.b.k.b.:.y.f.g.-.f.&.g.2.2.v.g.n.b.f.j.b.f.g.} D k b B =...R ..! ! R N : :.h.%.=.R %.R =.=.=.| =.! ..=.s.=.R T R =.+.t.=.=.=.=.=.=.y.=.H o.y.=.=.Y =.=.=.=.+.=...| =.+.=.| R %.R R Y R =.:.=.R } =.=.-.=.=...y.=.=.y.t.' ' &.' X.| X.&... .&.-.=.y.-.X.X.X.X.&.-.=.=.} =.%.%.} Y Y | | | } D , j z z z D D D C z j l Y =.=.%.R R Y D U D = R v.=.",
"Y T Y T T U U R Y Y Y } ..=.R +.+.! R ! ! t.t.R ! u.t.t.Y ! Y %.%.! R R +.R D =...} } H A R F D Y ' | } +.u.+.=.+.R Y %.| Y R Y H R t.Y %.U D Y | Y | Y Y R R R G 9 l z Y Y H +.T N N m : &.b.b.b.Z.n.Z.R.Z.P.E.!.i.b U =.Q Y F U +.T Q ! e.O.Q T T U ! P t.o.T R ;.T E U T =.Q G b D ! Q Q ! +.e.+.R T U +.+.T U U ! ! T T Y R U N , l l C U C D D b - C t.R U q.W ! ! Y D b q.! Q W b Q E ! W U U q T R e.+.! W E E ! R T T W T W R ! ! ! b N U R U G d.v.O N b D N T R U N U N Y Y R B R Y R R R U N N 5 J.`.Y.I.Q.P.I.P.^.I.I.I.~._.U.Y._._.).(._.W._.[._.).).'.].].].).'._.'.).).).(.'.!.!._.^.E._._.Q.(.Q.Z._.(.).]._._.).(.).Q.(.[.).[.[.'.(._._.)._.W._.`.'.W._.!._._.!.Q.).Q.Q.).Q.Q.Q._.(._.I.P.P.Q.Q.I.I._.U.Q.Y.I.I.I.P.P.I.J._.R.).R.Q.Q.R.P.P.P.Y N Y B ..=.D =.=...R N & ;.g.R G R G H R Y =.R =.| y.u.t...R R y.o.R =.;.=.t.+.=.Y o.=.;.t.t.=.t.R =.o.=.| =.....Y t.=.Y o.=.=.=.y.o.;.| | =.=.y.....H =.-...=.i.y.%.:.;.%.*.]  . .) &.;.&.-.y...=.=.X.| :.;.&...-...-.-.| =.Y ..F } H A ..Y , , , z z b Z D C z b b Y ..=.=.R Y Y Y Y G b ;...R ",
"+.G ..T C ! ..R =.=.Y | G Y R ! T ! U E U ! t.D ! R =.=.=.=.=.=.Y =.R R Y %.| A F  .X.X.F R Z A `  .=. .o.y.+.;.R ! R Y R Y Y H H Y Y D R Y R U H R | Y Y T T U D 0 j m Y D G =.T z l & V.E.P.b.b.v.y.:.i.y.i.=.R C R E R T Y G ! +.T t.! ! Q Q T T U C Q t.O.R =.+.R U R +.+.T U T b ! R ! ! R Q =.! T E +.t.t.W Q 0.e.U U L W U N , l D D b l b b b , C u.O.R W ! ! ! R ! b U U U U D P U U U b j 9 N l +.p.Q W ! ! ! T R T U ! R R R T U b T U U U Q U z.! , l N Y T Y D D U N Y B m N L D R B U N b - b._.g...} Y Y D B D R R Y F ....R R ..R ..! ! ! ! =.u.....o.y.t.=...y.+.y.=.=.y.=.R Q Y =.;.;...t.=.q...=.t.t.u.t.y.t.=.=.t.=.! t.t.t.t.i.i.t.=.:.=...Y ;.| Y =...=.y.s.! | ;.=.=.R | R y.R R ..Y ....=.F Y R Y ....t.R &.} =.Y Z Y =.Y A } =.t...y.=.U m z R ..T ! ....N D & ..i.F } Y ! R Y o.=.=.! =.t.t.=.=.H =.=.| +.+.=.=.=.R y...! R =.=.! +.t.y.=.=.%.%.=.R R =.=.+.R Y Y i.a.i.%.%.=.&...+.y.;.y.;.....-.i.| &.%.' :.-.' %.=.=.&.` &.=.-.&.=...=.;.=.R | =.y...t.....=.| =.R } B } Y } X.- , : j : - z C D b j z R R ..! ..=.%.Y Y %.F H Y } ",
"U =.=.} D F Z F R G F R D R Q R ....R R U ! ! H R =.R R =.%.Y =.| +.Y H Y R =.F Y ` } Y } H  .` ' &.' D ..s.=.R =.Y R Y H T R R ' Z Y F R H G D H Y ..R Y U N N D b l l D Y D D G N , :._...l j 6 C l P C v J U T D U W T ! R U Y O.Q ! +.T +.R W Q U U +.t.;.I +.! +.Q V U =.Y ! ! R u.| +.! ! e.+.u.+.E e.+.e.U D =.q.! T U U U Y 7 l b b N D U C b , T y.R R ..e.p.+.t.U N D b G 0 T C U b I z , 9 U T e.e.+.e.Q ! ! W U ! T T T T W ! N U b U U U T Q D s.t.X c z N N N T U m D B b U F R N U N m k N (.k.b Y N B m F D N D T Y U L W R U ..! U T U T Q t.+.! T | =.R ! ! U T H o.U O.R T R T Y R U R =.! ! =.Q t.Q ! t.=.R T Q +.W T t.! ! ! Q R ! ! ....R L Y R R =.D ! =.Y Y R =.Y ! =.t.t.=.D Y Y R ! R R b T N Y ....M | =.R F M B R F m D D F R D B =.R k j N Y R t.} ..R D & X.i.Y =.| =.R +.Y =.! R =.t.=.y.=.=.R R +.=.=.o.=.+.=.R R +.=.=.=.=.=.=.=.d.:.=.R ..=.t.+.R o.! +.R o.=.=. .%.! -.X.Y =.=.:.y...y.&.-.&.#.-.&.) %.&.-.' =.y.a...! t...=.t.=...X.-.:.y...=.y.;.X.=.-. .} Z H M U Z D 9 7 0 l 0 q w Y D b l l R } R D U | } Y Y D Y }  .Y ",
"Y R ! ....H Y F Y U =.+.Y R =.t.=.T ..U G =.R Y Y R %.=.=.| =.R =.=.R D G U %.%.Y } R M Y R Y %. .D | R F =.=.+.+.T R D R Y | H ' Y G Y | | Y R F Y R R D Y Y F D 9 6 b R U D N N b 7 I.y.U Y b T U D l U R T U T U Q ! C W T T T =.! =.Q +.T ! ! ! P U +.e.t.U U ! ! +.D U d.=.E U T t.G F U ! Q t.O.U U +.E e.U Q t.R ! b U U U U , c b C b D C U D , D %.R R ..T ! ! U R N b D b U R C C U j z l l b 9 ! t.! W U q.! E U E ! ! W L T L U E ! U D T K U ! R d.R 2 0 N N N z D N D D D U N N L R U M : -.Y.T N U T Y N Y Y D D R U N R T ! R Y R R T D =.=.Q Q T ! H =.Q +.R R +.U R R +.y.+.! R ! Q ! t.t.! t.W e.i.=.! +.! ! W T +.=.R ..t.! Q ! ! =.=.=.t.Y U ..R R H -.R ..=.=.+.=.R d.=.t.R Y R } Y R t.e.F ....! T Y y.! R %.| ....F A Y Y Y Y Y F Y Y R D 4 l b ....t.t...F N & g.y.R | =.R Y R =...! =.t.=.%.=.=.:.=.R ! =.R +.! =.+.=.! R Q t.! R =.t.t.=.y.Y ! R R t.| =.+.=.+.F | | -. .=...&.=.=.l.y.b.g.j.h.c.v.g.x.6.c.K.x.g.-.| } | R ....R &. .H :.x.3.c.C.x.b.j.v.v.j.b.n.x.:. .} A &.Y D : x m l D D l G U C j k Y ..G Y |  .X.Z | Y G  .H Y ",
"C C D D D l b l 7 l l k z b k N b D w b D b M l D z D F D D G U b D D D D 0 C V z b j m w z w D b V F w l z D G z G l D D D D F D l Z z z z 9 t m D m G B D l z N l j G T U T Y N j l f.G R b C b C C U C U R U T =.R T T U T T D R R T T T T T T T C Q =.+.;.C E T U C T T Y U +.Q Q =.R R Q T ;.o.=.E T R T ! U E ! +.=.b U T T b 9 j D G U D G U l 9 C =.R ..! R ! =.W ..Y R =.! +.t.T U b x b D D U D Q q.U Q +.Q Q W q.W U T L T T D T U E U U b U T ! ! ! v.D 4 m U D m N Y m D B z U } L U N F : X.h.! L Y W Y U F R R D D T R T U Y ..W ..Q W ! Q =.U ! T R ! =.=.! R T +.U T e.Q +.t.t.+.t.+.+...R ! T T q.i.t.u.! +.! p.=.t.Q =.=.U ! =.w...i.u.! i.R ! Y =.Z H A ;.| t.+.R ! y.+.+.u.=.=.! ! R R R t.Y L ....R =.t.w.=.R H ! =.! Z o.Y Y =...Y D | ..D 4 N B T ! ....t...D : f.y.F Y | R | R =.R Y R =.! =.R Y =.=.=.R ..=.! R R | =.%.R =.! ..! R =.=.y.t.+.=.=.=.! o.=.R R R R Y F  .H } H S ;.;.&.=...&.-.#.*.x.y.:.*.#.3.i.i.=.Y | | } -.=.| ..} X.;.f.:.:.:.i.v.v.v.i.:.:.:.;.3. .=.} A H N : j 9 D m z E U C C l k Y Y N Y N Z B k G D l m m D ",
"F Z Y G H m M m M A Z Y m H Z 7 m D F Y H Y Y R } Z F F Y F } F H | M F F | H m H G Z H %.| R t Z A F Y m A ` ' F M M M F F ` A H F F Z S ' H F D H X.F F Y M G G k z x D U T b b 0 z ;.U D C b D C b D T U U R Q T Y U T T R Q U T ! T U D R +.! ! +.Q +.T O.T T T D R U T U Y R D T t.+.+.T T :.=.+.U G =.t.Q D C T R R U U ! D D : 0 l D D R C Z k - U :.R =.! W ! t...R R ! ! Q e.! r.! W q.T U P ! ! ! q.! T Q ! R R T ! ! R T R R b T E b T +.U U U R U D R i.b , Y Y k B N F N Y F N N N D D c : } ..N Y R U T Y Y Y R R F U N R R W ! T T +.Q ! t.! ! T D G U T R ! U ! R ! ! ! q.W e.! +.=.R t.! ! W U R ! ! ! +.t.Q t.t.t.t.+.t.e.! p.t.! t.p.i.u.t.! ! X.| ..%.%.| o.=.=.R ! +.R U t.e.t.T U N ..w...L k T ..t.R R ! ..} ;.! Y Y Y | R X.R Y Y =.Y =.D : l z R R ........F = ..i.z Y R Y =.=.T } ! R R =.R +.=.=.=...;.=.=.R %.Y R t.| =.=.=.R t.t.=.=.=.z.=.R R Y %.=.=.R %.R | ' | H  .-.H | | =.} H Y .. .F ' '  .R Y %.R =.%.T D =.:.:.;.y.&. .! =.i.....| } R ;.=...| Y } R } Y D H } | Y G - 4 q w D D C D R D k l R F F } Z B ' ` M H A F A D ",
"%.&.=.:.y.g.&. .`  .-.i.&.;.&.} ' :.%.:.:.i.:.i.:.f.%.:.f.g.x.:.h.y.g.:.i.:.i.f.&.&. .:.y.v.i.&.x.6.&.i.:.g.3.-.g.:.-.:. .&.' *.&.-.;.:.:.:.%.-.=.&.&.-.;.-.-.t.U , j D N T U D l 9 D i.F U D D D C C D ! W Q T R O.R U Q =.o.Q U P Q O.D C T Q T Q P U R +.+.U +.Q R T T T ..U T C T e.! e.W U o.| t.U =.d.+.R T +.R +.+.b D T T U 4 - , 0 l c 7 l : O D i.Y +.! W R R Y ..! ! Q +.e.e.t.T T q.+.W U U ! W ! T U ! T ! T T U t.R E W T T U T T Q +.W b I U U T D =.i.7 j N b N U U G B F Y N B Y } N : ..g.D R R L R B F T T F Y D Y F W ..R R ! t...R ! ! ! ..m D D T R T ! =.! t.W U ! Q q.q.E ! Q p.! w.T T T L Y =.=.=.t.i.t.q.! Q i.t.! q.t.q.t.! =.t.t.t.=...R =.+.R :.;.;.! T R =.F G ! t...Y R ....d.t.! L R Y U T ..y.....F R ..R q 6 V F Y Y R U N R F 4 4 z R T R W =.Y N &  .j.b U R R ! R ! U R +.=.U R Q ! =.Y Y =.R ! =.=.=.t.+.=.R =.=.| =.t.i.:.u.t.| =.=.=.Y R R %.=.=.F ' H ' %.-.&.X.&.;.} &.&.=.! =.#.#.-.=.=.=.;.=.y.U U y.a.;.;.=.&.-.R =.;...} =.t.=.} | ..| | | | Y T D Y } Y } R 4 9 b b D D D Z D C j N D ;.} :.&. .%.&. .3.:.:.| | ",
"C C N C R R b D R Y D Y Y Y U U Y w B Y F ! Y } R R B N H | =.H =.Y H D U ! F Y D D N S D D z T D b D H R R H ..Y M F G H F F D z A l D Z ' Y | Y F N G N F m N N l 0 z U C b U N j k &.D G U l b T U U U U C Q =.T T T R +.+.! b U D D D C +.E U W C O.T U R E W O.=.Q D U U T R C Q ! T ! U D i.;.=.R ;.d.! U R =.+.=.=.U T ! ..T : , , q 6 : 6 - , * C ;.Y +.=.t.! T T T ! ! Q ..t.e.=.t.t.Q ! T T U W ! W U ! U ! T T Q ! ! R ! T W ! T U E Q W T ! U T U U Y U i.=., 0 N D U U B D N D L N F z N > ..g.! G T R U Y Y F } T R L N Y R R R F ..t.R U T ! R t...R T ! R U U W +.+.Q ! ! E Q ! ! ! =.Q R T Y N Y Y U U p.t.=.=.t.W t.=.t.Q ! ! =.=.t.t.=.! t.t.=.| =.t.R +.=.=.%.R ..U T Y Y U t.a.! ..T E R s.d...D Z ! U t.R R T R X.R 7 , m : 8 } R F B N R m - 4 z Y R R ....R N ; ..i.Y ! Y R R ! ! R =.! Q Y ! R Y =.;.;.Y X.Y =.=.=.=.=.=.=.| =.t.! =.a.d.d.y.=.R | %.Y =.! *.' A '  .| %.%. .' =.;.=.F ..' Y G =.} R Y | | R H R Y D F t.i.;.2.-.........X...-.=.Y ..&.' &.X.| =.H Y F D | U ! Y N - j d > d v d d d d a b Y D G H z B D k D B R Y G l ",
"Z b l R U Y D H R m w Z R R Y R b F G =.R T =.| H | R Y H D R -.| H Y Y G F Y Z H F Y H Z Y b Y F D Z Z H G Y | D Y F Z H H m m z m m 0 H Y N %.Y D Z G F D m z w 0 9 b b U D c U , k ..F D D b U U C D U U E U T P U W R t.! U T Y D R Q D ! p.U U T T +.Y Q P U ! W T U U ! ! Q D Q e.R T U T =.o.=.Y +.v.y.! Y T i.! Y G U R U G 0 9 C b C C D D b 9 D :.t.+.+.+.Y R U U ! ! ..! R t.! ! ! R R ! ! ! T U T Y W E ! R ! ! +.e.T ! R p.p.! Q R W E E U D R D U N N U d.=.: k B B B Y L m N N R L N b l j G U X.Y D z U | T U ..R T N U T  .t...=.i.i.=.t.t.=.y.i.d.=.R ..R T ! U T +.O.R +.o.=.! T U ! T W R U R %.R U R w.t.| =.y.t.t.y...R ! R =.a...=.=.=.+.t.=.a.=...R =.i.y.y.=.R | R ..W ....w.T W ! U =.! U R T u.+.t.=.G T H A N , w :.K.O D R Y F z F m 9 z z Y =.R ! t.U N & =.y.C R R R R T ! =.R R U T ! U R =.=.R | =.R =.=...=.Y =.| Y =.=.=.=.y.i.t.i.=.+.R G | R Y ' H ' A A :.=.A ' ;.y. .%.b , , 7 9 j 6 6 d 4 4 , , : 4 9 t y.i.-.i.w.| 2.w.-.y...i.X.X...} &.=.&.X.| } H Z m Y R T D M , 0 / &.x.h.b.:.:.&.Z , b R D D m k k m m D R B T D ",
"l N G Z R T U Y =.Y G b Y F R T T T R Y R ! =.| %.H | R o.R =.R U F M D D m Y Y | H R D b %.H D R R Z w B ;.Y Y Y R Y D H A m m z m q 0 Z Y H R V z b M z l Z b & j 0 b W U D U D 4 z ;.U U b U E C U U P U U ! O.E W E w.t.! U T Q ! U R U Q R o.U b Q +.! T b t.! T ! b ! W W +.T =.t.W R C D R i.y.D o.y.t.U U ! d.=.R D +.=.T U : 4 : 7 6 9 , 0 6 : b y.R ;.+.R R +.E ! =.! ! t.W t.! T =.R R U N W T W E U E ! ! ! q.! ! ! ! r.+.=.+.! W ! Y T T U D T U ! Y Y T T i.-.& , 9 4 4 5 4 4 4 j 4 j l , , , - z Y N D B Y R T ..F Y R R Y ..t.y.i.v.v.v.y.y.t.y.i.i.;.R Y =.! R +.Q R +.T O.+.+.! ! G ..! R Y =.R T +.Q =.R w.t...t.t.t...W R =.R =.=.=.t.u.=.t.t.t.R t.=.=.o.t.y...| | t.=.W w.R ....! R | t.R Y +.=.=.+.=.Q =.+.+.Y Y =.D :.' &.z Y R ! R Y %.G , l j H t.t.t.R R D = =.i.D Y U Y R Y Q y.T R R =.+.R =.=.%.=.=.t.=.=...=.=.! | Y Y G =.=.! i.=.i.d.Y o.%.R %.' ' | | &.Y %.-.%. .R =.%.;.-.V : l d 6 7 7 j j 4 j x 7 0 9 b | w...X...t. .y...} y...t.| Y =. .X.=...X.F H Y F m Y R Y R Z , m ` :.x.:.i.2.:.' m , , w k j z n m k m D Y | w z ",
"9 9 9 : D l N D D D C b b U D D b D D m 0 N D z D V z D b l Z l D l l l z m Z D Z z b z m D Z D Z m z m b m z Z m N l 0 l 0 0 : 9 0 , , 7 l 0 0 7 - 7 z z 2 b 9 , 9 D b b b C D k 4 k -.T T T U D P D Q T G G ! R Q b Q T ..! W U ! =.=.Q T U W T U D T R t.+.b T T Q R D R R ! R U Q ! R +.b ! =.u.+.G R y.=.! G Y i.R ! R +.=.R Y 4 : % & , , 7 : , * C s.R +.! G Y Q ! ! ! U D ! Q r.! ! +.! U W T R ! W T ! U ! q.! q.! +.r.t.q.e.! Q T Q W T U E b U D U U T T R U Y i.U * : , : j 4 4 4 : , 4 j , 7 x & : 0 N F N Y Y ..Y m R =...R =.t.i.v.y.:.-.;.| R =.+.T R T R ! Q e.Q U =.+.o.+.=.T Q +.R +.=.T R Y =.T R ! t.=.=.e.w.T ....a.=.! ! =.! R R ..y.t.t.! t.t...=.i.| ;...;.t.t.t.=...! ! ! W R U Y i.t.t.p.t.R ! ! ! R +.=.=.Y y.x.z Z Z T ..Y R G Y =.R , l b R o.t.+.R Y z , y.i.U R Y o.y.R ..R R R =.=.=.=.F ..R =.| R R ..R Y ! =.R =.R Y %.R | &. .%.y.+.=.R =.}  ...=.%.! =.R | | =.Y R +.=.%.Y N ! R } =.R | =.R Y Y &.` | ..!  .;...&.=.-.&.| =.t.R =.R !  .&.;.} =.H ..Y Y D F | U | R D : 6 j D b U N c C 9 9 4 0 0 k 0 0 7 j 4 k k q l , , ",
"7 9 7 : , , O - l j 9 7 8 q 7 w 0 7 q 9 7 0 8 q z w q 7 < - 7 - - 7 7 2 4 q @ - - - 2 7 9 7 8 * 7 @ 2 - 7 7 - - - @ - 2 , 0 , 7 4 9 0 0 9 , 4 2 4 - j 9 7 7 - j , k l b D D U l l j k } D b U U U T G U C P R R R R K ! q.! R T D T t.;.R b ! R Q Q D Q Q ! T U q.! W ! C ! ..W R D =.! o.=.D Q Q e.T T R =...=.b ! u.=.e.U R i.;.| 4 : , , j 9 , , : O b z.=.Y R Y G ! ! ! E ! R ! Q q.Q ! +.R ! U T R L T T W K ! q.! R R p.p.! +.U ! T o.O.D T U T U ! U U U U N Y ! B Y &.N 9 b N W Y R L U Y U U W N c x j , 4 N L U ..R } ..a.y.R ! ! R t.d.R } ..=.Y D R U E C U +.t.Q W O.F T R R +.Q U U R e.=.! ! ! ! ..U R =.i.R W ..R F y...| =.R ..T w...=.T Y ! D R ..t.=.t.t...Y =...=.t.t...=.R ..t...w...=.=.R +.! =.+.=.Y t.Y ! +.%.! Q z.i.C T t.F R =.=.| ;.D : 7 b D t.+.t.t.F b : } ;.b } =.Y +.R o...R R =.R +.R =...o.| | ..T R ! =.R | R | Y Y R Y Y } %.=.u.=.R =.%.%.H | Y X.&.&.F :.&.| R =.=.y.:.T U =.y.&.=.=.&.+.-...i.' :.-. ...&.X...&.=. .f.| ..y.Y .. .i.=.%.=.&.-.t.| Y Y G D Y H Y H D 4 j b b ..D Y U Y l l l , 0 0 0 k , 5 0 & 4 2 5 q , ",
"- , = , , , = , - : : , = : - : , , , = : - & - - + - , & , : : & , : 7 : , : 9 = = = = , , - & , 6 6 6 & * & = & = - , 4 = , : , : , j , 4 4 - 4 , : 6 , 4 , j 9 l k b D D D C N j l ..C U U U D C C D T C R +.+.T R Q T ! ! W D ! ! ! R U T ! o.U U ! +.P U U E ! Q Q W R R ! =.Y ! Q t.u.W e.! +.+.R ;.i.t.R U t.! t.R T U R +.R , 9 , l 9 6 d : , : k ..T U =.! U U Q Q ! ! T Q u.W ! +.R R U U W ..T T E ! ! T q.U ! q.! ! R =.t.! =.t.Q R T R T R R ! F T U D T F F N =.=.: l N b b K L b D U U E U b x , 4 : - N F T } Y t...R R R t.! ! ..n a 4 a j , 0 q j 4 D ! =.U ! ! R T ! +.! t.R +.t.=.! R U Y G R ! ..Y ..Y Z =.=.=.y.y.Y } Y t...=.=.a.t.=.t.R =...R ..t.i...! R ..t.t.....F ..w.! ..t.R Y Y ..t.R R Y U ! ! T ! =.R +.R T t.o.o.! Y | y.%.R =.N * b z R H R +.u.! l : | | D R R ! =.R Y R | ....T y.R R Y H =...R ..T F ..a.! R R R =.R =.| =.| =.=.=.R R ! %.=.=.R :.' H R Y :.R =.=.| ;.:.R m =.=.;.} X.' | Y ' %.%.&...=.-.t...t.-.&.=.;.! R X.Y } ' ' =.Y X.%.=.Y =.Y U T D R ..` Z b 6 9 l Y R Y G U b w z Z m z 0 k - 9 , , 4 4 , j : 9 ",
"* , 9 , , j , , 6 q , , , , , & 9 j j , 9 7 , - 6 - q 6 9 , , j 9 j l 6 7 9 0 l j , & & = : q : l , d , * 6 , 9 O , 9 , 7 j 9 , 2 j 4 7 4 9 , 4 : 4 j j , 0 7 z N D b N b b D C l 9 k ..D c U C C C U R D P U O.T +.T Y R U R T +.R R R R ! R ..+.+.t.W Q T +.U W q.T R R T T R R Q ..R e.q.T ! +.t.y.:.=.R =.=...R =.=.=.! ! t.! R O , = : * : & = & * N ..T R T Y R Q T ! =.=.R t.t.! ! ! +.T T ! C R t.! ! ! U T R t.! t.! t.+.e.p.T +.+.Y +.! ! ! W ! U Y T L Y Y N Y W U ..U - : j 4 , 0 0 0 4 j 0 , 9 9 9 j 9 4 7 R D R ..t.W | ..t.! ..! D T j j x 4 j N 0 j N ! ! ! ! W W U T +.=.+.R e.=.+.=.! +.U =.T ! e.T Y =.=.Y } =.y.=.} ! ....! =.;...p.+.t.R R =.t.! R ..=.R ! ! R 0.w.! ..m R ! ! t.R ......t.t.T ....=.! E U R %.| +.Q T R Y Y F H =...=.Y o.Y , b 0 D O.+.+.=.T N : g.g.D  .=.| y.| R +.=.! ....R R R | =.U Y =.R R ..T ..R R } =.! =.=.=.R | R R R +.=.=.' ` R Y X.| #.;.=.=.R =.%.%.;.;.H M Y %.%.H ` | H ' i.Y Y Y  .:.=.=. . .=.-...X...y.} H S ` &. .| | %.R R ..T Y H B F Y H F D 6 7 z N Y N D F D w 7 m N N n 0 z 9 9 9 , j 0 = - 0 ",
"6 j l z l 7 0 6 9 l l 0 7 l l 0 9 l D 9 , - - , : x b b , D j b b 0 w 9 b w l z w j 4 : z 2 l w b 7 b Q 7 x l 9 * 9 9 9 0 k k z k l 0 k b 9 0 l l w 7 9 b m D D D U Y G U b G N b j j ..b U b U C U U Q R U W U T R b D Y U Y T Y R ! T ! W U O.R Q +.U ! W T U E W T ! T T T Y ! T ! ! ! ! R Q T =.i.i.;.=.=...=.Y ..=.t.=.i.=.=.R , , l j 9 - 6 l 7 : U t.Q G D ! t.e.Q T R t.i.y.l.i.i.s.=...Q =.y.y.d.B.d.t.! ! T W ! W +.u.t.e.! e.R =.t.Q T ..W ! T Y N U Y Y Y U R U Y T z 4 j D m m N T D N D b b m m D x k j c ..Q U ....Y R } ....R R R } R B Y F Y ! U U a.t.=.T ! ! q.! R +.=.+.u.Q Q T Q =.U Q s.=.R T R w.R =.y.y.R ;.R R ..T ! t.t.=.=.=.t.t.=.! t.t.t.! q.....w.R ! ! R t.E R ..t.q.R Y W p.t.p.R T +.=.Y U T T y.%.=.! ! t.Y =.+.G %.H %.=.G | G , b z D T R T R D D & :.i.} Y %.! R Y R ..R ..T ! Y T =.| D Y R T =.R ..D  .} R R R Y R R o.+.=.H R =.%...&. .` H Y '  .'  .' } %.X.&.&.=.' ' &.6.x.x.x.i.g.i.A.v.b.g.v.;.} =.R  .} %.}  .&. .&.=.H ' A D D D D D H m B b m k b D D ' Y b , , k B N B F D D M l m m m m m z j 0 k N k z 0 9 7 ",
"l j w D z m V b G Z b D D D z b D C b 0 9 x 7 7 , c D C z b D b D b Z D z m 0 Z 8 6 * 8 ` c.: 7 Z w E ! q 0 G k 9 z 9 0 k k m l b 9 k 0 j 9 l 7 z k x 0 0 l 9 z m l l z j j 9 x 4 = j R T b b x l C U U U T I U U Q D T U ! Y R R R T Y ! T T R R Q t.=.! T ! T D T T ......Y ! R U ! ! ! =.o.R o.%.t.;.=.! ..=.=.R ! ! =.R R ;.=.+.2 m z l R z C b b : D i.! Y U Y =.t.Q +.q.u.t.! =.t.=.R R R R =.=.y.a...! ! ! R T W ! t.=.=.y.Q +.p.Q Q Q R T T t.! T R R L Y ..N Y R R R R l , k j N z b T D m N c b b Y N z j j l N ! =.B Y ..N ..R R R Y F B R ..R R X.=.=.! =.s.+.R t.! R +.Q +.t.T =.R t.R u.u.T T Q U T ! ..q.=.=.R ! t.| ....T ! t...R t.+...R =.t.i.! t.! t...w...! ..w.a.! ! w...R t.d...R p.w.R ! ! W +.t.=.t.! R +.R R T =.Y Y Y o.! R %.=.R ;.| D * l 6 b T =.R =.N D - =.f.Y R R =.R Y F ! t.=...=.T ! T R } R R R Y ....R Y Y R ..} =.=.F R ;.=.R T o.G | | A ' H ' H %.| } H H | =.R  . .<.&.<.:.3.g.i.g.x.v.d.g.;.v.B.y.%.} .. .;.=...} &.R  ...=.R F z , j 9 j 4 q l , j l 0 D H F } M = j j N Y B F m m z 9 D b 0 N 9 4 m z D A j m 0 0 l ",
"* O 6 = x 6 l 0 l l & - l 0 l 6 6 d , & + * O - + ; v f z b j j z Z G j - 7 q 2 0 b - t 3 A O , q , C C . = l , + j = : O - X X + 6 & - - - & : O & & 9 - j 9 , , - 0 j , 6 ; j , : l ;.T U c c U E P R T P T U E T D R R U R +.N Y R ! =.! ! T =.D ! R ..T Q N R ! ! U Y ! T T R D T ! ! R D R =.! =.D +.o.O.=.D R E q.! b R R +.U D R b j W x l C l * T d.R Q R R +.=.+.Q =.! R U R T R U T N R | R ! T W ..U L Y R W ! ! =.t.e.R t.! t.W T W w.! T U ! T T U U Y R F ! w.F T N , 9 j z N N b G k z b N T U N z N , T R R Y } } ..R ..U ! Y Y ! =.=.=.;.-.X.=...t.y.d.=.=.=.+.+.+.=.=.T e.O.i.u.T T +.u.r.e.O.T t.+.+.=.t...! t...! =.t.! ! t.+.o.R ..} t.! =.=.=.e.Q ! q...=.T R ..R p...W R t.t.=.} Y R F N p.! ! p.! w.+.t.t.R G ! T N Y =.=.;.=.%.;.=.| =.G : b 9 U t.=.=.R R l O i.g.} R Y ! ! Y R t.=.F =.R R +.+.R R Y ! ! U T R Y R Y G | ....o.X.R R R | R %.Y S R -. .F B } X.Y D | %.A R &.H  .&.' A | H F ' ' } ..H Y } %.R Y R Y =...R =.&.X.;.! ..;.=.! Y D 7 m m z 0 j k k j n Y B F B ' D , , l N Y H Z ` A b 0 N t z 7 , , : q d , 0 , - O 4 ",
":.-.%.i.:.&.%.Z n } %.=. .Z D  .-.R | =.Y Y %.=.| X.R R H &.&.F Z l R |  .| m m F %.G %.| | H H ' | R %.-.| Y A F | G H H F Y F R A H D Z F D Z D l 7 l l b w z l l l b l j j j , = N -.b v j b P E C P T U W Q T ! l ! Q W T U N R F R G N R T Q ..b T y.=.Y D ! ! T U m U ..Y N z U ..! ! D R =.t.+.D R =.+.R D R ! U T U =.U R U j q j N P b l b b , b y.U F +.=.%.R R Q ! R R +.+.R ! Q U b | =.! R R R W z T R W U ! R Y ! O.+.e.+.! w...t.Q ..T T W W U ..Y Y N R T T F R D , 9 l m U Q U z m Y N U ! L m N U c N t.F F Y } ..=...R R =.Y d.t.U R i.i...=.! ! ..=.+.Q U =.+.R +.O.Q =.T t.o.z.i.t.N.i.d.z.z.d.t.l.s.d.! t.! =.t.! R ..| =.=.T R R ....R t.! +.=.=.! w.R ! W } w.q.R q...Y q.W U R H u.! B t.t.t.t.U T e.t.t.p.t.! ! ! t.! R D | R =.;.%.;.F = N l T R =.=.Y Q m - &.y.R i.R R | R | =.R R | =.+.=.! R G ..R R ! T ..R ....R Y Y } Y R t.Y ;.=.%.Y | &.H ! Y  .X.| | } Y } '  .| =.;.} #.Y %.' H  .X.;.....| &.=.X.&.Y c B } Y |  . .} =.U R t.G R Y D F } X.| Y H M Y Y N H F } H } D 7 j z F Y N B A B N 6 z m H g.B H <.&. .] :.h.;.&.2.",
"x.g.b.n.3.n.%.3 u &.:.g.:.8 n  .:.=.:.g.:.y.=.y.i.=.| y.%.;.g...- 8 %.=.:.R 2 - F R =.=.| ' ' %.F =.R %. .| ;.Y H | Y | H X.Y } R F | | Y H } H Y Y 6 j j C b c L l D c P b K j l : z y.b b b K C b W W T K P T U ! D T R T U T N R R R R b ..! ! Y b ! t.W T N T =.U Y Y R ..R Y G C ! Q T m Q +.! Q D R ! R R b T R T R Y R R T U 0 , , l R x z b b , D y.Y A R R y.+.O.Y U R +.+.! Y ! W U b ..=...} ..Y b l T Y ! T R R q.! y.t.t.+.t.t.w.! =...L ! ! R Y ..Y Y b R R ..R ..z : 6 j k N q.! x b E b b N k m N l j l R N B T T w.Y =.Y :.=.=.s.s.=.=.y.;.R =.t.R R ;.+.! ! =.t.+.+.y.Q y.+.+.R v.d.d.N.s.l.v.M.z.y.u.v.d.d.i.+.! +.R ..=.t.t.=.t.R =.R R ..t.+.+.T +.0.E q.Y ! t.s.w.! W T R U F } ! =.! w.! t.q.! ! U =.u.Q ! p.t.e.! R t.R +.G Y Y =.%.%.R b 4 k j U R =.=.=.Y b - v.j.D ..Y X.R R R t.Y =.! | t.R ! R R ..R T +.+...R R W F R H Y Y =.=...d.| | R R | H A Y R R R } ` H  .` / ' =...' #.F | X.A } Y -.Y &.} ' Z A  .Y l A  .} Y R | ;.-.=...=.! Y Y G H  .=.' ' A ' } Y  .Y `  .` B m j j z k D Y B Z Z m 0 l z c.g.F 2.3.3.3.3.c.b.b.h.b.",
"G D z Y 7 l Z b z 2 4 @ l F D Z 7 b l l v b b x x b N B D 7 0 z z Z G l 0 0 D G U N B U b T +.Q Z D Z Z Z Y Y b G D Y H H Y D Y D Y H D F F R z D D b x C D D D b T G U C W U c j j k =.D P U U U U U ! P U U R ! Q C T T Y +.C D U ! =.Q T ! =.} T m D =.R U z =.....R b R =.! G b o.=.=.=.Y +.T R Y U +.=.D T b b ! ! U l D T T T 6 , , l T l w l C * G i.H } =.R =.o.R Y Y =.=.=.R Y =.U b U ;.=...R ....W N N ..! W ..! ....+.! ! R t.W ! | ! ..T T ..R U W Y Y Y F Y T Y Y k , z  .X.&. .;.:.&.i.j.-.f.f.-.y...B B } Y F Y } R R =.+.=.%.! t.i.:.-.=.=.a.=.d.=.+.+.R ;.+.! o.+.=.=.y.=.;.=.t.i.=.t.=.+.e.Y +.p.Q U =.=.=.U U ! ..R t.! t.w.t.t.! =.t.! +.=.! =.t.p.q.0.! U T U W ! ! ! ..t.! B H -.=.Y R W ! U w...Y R +.=.R R s.p.t.q.U ! R R =.| ;.=.=.Q U = 9 j T +.o.=.R | z * &.:.Y Y Y Y R =.=.| =.R R | | %.Y R %.Y Y U R R t...R R R Y G ! ! F } Y =.=.R ..F } X.} } ..Y ` } H u =.H  .) ;.y.&.&.H Y G F =.} | -.A  ...Y } H R z N } Y H =.| %.&.-.` f.X.| R Y N ..i.} ) Z T F Y Y } H } Y  .N , j N D F X.} G G D l m b :.| Y Z D H F Y Y R N Y B ",
"+.Y R ..D D Z + + z D b D 7 * B m R R U D T U c U D U R ! D G z O X b D Z D 7 & j D N C R ! T R z D Z H S H G D =.D F G G Y Y N Y R Y Y F F D Z Z D l - , : l - d , , d = & & > ; & 9 | T b b U U T U b U U U T =.! U T Q D ! U U R ! U G b ! R R Y N U T t.Q m T y.T R Z R =.+.U D =.:.;.R b o.T y.+.C R =.Y D Z R D U D G D Q T L , j 6 b G z l b V : G i.R Y T +.Y U R %.R R V Y R R u.R U D -.&.R Y R R U z R R W R ..T ..X.R ! R w.R ..........R ..W ..R | W | Y } Y F Y F m : k B Y Y } A D F R Y Z B } Y y.Y j b y.F Y Z R T U ..} ..} &.&.v.-.=.=.;.t.d.z.d.s.! =.t.+.o.=.R =.! +.=.+.d.j.l.=.i.! R =.u.o.y.t.+.o.t.=.U b D t.W } t.t.T =.....t.! t.t.| =.=.! ! q.! b L N Y W E W ..=.t.e...q.......! ! r.t.w.Y H ..F T R ! ! D W +.Y +...l =.=.=.=.=.t.D , l C T =.| =.e.R b : &.:.| | =.Y R R } | | R +.=...} R D G Y Y | Y R R ..U Y F Y Y ..R } Y ..U =.F R y.Y ..=.} R | | Y ` '  .%. .} =.=.y.t.U D M D U m B M M D z b N k z l F Y  .R ..Y  .] >.&. .z U D n A ..=.F | | R Y Y H H F R D F M - l k D | H Y Y F D w l m f.| D } H H Y | -.Y &.T ..",
"H ! Y R U U b & : k M U b & + 0 U U Y U U N D l b U z z U R G b O : b H G D + & k j D ! U U ! N Z U R D Z o.G %.=.F D Y F Y =.Y T W T R Y F H F D F l 7 0 D %.i.%.|  .F %.R %.=.| D x ..U b b ! ! T x D U N ! R T T D t.=.U R T D U G R D b T R Y D N R w.t.Q D Y ! ..| D Y R T Y l R i.+.%.b T +.+.R U =.Y =.+.l Y +.D R T D W K U , , > j Q x l b D 6 Y :.G ! =.! +.! U U =.=.F ;.R R +.U C Y =.t.Y =...R U b Y ..R R R R ....| =.....R R w...! ....! ! t.W W } } F F R Y N B n - 9 l D C N N z m k 0 n N M m N l , z A B A Y R } N Y ;.} a.w.X...=.Y X.X...R +.t.t.t.u.R =.o...=.=.=.;.u.! R t.i.t.+.R =.u.+.+.=.+.T Y U Q C l T ! U R t.R ! ! =...t.w.t.R ..R =.! W b W ! U w.q.k Y t.w.=.p.t.t.q.E U q.t.p.Q ! ! w.Y ..t.....Q D D R +.! O.e.! R =.F =.=.;.Y , j D U ! Q =.o.R D , y.x.F ;.o.R R R R =.R =.+.=.R R R U Y ..Y R R Y ..R ! =.R T R F Y F | R Y D } Y =.=.....R G } | ` A ' | =.=.R | =.! U 4 x 4 j , a 4 : x j j p j , a j } :.h.g.:.g.g.6.1.1.:.k = 4 0 m X.| =.| | =.F X.H X.} F &.| U , j 9 D Y D T D Y Z m 9 l &.=.Y Y | R R Y Y X.=.F =.",
"U ! D D G b G 0 z G 0 l Y D z m D D U U W z k N N U b D B D b D 0 m H z b D m 0 N D U U T R T R D C b l H R =.H D F D D Y Y U D Q R Y H F H H F m D k - H :.:.b.i.x.:.&.-.g.g.-.;.Y B R b b U T U P U U N U R D R U C Q T ! ! U C ! T U U N T Y } U D ..=...Y H  .R ..D Z R %.R G l R :.+.G b R ;.O.E D i.+.R R b U U ! ! l U U U K > 6 6 c ! b b b l , G ;.Y T R G +.=.=...%.=.Y =.R +.! G D G X.R R R a...U b R R ......} ....=...} -.........=.=.} ......Y | ......R W L T Y k - , j N k n N D k N F l m l m m l j 4 Z Y Y Y =.i.T b ..w.t.L m R +.X.` D D D D b R ! =.y.e.+.t.t.! ! Q +.u.! s.s.R =.R i.y.! t.R R D U =.R D b U Q N U t.R T ! t.R y.| R R ..=.=.W T U ..} U L Y ..W w.q...t.q.t.t.T R =.t.t.=.R =.t.t.! ..s.t.e.+.! O.=.+.R Q R D %.+.=.Q =.D - 9 b R t.+.+.O.R V 6 %.:.} Y Y ;.R R R ..R =.Y =.T U T R R } Y | R } D T R R Y F } N R Y R R F Y =.H Y R } T | R R ' } A ' R o.Y Y =.t.=.F m 0 j j j z j 9 0 0 j 0 0 z j b =.:.:.;.:.g.3.$.$.2.| Z N b m A } Y | } R Y | Y } H =.G H H Z 4 0 l Y H ;.R G H D 0 b , &.A Z F =.| } Y -.=.} Y Y ",
"G Y F T R D b 7 7 Z z b b k 2 k b D D N U N B T G U b b U D b C : - m m b D 9 O z R b b U T T T R F +.T o.T R R Y Y M F D N G U R R Z H R F A F D Y w : : l l b D b C C b v c C j > j N R U b T U D T T U U U T R T C U T W W P b U W ..U Y R ..Y U U ..w.Y F b R R ..F V H R =.U b R =.R T b R =.T U U =.=.Y T L b T R U C c K E U , , , C e.b b C l : G | Y N T R Y +.Q t.;.=.Y R p.R R Y D D -...Y =.T ..U N Y R =.} ..} | =.=.H ..T X.Y W | =.=.=.....X.X.X.....} ..R ..F c l : 4 4 m z 0 N 0 m m z 0 B m D z j j , N U ! R =.t.t.t.N t.T Y b 0 c l x 0 , b l , C ! ! t.! t.! ! ! R ..=.=.=.u.i.o.! +.e.Q U ! =.u.O.+.p.R l b D ..=.! =.t.! q.....! ..R Y Y R =.T ! Q R } =.} } ..| ..! w.R t.t.t.t.q.! w.....t...t.s.w.R t.=.! Q R T +.T +.T R R ! Q R ! =.Y : j D R e.+.+.%.R D 9 l %.! Y F R o.H R ! R ..R R D R U Y Y Y | =.Y ....Y U R Y B Y G D R Y } Y R R R R F Y ..R U Y =.Y H Y G Y R R R ;.:.X. .Y m ` B H ..M F H F Y B } Y F Y } } Y H _ ' ] ` ` } ` Y R X.R ..R | | } &.&.} } M Y ..N R z : 9 m A | &.R R H D z z : X.| Y F R ' Y F Y Y } } R ",
"D Y R D N R j * , z T R D & * k N U U G U D D N U U U U Y D U D O + Z m } D - - 6 U b ! C U +.Y D T G R Y D Z ! Q G m R G Y R Y T Y Y H | Y F Y D Y j & 4 0 b N N N G U U W U D z l 4 U P T C T D U U U Y U T T T U N ! U U w.T j ! ! Q U D R ..Y } G =.=.&.Y b =...=.Y Z H R R R C ! ..! C D +.y.U O.C ! d.+.C C D C N C b U K P U j > , b W b b b c = T =.T ! U Q %.Y Q =.y.e.+.Q e.e.! ! b T d.R R =.R U U U Y ..} y.} =.=.....R =.Y =.| X...R -.&...Y } -.} } | X.X.R ..F R z , j j z z k k m k k m N k B m D 0 k 9 N T ! t.....R ! T w.R B z k j N l 0 k j l j b ! =.R R U =.E ! ! +.t.T p.+.l.d.u.+.+.t.W R s.t.! =.+.R C b ! e.=.+.=.=.Q ! ! w.! ! } ..! =.! t.+.W ! =.=.....u.t.=.Y +.U T e.t.q.r.! ! t.p.p.+.t.t.s.! ! t.Q Y R Q t.t.+.Q +.+.G +.=.R t.G * j D o.r.R ! %.! D l j k Y R H R ..Y | R R ! -.Y Y ! R R ! =.| | F ..R T Y D Y U D R F ..Y Y R } Y =.G =.R R Y U Y ..Y Y F H U R F R =.;.X.%.Y H ` Y | X.X.} Y Y ..} =.}  .R ..-. ./ A #. .` / }  .F Y } | } D A Y } F H / Z H G H } b 4 q j , M D G H Y D B Z z : 3.&.R F F Z } D H Y Y Y N ",
"D F Y U G H D D D D l N D b z D m Y U Y ! Y U R Y R U W D U R D C H w m B F B U U P U U l Y Y ! T T T U G H F Y Y R Y Y R T | Y R Y | Y H X.Y D T T U & j z b N N N T U U U D D D 0 , l T U U U P D U D D U D ..! L N Y R T U U P E T ! U F =.R | R m ..| | U Y ..Y R | b Y R H D l ! R R U U ..+.W U C T t.U U C Y U U U j b U b P = j 6 l Q c v D l & G =.T Q R Y +.=.=.t.t.u.t.+.+.+.! ! b U y...} =.Y ! U b R } ..y.Y X.} &...=.+.X.i.R } ;.t...R } } } y...w.-.| | X.Y Y B 5 : j a N B k z N k j n b B k M l l 0 , N N ! ! Y ..} ..R ! R m M U w.U W D T L m N U ..R T U +.Q ! ..e.! t.U U +.N.+.t.z.+.+.=.Q ! R R i.Q u.E l Y t.R ! =.u.u.w.q.! ..Q T =.u.e.R Q ! U R ! Y =...i...o.=.Q e.E ! ! e.! W R W w.w.t.t.a.=.i.t.u.p.u.+.e.t.R O.=.T R R +.! +.! N , q D y.y.R s.=.| G z 0 4 : l R D D Y R D D G D N D U U b m D D F G D N N l N D D N b m N N N Y R F G N Y R N D D U N Y Y F b N G b N U F N D z l n N F N F D B U Y B Y Z ` D L } y M ` A H m m H B b N R N D G D D D Z M m z z m l b , 6 9 9 w F Z H F F R H Z b : -.&.Y G A A  .H Y H Z 0 0 ",
"Y U Y U ! G | } R G D D D C D D D b D Y G L Y T U U D U U D D U R R U R Y Y Y R U +.b U C ;.A =.T T ! R U +.+.H  .R G Y Y U R D F | F Y R H Y D R T b O 9 4 D U Y U D T b T D ! Y b l - z ! R T U C T U D b Y R U U b T R U t.U D ! ! U N D Y | R R Z ....R Y D } Y ..Y w Y R R T N Y ! ! T C Y ! W U U O.T V D b D ! R b l T K T U , , j b ! j b b b , b i.D ! Y ..=.Y ..R y.! T q.=.! t.T U U R ....T Y ..U B %.R =.X.Y H R X.Y X.%.Y =.-.=.=...-.} =...a.X.X.X.X...| Y } } Y z , , j j N j N m m k l N N N z l z 6 , c N R ..Y H R W T R R U R R T ! R ! R R R R R ! R Q W U ! +.! ! Q ! +.! z.z.y.+.u.=.R R =.Q ! R =.+.! U 0 D ! ! =.s.s.e.w.q...Y T Y W R U ! R +.U ! D t.=.s.=.=.| Q O.=.p.p.t.r.! R ! w...R q.t.t.t.p.=.Y +.p.t.t.Q =.=.=.R R t.=.=.;.R N , 9 C +.=.;.+.+.R Y F b 9 6 = & & & & O : & : @ & - * : & O O o + = * - - : . & = = & , , : * : + : , , , : , , 6 - = & - O @ 4 , - = & : : + - + : = = - & * : : & 4 , = : & , & , : , * : & : : : , , & - * - - * , O & - : : - * = 4 7 : 0 D F M F m F D A z 9 - -.=.G Y H Y | R Y R z 9 N ",
"Y U D F D R D R R T D ! D D Y D b B D N R R D T U U T T T D G F +.T U Y Y C G R b Y R Y R R Z Y R O.R Q R ! D R %.Y G F o.Y | H R R D Y Y F Y H U U b * , j b D C N D U z j N F Z z j 4 : b R Q U b R R U T T T G N L W T R ..T U +.Q =.Y Z  .F Y M Z X.R R D m R R U D b U =.! G D R R R R R T W U C C =.y.Q z b U ! U c l U ! z D j 9 , l U l D b l & U y.Q Q Q T ..! R R y.=.T =.+.....! U L } -.R Y R | } R %.X.=.} } X.H =.| X.| } -.Y Y %.} | =.R ..&.-.&.X.X.X.} } N ^ } B ; j 0 j k N k k z B m m z N z j l 9 > l Y N Y U N } Y ..R G ! Y ! R B T ! ..F U D R U T T T +.! ! =.T =.+.T q.=.s.t.y.z.t.t.=...+.s.d.i.t.t.b j U T U R t.+.e.E U U m U U ! R Y ! T I E I x ! ! R Y u.T U D T ! Q E ! R Y L T U U U D U T b U Y U U R ! R R =.Q +.Y =.R G =.d.D : , l +.+.Y D R R Y D b l 7 : 9 , , j 9 , , * , , 4 , , - , , 6 : : 6 4 9 : * 7 , : : : - 4 - : : - - 4 : , j , , 4 - : - , , : 4 - 9 6 9 = - - , , , 4 : - : 7 4 4 , : 4 7 , 4 4 4 - 4 - 4 , 4 5 - 4 = : 4 - 6 7 6 O 6 + - 4 - , * : 9 , 0 m F Y Y Y U F G D M z , %.%.R | X.R Y Y H H R Y F ",
"=.! =.Y D D G R R D D R D ..T N R Y Y B W R T R ..T D R U U z F U U U +.G N F Y ! R R T T b Y U R Y R T R ! F | R X.Y Y o.H Y ..! ! D U | Y R N R U z & , j N b D U z U z b N U G N N a 9 : 4 b T T D D U I ! D T U b ! Y Y R T D R U U D G } Y R z N Y Y =.D z R T G B b D Y R Y N R ..R U b T I T U b ! ..R T z R =.D l b Y R U b , : d l G j v b j j D =.O.U T G U ..t.} ......} } W -.R U Y =.;...-.| ..R b R | X.| =...%.} =.| %.;.%.%. .' R ;.&.} } ;.&...| Y X. .Y } | Y N , 4 j k k n N N m k n 0 B m w m 0 j 4 B } ` ` R U ..=.R R } ..Y R | Y D ..=.Y H F R R %.U t.y.;.=.o.R t.e.U e.t.s.R Y i.! =.a.Y ..t.d.t.t.! U b W w.T l T b P E j 4 j w b l 9 4 0 j x j b x q x j 0 l x j j j x j c l j l 9 b j j l 4 0 4 b b 9 l b l b b ! ! =.! +.Y R ! =.y.D * 7 : C u.+.+.+.+.R R F N z 0 4 , j : , : : & 9 : , , - - 4 4 : 5 0 0 0 , , , 6 9 : p a , = , , , j : , 9 j 4 , , , 9 , : : j , , j 4 , 4 4 l 0 9 , : * , 5 4 6 j 9 j , 6 0 : , - : , 4 , , , a j a 4 j 0 2 z 7 : 9 4 7 : 9 : - , : 7 9 l D F F | R | G B G F N 0 , -...D Y =.Y R R R Y F G ..",
"R R T R T b F U U Y R Y T U N N R R } R Y W Y T R F Y Y D D U G Y R R T R R R D D ..T ! R ! R ! R R U ! R t.R Y Z G R ..H Y R R Y G G N R Y R U N D Y * j m z N D T N b b D C b b T l c , , * l U U U U U D N G Y T U T R W T D D R R R D F R R R D N R D Y B l R } D B 0 G R Y F D ....+.R C D U ! N D ! T T D k Y %.U b D U D ! l & : j C U z C b l - T R R D R R R R T ......Y } w...R R L E y.} Y ..t.R U N ..+.=.&.;.;.%.%.;.;.;.=.;.=.%.| %.:.y.-.F b , l } | | W Y Y B ` 0 4 , a k m N N z j k N z D D m M k z $ m Y Y Y R D ..y.....y.R ..R R R ! t.=.=.R %.;.R t.=.y.=.=.+.t.e.t.R +.+.R +.Q T ! W R Y N ! ! ! +.+.P U b T R L b x K c , j j j l : : l = : - > j : , , & - 4 > , , & : O : , = 6 4 x : = : x j j = > 4 , j = l 4 D Q =.=.=.H =.R +.R +.N : j 9 * T =.+.R +.o.Y Y D D N b l b N k 0 j j 4 , 9 , z j z m Z m m k 0 0 l j w l q j j , j l j N j , 4 x m k 0 l 9 k l 0 z j z k m z k 0 k k 0 l , 9 4 l 4 4 l j , q j l x j z l , : j 9 , 4 m m M n m 5 n n m z 2 z 9 j - , 4 j z j k l D Z | :.F F D b B Y m j 4 g.} R R X.X.! R B Y | } Y ",
"%.R =.| R G Y U T ..Y R T R U U T Y ..R } U Y t.R G Y R G U Y R D D Y R R R R o.R m ! Y D R E W T ..! +.Q ! Y R T G Y D X.} R U D D R G D D D D b T b & , 9 l z b N b D b D l U N U b k j 9 : , , P T b T U b b R N 0 b T Y R N Y R Y G F D F ..Y B N R l U F m Y F G m z Y G ..Y z R T ! U V D U U D N T U T b z Y =.D m N G U U l , : v P P b b C j , H =.R O.T ..t.t.....-...W W ..Y Y | U U y.-...y...i.D Y } =.%.=.X.=.=...X.=.&.y.%.| | X.%.i.! | - - Z 9 n }  .Y W | W B k , j j N z N j N k z z D N l z b l , Y | G N R Y ..i.i.t.t.a.! E ! t.a.w.T R ..=.=.R R R =.=...y.U o.=...! =.U t.T R ! ! ! N U ..=.! E t.t.T b b W ..t.t.s.q.! T ! q.! T Q ! U ! ! D U F } F H ' ' Y } Z } F ..! ! Y } Y | ! Y R Y L R ..R R t.=.e.r.! ! t.=.t.R =.=.Y R D D =.T & , j j * T t.=.R Y R %.Y F Y D D D N b b D b b , l c b k Z B '  . .F F N l b l b x N b l D l c l l 9 l b D m Y D D k F m m B N N D Y B F Z A D z B k l 2 q 4 l b C C c b z m k 0 q , F , : 4 ] (  .X...` ^ ` ' F ` A b l Z Z w l D D M D D F D %.%...F F F } D k , i.-.Y Y =.| | T G R | =.=.",
"! R R =.T G N N U U T R R t.! ! W R Y R R ..R R ! R ..! U R Y =.R D R R o.=.R R H Q U =.=.! 0.Y T Q =.+.p...=.R R } =.D | Y G U T R ! D R W R D Y D B : j j b U U U b E b D b b D U T D c 6 9 4 , , U ! U b D D R D D W U w.T B Y Y Y F m m =.! D m B R F D D N Y D D l 0 Y | | D D G R ! D b U ! U U N T U T C m ..U D V 9 D R G l * z b D W b j b q ; l :.H Y T R T R ....X. .W } ..Y | Y U R &.:.y...y...Y Y =.;.t.=.=.y.=.&.X.y.-.y.:.%.X.} R ! =.D * A 3.Z.& } F ..} } | W k : 0 a 4 z k k z z 4 b w j k 0 z a 4 y...Y Y N } ....t.t.t.p.! ! ..y.U R ! ! ! ;.| R =.+.D ! t.t.t.t.y.=.! ! G ..! U ! e.q.W ! e.=.W 0.! ! R U v ! ! p.t.! ! E W R ..E +.=.! ! ! D +.p.T B ` | i.:.d.=.y.t.} ..=.......t.R ..=.t.w.R R ..t.W ..=.R t.! q...! t.T +.%.! R =.T Y U = d b C 6 * R +.Y ;.R Y F ! Y Y Y Y G F T D D D l N j n k H ` Y  . .} Z z N k l U D D b D D N N G D 0 z Y Y Y F Y R B H Y Y D D B F D N D R } Y T D b j N Y l D D G C c m A Z F m , z D , = 0 { { X.g. .]  . . .' X.F 0 m b Z j w Z D Z D Y | =.Y Y Y X.F Z A A l j f.t.D F -.=.=.=.R R | | | ",
"+.R Y R R | b b m D D R R =.! D T ....F } R W W R T T t.! ! T N R =.=.Q Z Y G =.R =.T ! =.R R t.R D | ! t.t.e.O.Q =.y.R %.;.U D R R Y F Y R R U U F m : , 0 l U U R U b U T U b C U C U U l j j 9 - j D b D T t.U b l R D ! R N F R R M z m =.t.D b z F Y D B Z G m m z z H D Y m z G Y U N N T T T B z Y ..U U V Y U R N l Y U D b : , v C b j l U D & D =.R Y R R ! Y =.} } ..} B ..} w.R L Y y.=.=.R =.} ! G +.i.y.=.=.=.A X.| ......| ;. .} R -.} y.D c.) =.n Y Y } } B F Y z 0 > j l z B j j l j k k b b D l 9 : y.R Y D R F R w.y.W ..p.w.=...R Y R R ! ! =.t.! R R T ! R Q +.+.t.T R o.R R =.Q G T E E R Y Y U ! =.+.U G P u.p.t.t.! s.t.R +.R ! =.T | R Y G Y ..R ..} u.i.=.o.:.d.R ..=.} M ....=.} } } Y Y ..w...t.R t.R =.t.R =.t.t.s.=.=.R G =.! =.R z & 9 b I C , 6 R R R R D Y Y Y Y U R G T R R D D k l b N k ` H &.` } } D P C b U U C D D D D G D N Y k z Z Y F R F Y B N D N Y F F R Y N N N F c N Y U , D T b Y Y C P m b M D m N 0 3 l j 6 m [ ,. .X. .{ ] { 3.'  .A m N k N c z ' G Y Y D R U } Y | ..B Z F M z , k.i.F F =.:.i.| D X.Y R ;.",
"=.:.! R R =.b N D T R U U Y +.=.U T R U R ! R ! Y R } Y T X.R ....=.=.=.| R t.=.Q =.=.G +.R Y ! +.R ;.=.Y y.=.R R t.O.R =.! R Y R A Y F R ! Y R U D b , , l k U U U U T T U N U D P C C U D l 6 , 4 : , b T ! T D z l U D U U z z R D Y k m R R z Z m Y m z n z B m M k 0 D l N D l N Y N N N T Y N l D Y R D b Z R R Y N l D U U j : j l C P c l K j = l ;.R U Y =.R =...=.Y Y F } L ......Y Y u.+...R ..=.R Y =.d.=.X.=.=...;.=.&.} &.;.Y  ...| R R j.T.D Z D Y } Y Y F Y M } 0 , , j a z l k z , l b l k c b 0 j , ;...T R Y F U R R ..t.X...} ..D D R U ..R R ! t.! R ! ! ! R =.Y Q Y +.o.G o.=.R +.U U N N N ;.O.! +.Q T U P W u.t.R u.s.! y.d.;.d.s.R R ..m m D R ! t.! t.z.t.%.=.! +.=.! t.t.w.t.t.R u ` } w.y.i.w.T T ..! ..=.R Y +.t.R +.R ..=.=.R ..| N , d b Q U b 6 : R +.G ..Y D R Y D D D T U Y b F j b j j z H  .' ` Z D U b c b b C b D C b C U b G b b l m F Y R D B z k D D N Y G z N j z N j z U b N l l C b D l b P D F 0 m Z m 4 a 0 : > m 8.{ X.| ` ( ` ' X. .A M z k N l b 9 D m D D F Y W Y H } T | B R N z , b.-.G R -.=.=.R } F R | R ",
"+.R =.R Y G G D T Y ! R U t.;.R U U U U ....U ..R R R R .. .} Y G Y =.=.o.t.e.! F Y ! U G ! R R ! T =.R =.=.R F t.t.+.+.+.Y +.F R Y G D T b D D F R z : , , z D R U U U T D C x Q P C b b v b j l 9 , , 6 K ! ! U N b L ! b U U D R D U B b D N b D 9 C b 3 k k z m k B D z z b z Z U G W N T T T T b D G D U U C U ! Y D b R ! N N j , l D C l l N q = D | Y Y Y Y H Y } } ;.X.W X...-.| Y N L u.+.! =...=.! b +.i.-.=.;.=.R %.| =.| } ..} R ..R | Y X.R.v.C T =.R } R Y N F Y j * 4 4 j c l k l b b l j z N 0 , j : i...W G Y R R ..w.y.w.....+.R R Y ! W R R ....t.Q ! ! =.=.Y Y R T R +.R U =.+.D D U L b N l N b U Q U T b C U R =.t.d.t.+.u.u.y.u.t.! =.D T W w.b U t...=.s.u.s.=.+.u.y...t.t...R R -.} ;.y... ...t.R -.T Y | R =.Y Y =.=.R R =.=.=.Y R ! U 7 x b U R C P , q G R Y D k 0 b l j 6 j j , j , : 7 = , - 0 t 7 0 7 l b 7 j j w l 7 6 b q 0 6 j j k 2 - j x z z 7 , b 9 @ z k 0 4 & , 2 0 4 : 5 a 4 z j > b 9 z 8 0 l Z 8 4 0 j j : 2 3 * : - A ] Y G M B / A b m r 8 - 0 q , : , 0 b Z b D Y m F Y Y Y Y  .R D z : f.j.! =.=...=...=.| ! R =.",
"R R ..R Y Z F 9 k N D l D Y D R Y U R ! ! W U w.! ! R W } R D F k z Y Y l Y Y Y D R Y U U U ! T +.! | =.H F o.' o.=.+.Y +.+.+.U U R T Y T D N H B Y m 2 : : z b U U P P U U U ! U W T U U P l c j k : 9 - j D b l z Y T b b R R D | ;.F R ..R D ! U A D m Y B G N M Y H D D N Y N D Y R U T N Y R D D G Y D ! ! U D U R Y T W Y D b 4 k 7 l D 9 D b j - D | D R D F Y R =.=.&.Y R R } =.R | G ..d.t.R t.y.R Y D Y o.=.;.=.;.;.X.t.| ..;.=...X.W R %.R | H =.;.=.N R Y ..} B D N 4 4 , 9 b N N n N b b l k m l z c , : y.R D F Y Y ......-.} | R R | R ! T Y ..=.R ! =.! w.R ! =.=.o.%.+.R D C ! Q P b l b v x z l l 0 C C D b b D u.t.t.t.t.t.t.t.y.u.:.u.+.! =.y.t.t.L ..t.R p.p.t.t.! ! R o.! ..R Y ..H -.} B  ...Y Y ..W } ..=.y.R t.H Y | Y =.t.R ..Y Y =.R c : , U Q T D O.P j 7 D G b M Z.R.V.v.b.b.b.b.b.n.b.b.v.b.x.c.n.K.b.P.K.Z.V.P.b.R.P.b.n.R.P.Z.I.I.I.P.P.n.b.J.P.J.K.P.P.J.P.P.P.K.K.b.U.V.P.L.P.P.L.L.U.b.n.P.n.E.P.K.P.E.K.7.5.1.8.5.9.I.K.J.K.K.P.P.Z.L.G.8.h.K.G.G.n.P.I.G.J.J.c.K.3.H m D Y F Y D F |  .| ' H z , X.;.! =.=.R U R =.| Y =.=.",
"R Y R +.Y R j . ; Y L R F * O z Y =.+.C L U T ! U R ..W F R ..N o + G %.+.+.- * - z D t.! R ! E +.U R +.=.R O.R G t.Q +.=.R R W T B R Y Y G D b U U m k & 4 k x U P T C U U ! ! U P T Q K N b j l c j , 6 6 , j N R D T U D B B D Y H B R ..F R =.R A H | R Y D Y F Y D R U Y U Y R m D R D U D U D U Y U N U U Y Y =.R R T Y N B Y - , l b l k C D 9 & G :.| Y H D H ..F ;.%.=.T ..=.X.Y } N W u.y.+.u.y.=.T D %.=.=.=.=.%.X.X.i.=.X.=.-.W y...=.} ;.} T Y Y } Y N m W H B Y Y z : 4 l N b N b l k k b b b z l j j = y.-.D F Y =.=.=.! ..:.| =. ...Y } Y Y =.t.! R ..! =.t.! ! ;.%.R R Y D G Q Q T +.Q b D R Q U R ! U U W Q E R =.+.y.t.=.y.t.t.i.s.=.O.u.t.p.Q e.e.! +.t.u.s.t.=.=.=.! Y H  .| ..R Y Y | ..}  .y.t...} | | =.=...=.R R t.=.R ..| Y Y ..=.| ! G : - : u.p.b Q C C 6 z l 0 P._.v.;.y.=.i.;.i.=.| =.;.:.:.=.-.;.i.=.i.i.y.y.y.i.;.y.=.;.-.:.x.x.i.b.y.&.i.-. .g.g.g.g.i.f.g.;.:.&.i.x.i.g.g.:.g.g.g.b.:.&.4.h.i.g.g.:.-.&.3.$.>.>.] <.*.h.3.b.3.i.g.:.v.:.&.#.g.=.:.g.:.x.g.] &.:.&.f.;.=.9 b l R ..Y  .A H } ' M c - i.v.+.=.Y R Y ..%.F R } G ",
"F =.U T Y R Z , * N N R F 7 0 D Y D R R U R T E R ..R T R T ..D @ 2 V H R Y - 7 z D R ! +.0.! Q Q H R Q R Y =.R R +.Q U =.! Y e.Y G U Y D D D D Z B B D , : 0 N D U D U U U W I +.E T U E c b U b b x j 9 9 , - b T R R U U b b Y U B F Z B ..R Y Y =.F R Y R Y D G N U R U b D | Y b l b b T U D Y U Y T U U Y ! R R Y W Y R R Y D , 9 l b U N j D l : D i.Y } Z Y Y F &.o.G y.....R R Y Y U Y t.p.o.d.r.=.T G +.o.+.:.X.;.| ;.%.;.=.=...| ..} | t.Y ..N F } Y  .Y R B B R R ! l : , , a b K b x l m D b N z z l 9 , g.=.z B Y | R U } X.} =.R Y F Y ` R ..;.=.T t.t.! =.! =.! =.R O.R +.R R =.R D ! =.! t.=.p.w.W ! ! ! ! U T =.=.t.u.i.y.=.u.s.t.y...D +.W E t.W E t.t.! y.u.u.y.;.=.t.} F ..} } H Y R u.t.=.y.=.y.=...R F &.&.=.! ..Y +.%.y.Y Y R Y G H R ..D * l b b p.e.C U C j : O Z.Q.R C B D D D H Y D b D T D F T D U Y D T ! D L D Y R Y R F F } R o.Y R R F F Y Y R Y D F H H Y H D D -.R U ! T D F ..T | ~ ~ _ A =.D R D | %.` A } Y B M | H ..Y H | Y H R M M D Z D G D Y -.%.H Y F F F B F N k 0 m R Y H } Y } %.F N * :.i.R =.=.+.+.| Y R R R } ",
"! +.R R D m 0 m N D z k H Z Z Y Y D ..N T U ! R Y t.....Y m G } G m R D D D D H D k Q R Y U U U ! Y G ! T Q T ! F R Q ! u.R R T Y F D Y G N F D m G b N z : 0 N D T D E E E E T U Q E U ! T Q I T C b j x , 7 : 6 D Y H b D W U b b N T Y X.=.Y Z R ..Y F D F G T F N b U U D U Y D D m D U D Y U Y R U b U D m D T U T R Y Y ..Y Y 6 , l N N x b D m , b ;.F F } &.Y } %.| X.t.R ....D ..R D F ;.=.=.=.;.+.T Y +.t.t.;.=.=.&.=.:.;.R %.=.} } | %.=...R R Y F N D F ..L Y D D R b + , j l b N c C b b N b D C z j j , | ..b N Y Y | -.} :.-.R | R R R ..R T =.......! T R ..=.R R T U T R ! =.R Y T ! ! Q +.t.! t.e.q.Q T U T T y.z.d.t.y.y.=.;.v.;.%...D W R F t.b D t.=.! | X.t.t.e.u.=.F R Y | | } &.=.o.F } ..} R R Y ;.Y | :.R ! | R =.Y =.=.| o.| H R Y U z : q j U C t.U V l j 6 z R.g.G D H ! Y F Y D R G Y } Y F Y U Y F R =.R Y Y ! =...R D R R | Y %.o.D R Y } ;.} F } H H | :.R | | Y } } } =.&.=.R ......] _ ' X.Y F ;.%.' F =.} R Y F F =.%.=.x.2.&.:.} &.X. .%.=.-.%. . .;.%.F H } } Y F A D 4 k l R F B F X.-.-.Y N O f.;.-.o.=.Y R T ! ! R T R ",
"H =.Y D D D l & - m N T F - * z Y U N W R Y R T } t.! R F Y R D , X m D Y Y , O b D D =.U b Z R ! R Y U W ! Q ! F R +.Q +.T Y Y T Y F Y U R U Y D m N N b b , l b U G O.U E U W W W T T ! ! ! U T C D D x 6 6 , , * b G C W W ! D R U D N | R F } Y R N B m Y Y F G F D Y N C D Y b D D T U D b U N L R U N D Y B z D Y Y R F R } D 7 , 9 D b j b b b 4 D =.=.G =.=.Y =.R Y | R T =...} F Y N Y ;.;.R ! =.o.O.R u.t.t.R Y =.%.%.| | %.%.Y | =.} } -.| ! .. .U D F ! | } D M Y D 6 - 4 j l D b c b j z j 0 b l D l 9 >  .X.D D U Y D =.=.=.=.R T Y ..} R R } ..R w.W | R H ;.R ! Q ! T U ! T o.R T p.e.U T t.t.Q e.t.t.t.+.D R =.i.d.=.=.=.H d.i.&.=.%.=.u.Q =.R Y Y z ! +.R =...! t.t.R t.=.} ..=.=.-.X.| %.-.} } i.....| =.R =.:.=.=.y.R =.;.+.Y ;.o.} F Y | Y D & 6 j G E q U C b v & T b.=.T Y =.Y +.R ! D U N T Y | R T Y R Y R Q ..R U =.R Y R ! R =.! R R R %.=.| Y X.R | X.R R %.R | ..Y Y } R | =.=.t...X.} } ) ] &.%.` ) ` H F Y } } F H H :.=.i.3.3.&.#.>.&. ._ -.:.&.3.:.&.| A %.` A X.Y H H Y l 4 4 0 B F H A } H F R Z : 3.i.| =.=.%.R =.Q ......W ",
"=.R ! ..Y %., : * N b R Z : + l N U D R ..R ..N R W =.Y R R ! D * . Z R R R + . m T C +.T U Q ! +.T o.e.Q O.=.Q ! e.W +.+.E Y Y Y R R R Y D N D U D z z l D j 9 b D U U E P U C O.R T +.T P P U b T U L z j x , , , , 9 B T ! Y D Y Y ..G R T } Y F G Y m Y U D F B D D m Y T D D F R Y U N D D D U U D Z Y U F N } W ..Y | | | H Y j 0 9 D b b b b 0 , l R Y Y Y -.Y | %.H =.R D Z R F D N k R y.=.D o.R Y T V R y.=.D D R =.%.=.;.X.;.Y X.Z Y } Y } | R R R R H R R T Y T Y 0 & 4 , , b x l b b K U k x b G b k 0 ; } Y D G H F } ;.=.=...| R ! R | Y H | } R ..X.Y H | =.;.R Y +.+.T U t.Q R Q =.Q R Q D +.! W ! W T ! T T ..t.i.i.=.;.Y =.t.u.%.| ;.=.=.=.Q R W m L w.U W W t.R t.! t.p.F Y =.y.;.X.| t.=.%.%.-.} X.H F F ' Y -.;...Y | =.=.=.Y H R =.Y D %.D - 4 b T T Q - U P 9 , z x.=.=.....! =.R E T R T R Y =.U R R R R ! +.O.T o.o.R ..! Y =.G R R ;.R &.%.| X.} ..| } | =.=...| R } A Y Y +.=.y.! F  .M A A /  .A m M n B R Y } | | F %.X.| %.X.&.%.A ~ A A Z } Y ' M ) H A ' ` S H F F F Z Y z : 7 - 4 4 0 4 4 j 4 0 : , :.:.| =.i.=.+.+.T =.+.=.o.",
"Y R Y R F D Z D N D z D F F b Y D D Y U U Y w.R T U ! =.R C z Y G Z R C D G D H T D G Q +.Q +.R +.Y +.r.E Q +.T Q O.Q +.Q Q O.+.R R Y Y G R D U R F M z D D U j j z c T W U C E T Q T T U E Q Q Q P T b T b L b j , - , , j l 4 b k z k D k l N k b z z k z 0 7 l 9 w b l D z j , b l j k x l b b C l 7 l l l k 4 N n j k z L b l 9 , , 9 l D j N b z j : z m b l m z z z D G l 9 9 9 w b , 4 D V l b 9 l b 0 l D D D V C D m N D G D N Z m m 9 k k m b l 0 k z 0 l l z k z , 4 ; : 4 j j U b v l j l I b b z l l 9 % &.=.R Y } Y Y =.! ..=.=...! R Y F H | } =.H H Y ..=.Y =.Y R | =.U D t.t.t.+.+.l C P P l v L b j j x b G R i.=.t.t.s.y.y...Y | ! =.R H =.R N U L Y ! U N t.q.=.t.w.=.i.t.! =.t.=.=.=...&.}  .%.f.=.R M '  .X.;.X.X.R y.=.! | =.=.} R Y %.R D : 7 l D T D l j P j = m f.X.R R R | Y ! ! R +.T R ;.R ! ! +.o.R =.R o.+.t.l.z.i.t.=.y.;.;.%.+.o.R ;.-.o...%.' A &.Y =.;.} Y | H F =.=.y.=.t.} ` m B M M M Y U b N } ..%.X.F H H H ' :.A &.' ' H %.H G Y Z F Z A H A D m Z A } G Z A F M N , : , , 4 l z j q j , , , 3.x.%.t.i.y.=.t.+.+.=.=.! ",
"Y R R R Z D Z 7 - B D N F 0 - k D N U U D T R T Y F =.G R N Z D 7 , D D G R 9 q D Y D ! t.+.Y R =.D +.Q Q O.r.+.e.Q O.O.! +.! +.R G R ! R Y Y D z m m D b D D R 9 j 9 C U U E b U Q E T C O.P P Q ! Q U U U U j 9 l - , - : : - - - - X : * - O * * & & * & , & & & : : 9 - & : - , 2 O : * : : & , , & * - O : ; X - - & & * & + 6 , , 7 l z c j U D b 9 9 9 & + : q - , & : * : - , * : : - = - + * - * - * - - - , , - - - = * O , - & - = , X - O & & = , & & - 9 : - 4 , : , , j j b N b b N n z N D l m k 9 , : :.y.m Y D R Y Y | ! ..=.Y ..R Y | | X.H :.Y F R | R ;.Y R =.=.R T D +.=.e.R =.C l j N b b j b x q j l l U R =.=.R =.t.Y } R Y %...%.F Y U z N l 0 L T U N L Y ..W a.=.| -.y.;...| D D D F A Y z t H } =.;.D F Z D Y G D ..-.=.R R R T R } z & 0 l T T D C b , C d l 3.R R R | X.=.R Q ! R ..-.o.Y +.;.R =.o.T T o.z.d.u.z.d.d.i.j.g.d.=.R t.=.=.=.R =. .&.` ' | =.Y } } } X.R F R =.y.t.Y M Y } } M A R D R D R R %.Y %.} H R y.=.' | &.'  .Y R L Y H A Y Z A Z Z z Z ` Y Y Y Y | G m , , q 4 m G b U N C D j , h.-.=.=.=.u.t.y.+.=.| ..=.",
"o.%.Y F R ..j = & 0 b Y D & & j N G Y =.F U ! R Y } Y T T G | l + - z Y R D - , 3 Y U T R Y H Q C O.+.e.+.Q +.O.e.0.Q +.u.e.T T R R | R R Y m l Y b D m b D b b b 9 , x P E U U C E T O.R Q C T ! e.W Q P T I K j 9 , , , , 9 4 k , , & , - - - , * , , O 4 , + & & + & : : & * & 2 : - + = + O * 7 * : . - * : & - * O - 4 * * : : 9 4 9 9 j 0 j b b q z j = , : - - 4 & , , 2 6 6 * j 9 6 2 7 - - , : - , 6 6 - - , - - - 7 9 0 7 O , , : 0 6 - : 7 & , , = 7 6 - , , 4 : - & , , x c l j c l k z b j b b b l j j 2 :.} U D T Y Y Y } | | | Y Y F Y R R Y Y | X.Y %.Y Y R =.o.u.=.+.u.e.e.o.+.d.v.+.u.Q R ! e.T T Q R R R =.U G Y D Z %.=.%...=.U H =.t.! b U R D z M N } R Y B B R ..t.} X.F } ;.&.H H | | R Y } =.| Y X.=.} ' -.H H H R o.=.R =.T Y Y =.Y R N : , z D o.T v l b 9 p k v.=.R | | =.=.R ! U R R ..y.=.R R +.=.R +.T i.;.R =.o.R R | =.Y t.=.=.R =.y.=.|  .' ' #.` &.-.=.%. .=...=... .;.=.t.R Y H Y =.A Y D B D F M ..;.=.X.A H  .y.=.H } ' ' ' X.T F D D D Y R Z z C T R H } R D Y } D D + , 2 l D D Y z R U U l & v.i.=.=.R ;.+.+.R =.R ..=.",
"Y R Y Y Y Y U B U G D -.F Z N D N D Y Y Y D D Y R R R R | ..R G G D R T Q R F z D H R R R %.%.o.R R +.e.! Q I 0.I e.e.Q O.r.e.T U =.R R ! R Y D D N U l U N b b N c 4 j l N U I U U T T T O.+.Q =.u.U Q ! t.T C b j j 4 4 , , - : = + : , 9 9 9 : 9 , , & = O : . & & : : * , & - ; - ; : : & ; = = : & = : : = : - & : : : : : . p 9 j 6 9 c b D b b b k l , & l 9 , , j 7 , x 4 4 9 l x q 6 j 9 , 6 0 : 9 6 q , , , 9 9 j , 0 9 l 6 7 9 6 , 6 , 4 4 , 6 , , , q , l : : : 6 : 9 b l b z j c P b b b b 9 b C l z 9 j :.Y D Y Y F R Y | R Y X.Y R Y Y T Y | R | } R | Y Y R o.R o.=.+.R O.+.+.t.+.y.Y D D U U U P U U U P N U b - ..+.H Y R R s.t.! =.} t.T j N R D m k z M A z k =.w.t.U A H F R :.&.m b H H D H R N D R } | } Z w S R b D R =.R R R Y R U R =.N : q b D G C b c z b - z j...Y R | =.E T R R Y ! =.=.Y %.;.=.u.;.+.R =.R R o.R +.Y %.%.R Y R Y %.=.=.%.=.R  .&.| ' &.=.=.%.| } &.R y.=.y.=.Y R  .Z B } A A Z F A m ` t.!  .] ) ) &.%.-.%. .*.) %.A A A D Y H H T G b G Y R | R Y Y F D Y z : , k N D z C D b U C x & v.y.=.=.=.! +.=.! Y R =.R ",
"H Y } T Y N U =.Y T R Y %.F R F R R Y R Z H G m R o.R o.Y ..R ..+.Q R t.+.T o.Y +.=.R R =.R H R ;.=.O.T Q e.! u.! ! ! I T ! W R Y +.+.U 7 : j D N Y D U N U b U U T b j 4 b U b U Q T U +.U +.+.Q T T ! ! +.U D P b j l j j l 0 , , 6 , , 9 j 9 4 c , j A ' ` } } ' X.Z ' ` | &.'  .'  .]  . . .A ' &. .]  .] `  . . . .] ^ `  .#.:.g.3.:.l U D b D j 4 k 9 q : 4 : : , : - : , : , , : - : , j , , & : - O : , : , , , = & q - , : , * , : - 6 : - , , : , - * & - , * * , : , : : 4 : 9 : & , , , = : : 7 6 9 , : , } R D F | R R R U ..| Y D F R ..T R %.=.' Y Y Y Y Y R R =.R ! +.R Q =.y.Q U ! D * = > , : > j 6 d , % & > z ! t.o.R =.+.=.! t.u.Q ! C O N D & 2 z & 8 m : 4 R t.! ! R ..F =.=.' w + Z H & 0 A O 6 =...%.' 7 & Z H O - S ! ! Q o.=.R R U D G * 9 l C T D l 9 b l , z g...R G =.! R ! C T R G R y.! O.R =.y.R ;.;.+.;.R +.Y Y | %.H =.U D R =.=...=.=.R R %.R Y &.:.| | A ' ' &.` ..t.i./ ' .. . .' ` ` A :.) / &.=.=.' :.=.=.=.#.&._ | 3.] ) ` A ` S | } F G H m z G R H Y Y } Z Z H m : 4 q b m D z T U C N l 6 b.i.%.=.t.t.t.R R +.R R R ",
"R | H F F Y D Y =.D =.%.R R R Y Y T Y | Y Y Y R R R Y R Y Y Q =.+.o.R R R Q R O.U R Y R D G Y R R =.O.+.s.r.! ! e.e.Y G T R D B R R Y j + w 0 2 B T D N D b b N D b N l , l D D T C U T Y ! ! ! Q ! T u.=.t.O.Y D z m N z z j : - 9 b b l 9 l , b ! 6 7 m m Z D F G D M H D F H Z Y Y H H H } H Y } | D H Z  .F ` M F ` ` M F } Y F H } H z D b b b j j 4 , l : , : & 4 , 7 - : = 4 6 j 4 9 : = , 7 = = - , : , 4 9 6 : : : = , - 6 - : + = , & , , = , : = = , , & : = - * & 6 * , & , - : 6 7 & ; = , = = - = = : & N Y F R R Y Y F Y | ..R N R ..R ..%.=.F H H | R R R Y R i.=.=.! ! %.R O.=.+.y.R G T v l b b b b b U T t.N R i.=.t.t.=.t.t.s.i.t.=.=.N * b H * k m : 0 F & 2 U T ..t.w.Y &.R &.' 0 X m Z & t A X - R R ..=.0 O y Z - @ Z +.+.U +.R ! U Y R D - l l C D T b l b j : m y.Y U R q.! U +.C b C R +.+.! =.y.l.y.%.+.+.R R R R =...;.R | | Y Y ......=.y.y.:.Y R &.i...;.=.o.&. . . .` ] -.g.&.&.g.#.` ( ` ' ' &.] X.&.( '  .&.X.t.=.&.&.| H ] _ %.| Y R X.'  .Y H H F m N ..' Z F D D ` H k 2 k l 9 V D Z V b D l j 6 b.;.;.=.t.+.! R ..t.R =.=.",
"=.G Y R R U D F Y H R Y R +.=.Y T } R Y Y R R G R G T %.=.! U R R Q R | R Y %.Y D Y %.o.T G F | R =.=.Q r.r.e.e.! ! ! T V U D R R Y V - z F P.b m T G U b b N l U U U U j : l k b T b T T ! Q ! P U U ! Q +.R T G N z N z j : : j b D b 7 9 l , P b 9 9 m b N N D N N F D N b D H D Y N D B m N D N D F B R l B } } F Y N Y Y Y D U C D b z N C D b v q 0 9 , x l 7 , j l 9 9 l q l j c j 9 0 k j j 9 j , 4 9 9 q 7 l k 9 j 0 j 0 l q , 6 9 6 j , 0 q 9 j , 9 6 9 6 9 , j 6 , j q j , d j , 9 6 , 6 j , 9 9 6 , , 9 : N D D F G H U Y R R Y Y Y U R ! R | ....} Y =.R R o.%.%.R =.R =.=.y.=.Y =.=.+.+.! ! T C W ! L U T r.w.t.! i.X.R t.t.=.+.;.t.u.R e.! z O - m - z U = 4 D . 4 Y R w.t.! X.Y =.=.&.0 O z m * w F * + B ..i.=.Z X 0 S & @ o.R ! U =.! ..=...R D - , l D Q I C l 4 x : j f.B Y T U U U T D v U R +.y.t.Q v.s.=.=.i.+.:.=.=.=.t.=.=.%.Y -.=.F R =.;.=.=.=.&.i.X.X.&.i.X.y.o.&. . .A  . .&.:.=.&.*.#.] ] )  .] ] ) #.) _ ] :.:.:.;.y.d.v.;.| *. .=.&.%.F H ` } =.F } Z z 0 H X.z A m D B H N & l c b =.t.d.v.t.p.t.D : c.:.| ..i.=.Y =.! R =.=.=.",
"Y Y F | Z F Z m M Z B k F M F G R Y ! =.! R Y Z F R R R o.G D Z F Z H Z z F D m B F Z T Y Z H Y %...R Q ! ;.! e.U +.+.C U U ! Q ! R T C %.#.%.D D G m N b T b D U b U U b x , j D b U ! ! U P ! Q U T ! ! R C Q T m m N 9 * d b U U l N 9 j 0 b b b , 9 D R U N U D D D m z Z Y } A Y F Z Y } m } } H } | } B N | } Y B T R R Y G U U ..M b T Y U b j b k 4 j j l l 0 l j l k j k j j l k c 0 k j q l k 9 j k 4 b w 9 b 9 l q x l 0 j k 9 , , j 9 9 d d j , j x q , 9 j , j 9 0 j j : 6 9 j 6 x j 6 j , , 9 = j , : , m m F m Y Y Y Y Y Y N R D Y } ....X.R =.Y Y | R %.+.;.-.%.R ..R D ;.=.e.t.C D ! t.R Q T G b b T w.T ! q.t.s.t.s.u.u.=.+.U G T ..p.U N N N Y =.! R U U D w Y Y .... .t.R Y %.%.%.H =.H | Y H ` ` '  .Y Y =.' ;.%.H S %.H =.! R ..R ..U T ..D O v b C T C l b b , p z g.R q.T D ! ! ! l U =.Q =.u.u.;.t.y.y.=.;.=.=.R ..R | R R R Y H R B R =.y.i.y.=.y.v.:.:.=.%.-.o.=.D ' %.&.&.<.&.&.:.&.;.2.g.] &.:.]  .>.$.$.] :.&.<. .i.y.3.i.&.] &.=.%.%.F H A F } Y R } m m n A N D Z F F M Z m + , q j l N G U c C Y j - b.i.o.=.y.R ! R =.=.=.R ..",
"| R D R H } k : = N F ..D - & z S Y =.=.T ! Y D R R R G Y +.R m - - m b G Y + & 7 G D H Y Y F ! G =.-.=.| ;.R +.=.e.E D D D U ! +.u.O.V.R Z z R T G D L P U U T N b K b z K j j b T L ! T U T W U P U Q U W ! +.! ! l , & l l l b q l D D 9 l w l ! l 6 N T U U D D b , & - m F } Y ..} F F F F } } F Y Y } Y Y R } F Y Y D Y F Y D D N m l b U U b j , j j p 4 9 l 9 9 k l 9 0 0 j j 0 z l j j 0 j l l b b 9 j z 9 m l l 9 k 0 x 4 9 9 x j j , j j 6 j j 0 j , j l l 9 p , x 4 9 j 9 j x 4 9 6 j l j x j : , j , p 9 D z D Y Y F =.R H F R Y R =.i.y.y...=.R =.=.=.-.| R o.y.=.=.=.+.R =.! +.i.%.D b b b D l l x 9 b c b b U T i.d.t.t.e.t.R D R Y R w.B } ! E z U U z ! ! m Y =.} Y Y R t.=.R H R H G ! | F ..| m } ..H X. .} ' -.H m =.| b D ..D N W U R T y.b & 6 l C T T 9 b l v > k i.| N Y Y ..t.! b R Q =.+.s.u.=.s.t.=.=.y.=.o.o.l l b D l x l Z l N R y.y.=.&.;.y.:...%.%.;.:.=.%.&.' %.#.&.&.;.:.&.-.:.:.i.$.2.) :.;.] _ { { _ _ { &.%.2.:.:.H n D N b m j 4 9 9 l 0 m 4 4 4 m B Y B F F D F D m , , ; , * 4 , : & + O : - b.g.| ;.y.Y =.R R t.! R | ",
"R Y N m ..} Z * - m B ..D - - Z D H ! Y R ! U T R R Y G o.Y +.D * - m D G Y - 7 0 U R G %.H | R R R =.;.%.R Y o.u.u.+.e.%.G T +.+.=.=.v.C.T T +.T U N N v P C b b b b b C j l , l D U U T T +.U T W U Q O.p.+.U N b q = x l b l l j b b l z l l U Q w 9 z z b R D D , - A ' 5 Z H Y Z B D } ' } Y } } U Y ..} F R N L Y Y N R Y m D D l - z D U U U 7 , 0 x a j z , 9 9 j z j l 0 z l k w l k k l l 4 0 9 0 9 q 9 9 9 q 7 6 l 7 - j j j 0 , j 9 9 9 j , k j , d , 6 6 9 j x : 4 j 9 9 , 4 9 j j 9 4 , 9 , , j , j l m D Y D H Y F H Y H F ..U R Y y.v.B.j.f.f.i.x.i.j.v.v.x.v.v.v.g.v.v.v.=.d.i.=.F D D l b b D D c b D b l N Y i.t.! t.Q ! R t.W Y R d.d.Y U U 0 l z m t.b l D ! F t.R F } =.=.:.R D Z Y F 0 H F n D H R } }  .m H H 0 b H m N R T R R N L W ..C & 6 j I T G q v b 6 > k f.} T Y W ..W ! ! R =.=.=.t.y.e.u.e.! R y.=.=.D 6 , , : , & , = , N T t.;.%.:.-.=.-.y.-.&.%.=.i.' &.] #.&.*. .:.:.%.&...y.3.#.<. .:. ._ #.] $.>.$.{ -. .&.g.Y 3 : , 4 : = , & : : : : = : : 4 m N k Z m D l H F D : n ] 3.h.b.b.c.c.n.x.&.y x.g.=.=.=.R o.! R } } ..=.",
"R F D N B m A n H Y b m H H H | H R =.! ! R R R R o.Y R H D z H H F R m m D H H Y G D R R G R | R R Y ..R =.R =.O.r.+.T +.R +.T Q =.t.! t.+.+.W P E W U b b T b U U v U U U U 6 , b K b T ! T b P b W U R t.Q D b & 6 c b D b D C P v b j 4 z 9 U ! 9 9 G b D z 0 m - m A h.z 0 } A Y B Y } } H } } B Y Y } Y Y Y F R R Y Y ..Y F D b 7 j z c D b N z b l N b N N l b C D b F b D D F D U G D N U z N U C G Y D G T D D D b b F D D D D G b D z C U b D z l b C b D C D b D D l b v k U D z D c k l x x 9 x , j m N z D N z G F N G Y Y } Y F Y R =.j.=.i.y.y.i.v.i.y.y.i.g.i.=.%.i.i.y.=.d.z.i.i.i.=.=.t.i.=.=.+.Y ! =.....! R i.=.s.t.R | +.u.T N ..R t.Y X.T | =.i.%.=.=.H ..=.R R | B B F ! o.Y R D H X.` M } H ..;.y.=.;...A &.R o.%.H Y Y D R W R T U Y ..C * j v I T C v l j j , 0 f.R G ..t.! b W R R t.! u.t.=.R y.=.t.=.=.i.R Y o.R Y Y =.R -.=.G ..g...=.=.&.y.-.i.i.-.=...=.=.-.&.*.%.' &.<.:.&.&.y.i.&. .2.&.X.] ] >.>._ :.<.$.&.=.:.] -.'  ...` Y D | m G F G H D N D N Y B Z B F w m X.M H Z - z  . .2.n.b.c.n.n.g.' w Z.v.=.=.=.=.R Y | | ..R ..",
"R R U F D | n - 2 N z D B z - Z S G Y R R R R R R Y D Y R Y H V 6 O Z G Z G - , m F T ....R R Y R +.T F Y +.R R +.+.+.+.e.O.e.O.+.=.+.;.=...U D G T T b b P C U T b b b b b C l , 9 l b U D b P b C U U T R T j & , 6 C c j x b U x b l l j j , x C 7 j b G k j z Z m A ) Z k m m M t F m Y F Y R F T R b D D G D D N D N k F Y m b - 9 l z l b j 9 , l b z l l 9 l k b l b z 0 l l l l l k 7 z k k b N b b C b l l b k 9 l b z 9 q l j q x j l 9 d d l , , 6 , j l > , x > j 9 d x d x l k : j x d j , , p C b k N N D C Y R G R T Y N Y U D Y U R =.! R R R =.+.! G } R =.b ;.R =.=.=.=.+.=.e.=.u.T t.t.Q +.+.+.R R e.Q R Q t.u.+.u.e.+.r.u.z.+.E ! T Y m H R D w m A b D B n Y ..} =.=.F R =.H %.R D 8 F D 1 N } w z =...t.;.A @ D Z 7 7 Y Y Y Y W T R R R R D O 6 b G T D l b l 9 & m :.| T ! t.E U ! ..=.t.t.=.r.R t.! t.=.! y.=.;.=.=.+.y.t.=.y.s.y.i.y.d.t.y.y.=.y.y.d.i.i.;.;.:.i.&.&.<.&.&.&.:.:.-.&.=.d.&.#.] { *.&.:.;.3.&.y.&.#.&.;.] *.%.=.| &.:.%.=.&.X.&.%.%.| H } Y ' &.&.A  .' Z ' A F Y B - > 9 D m F D D R D m j , Z.x.R =.=.| =.R =.=. .Y y.",
"R Y Y Y G X.k & & z U Y B * : D Y R o.;.T H =.=.! T R =.R ! R Z + : Z R Y D - @ - F N R T ! R G | H ..| =.R H H +.r.e.+.O.Q Q T =.=.+.o.R =.R U D R U T R R D T U U U K b v P j - j j l j K U b b l b b U T j & x b q 6 , , 6 O 6 6 = : 6 = = o , 6 - = 9 9 : 4 0 - m 2 - - * 8 8 0 l k m z m D b 7 z z 9 w l 9 0 k k 0 k z 4 0 q - : , 4 2 : : , , a > = 4 4 , j 4 : p 4 - , 4 @ : 0 w - 2 - : 4 , : , : : 6 : , 9 & , , - & - b F D F B z N F D U m M F D U D D Y Y D U N D Y D Z Z M Y B D F z m m m 5 Y U N N N D N D Y Y Y m Y Y D F U D D Y R D Y | U R ..=.R ....| | R +.R ! R +.! R ;.e.u.=.=.+.R =.y.+.+.y.t.p.e.+.! t.u.+.u.u.p.s.z.s.Q W R ! t.Y . 0 b + 0 Z O 3 z * - F w.=.=.i.=.R =...%.0 O z b O w Y + 7 H R =.| V O z z - - H G N Y R N U R T ..D : 9 b Q E T b b l 6 9 z i.=.R E U U ..T d.t...=.d.o.O.t.=.i.Y =.u.=.;.+.=.;.;.=.l.i.;.u.y.v.i.d.;.f.i.f.i.=.y.u.:.y.y.-.-.i.' 2.&.:.%.&.:.=.y.y.=.&.*.#.&.-.j.:.2.i.3.*.&.g.&. .A -.:.=.%.-.| &.R Y -.:.%.H &.%.%.&.:.' ` A A D M Z H A N : 7 0 Y H F H ' H Y G l , b.i.;.;.=.R ! =.Y =.-.X.=.",
" .} Y } D F 0 k M R D F D l A Z H Y =.| =.+.+.! =.! ! =.Y Y U G 0 m F D G F D Z D Y N ..! R Y | F ..! } +.Y F R G e.r.+.O.T O.H T R +.+.%.R =.U R ! D U U U U U b U E b b v j x , 9 j b C D b D T U c l c 6 : 6 b b , b b.V.b.P.Z.Z.Z.b.Z.V.Z.x.g.c.b.n.b.n.n.G.c.6.6.J.G.6.K.V.b.K.P.c.h.b.b.U.J.P.K.P.n.K.K.J.b.P.K.G.P.V.k.J.b.n.E.E.J.I.P.U.J.P.J.P.b.L.L.L.n.J.J.b.k.P.V.P.R.P.P.P.I.I.I.b.I.P.J.P.P.R.R.K.E.E.c.b.c.P.f.N H 3.c.b.c.3.3.3.g.K.c.<.h.n.c.n.c.b.b.n.b.P.Z.V.b.n.2.K.b.L.P.b.h.J.n.:.F -.b U N b D U R D N B D z D N b Y B D Y G N D N Y t.! =.R Y Y R R H T U R Y Y +.R +.+.! +.R =.+.=.o.=.t.y.+.t.! s.t.+.t.d.p.+.t.t.=.! T U R ! Q P & b G @ z b + , 0 & - Y Y R =.i.y.s.=.! Y z , z m O m F O - } ..R =.l O 0 H O 8 F Y Y R ..N R T Y R l & q C P P E j b j 4 & 0 b.=.u.T N T R R a.M.R Q =.R =...=.=.t.t.=.y.t.o.y.t.=.=.y.t.i.y.y.i.i.-.-.;.f.l.y.y.v.i.y.=.:.;.:.&.X.&.:.&.&.) :.;.i.i.:.i.3.g.y.:.;.&.3.g.:.&.g.i.&.] &.&.3.-.o.g.-.H  .' *.| %.| ;.| | | &. .F A A A H D F Y b , , C m F F F %.G R R b = V.:.R t.R R R =.;.=.Y | ..",
"=.R D R N D ` A } } m m F X.} } ' o.R =.! d.Q R =.R e.=.R D D F G R Y R b Y Y Y %.R D D D U =.=.! R R G Y Y Y H o.y.o.Q R +.R G H o.=.=.G D Y U U N D b U ! U C b U L U c P C v = , : 6 - , , 9 j 9 j 4 O = v l b = N P.Z.=.} =.;.=.i.=.=.:.:.;.%.%.v.-.&.3.3.:.3.*.&.3.2. .3.i.:.3.&.X.:.&.g.f.g.3.:.f.g.g.:.f.f.i.i.g.i.h.:.y.:.g.g.x.g.i.v.v.f.y.f.i.i.y.g.:.2.g.i.2.f.-.y.y.j.g.g.:.h.i.i.:.i.2.:.&.i.i.:.&.f.f.:.f.&.:.3.Y 0 B m m D D b D Z m F m D H D m Z Z Z z D b l z m b m l z D D b T Y Z d G g.N D ! N N N U T G D U N N N N D F D D D D D Y T R R R R R +.R o.Y O.Q ! R R R ! +.R Y H | t.o.=.R =.T R H t.! e.+...t.t.+.Q =.Y } D +.e.e.! ! P + C R X z H , q m 2 0 t.t. .D =.y.} R =.R z @ q m 2 0 D , 7 R R U ..Z o 8 A X - H U Y B N Y R U T U b : l l C P U : , j x & l b.=.Y U T R w.t.t.t.a.=.=.=.=.=.t.=.R y.=.;.Q u.O.y.i.=.R y.;.i.u.v.v.y.d.i.y.i.y.d.v.d.:.i.=.=...-.' &.-.;.f.] &.=.-.f.f.&.;.:.:.:.:.2.:.#.-.&.<.<.&.] :.} :.%.=.:.&. .&.&.' &.| =.H H H &.:. .A ` F H } H M  .B : 7 z D D H R ' Y Y R z : V.v.=.=.=.T ! | R } R | R ",
"R =.=.R Y Y } Y ..| } Y F  ...R | ..y.! O.+.=.%.d.! R Y R R U F H =.Y U Q R +.R o.T R R T Q =.T +.R F R H H -.| Q e.+.Q Q Q ! =.H T Y ! U D ! C W N D U b c l l L P c l P U I v : , * , 4 , - & - , j 6 6 b C b j & j.v.2 D D } C l b U V D D D D b m F Y Y R D D m 0 A m w A H m b k j M R R F M F F =.D G H L Y R =.T B Y Y F D D |  .Y R T } R U N } Y T N } | F } B Y U R U U Y B F R F Y F F F G U H Y G M M D N Y T =.D G b 4 z b 7 F | =.i.t.t.t.....y.y.y.-.t.a.=.t.a...U ..t.s.y.R ../...b N , Y y.b ! D D N Y D N D b z j 9 l D R F R F D D U F D Y ! R =.R Y Y R R =.+.R R U R R =.+.%.' o.+.=.+.! R H D t...t.s.R w.+.=.t.U =.+.! U R t.s.t.p.U Y m Y R U R =.=.T Y R t.+.=.Y =.;.Y =.R B Y | Y ..R R H D D R T } R S T R D D H D Y U Y Y R Y Y D U l - & & * , , : : k , , z b.+.N N ! ..t.+.+.t.=.=.! ;.o.Y =.=.a.t.y.o.y.s.;.y.y.t.t.;.;.t.i.l.d.i.g.;.y.&.y.i.a.i.=.=.| Y ..-.| =.&.| %.| :.i.-.' -.&.&.3.| &. .:.&.&.2.&.:.) &.&.&.=.H &.%.;.:.&.&.#.-.A &.%.=. . .&.3. .Z } Y F A Z } F M 2 k z F R R Y  .%.R H b 7 j.i.;.| ..R R R ! +.y.+.R ",
"R =.R Y } U U t.Y ..R R | ..R y.;.t.! t.u.R o.+.=.=...Y =.H R G Y R %.R Y =.=.R =.T R =.R +.+.U R ! Y R =.;.o.Y Y R Q ! =.R Y R D U Y U ! R T T U T R U b N b D K c K N b T U , O : O O : - = : : : 6 6 , l v , & D j.D Y T T D D U T D Y Y G G Y m F H H | | } Z B Z A M m Y Y A F D b F X.&.| Y H =.+.=.=.H G Y ..=.} ..} ;.R | | H Y R Y R } X.Y T } ..} ....| Y } H Y T U R T T R | Y F A Y R } Y | Y } Y %.=.U R F R Y Y Y z 4 4 l : =.=.t.i.s.j.s...t.f.f.j.j.s.d.i.i.w.t.....N...d.p.t.U.=.= b , T y.U U b N T D m D G l , 5 z - Z D D D D D N Y Z D Y ..! =.U T U U T T U Y +.Y R Q +.=.=.=.+.=.=.t.=.! ..Y =.! t.s.! E Q O.Q Q p.e.Q t.! t.u.Q +.! E U b s.Q G t.t.H ! =.R | ..i.R =.s.p.R U Y y...Y R R b ! ....! =.R 0 R ..8 F Y b D U U Y N Y U ! T N - v Q E l 7 j , , j : N v.! R ..! R w.u.+.e.=.=.R =.%.+.s.=.=.y.d.u.t.+.+.y.=.y.y.;.=.y.g.g.l.i.y.-.-.=.:.i.i.a.;.=.| ;.&.%.=.g.=. . .=.=...;.&.&.:.2.:.%.-.=.;. . .;.:.'  .&.&.&.|  .-.:.&.:.%.&.| &.g.:.'  . .| %.2.&. .' F B H F H X.Z : 4 0 F A | R H | =.Y z , i.d.o.Y R ;.%.T +.+.=.=.R ",
"R ..=.....W ..B F W =.W w...y...} =.! ! t.t.Q +.R &.R X.! | U | =.| R =.R =.R R O.o.+.o.=.+.R =.R t.=.o.R ! R ! +.R T =.R R R R U U R R R ..T U T ! ! D T D b P T U C K P P P v & 4 z } =.| D x I x - v 6 j 9 , X R i.R R U Y ! U b T T T H G D :.F F Z H A | ' Y F A H ' G D | R G D F Y -.H X.} &.} } Y | F G Y R ..=.| =.X.H | R o.=.R F Y  .} F Y Y } Y R | Y } =.=.Y } R R R R ! =.| Y Y Y Y Y Y | Y ' F Y Y } D D F R U ..Y & j : , Y ..} i.d.p.d.d.t.f.g.:.;.g.i.y.| d.t.y.} i...=.N.s.V.} & , X Y ;.D ! U T Y G D U D 7 9 y x.=.7 N N G D z B z N Y Y R R ! Y D Y R R T Y R R R R =.Q o.=.+.=.! =.! =.T ! R ! ! U W T U =.R Y d.u.t.t.e.e.t.=.t.! ! +.E l ! e.m d.! U Y  .Y ..+.Q } G ..+.e.+.D U E B T ! Y ! =.! =.R R G D Y D G R D D Y ! N Y D N R ! U - 4 x C b b j k j j : j f.=.=.! R b b l U +.=.y.D l R t.t.=.T +.u.u.i.=.t.=.t.i.=.=.y.y.g.v.i.:.i.g...-.i.i.y.&.y.y.=.y.y.=.=.t.3...-.-.| %.=.y.&. .:.3.&.x.i.;.-.' #.*.-.:.] #.%.-.' :.:.&.' ' &.-.| %.&.H X.&. .' -.X.X.' A A  .H } H m + j l A | H %.o.%.R H j & f.i.%.=.=.=.=.=.+.=.R o.=.",
"Y ..R Y R B W ..N -.t.....} R &...Q ! W W q.+.t.! =.=.;.R Y Y } | ..G =.=.+.R =.o.R R t.+.=.R =.=.O.u.=.+.R R ! R R +.Q R R R G D R R %.! Y R T R T U U T U D U T P U c K b K d : l F =.x.v.t.: P l : c b C b j & G i.Y T z D G U U ! ! D G T R G H D Y Y  .A ` / ` / | | } '  .%.R '  .H | | } =...=.U Y ! =.|  .F Y }  . ...} F Y | =.H Y F F } } Y F ..R } ..| R R Y Y | F =.Y } ..R Y Y Y Y Y H Y H Y D F Z Y Y Y D T R Y G b 4 j j : ..=...=.=.t.i.d.d.i.i.y.j.d.i.j.N.j.y.d.d.y.t.i.B.=.U.=.& 0 : B y.U L Y T U N b D D D m ' | } z U D B D b N D z D D R Y R Y D G G Y Y U G Y =.+.Q Q Y +.t.Q +.R ! ! R R ..R ..U Y N T +.O.o.t.=.+.t.+.+.Q T ! E ! t.! W t.Q Y t.t.+.i.t.t.t.+.t.Y t D t.Q t.Q T T T ! T ..b ! } t.R D R Y R G D Y Y D ..T Y Y Y D R E l : 0 4 b b , l k k j = 4 b.=.! R R U l U +.+.=.+.=.O.T R =...R u.+.t.y.+.=.=.y.R =.y.;.i.;.n.g.;.:.f.y.=.-.&.i.y.;.y.y.y.;.+.X.} &.f.y.g.y.| ;.&.:.3.&.-.:.&.=.:.] ` &.*.&.-.&.' *.&.&.&.:.:.| } |  .%.%.Y X. .'  .'  .X.H A ' Z Z F H  .D : j l F %.Y | H =.%.Y Z : v.i.=.=.+.R ! t.t.R t.U R ",
"| R R F F R Y B ..q.W ..D F T ..=.T R ! E ..s.i.y.Y =.=.=.D Y H R | R ..R ! =.R =.=.R =.+.%.R } =.+.=.+.%.U R U +.o.! R Y T H D T =.=.=.=.=.+.t.! ! Q ! R R ! T R U b b K U U x : , > > j P I & j 6 , l C l x j : B f.U U N D H Y T H R H Y o.%.| &.Y %.} ` ` F A ` `  .&.} =.=.%.} } H %.| X...} =...Y } ! =.%.......H %.} | Y Y } %.X.} G ..} X...Y | ....} } H =.=.} R ! Y } Y } Y R Y R D F H F Y | R D D F F R R R C R Y Y z > 4 = : Y ..a.=.t.t.d.i.y.d.v.j.d...y.v.B.a.d.d.t.t.j.d.t.=.Z...O `  .T k.N Y T U U N D N U i.Y w Z l D D G m b Z m b N U N U D Y U D Y U Y D z D ! Y U R D T T =.Q D Y ......=.T Q ! q.T w.t.+.O.u.t.T T =.u.=.Q T +.Q ! p.! T ! Q ! t.=.t.=.=.d.t.D =.e.t.U +.! ! W Q U ..T Y B U R R } Y G ! R H Y H F R Y Y D F R Y U T C 9 7 m 4 b b q l , 9 j > N k.....Q Q +.u.+.d.+.O.Q =.=.t.+.O.=.+.t.T =.+.t.=.i.i.t.i.;.v.v.i.n.d.-.y.2.&.i.t.i.i.v.i.y.-.i.t.=.X.&.=.g.y.=.&.} -.:.&.&.3.:.-.3.&.&.' &.H &.:.=. .&.;.' &.:.:.3. . .' | %.| &.Y 2.%.#.H &.&.' %.} } } F A H D - 0 z M H M Y | R T G b : x.j.=.H R ! ! R ! =.R =.! ",
"D R R R F Y F } F Y F } H Y Y Y Y ..U ! =.R ! ..y.R F Y R | F ....=.=.=.T ..Y ..R t.O.R +.R H | =.;.Y =.=.Q G R ! Y | t.T T R R :.i.b.B.v.C.N.z.N.N.d.d.s.t.t.! ..U v K P b U c : , 6 j l Q I = l 6 : U C x b j , Y &.T D z Z H H D H A A Y R H H Y | | ] `  .Y Y ....W R ..| =.=.F Y b T Y G Y X.-.R R R U | Y | Y R  .| R Y R ..} H Y =...=.! | } ..| ..| | } %.&.;.=.-.T } R F R ! =.Y R H Y Y } R R Y Y Y H Y Y R R D R R D z , , a : Y y.a.t.=.d.t.t.i.s.d.i.a.y.&.g.i.a.d.a.i.a.t.i.y...Z.| 8 t q D -.c T N D R R T R U Y l.D D U H D N m m D D U D b b D U G D R Y U R U D R D T Y R U T D R +.U Y N D F H ! Q =.! E ! R R =.+.W R T Q =.+.+.R U W ! ! c +.Q Q t.T Q +.! ....! B y Q t.Q +.Q U T U b R ! U Y L T R R G ! Y G F F N G D F N Y Y N G R T b , : 9 9 6 l z 7 j j 4 = U i...t.R =.! +.o.r.R =.=.=.o.R =.y.t.=.;.r.r.y.i.v.Z.C.D.C.T.W.Q.Z.v.i...g.=.3.=.y.=.g.i.i.y.y.&.y.%.:.=...! ;.;.f...&.&.2.:.&.:.i.y.-. .:.&.' ;.%.;.%.:.3.&.:.f.n.n.n.g.b.x.x.:.i.g.x.b.c.x.3.%.&.| } } | Z ' H F 2 k w m Y F F ;.| =.F l - g.y.D =.R R =.R ! =.! R T ",
"+.| ..T U N ..F F Y Y X.Y Y Y D R ! ! R U ! ! q.+.R } ! R ..&.=...! ..! ..R t...| =.+.%.Y %.| =.o.+.+.R =.+.=.Y ! =.=.R T R =.:.=.Y =.R R =.=.+.=.=.=.Q T U T x U b b I I J K x - , j d 9 I ! & v 9 = C C P C q = ..f.R z F Y F w Z 0 w ' Y H H Y F Y  .A Y } F R ! W m ..R H Y T R H N D 6 D X.A | R F U y.Y F =.| =.Y =.X.R R Y ' A =.X.| ..=...W ....Y  .} ..=.} &...-.......| Y =.%.%.} } Y | Y Y R F Y j N G R %.R =.R T T j 4 , : : | } ..y.+.! p.t.y.t.i.=.j.j.d.d.d.d.t.d.d.N.B.i.y.R P.| & z + D R Y N T N T T N N U m V G Y D m z b m z Z D b D b D N N D D U D D R R R U D U C D T U ..T G D U D D N } T R ! ! U ! N R U Q R ! Q Q ! o.Q +.Q ! p.T q.R +.+.t.+.! R U Y R D m H H Q R R =.T U Y ! ! T Y T T F U D U R U Y H D Y Y U Z N G Y G D Y Y D j : 9 , x b b l j 4 a : N i.W R R =.T R ! =.=.=.=.=.=.=.=.i.;.=.t.u.t.t.d.| :.=.=.i.d.i.=.y.i.i.g.=.X.y.g.;.g.i.i.i.y.&. .:.=.%...=...:.y.f.:.=.X.;.:.-. .i.&.&.| ' &.' &.=.f.&.:.&.&.3.&.%. .%.&.&.&.H Z R | F ' ` %.&.X.Z ' S H X.t H %.F , 9 w D H Y H R R U F 7 , v.:.T Y R ....=.! =.T +.T ",
"G =.! t.R ..Y Y H H } F D | Y =.q.w.! U ....! d.R R =.! R F | Y ....R ..R U ..R R U Y R +.R o.+.=.R t.=.=.=.%.Y Y =.Q R R ! U t.R Y R G U R T T Q Q T U U b b l b c J b J b U v - , , x b Q I , l q 6 v C E P v , F -.G m m D | j D F w H R Y Y =.` Y %.H Y ! D A ..T B &.} m ....D Y U Y Y Y X.M =.=.Z H | | F ;.=...} :.;.=.=.X...=.R Y R =.=... .......| ..| ....a.| -.} ..R ;.} Y R R | | R Y D F Y N , 4 & & F D D Y R R U b , j , , q G U U U b R U U m Y Y T N ! ! Y R D ! R ..R Y G R R j j j 9 9 N D Y Y U N N b N N Y D N N G D F G m m b m z b U l N G D F b k D N N N U U b N U U U ! R D G D D R Y R T N T w.! U ..! U R +.T P T R Q +.Q t.+.+.q.! =.+.Q =.p.T R D N ..U Y Q Q D R R R R ! Q L N T D R F ..N Y ! D D N D D D Y Y U Y D Y F Y U b b - : , 6 b j b z 4 j j > b k.R T +.U R +.+.R =.=.=.%.=.;.y.d.=.l.=.u.i.u.i.R =.R y.| =.%.;...%...i.y.y.y.:.;.i.i.:.:.:.-...;.:.;.| %.i.-.y.:.=.&.&.X.&. .:.:.%. .-.&.&.X.&.&.%.%.&.&.=.:.| X.&.%.%.'  .H ' H Z F } &.Y m A F ' R H } ` H } H - k b F F Y Y R R Y D l 9 b.y.+.=.y.;.R ..R ! T D ! ",
"T ..! =.F R D D '  .R G D } D | w.E R R ! t.;.=.t.=.R R =.| R | =.&.R =.=...! R R R =.Q u.e.R +.=.R R +.+.=.Y o.+.R R t.U ! U U U Y T ! R Y ! T ! W U T U U U b x p b K U K P v - - , l U I I : P 6 & l C b W b , D &.N Y D z Z H D Z F F Y Y ! ;.R Y =.%.F F F } m Y Y F F H Z D ' D b H | G %.' B Y Z w D F X.&.=.%. .| ;.=.H y.! =...=.R =.Q ! =...-...Y -.} } y.w.w.y.y.X...i.R H =.R R Y R Y F U Y 7 , y v.R 7 Z Y | R R T j , 9 4 , , j : , O - 4 * , , : - * - - + - : - X & : & - * * : 9 D N j 4 l j Y D D b D b G D D N U b U F Y G D z D Y D l D U T T R Y N z m D D U N b D D Y b U U R T Y D U Y B V D D T T ! U U +.b D +.! U U P Q Q T +.C C G T T T G N ! R +.! R ! U U b W T T T T Y R +.P R ! D Y R R U U F R G U Y U U F R U T H Y F R N D 4 + 7 , d b b l j 4 j , : N j.U ..R +.R ! R ;.=.=.R ;.=.=.=.y.d.=.=.y.:.d.y.;.=.%.=.i.:.-.-.;.Y } %.i.f.;.-.i.-.=.:.:.;.X.a.i.=.:.=.;.;.y.&.-.y.=.| %.&.:.&.-.%.&.' :.:.-.' &.:.%.%.H  .&.H } %.| H X. .H D ' | '  .' R D m D H | Z } Y F M Y 9 j 0 Y | H F D Y R D l & d.d.%.i.=.y.y.| ! =.=.W ! ",
"R R +.t.Y N F Y M } Y Y D F Y } ..R T ..W p.X.-.+.+.! | U Y H =.R %...Y ! ! =.R %.Y ..=.=.y.=.=.+.o.| ! R =.=.R +.+.R T T Y Y ..G U Y Q Q ! D U U ! ! U U I I U b j K K K K b x & , 7 j C U U : j x & 6 l b j j > F &.G N Y O 2 Z & @ z H H R ..! =.R Y H 0 : Z m - w F - 7 ' * + H 6 @ Z w O S H * @ ) 7 + D F =.| =.=.| =...| ..} ..F =.R ..R ! t.R a.t...| X.R ....| -.y.......=.} X.=.=.=.R | Y D U D F -.&.;.- D F R =.R D b : l j l j j 4 : , , , 6 9 , 9 4 4 4 4 l j 4 : , 9 q , q 9 : 4 b G l 4 4 k j 4 7 9 7 k j l j k 4 j 9 9 z k k 4 7 4 j k , 9 j 9 j 4 k , , 9 q 0 9 , 0 4 l 9 0 , 9 j q 9 l c 4 0 9 0 6 v j x j q c 6 , C l b j 7 k j j j x 6 0 9 0 b x 0 j j 9 b b b v q 4 j j b , 9 l 9 9 b b j z b b l j l b l k k 9 j j j l j j j z k q , O : - 6 , , b l j j , j 9 > m j.T R Y R Q U ! +.Q =.R =.+.i.t.=.=.=.=.t.y.t.;.=.%.o.t.} ;.;.;.| Y W ;.y.y.=.;.a.=.a.;.y.:.a.i.y.y...| Y ;.i.y.;.g.-.-.-. .:.-.:.%.-.:. .H &.-.-.&.} X.&. .=...&.&.=.;.&.%.| | X.%.' -.| Z m M Z  .| | Y A B N F , 9 D H X.D | Z F G D 9 = V.i.;.&.=.d.=.g.=.=.t.e.! ",
"t.=.=...G Y Z } Z H M M } Y D H X.=. .| R R ;.;.R Q =.Y T =.R R ! Y Y R ! R T W =.R t.=.;.=.o.R =.=.=.=.F Y ;.R R O.t.R R R =.y.R X.=.Y T ! ! T ! U ! L U U b c c b b J P K E b + > 6 b l Q Q 6 l 6 * v b P x , ; M ' Z N b & - y = 6 D U R R Y H +.R H F 0 = F m : Z H , 7 F + + o.* + F w - y A : 7 A + : S | =.;.=.R =.=.} R ..| ....X.=.=.=.=...y.=.t...:.i.R ! ..Y ..t.t.! =.R Y H R R R %.H Y D Y x.%.' } b Y U Y Y R Y H b & , z j 5 a z 4 x , j p 0 9 9 k l : j a j 4 j j j 6 , 0 x N N U D b j j , 4 , - - & : * - - : , : : , - - , 6 O * & = = O * * * * X * O + . O + O & : . & O o & O + * O X & = : + . & = * 6 - & O O O = : & & : * o + & + & & : - - * & & : + & O - + - & - O , & & - . * O O - * O & O . O & & O O + O O , = * & X ; O & & , 9 , 0 j D b j l , l , & b f.R R T R ! U =.! R Q +.R ! =.R =.+.:.y.i.=.i.t.%.%.y.&.t.=.=.:...Y R =.i.y.=.=.y.=.-.=.;.-.-.;.y.;. .:.=.| =.f.X.:.:.-.y.=.&.:.;.| &.| ' &.| X.;.} &.X.=.X.;.| ` } H Y | ;.H } -.Y F &.H Z V m H } Z A H Z Y | D , k z Y H | =.Y Y | D z = b.g.| } } :.=.;.&.=.! =.=.",
"=.! ! Y R Y F ..T A X.Y X.F X.N ..&.' ;.Y Z =.s.R +.;.F ! R ! ! =.Y =.=.=.Q t.T =.Y =.R =.R ..=.R =.+.U R R Y R Y +.Q t.t.y...i.;...R R ! ..D ! ! U T E U U P K c c U K ! P T J & , j C U b P , b 6 O D K P 0 9 , k A b D D 0 Z H 8 Z D T R R =.%.%.%.;.| M m Y H t A %.m M Y G D R G m ' ' m ` ' Z m | m b H ;.=.=.....=.Y =.i.| | ....| | Y =.| -...} ....=.y.t.R ....-.t.=.t.=...R =.R =.=.+.| ..=.| b.T.C j U Y D R Y Z Y R N = 0 z z j z c 0 b l N b l j l l z N 4 N j a b l k 9 k b k D R D U R U 0 4 , 4 , , : , , , 7 - 6 , 7 2 , , 7 , - - , : 7 : - , 2 - : , - - - : * , : , & 7 6 9 & , 6 , - - * 4 : = , = : * - - : , 6 = = * - 6 * - * - = & 9 6 7 9 4 - , = , : 4 : * * : = , = = : , - 6 + 6 , & : 9 9 : & 7 = - : , : - : , 7 - * * * 7 , , : 9 , 9 6 l 7 l 6 9 6 j : D i.U R R T T ! R =.R R =.+.=.R R t.i.=.y.t.d.y.o.b T Y Y Y Y R Y Y N R X.t.y.;.=.y.:.=.;.&.y.-.-.=.;.X.:.y.:.:.;.X.:.&.:.:.3.X.%.&.:.=.| } &.%.=.X.=.| %.-.X.Y Z l b l z D 9 9 z H }  .H H D D H F Y F H Y Z ` Y B O - 7 R | Y %.H R %.Y 0 , n.v.=.Y %.%.%.=.;.t.=.=.=.",
"T R =.Y Y R R } } Y | X.H &.} %. .;.&.=.Y | i.i.+.t.=.=.Q e.O.R =.=.Y ..t.! +.+.=.+.y.+...=...+.U G ! R R T Y ! ! O.+.R =.R y.y.&.R -.T U Y R W ! E ! T U K I U c j U R U I ! U - : j P b E P j C 6 : D c k l j > m X.b Z b 7 V m N D N ! ! =.! %.;.R =.;.H H Y Y F G S D F R Y R ' =.H  . . .} %.H H S S H S =.R T o.=.=.%.R Y =.-.| X...=.=...R -...-.....=.=.t...=...} y.a.=.=.| =.R =.=.=.R =...=...D i.y.Y R U T L U Y R R b : 9 D Y b m F b b U U U b Y N m N T U l j U N B G m G D U N R D U U Y C 0 j : 9 , - , 6 , , 9 9 : j = , , , : 4 4 : , : & , & : + o - : & & : * = , , , O , : , , : : , & > : & O , : & - & - - = - = = , = : = : 6 = = : 6 6 j = , - , , * : = : 9 , : , , : = & : & - * 6 & & : : : * : * , - 6 , : : , & : : , , : : 9 , > j j j , b l b x - 9 j & b d.U U =.R T R +.Y R Y =.! +.! R y.i.%...y.i.y.Y l b j 9 9 j 9 b j j ....y.=.:.X.=.Y :.y.} } ;.:.-.-.;.i.y.=.-.:.i.g.v.i.:.;.X.&.%.%...%.| -.X.=.%.;.=.%.=. .Y k 4 , 9 - q : , G ..| Z H | H Z Z H R H H } H }  .Y - q z B | | H } =.H H l , b.g...Y | -.| %.;.i.R =.+.",
"R D R R F | Y | R Y R Z F Y %.=.| %.:.=.;.Y i.v.e.e.e.;.y.+.! ;.=...=.R +.R =.=.=.=.%.R F ....! R ! R R ! T R R R =.! t.R ! =.=.} ..w.R T Y U W ! ! T U E U P K l j v U P E Q b : j l D D U P 6 b j & 9 9 4 b z : N ' N l D b Y Y N T G ! ! =.R ! Q :.%.| =.Q R Y R R =.=.G =.! R =.R %.R R D N %.R G R R T T e.t.t.R R =.} %.-.-...-.y.} =.=.R ..y.=.y.t...X.t.y.-.=.=.a.! t.=.R ..| ..| ..! R  .Y ..=.o.G +.Y ..} Y F Y R D Y N = 4 z U N l N T c b N N R W R T Y D U j T R U Y ! R ..G R z D N D G U N b z 9 6 7 q 6 , j j , 7 - j 9 j 6 9 , , 4 9 l , 9 , , 6 7 & 0 l 6 & = & 9 9 9 9 , , 6 9 j 2 0 k 0 9 : 9 , , , , = = , j , 6 6 j , 9 , 6 , j j j l 6 , 4 4 j x 6 4 4 q 0 j 6 j 4 j 9 , 6 0 j 4 * 6 6 6 j k 7 6 , , , j 7 9 , 9 l 9 6 9 0 : 7 - , j 7 9 l b l 0 b l d j j j , , 9 i.N R T T O.G R R +.+.+.Q =.R O.y.t.=.;.y.+.t.R 0 l l N b b N l N Y ..a.t.y.} ....t.;.i.-.-.y.:.y.;.=.i.d.:.%.;.:.i.g.l.;.%.-.%.:.=.-.-.=.;.} :.| %.;.=.| | | R N } D Y F D | =.} A | |  .m z m Y | F H F &...| D & , m F | %.&.:.X. . .z : b.g.t.=.Y | H Y ;.:.=.-.=.",
"D R ! G Y F F Y F Y Y R D Y } Y &.X.%.:. .} y.B.u.+.t.t.=.=.=.| Y +.R =.R =.+.R p.+.R R o...R ..T ..R ! o.Y R R R ..! t.Q =.+.=.! R ..R Y T U U R R U R ! U U b j c b b D ! ! l 7 9 j D D O.I - C b O z j x b x > Y &.D U m D Y T Y G R R =.R %.=.=.=.%.=.+.+.+.R y.R Y %.;.| t.=.=.R ..! w.....=.&.R =.=.=.=.=.O.=.d.=.| +.R =.X.y...-.;.=.| } R =.=.=. .| -.| | } | R %.y.| Y =...;.Y R ......-...X.| R =.+.F Y D Y G R Y R ..z & 9 l N U b U U W U U N T N T U U U N j L l R N z =.Y N D b N m U m F k D D G C z z j l x 0 j l j D 9 l 0 l k l l 7 b j z l l x j 9 j 9 6 j , O + q l 9 k j k b D l N k l m l D , 9 j - & j v j d d 6 c b j b l c b b C b b b k l j b b N b z 9 m l b z b a k k l z j l 9 7 z z c b l 0 j z 9 b k j k w 9 b j l N k l N 0 j b z N z j b C l j j x j , 0 -.U Y =.o.=.Y R Y R ! T R =.i.O.=.=.y.R i...y.-...=.! =.=.y.y.=.t.i.a.t.y.y.i.;.R =.:.i.:.-.g.:.i.&.a.i.i.%.:.=.:.y.f.y.i.-.:.-.&.:.:.&.;.....%.} %.' &.;. .....| X.X.%.%.X.:.| %.' H X.| w B D Y } m F } &... .F 4 : z F H H | %.} } m z , b.i...=.;.' %.:.:.i.R %.-.",
"U ..H R Y R Y | F D | | } }  .=...} G Y ..} ;.v.p.+.Q =.! ..R =.=.=.=.=.+.Q =.+.Y ;.+.=.....t.=.! =.R +.R =.Q T ! t.+...=.R +.u.=...W t.R ....T =.! t.Q U R L K j j U U U T ! U - : 9 l Z U C 6 c 6 O 9 l l l x = F &.D G Z D N Y Y ..U R R =.R R ;.i.R R +.Q U ..t.| T +.R R =.Q U t.T t.! ! ..T Y Y Y T +.R o.=.=.=.Q u.t.%.| | ;.=...=.;.;.=.d.| } ......y.y.| ..=.=.=.R ;.=.....=.Y X.;.| X.=...=.| R =.R R T Y R R U Y } R l , 9 m U E U U N U N L U L T N b U U c 5 z U Y D N Y l N G N D m m b m B F N F b B z b j B l b b l U b b 0 m b D b z b j b z 7 b b b b 7 l b b l 6 9 l l N m b C N b N D D D D b l j U j P v l b l b x b L K b N l D U D N R U l N b R U D | D m m D Y N L a z U z m z m D l z N l N b G m z D U b N N m D D D D G N B D l N D l b N 9 b l l j , 9 j & l -.D T G R =.=.Q R R R =.R =.t.=.d.=.d.t...t.d.=.=.=.y.y.=.y.y.=.=.i.i.t.y.j.i.i.d.t.d.g.;. .;.:.i.y.y.i.y.&.;.X.:.;.;.y.&.;.%.i.3.=.y.y.y. ...=.=.X.} ..&. .| } y. .}  . .%.:.:.| %.&.| ' H Z Z } &.X.Y Y } ..} N : 0 N N Y Y :.} } F Y j 0 V.g.=.X.%.=.| %.i.s.%.| R ",
"R R R T F Y Y H | Y } F =...H  .=.Y %.Y Y } ..d.t.W ! t.! R ..w.=.=...R =.t.R =.=.Q =.! +.R =.=.=.| Y T o.Y D T U U a.! t.=.t.d.t.=.R =.R D ! T b ! t.R T T U K c D T U U U T b - 4 z N m T U 9 C 6 : 0 j l 0 9 = Y y.G N b G R Y ..U Y D D ! =.=.! +.d.R Q Q T t.=.=.=.T +.=.! e.+.+.+.! +.! W R U Y T ..R y.R ! R =.=.t...........=.=.d.y.X.:.=.=.| =.d.| y.-. .| t.! t.=.! ....R ..R .. .=...-.t...} Y =...R ! ! L Y R Y Y W j : k z D b U U D N D l j j > - $ > i g : : : & O = = : : 9 > & & * & & : : * - $ & : & : - - & : * K & : * & & = & : : : : > & = > & * O O : & & O O O & ; & & o 6 & : , , & & & & O : O x > = p : : : O g x * > , = > , ; & ; ; & , j d , , x , , & > d : > : : , + o O = & = , > ; - : , O : > > - * O d ; =   O & 9 $ = > j l b l 9 D v z j a j j , 0 :.R R G D U Y R ..R t.! R ! ! ! =.i.y.=.y.=.i.t.=.| y.=.=...a.......i.a.;.y.y.;.y.i.:.g.g.;.-.i.X.%.;.=.;.....i...i.i.j.g.:.&.&.i.=.=.Y ..-.%.| } =.%.Y | } Y &. .&. .&.:.&.-.:.| | ' | X.A m Z %.} B }  .A X.` N * 7 b U } =.&...X.} R l 9 P.j.-.&.R } | Y y.:.=...R ",
"R ! R Y ..| } Y R Y %.X.F R Y Y H  .| %.D H } d.t.! q.p.R ! ! ! =.! R | ..t.R t.+.;.=.=.t.+.R =.+.! +.+.=.=.T D D ..t.! =.Q Q y.R Y U U U b x j j b R T N U P b c W E T U T T b 4 4 j z G T P , U v O b z l b 6 = b &.U N U G H R ..R Y R U ! =.Q =.Y =.+.t.y.y.! ..i.+.e.! =.e.T +.+.R t.=.u.=.t.+.! +.=.! ..R T ! +.! ! ..y.| ..| | R ......=.=...;.=.=...-..... .X...! ..=.......R ..R &.X.=... .| ..| } D =.R ..N R R F Y N z 7 9 j N R T b b T N l -.j.s.f.i.f.g.h.h.b.b.b.x.b.h.f.c.:.f.i.v.f.g.x.b.g.b.n.h.h.g.h.g.g.g.x.c.g.v.x.h.g.h.v.v.3.3.g.h.:.-.-.-.h.f.f.f.:.f.j.&.-.&.i.:.g.y.f.i.&.3.v.b.x.g.d.b.y.v.V.j.d.g.g.y.y.y.h.j.i.:.Z.j.j.g.y.k.j.x.d.h.h.y.v.f.i.h.f.g.f.g.b.g.v.g.i.v.b.x.g.x.V.j.h.3.n.n.g.x.c.x.g.:.3.x.b.3.:.x.:.g.h.g.f.h.:.v.-.b 0 l d b 9 b j j , 4 : l i.Y Y R ..L R R R R W R R =...=.t.;.=.;.=.y.y.i.y.i.=.i.i.t...y.y.y.i.y.y.} j.t.i.:.i.:.;.-.X.f...R i.y.=...X.-.-.y.:.i.y.y.;.=.-.-.} | ..' =.=.:.-.=.Y } ' X.>.&.:. .:.} ` H &.H ' :.%.Y B D H %.X.H H &.H } } F > , m Z ..| | | ..Y Y m , f.2.Y ..T R } }  .=.| =.! ",
"..! R R ..Y  .Y T } .. .R R R Y =.| &.=.;.R =.=.e.w.q.! R ..R W R ..Y | =.=.t.t.R =.%.+.u.=.=.H R +.Q ! O.+.+.T R q.e.t.a.=...W b : , , : , : , : , , , : , j , j b E U L T U b * , j b D Q T , b x 6 9 l z b j & F i.R ! R D R G R R ! ! ! t.! R y.R G %.u.t.t.t.Y ! t.! +.=.+.! ..Y U %.' +.+.+.=.=...=.R t.T R ..t.Q t.t...Y R ..=...W | t...R =.X.=.=.%.| =...-.&.=.X.......t.=...y.Y =...t.y.} } =.y.....w.Y } Y Y Y ..Y Y b : 6 b b U U b D l k Z.U.g.y.g.g.y.g.:.y.j.g.b.b.b.x.j.f.f.k.b.j.g.i.g.g.g.x.b.3.f.g.f.:.f.h.f.g.b.v.v.b.i.g.g.b.:.f.h.h.y.&.=.f.:.g.y.v.g.y.&.} -.-.:.i.g.g.:.y.X.%.g.j.j.j.j.v.d.i.B.i.f.y.c.f.k.j.:.v.v.g.F.v.;.2.g.x.g.;.f.' =...i.:.:. .-. .;.g.j.x.b.g.x.h.j.v.-.=.g.f.&.3.c.:.:.c.b.b.b.:. .:.x. .Y 3.g.n.3.g.x.g.f.g.f...0 9 , v j l a 9 j 9 = l :.U Y Y G R } R =.! U =.R =.R =.+.=.=.;.t.v.y.=.y.i.=.-.t.i.i.i.y.y.=.B.a.R -.y.v.t.y.g.-.=...;...;...i.-.-.-.y.-.:.y.&.X.i.} } ;. .} } Y ;.} =.:.X.| X.}  .&.X.} ' X. .} X.| &.&.&.| H H F B M  .| | A &.| A %.} = , m D } ..X.%.| H F N , -.:.Y ;.%.=.} %.=.=.! +.R ",
"! ! ..Y N Y Y F Y Y ..Y ..} R U H =.;.=.R Y =.| R w.t...t.....w...=.=.! t.=.=.R R Y %.=.+.+.R +.t.u.t.p.Y T +.t.L ! t.t.t.t...Y l 7 6 : , j N N b c x 9 k - 4 x c K E L K T N x , j k b b T I 9 q Z , l D b j b * ..x.D Y G :.Y G U R R R T t.=.t.p.U B y.t.=.y.=.=.! R =.Q Y %.! Y Y =.R =.=.U R =.=.H Y G ..R ..;.+.=...Y R ..R ! ! } Y ....y.=.=.| } R =.;.| =.-.| %.=...y.............} ......=.=.-.....} | F Y T R Y U R F b : 9 9 N b T b b : b.b.! L N j L l m L c U a j D b D 9 2 l l l D b z z z D q z D 0 D b b b b c C b l b D U D b c b z l k j b 9 j b b b k l j j 4 x l j j b D b D b c c U N c U b b k c , x l x b z U T U W ! U C U R T m 3 O O , : & O * & = - X c U T D C P U U v U & & O , & & y & * M U l b & & O 7 * : y m b b b R b c k m U N , 6 b 9 j 9 6 9 j - l 3.Y Y | ..Y R R ....W R U %.Q =.=.=.| R =.=.=.=.y.i.X.y.y.=.-.| X...T -.a.=.y...} ..R y.=.=...R }  .-.;.f.-.&.&. .:.:.;.-.y.g.&.-.;.X.| =...} :.} Y -.H  .&.%.-.|  .} ;.&.%.=.y.' H } B ` D B N } | | } } } H Y m : c 0 D X.B Y F F D N m & g.2.} } X.=.%.=.X.%.+.O.! ",
"! W R =.R R R Y W ..R } ....R =.=.Y =.R =.t.t.=.t.w.! U R ! | w...R R ..Y t.+.=.=.R t.+.R t.+.e.! e.e.e.! +.+.+.R t.w.r.t.y.T ..R ! E ! ! t.t.T W ! W ! +.E T W D T E v D T K c : 4 , D z U W 9 C D : l l Z q l ; H i.b D D Y R w G ..B R R T e.Q =.u.u.! R =.Y H i.t.G t.t.Y Y +.H R R D Z %.F H o.F m R R Z D =.H R ....=...Y W ..U R ........i...y.F =...Y :.| =.=.=...-.} :.F ..R | Y ....} ....&.......| R ..R D Y Y Y Y Y b + , 9 U N L b 6 Y b.U N D ..T U Y Y N b Y T T m D D F G D U D H G D D G Y Y G G D D F D R R F G U D D Y U R U G N D Y U N b Y D D b N D D N N N N U N D Y D D T D b R R | U U ! ! C T N W E b b L ..w.! ! W z N Y H =.Y D O w Z O 7 l : - k - * Y +.Y U ! U U G +.=.C O z Z : 7 Z , 2 F Y Y R 0 - z Z - 4 ' H Y U G Y D N N D N N : , b l b l 9 j 6 > 0 i.Y F Y G Y %.t...} T R ! =.=.=.=.%.=.X.=.=.;.=.i.t.i.-.=.y.R D ! R ! R | =.} t.=...R ..R ....=.| :.:.f.i.&.2.2.-.:.&.&...y. .Y -.-...&.R X.| } Y } =.X.X. .Z R X.=.:. .Y  .R =.Y H X.H H } m F H -.X.| A R } &.D + 9 z m H M } F D B Y k , f.3. ...=.Y ..R -.=.! +.! ",
"! } =.=.Y F N U Y Y T H R Y | =.=.=.R =.Y } =.! R R ! ! t.! | w.T ....y.! t.| ! =.=.+.! O.e.e.Q e.q.q.! Q r.! W E ..! ..t...R ! U ....! ! t.a.w.q.T e.! ! ! ! T ! ! U U b U ! E : 4 j z 0 R T , U b q C b b b l - Y :.D U Y G o.V ;.=.b T +.+.+.+.t.=.=.R D T R R u.o.H =.t.| t.Y +.=.O.D Y +.Y A | G m R S A Y =.R y.......W W U ! N Y ..} H =.=.Y ..=.=.=.Y X.| =.=.:...-.-.....} | ! =.=.R R ........| } ....Y Y T T T W N Y z : = b U U U N j R ;.U D R N U T Y Y Y Y Y D U D T D z B D D D F U D U F F Y Y N m N U D R N Y D T R R l D D G N D T D R N D Y D N N N l D b N z D z b D Y D D D b R b R T N T W U Q T T T T ! U U L ! t.r.! T R N A A =.R H D m C U D z U m U R U =.=.b Y U T +.+.R R =.R D N F D R Y R F U U Y Z G H D m F Y Z Y Y T N N b D U z & , , j k 9 j j , = 0 :.F N U =.H =.=...R R ..o.R +.+.=.;.=.=.y.:.i.;.&.y.=.y.i.y.N =.d.i.j.-.;.:.&.j.k.y.i.y.i.d.y.:.i.} :.g.;...:.-.y.;.-.:.-.&.;.;.-.R -.=.} &. .| ..H =.| ' &.&.&.&. . .2. .} R R Y | D B Z D m A } | %.H ` | | F B 9 9 N B  .Y Y =.R Y } k 2 3.X.' A %.&.=.=.;.=.R R =.",
"R =.Y | R Y D N R N R Y D F R =.i.=.=.Y =.| ..-.t.R W ! R R Y | F | R R ..R } R o.y.t.=.r.0.e.! e.q.0.! I +.! Q w.w.! ..t.t...R ! W T T q...M.W e.! w.! U W W U T W b K U U T b 0 : j z z U ! , D T : b C v 0 l & Y =.T D R q k D 6 z D R =.R Q T =.=.+.=.D O w Z : w D & l ;.9 6 H 0 , V V + z F - l S 7 - S o.! X.} } ........! E b F ..w.} t...} R =.=.Y =.| =.=.=.X.R ..=...=.=...=.t.e.=.R =.=.| ..! R =.=...| R U Y Y R U N : 4 j D D U m , Y =.T U T N T Y F b N R U C U D Y D N Y m Y D Y T Y R R Y Y R T U Y Y ..z N D R G D T D C R U U U R Y D D R N D b U N N U N D G N D b b D D D b U U U T ! T U W U E ! T T U T U K b T U T T q.R U H } o.R =.! b =.D k B U k H | Y ;.Y D Y R D R Y Y Z Y G z H Y D Y R R R R B Z Y F 0 G Y N N Y T N ! D N N D F D * - , 0 b l 4 j j = l :.Y G Y =.R ! =.....R R R =.=.=.! ;.| ;.=.-.X.y.y.=.&.i.&.;.B R g.d.i.y.g.} -.y.;.g.d.y.i.y.-.:.&.Z Y Y D Z H Y R Y =.=.&.| =... ...-.=.X.&. .%.}  .X.`  .X.%.`  .`  .X.X. .&.&.B Z Y B H Z F | X.H H F Y } | %.' , & z F ` D H } :.F D b 9 2.] B } X.;.R =.R =.=.! | ",
"R R | Y Z X.F N Y Y Z  .&.:.-.3.3.=.g.i.;.f.v.y.R ..R ..R ..} | R R w.X.t.T ! Y R t.=.! E e.r.e.q.p.e.W +.Q ! T w.T T ! R ..W ! R T U ! q.p.d.t.! E ! T I W E U W ! P T b E b b : : l D Z ! ! ; b l - v z 0 C j & Y v.D U R & 3 H + @ Z t.=.=.+.+.O.R +.=.9 - z - * w y O 7 Y & O G & O G 0 6 0 A O 6 H @ O S R D Y R } w...W R ! Y z Y } | i.y.......| =.! =.o.} :.....R t...y.a.=.=.t.Q t.+.=.=.X.......=.} R R W ..} Y Y Y Y b = 4 l b ! N z , Y g.D N N U N b , j l D ! C R m F F U F F Y G Y D ..D F Y R U T R U Y T N D Y T U D Y Y R D N U D B Y Y D D U U U D N F ! N U F D U D N N R l j x c R L R U T ! U t.T N W T D L U R Y U ! ! U R ! =...+.S H +.Y Y D l B G M Z } H | R R R T R T R ;.R %.H D F Y F D Y U ..G R Z l Z F Z N D D Y N G Y F T z N N N - - : , j 4 , l , n w :.=.Y o.Y R R Q ..| ..R =.t.R ;.-.d.=.=.&.;.;.y.y.=.y.=.y.=.N | y.;.i.y.=.y.y.i.g.=.:.=.| X.Y :.Y 0 H H R Y | =.} } ;.%.:.=.-.} Y :.=.F %.;.| H X.D Y X. .=.&.Y  . .:.} } } ;.&.Y } Y H ' H D | &. .} Y  .} &.Z D , : m F | ..| } } ..D 0 , h.3. .:.&.:.i.i.h.y.=.R ..",
"..T T  .m z m Y F F &.2.2.:.&.f.x.i.g.i.x.:.:.=.R ..T ..R R | X...R =.! =.R =.! R %.=.e.! 0.e.e.t.! t.t.e.! W e.! ..R ! R R ..0.E w.W t.! ! a.W W E Q r.! P ! Q T ..E N U U N b : : 0 D V T C : b 9 * b V 0 j j - R y.Y D U 7 : D - 0 =.R R =.%.R ! K ! =.l O C V O G R + b ..- 9 H 7 : H D o Z V - q F @ : Z Y =.=...-.-.t.......| G Y Y +.l.=...-.&.....=.Y =.y.| ..! ..! ....R ......R ..R =.| ..R | | X.y.w.W ....Y } Y F ..b - 9 x b D b b , N i.! U D T 0 : z 7 2 F U R Y b Y D m D Y R D T ! ! R G U Y G Y T D D G D U Y Y T U U G R U U U n U ..T R Y N D U N Y N D D Y N F D Y U U D H N c U T G ! ! +.T +.e.U O.+.T T U ! ! R E ! ! E T ! ..t.t.Y A ..T Z Y Y 0 Z G k H %.=.=.=.=.E ! =.Y =.F G H G b D R V D Y R R Y V l G b Z Z G H Y Y D D D D N Y N z * : 4 k k 4 9 6 9 0 z g.o.Y %.Y o.R =.R H =.| =.y.R =.R i.:.;.i.=.i.y.y.y.&.f.g.=.z } ;.;.i.i.=.;...=.g.i.f.;.:.| :.i.y.0 X.&.y.-.;.v.i.-.-.3.:.;.y.%.Y ..B | ;.=.;. .} H X.&.} &.&.X.} &.:.%.| } %.' G F N B G m 0 F X.&.Y  .} %.B X.H , : 4 k z z q b 0 z m l $ b.3.X.3.b.b.V.g.b.=.R =.Y ",
"Y U F F m N N D Y ..Y ..Y | Y ! Y =.=.+.=.F +.=.! ..U ....U ..| Y | y.! =.=.y.R R +.R e.! e.U ! e.! ..! e.e.e.+.! ! t.w.t.w.Y W T q.R E ! a.j.w.W W ! W ! ! E T W ! U K U L D c : , , z D U U : l b O l C l v j - Y ;.T ! R Y D R R G Y ;.%.t.+.R ! ! ! ! %.R U R Y %.o.=.| R G G R D Y R R Y =.H R H %.H H R =.y.=.=.;.=.-...&.&.;.R =.=.i.u.u.X.......R =.%.X.| Y ;...! ..=.;.=.w.......X.t...w.Y W w.w.w.} ........} Y ..N R l * 7 l D D T N : Y -.U R N N - z Z b.l z W R L R ! R ! F R =.=.=.u.+.=.=.i...| ..=.R ! =.+.=.+.....=.t.R R U D Y U U W R Y b U N U D N G F Y N D D F D T Y D D R T T R +.! ! ! +.=.+.R +.p.t.+.Q D r.! ! ! r.! t.E W R t.q.O z m & V D + l F X 2 %.=.=.=.=.! R =.! =.w : m D + z Z - - R =.o.H 3 - 8 Z O 6 m G D T U U Y D D D F N * 4 j l b 9 j , 9 & D i.Y U T T R R =.R G R ! R R ;.=.=.y.d.=.=.y.i.i.y.i.:.i.i.:.N H y.y.y.y.i.y.-.y.=.d...X.;.=.-.f.| z ..! | Y } i.=.%.;.-.H X.&.Y F | Y X.Y m } X.R | %. .&.X.Y ;.=.=.X.=.F Z R Z 0 4 & 9 , 0 z A %.;.&.} H H Y R B , , : 7 , , 6 j l j , : . j.3. .` =.t...| ;.R %.=.R ",
"B R m Y m z N F Y D ....=.R =.=.Y R =.=.R T +.! =.T R ! ! ..| =.| =.T R ! ! =.| | +.R =.0.E E q.W e.t.q.e.U e.Q ! =.w.q...w.R R W ..U ! q.w.a.W W Q Q Q I Q T U ! ! L L U b T N O , 4 z 7 D U , b b , b l l C C & Y j.L D l D U G G Y G Y =.+.R ! t.U R =.R G B G R U T R +.T T T C D Q H D Y =.Y H R G ' Y Z Y =.=...} ..y.:.=.i...! ! =.y.y.=.=.X.| =.%.R =.%.&.=.X.=.u.........t.R ..} =.! ..W ..R y.y.......a.| ..| } Y W Y z : j j b T b N , N } Y ..F Z l A ] X.B D D T W R R T R o.=.d.i.i.l.y.=.l.d.i.;.=.=.=.=.i.t.t.y.=.i.=...=.N l T Y Y R L T ..T N D | D ..H R U T F U D R R U R O.N T Q T e.O.t.! +.t.T T =.t.+.+.U U T e.q.! W e.T U ! ..t.U * 0 H & 9 D , 9 U : * R t.u.=.! ! R +.t.=.C o 9 D O w A * + Q +.D F 0 & q y * O R R R U N Y R U Y b N N ; - , 9 l 9 , , 6 : l i...U C b z b T ! ..U C U =.R ! =.y.=.;.-.y.j.i.;.:.i.:.3.;.l Y k.k.y.i.=.=.y.y.=.y.-.y...! =.=.=.D D R D F D H H F H ..Y G Y D R D B b T D F Z b } X.&.m S R Y N Y ..F F H } A 0 z m 9 k 7 D Z  .Y X.=.=.Y H Y M * - , 9 N l V C b b z 4 : b.f.X.-...y.+.%.;.| | y.R ",
"Y Y Y N N F N H F Y } y.;.R ! R =.! =.T t.+.Y =.=.! ! ..R ! Y =...N R =.H R ;.H H =.O.m q.! T T r.! ! +.p.Q E U ! ! ..q.! R t.q.W W U w.w...w.E W ! Q Q T ! U ! T ! L R U c Y N & j x z l U v d l l & 9 q b C b ; F :.Y D U E +.=.R R Y =.R =.R ! ! R ! +.T R Y Y ! t.;.=.=.t.R R +.T =.+.R =.i.%.:.=.=.=...;.! ..-.y.t.t.=.+.=.:.Y =.=.;.y.;.y.&.Y } } | R | ..=.=.X.;.=.=.%.R ..y.R ....t...!  .w.w...| ..T W L Y Y B D k N N , : , z D b N z 4 Y  .Y ..L A i.N M D N Y N Y R Y ! T R Y +.=.%.Y R Y T Y R D Y R Y Y Y Y D =.T U D Y N U U N Y T T ..Y N ..Y D Y Y ! R R R D Y =.Y Y R ..R R R } U U U T u.Q ! +.R T ! =.T P +.T I ! ! ! 0.0.! E N T W d.T C F Y D G D b b G G Z ;.y.y.=.Y t.t.R Y :.D Z Z D l G R D m =.R R R Z D A %.z Z G R R R R T N D G Y Y b & : l 9 l j q j 7 = w &...U D b - O D Y T ..R R =.+.=.t.R =.=.-.-.:.i.i.y.g.:.g.-.m F g.i.-.i.y.;.y.i.v.y.y.=.X.=.=.%.=.R =.=.! } | -.%.X.-.;.;.=.} ..Y B k F | &.H X.' -.-.D l F Y Y  .) :.A  .&.&.} B Y  .` ` ' z .. .&.Y X.%.F X.Y F * > = = & > 6 d - : , , O b.y.F ;.i.R R R =.:.%.| ! ",
"R U G B D Y D Z Y R =.U F Y Y T =.! ! T Q ! R W ....! T R ! =.D Y F ! ! R H ;.R ' D o.R =.+.Q U Q p.t.t.t.! R W ! ! p.! ! W ! E W W U q.W ..w.W W q.Q L U ! q.U ! ! U N ! T D k , j , b b C b , C l & l b C b j : G ;.b U C T ;.+.=.+.U =.=.+.Y t.W ! U Y H =.-.&.;.y.;.z.=.G +.u.y.o.%.d.=.i.-.3.-.:.:.=.=.%.=.=.=.t.y.t.+.=.;.t.+.=.=.=.=.i.=.i.} |  .=.=.Y R ;.-.t.t.=.R | Y ....=...! | =.=.w.w.X.=.R Y B b D b m z z k j z 0 ; 4 l c U b 0 9 H :.R Y Y D i.i.D b G D R R R F =.G Y R +.T %.T ! R T W U N b U T R G Y D R R R T T U c b R U N R R y.T R Y U Y F N U N N T N D Y R =.T R ! O.! ! T R U T T ! +.+.O.=.=.U T R ! e.e.r.E q.Q W I E R t.F =.y.T R =.T D +.R D R =.Y %.R R D Y T =...R H i.| U t.=.m D } ..U Q R D R R D %.o.D D T U R U Y T U U F D : & z z D 0 , 9 6 : N g.Y R D l j , j U R W D R =.y.R ......=.y.&.y.=.y.i.g.-.i.&.k } g.i.i.i.| :.-.y.;.f.-.X.X.=.F ....U R Y H D H X.Y -.| R R Y ! D | z j | %.` } &.R -.| M m | | } }  .;.;. .%.*.g. . .' :.%.-.} }  . ...' &.&.F =.F : u >.c.n.P.P.P.h.P.x.] m h.h.R ..R %.R | } | =.-.=.",
"q.D ! U Y F D G D Y R R R Y C Y R R +.+.Y U t...T ! E ! =.p.! D D } , 7 R 5 6 Z y , w F & 7 Q +.q.+.t.s.t.t.! w.T e.! w.W t.! E ! Y w.W E d.d.w.! ! 0.E b ! w.W ! D b R =.T D A , 7 , k c U J , D b , b T D b j : Y y.l D D D o.R R =.R =.R ! Y t...+.D R Y Y R o.s.d.=.=.=.+.R +.s.;.D %.;.;.:.%.-.| ;.;.%.;.i.=.=.+.e.%.+.t.+.u.t.s.=.} =.:.;.-.%.=.=.=.=.=.-.=.=...! R ..-.;.R R ..t.! =.u.w.y.y.=.y...L ! R ....R T Y Y F | N , , b x D l z 6 D f.T D Y Y Y R =.Y G R U R Y R R B G +.R D T ! U D T T R T T R R U R Y R T R Y R T c j D Y ! T T R T ....R T D Y T L U L U ..R ! ! Q Q U +.W t.E ! w.! W ! =.+.r.;.t.Q +.D T W ! W u.E U q.T W ! d.q.+...T U D e.T c ! t.D =.=.! ! ..F T F ..y.R | =.=.y.D R R U T ..D +.R U Z =.Y Z R o.D +.R T ..U W U T D D N & 9 b 9 l j , j 9 : z -.H D G D b 4 & b R j , 9 G | Y R ....y.;.&.g.:.:.:.g.g.i.i.m Y &.i.i.i.%.;.=.| =.&.....Y | ..! | b D b M G Y D D D D D D D T D U U D X.&.Y %.%.%.| | ' %.&.| X. .<.&.-.&.-.&.&.:.&.' #.&.#. .=.H } X.&.%.} } } H : 8 ' c.c.n.P.c.c.b.g.:.0 h.f. . .R =.=.=.:.;.| :.i.",
"q.! ! R Z F Y D G Z Y | R F D H R ! ! +.! ! ....t.! W ! ..! T D N Y , q | * - H Z & y Z , 9 R ! p.=.! t.t.R ..Y ..p.R R w.p.q.R ! ..! q.! p.t.E W W E b T ! q.U ! T G F F D m m = , j x b U W , D D , C C T b l > Y y.C N Y =.Y Y =.%.=.R ! ! ! =.=.%.+.R Y R R =.;.R d.d.Y =.;.u.=.y.o.#.&.-.i.-.%.=.R } ..! R =.;.=.=.=.s.u.y.d.d.y.=...X.=...%.=.t.y.&.=.;.| X.X.Y &.| | Y R =.R ....=.Q R w.t.w.R ..W L ..w...R ..R ..} Y =.l , 9 U D z Z q = } &.R R D Y Y m b N T U E R t.G ..H F +.R Y T Y ! R w.U R W Y T T R ! R ! R D N Y W U l L ! T T R Y R ! T R T R ! ! T T U T R R +.! ! =.Q ! e.Q R +.T t.t.! +.%.=.=.+.R =.O.R R Y Q T e.t.w.q.q.W E ..i.! N ! +.! t.R U Y =.t.=.t.l.t.R R ....=.y.z.t.=.t.R T Y t...! R R ! R Y R Y R +.+.+.r.T R U T R T U U U D & : , , j j , j x : m X.Y Y Y Y k : O l G 4 , * b R =.-.=.-.=.} y.-.-.;.:.:.i.:.%.k R y.y.y.i.i.-.;.| X.%.Y T D G R R D U U D Y R H =.R ;.=.=.| %.} R R ..} Y |  .%.%.| &.| :.Y H ..&.`  . .' :.' R %. .' X.| %. .&.&.&.:.&.|  .| ' H M 9 j m Y F D H X.Z H m , p g.:.-.| =.=.=...=.! | =.a.",
"p.W T ! D ! D M D Y G Y =.U ! Q R ! =.Q +.=.T U T ! ..T T W ! R G Y 9 m T k 7 %.m - Y H : l ! q.t.u.e.! t.t.! R t.p.t.t.w...a.W t...W W U ..y.W q.! R W L ! T c ! D Y F Z F A z = j 0 j j b I q b C : b C U j l : F i.U Y G =.Y Y &.=.Y =.=...=.Y %.R %.t.R ..-.=.=.o.=.o.R T =.i.t.t.H %.-.=.| } =.R R R ! =.=.| Q +.p.u.u.=.O.u.y.=.=.-.;.} ;.&.:...R  ...=.R -.Y R Y } | Y } ..t.| ....w...w.t.t...w.W L N w.! ..T R ..} Y Y N = 9 b R m G z : Y i.U R F H D T U U T N U t.R W ..Y F G +.=.U T ! R R T T R R ..T ! =.! R R ! U ! T N k b ! ..! =.;.Y } =.R R Q } ! ! R ! t.q.Q ! y.R t.+.! T T ! t.....! =...=.+.R %.R O.Y R D b W ! p.p.t.W L E N T i.t.t.U W ..U N U Y +.a.! t.u.=.t.! R R ! t.=.t.y.+...R =.! ! R ! ! W +.Q ! R =.=.+.+.E ! R ..N Y U ..G D b - : x j l 9 , 0 j , k  .R D Y G z , O l U z - + D R Y ;.-.;.y...i.=.;.x.3.i.d.i.| z ! y.y.;.y.H =.i.| %...Y R R R Y U F z z D D R | H F D | Y } H Y R R Y  .Y | | R | -.' | y.} &.=.&.| ' ..&. .&.-.g.Y &.| ` R } }  .H %.%.%.} Y | Y } , j Z H =.X. ...} } H m * c.g.=.=.Y o.o.=.| ;.} -.=.",
"! ! T U R U F F R G R t.t.+.O.=.R ;.=.;.T =.=.! R T U ..T R ..R F R =.R R | ' | =.H o.Y =.%.+.e.=.u.t.t.R R ! w.s.t.w.w.a.t.t.W e.t.q.W w.W t.U T U q.! ! ..E T U R T U Y F B N = j 9 0 j D Q 4 l G , C P x C D & L i.T T F F | &.R %.;.H ;.i.| R p.y.R y.y.R t.y.y.y.R ....=.=.l.=.;.R =.R ..Y X...R R T W R t.+.u.+.R t.t.Q =.+.t.t.&.;.y.;.| | ;.=.Y  .....} y.......B } ..} X...Y | R R =.R } ....q.W Y W | E W R R } | Y Y z & l b U L B z = Y ;...F Y Y D Y T R Q =.R ! t.T ! R R R =.t.! T R T R ! Q R R T ! U ! =.F Q Y Y U T z j D ! +...! =...=.R ! Q T Q t.! ! ! R ..t...T ..+.r.! ! ..t.! ! t.+.Q ..=.Q +.R %.o.O.+.Y z e.t.T T ! W ! t.T U q.! ! z e.u.! ..! ..! ! =.D =.R G t.! =.Y ..R t...} =.w.W Y T ..! T Y t.F =.R R | ..! W W R R T R U U ! G D * * 0 6 l j 9 j 6 , 0 :.F m G N b j j U R N b l } Y D -.%.Y H | | =... .} &.=.=.R H ..=...=.;.F F } | ..} Y | =.! } Y Y m F D H Y H Y Y } | F H %.Y Y ..Y R H %.' H H :.| =.&...Y Y ' H &...} &.=.%.R F %... .H X.H  .A } =.%.X.F ' Y F 4 z F Y R A %.X.F X.m w - h.i.=.;...R y.-.=.Y ;.=.| ",
"t.! ! R R W F D D +...! +.! +.T Y R R R +.R R ! T ! R ....! Y | Y T | Y H F =.R R Y U D R Q T e.=.=.T ! ..! q...t...t.q.R t.! w.W q.W q.q.a.d.W T E W ! T T b U L T D N Y T R N O , j l z R T , b C 4 l C b D j & G | R ..Y D | | %.+.=.;.%.i...D ! t...} | =.=.=.R R R y.R =.=.y.+.O.=.=.Y Y Y ....Y U R ! ! =.u.t.t.=.u.d.p.t.=.=.-.y.%.+.t.=.a.i.X.X.=.} =.=.t.........W } ..=.! Y =.R | ..=.......W W N E ..Y W W Y } w.Y Y z & , L T N Y b & F f.Y H =.Y D R Y ! F D R ! ! ! ! R R ! ! +.R ! ! G +.+.t.T ! U ! Q ! R =.U U ..U L U l U ! ! R R R Y =.=.R ! ! ! R U T U T T T T ..W W +.+.t.t.p.t.! +.Q | =.=.R ! R +.R R =.=.! Q e.! T ! ! q.t.q.! ! ..! Y e.q.t.i.t.d.t...=.U R ! | R T R R ..R R t...Y R ..R T t.! W U ..Y R ..R R } ..Y ..w.U Y Y N U Y U b - : l j k l j 0 j , z -.N = 4 b U R R R W ..R | R =.R =.-.=.=.i.;.-.;.=.:.-.i.g.f.y.y.;.:...=.&.y.y.-.;.;.:.i.=.y.y.;.R } Y ;.=.=.| ;.i.:.i.:.-.=.Y  .Y F  .%.-.:.R =.:.%.&.&.%.R  .:.:.:.R %.:.g.H z 9 z  .=. .%.&.X.A } | %.X.H X. .} , 4 b } } B Y | F F D z - b.g.&.....=.;.=.X.| Y ;.=.",
"! ! ! ! ! R U T Y R O.W T W e.e.+.T +.T R ..! R ! =.R R ! R =.=.! =.U ..=...=.;.%.+.=.! u.s.! =.=.t.o.R w.q.q.t.a.=.s.a...w.w.p.N.S.M.S.S.M.a.L ! q.M.B.i.j.t.t...Y N D B U Y N = & 9 l N F T 7 v b , l l j l j & F f.Y R R ..t.R ! y.=.%.i.y...=.=...y.y...X...G } =.=.=.R Y -.y.y.=.R ! =.=.R Y R ! ! ! R Y =.t.t.t...+.y.t.+.=.| ;.%...t.t.;.i...;.=.=.=.Y t.=...R R R Y =.=...! ....=.=.t.....w...y...L Y ..R ..Y Y R ..| U N , 4 b U ! U c = } g.F Y ..| G T ..R T U =.! ! ..! t.Q e.R t.+.R W ! +.=.T ! Q =.R +.=.! Q =.U R T Y L b D U R =.R R W R Y ! =.t.! ! =.! R T ! T ..R ! R ! ! R t.! t.T R u.=.t.=.+.! +.e.=.=.u.p.t.=.r.W t.e.t.q.! W ! i.T R N T U ! F R ! U U t.R T Y R | =.| =.R ..t.....R Y R Y ! R R W R R R R ! ..2.2.3.=.D Y T L ! R ! Y Y D * , 9 j j 6 , j 9 , k X.l 9 0 Y D } R R R R | R | R %.i.;.=.i.:.;.:...=...-.x.;.i.t.t.y.X...-.:.y.i.=.y.;.=.%.;.:.t.%.R R =.} =.| =.-.&.:.:.=.&.X.&.} Y H %.%.=.| %.;.Y %.&.%.%.:. . .:.:.-.-.g.&.D m 4 D .. .y.%.&.H } } &.H %.` ..:.A : 9 D Z F } Z } Y X.Y D - h.3.| ..R R =.R R R } -...",
"t.R =.R R ! D Y o.Y O.e.! t.+.+.e.t.e.R i.t.! t.+.| +.t.W W ! =.R =.R =...y.t.=.R | u.=.+.=.t.! t.=.=.! q.p.q.....t.p.a.t.w.q.d.d.j.t.d.t.t.t.q.p.N.d...y.d...=.-.F D F D F Y z , j 2 N F Y T , 9 G 7 l j x l j > D -.D b R X.R o.t.=.d.=.t.=.=.i.a.Y ......} F ..t.| i.=.y.u.t.=.=.=...w.! i.X.| Y R } } =.=.=.=.s.=.-.=.+.u.t.=.;.| %.-.y.-...-.t...=.y.t.t.=.! ..R W Y ..t.R =.R =...=.s.t.t.R W ....w.Y Y ....R W Y Y Y | Y L : k b N ..U b > M &.Y ' | U F -.! ! E ! E ! ! Y ..=.t.! t.Q Q ! P E Q D R T Y R T G U G R R U T U U U c b Q =.R R T R G +.R =.=.! +.+.Q ! ! R Y ..T T ! ! =.+.t.q.p.! t.+.t.! R =.=.d.=.u.i.s.;.t...Y +.! T T q.! e.! t.a.R U ! ! ! Y t...Y ..t.t.| ..} Y G Y =.=...T R ! R R w.....R ! t.Y R D Y | | 2.2.2.2...a D T ! T R R Y G : , 9 0 l j d j d , k &.Z l 9 m b N z N G D Y D U F G Y Y D H D Y F Y F  .F G F F R Y } B R R %.R } } ..F Y F H R Y X...%.=.R ..| ..R } R } =.D n F N z D F D G Z D z G H F } R D Z F Z H Y Y Z F F A m A F U H F } N m D Y Z F F Y } m = 4 m ..H D H Y } } Y m 4 c.g.} -.! ..X.=.| ..X...=.",
"=.Q ! ! D Q =.Y T ! e.u.Q E Q e.+.t.Q ! p.r.=.t.! ! t.=.R =.+.R ! ! ....i.t.y...=.=.s.e.t.q.r.p.s...t.q.! t.t.! R w.t.R ..! p.t.p.W ! L E K K e.m.p.U L W ! U N U l D Z R B R N & , 5 b B G T 9 j b , l x v b x , U ..L =.F } ! ! =.u.u.y.+.p.;.| R R =.t...y.=.! :...| X.i.t.=.y.t.! Q | w.X. .X.......=...=.=.t.-.a...=.=...=.%.=.X.=...X.....;.-.t.X.t.t.=.=.t.......R R ....=.R } R R ..t.t.....=.=.w...Y ..} ..W L Y N W W b 9 j U R U Y z 6 | h.} | Y } =.t.T R ! Q =.t.! T T ....+.! c x b d j C j 6 q j c l l V b l j x c l j c q c U =.......R =.t.R ..! t.! ! R e.=.R ........R +.! ! t.+.T Q u.R U =.+.G F t.=.p.y.=.R t.d.u.u.=.e.+.p.U W ! T e.t.s.! w...t.y.=.=.=...=.! D F ! =.! R R =...t.R R R Y W Y R ..R ..t.R Y =.} 2.h.f.y.B z b Y D N U D N N : , j 4 k c j , x 9 l X.w 6 z b D C D D Y Y Y D D G D Y } %.H Y R } R H R Y R F R } Y X.R R =.Y F } =.| Y Y X.Y Y =.;. .X.R D l B R | R %.| Y D Y D D D F } Y ' R F D F Y F H Y H R Y Y ..F H Y | B Y F H Z } H Y } | D M M M F H B F m : , k N U F F Y ....N m 4 h.:.Y -.R =.;.=.y.=...} ..",
"e.W R ! R D o.R R ! Q W Q O.Q Q +.e.+.+.=.e.=.d.t.+.Q =.R R ! ! ..=.a.t.t.t.t...o.=.=.y.t.w.! p.r.! p.t.w.q.t.q.W R =.! W r.e.t.0.E E 0.E v U ! t.! ! ! ..! N z l z H D D N Z m = 0 0 D N Y T - v U = V C v b q , U | l U +.R t.y.o.=.y.u.u.=.| Y D G T ..=.Y ..o.'  .X.=.=.| R +.! =.| ..i.X.w.X.} ..| =.! ..=.;.=...=.w.;.} Y ! R } ..i.-.y.w.=.:.| =.=.=.&.=.=.R R Y Y Y R } =.R =.Y =.t...t.y...R R w.R L | ..| R Y W R W ..b : 9 9 j : 9 , : Z f.H Y } ;.=.U R U ! ! R +.t.R R t.q.t.R b j 6 6 6 : 6 6 , 6 9 , 9 : , 7 : , & 4 : 0 b U ! R H R T G R ..Y R ..R =.! ! =.t...t...Q =.! =.+.R ! t...! t.+.T =.=.+...i.=.+.u.t.i.u.t.d.p.=.t.;.+...e.t.L =.U R r.t.! d.=.y.y.-.R t.=.t.! =.! =.=.| =.=.! } } R Y | } W R R W ..Y R ..Y &. . .Z n 4 l U U D U T D z - 4 x 4 0 j , x , j 9  .D : 9 F U G Y ..Y Y =.R ....=.y.%.-.y.y.i.y...-.g...t.i.i.i.i.y.-.;.y.y.:.:.g.:.i.g.;.%.;.i.y...=.R m 0 D | -.-.;.:.=.} X.X.%.-.%.A ;.:.:.=.:.=.%.-.-.-.=.X.X.&.=.X.-.%.&.:.} g. .} X.-.y.&. .'  .%.=.Y Z ` } Y , 0 8 D R D U R Z B N z k b.g.} ;.=.H | =.i.;.Z Y ..",
"t.q.+.T T D G Q R T +.T O.+.Q e.Q Q +.t.Q +.i.s.e.=.! ..R y.y.%.=.=.=...t.=.a.;.=.=.R R ! =.q.! w.! t.! =.q.! ! ! ..W q.q.t.! p.! W E 0.I J b Q q.! U N ! W U N D m S D D D R N , 4 q Z m R +.- z C 6 j x v x z & F i.T D T b R +.+.d.R ! a.Y Y  .=.....t.-...} y.y.i.2.....:.-.y.=.Y =.=.-.| ..Y &.......-.;.X...X.;.t...F t.O.u.R Y X.t.t.t...| ;.-.=.=.=.} Y R R Y Y Y =.| =.=...t.! =.s.t.R ....R L Y L W | Y } Y T Y W U U q & , , l j 9 j , F &.H H ..R R =.R ! R ! U R p.! R t.W ! +.! U U E U U b b D U U D D U b U U U N b b c R U Q +.R =.R =.....F ! R ..R ..! T =.! =.! ! Y =.+.! ! Q R =.! t.t.+.y.! =.d.s.t.t.t.y.B.s.R i.=.R +.+.+.N ! t.=.R R ..t.L T =.=.y...R ..! ! t.! t.R y.R F R R t...y...Y T R U ..T ..R | R =.T D M B k N 4 k B R N N N b z & 4 0 x l j 9 9 , , j  .D , j Y U D Y Y D G R } ..Y | y.y.&...=.=.;...y.=.y.i.y.=.a.a.-.=.X.X.&.f.y.:.:.y.-...;...y.;.-.} } A , z =.;.=.-.X.=.%.| | %.&.%.&.:.i.%.%.%.-.=.%.%.:.%...;.&. .| :.| R X. .=.X.X.=.&.%.X.H ` A }  .|  .F Y B , 2 z F F B U Y Y F R U - b.i.Y  .R X.Y R i...U } ..",
"t.q.R R D D U R ..G O.O.O.O.+.e.W O.+.+.t.Q t.y.=.=.s.+.! } R R =.;...=.....a.y.y.T T =.Y ! Q ! s.! T q.t.W W q.q.p.t.w.T 0.q.0.W 0.E 0.E U U q.q.r.! ! ! U T U N m D | R R R D & 0 4 m m T R , C V 6 x x v v j O =.y.U U Q W ! p.T t...d.R | :.;.g.=.X.=.R  .A =.;.} X...X. .;.=.t.R X.y.y.| | ..-.....&.w...| .. .Y =.=.y.y.t.R =...;.R t.t...R %.y.=.=.| ....} y.F =...} ......t.R ..p.t...Y R t.R W W L Y | ..} } ..R T U Y l : j v U D N l , } 2.G R R | Y R ! ! ! t.=.t.R R T t.q.t.R e.q.Q t.e.e.W ! +.=.Q R Q ! R ! Q ! =.! t.W T +.! | ! R ! Y ..=.;.=.R Y ! ....R G =.R =.! R t.t.=.! t.! R e.T +.y.Q R R =.=.=.u.R +.! e.R d.+.=.=.=.! ..! t.=...! R =.e.R Y t...| | =.R =.=.t.=.R R t.;.;.=.....F t...R R ..! R =.R ..=...R 4 k M 4 0 c Y R R T N R R N : 9 9 l L j j , x 9 7 =.m 6 z T R R } R G | Y Y R } X.....;...y.&...f.g.-.=.y.d.a.y.;.i.i.-.;.=.x.i.-.=.....=.y.:.f.X.=.y.H F 4 k ' :.%.:.3.H %.R &.&.&.-.=.' %.*.:.&.%.:.} -.%. .&.| } -.X.-.%.-.&.;.&.%.%.} } :.:.X.H  .Y ..} A B | B : 4 j Y m k B N Y Y Y N : c.i.X.| =.-.=.=.y.=...R &.",
"a.d.! q.G U R R T ! ! q.+.e.Q e.! u.O.Q E r.t.w.T t.t.t.R =.o.R t.=.;.&.;.-.R t.=...+.! =.e.t.t.s.w...! +.+.=.+.e.! p.! r.0.0.0.0.E E 0.P b v W e.u.t.U T U D T 0 D F | =.Y G D - j l A ' +.T 4 G l 6 j V C D z * Y y.C T +.+.! +.=.;.=.=.X.X.-.&.R :. .Y =. . .| X.H %.X.-.R } =.=.R &.| ....Y Y | =.N ..Y } w.X.X.} ....;.y.a.=.&.t.=.R =.t.:.-.&.y.d.;.&... .=.-.=...y.=.t...=.t.t.! w.y...Y ..=.t.R ..D Y | F w.} W B W W U b - j l Z H C V , Y :.R | o.D R F D R ! p...t.R ..R e.! t...! ! =.R u.+.U ! ! T t.w.T ! +.! t.t.! ! R U Y =.=.R Y =.! R t...! R ! ..! R ! R R =.R R o.Q t.+.! t.=.Q R T u.t.G ! +.R t.=.=.y.y.t.p.t.=.u.y.+.R o.H ;.i...t.t.H Y T q.! =.u.! ..y.=.i.=.=.=.e.R ;.=.y.t.=.R ..=.=...T ..=.T } ....} ..=.=.D b j z k T ..T Y U U Y D D , , j 9 l l j l x 4 k &.m : z Y Y Y L Y Y Y R R R Y Y ..=.=.=.:.:.-.&.f.i.i.-.y.t.g.-.y...g.-.-.-.g...:.d.-.d.y.-.;.Y Y ..Z B 9 z X.&.:.%.} %.%.Y &.x.:.;.:.:.=.R ;.;.%.| ;.;.-.} =.&.;.&.:.Y &.:.} |  .=. .X.' F H ` &.} F ..` } } X.Z : 9 0 N m N N D F U N 0 , b.a.| t.i.| | ..;.y...R ..",
"..R ! ! D +.R Q =.T ! q.W Q O.O.Q +.+.Q E ! R R ..w.....+.R =.o.:.i.&...%.=.! R +.y.t.p.p.p.t.p.p.t.q...=.t.Q =.r.! e.0.t.0.! W b x , a x d b 0.e.T j 6 , 9 9 p : b N Y F H Y Y , 7 z A m R R 9 D C - T Q R T D 6 o.;.C Y =.+.U D U =.i...;.H } -.;.=.%.-.=.} :.X.}  .=.f.| } Y } | ..;.:.-.=.} ..} ....| | } w.X.w.y.X.=.y.y.y.y.Y =.y.+.=.=.=.=.%.%.=.%.Y X.X.=.i.....! t.=.R ....w...Y y.W W t.=.R R F U W ....| Y W Y T T Y N - 0 l R O.D 6 = Z 2...Y | R F R ..=.R t.q.+.Y R +.T U +.t.R t.t.=.=.+.! ! +.t.a.R t.T t.t.R ! R Y R T R Y =.=.+.R =.! =.! =.R =.w.R t.=.=.=.=.D Y +.+.=.e.+.! Y G R T =.t.N T =...R u.t.t.+.t.=.=.d.u.;.=.=.=.=.Y ! ! t.+.t.t.t.t.=.R t.y.o.=.o.=.Y =.! R =.+.R ! =.=.y.+.U R R R ......t.R ..R R ....R ..R ! ..R ..R Y b R R ..D O * l k l j j 9 , p z 2.m k N N l Y N N D N F Y T F Y Y g.=.%.| R =.-.;.i.;.;.=.;.;.y.-.t.} :.=.-.| ..Y ..a.;.y.&.| %.! Y Y ! } -.:.:.=.%.} | X.} ' -.;.:.:.i.-.%.=.;.} ' ..:.%.%.} -.| -.-. .:.:.&.&.| X.&.;.| 9 : : A &. .H } Y H Z Y - : 9 N D F Y Y Y Y N j : V.| | | w.-.y.=.i.=...R =.",
"t.R ! ! U T Q +.Q ! ! Q R Q t.e.Q R +.=.! ! ! i.t.R ..-.R | z.l.:.=.d.i.i.y.t.! =...s.t.! p.d.s.! t.! t.! ! ! q.! Q W E q.q.0.U 9 a , : & , Q Q U b : , : : = & 4 U G Z Y -.R D 2 4 b D D ! ! j l C 6 C D l l l & ..;...R ;.R p.! t.u.=.=.=.-.&.:.=.;.=.:.%.%.=.Y Y } t.-.R Y :.;.=.| y.=.=.X.w.| W Y Y ..R } Y } X.w.X.| | =...R R T R ! t.! t.+.R ;.;.y.=.&.=.! ! =...w.! ......! T | ..Y | w.R t.R ..Y D } } ..L | } W Y } T l , , P U D l j * } f...Y Y R T ! W ! t.! ! R | R p.! Y R R ! ! =.t.t.+.=.! T +.Y t.t.=.=.! R ! t.! R +.t.=.=.! R =.R =.i.Y R ! =.R R ..t.=.;.t.G +.=.=.d.R ! T R N =.! i.=.Y ;.=.=.;.=.R e.+.+.u.Y H y.e.Y y.! Y Y =.i.s.t.R e.u.t.Y %.a.R R | Y Y i.=.+.=.R =.%.u.R =.+.=.Y =.=...=.....! R F T T Y R Y R } =.R Y ..R R L R Y F b : , 9 7 l 9 9 j j : N h.} N N L T N N F F Y H D Y N Y R =.=.H Y H } | =.=.X.=.=.-...&.y.=.=.=.=.=.f.-.R t.f.| ..i.%.=.;.-.=.;.&.-.%.-.%.R F F :.%.%.H %.%.:.%.:.y.y.| =...&.o.:.=.X.| y.f.} =.X.;.&.:.y. .&.;.0 + m } 8  .Y } B } | ..T O 9 7 B B G F Y Y ..z z & f.X.| | ......=.y.i.! ..=.",
"| R T ! R T +.! R U ! q.t.O.Q ! T R T R t.q.R y.....=.R G y.o.y.=.y.y.y.;.y.d.=.Y e.t.=.=.i.=.t.! t.w.0.....! ! e.e.T W 0.q.W L U W E L P Q u.+.T E D U U b c N Y } F Y | ! Y F : - l G N ! +.7 D C D C U b U x & Y g.z R R Q e.p.d.y.;.t.u.&.} ;.:.-.i.y.-.:.:.X.-.-.-.X...} %.| :.| } ..w.....w...w.| } Y F =...Y X.X.| ;.| ..Y =.! ! R R =.=.t.t.%.R =.=.=.R ! t.p.p.q.w.T t.a.w.....Y } ..w.t.q.! } X.L Y Y w.W | w.} W Y L N : j N C l 6 9 - Y f.Y R R t.! Q ! ! ! ! =.| =...! ! N =.t.+.! ! %.+.T R R R R R R ..Y ! t.+.! +.R R R ! =.R =.R =.=.=.=.R =.R ! ....=.....| R U ! W =.i.p.! =.R N U =.v.=.;.X.%.R Q R %.y.=.R =.Y =.t.+.y.=.Y =.=.=.+.i.t.=.+.t.=.Y Y Y | =.Y R | R ! R t.t.+.+.=.=.! =.%.| ! Y t.R R R R | R R ..R ..R R ..F Y ..R w.R Y Y Y R b - 9 j b b 9 7 j j : , &.} Y R Y m R } Y Y H Y ' Y D | X. .| R G D X.%.%.&.;.f.&.y.i.....;.=.=.} | i...-.t.y.i.=.%.-.=.| y.:.-.:.| =.-.=.F F -.%.=.Y H | %.&.:.l.;.} -.X.&.;.%.=. .&.&.| 3.y.=... .&.&...;...} 7 H F I.Y A } F H } X.F Z : 9 k N N F G Y H F D 0 4 f.f.w.....y.t...y.y.R =.=.",
"R R H T U T e.! Y +.R R +.T +.T T ! ! e.Q ! i.i.t.t.=.;.Y R ;.=.;.i.y.d.;.=.t.! =.=.O.=.o.=.t.t.w.w.t.0.a.t.! ! ! t.! q.Q Q 0.0.E 0.q.I U p.d.R T T +.+.D U R R X.Y H R R +.Y m & 9 0 U Y R Q q C C U U P b b z : Y 3.Y R =.t.=.| | ;.=.t.u.! } B X.=.=.y.i.i.%.&.X.-.:.-.} ..} =.&...Y =.=.Y } w.} =.=.| Y R ! ! ..%.R =.X.} D T y.R ......! ..t.e.=.| ;.=.=.! =.t...! ! t.w...! t...Y ..| w...! ! U U ..T ..w.F W ..} q.W Y T l - 6 j j j 6 9 - X.3.Y | R ! W E e.! ! =.t.+.Y ! ....t.=.+.=.=.o.R ! T ! t.=.R +.+.! Y ..t.+.t.! Y ! =.! R =.=.t.R ..R ..R ..=.=.R } ! R ;.t.=.D +.=.t.=.! t.! G D O.t.d.i.-.u.i.=.=.=.=.=.t.y.u.Q =.=.| y.s.! =.:.=.;.t...y.y.i.=.T t.=.| %.=.=.=.R q.u.e.O.=.R o.R =.+.=.;.=...! =.T ..R i.W ....T t...Y R ..B T R ..R N Y Y Y N : : k j b j j j , ; z 2.Y Y Y R R | Y z Y } X.D N b m } H =.Y Y | |  .R -.%.| y...;.| ....=.R =.%...R :.:.-.;.=.&...X.%.%.%.=.;.:.%.| %.Y | H } ' } R Y %.-.:.;.&.=.....| =.Y | &.| | } ;.-.=.%.:.| -.} | } :.:.&.<.-.F H }  .} } }  .B & l z M D D Y F F Y z 8 ; g.w.Y w.y.R ..R ..| } R =.",
"Y R T F R T ! ! +.=.+.=.! Q +.T T T W =.! +.s.s.t...| H ;.=.y.=...i.=.B.i.=.t.! o.R u.u.t.=.p.t.a.p.e.q.! w.t.W e.q.W r.q.Q Q E 0.! Q ! E t.t.+.Q ;.=.D T U N m | Y R D Y D R G = , 9 N D ! t.9 b b l b C P l l : ' g...H :.%.Y =.=.y.=.=.u.R D | =...=.i.t.Q =.=.` &.:.:.:.%.} ..=.=.! R =.=.=.X.y...a.=.-.! | X.=...| | =.Y U D ..R R =.=.t.t.%.;.-.;...=.=.=.! } ..=...! W W ....t.R } ....} T ! N Y R U | w.| } | } } W T ..l - 9 9 c , l 6 O F :.H Y ! R ! R e.! t.R ! +.Y R R U R R ..T R +.y.R t.t.Q t.! ! ! t.R +.! R p.R R ! R ! t.Y | ..! ..=...R ....R ..R ! ..R ..=.D t.T y.t.t.=.Q R D =.R =.t.y.=.=.R F %.y.o.t.t.+.=.R =.+.+.=.+.Y } } R ! t.y.=.u.y.+.=.t.=.i.t.! =.t.! e.e.t...y.=.%.R =.=.R ..=.+.R =...T a.R Y R ..} R R R R T ..R W R L L Y Y U & 9 j j l l 9 4 4 > N | F R Y D F Y F Y F F H | Y F B R =.Y | ' | =.=.=.| R Y } ..! .. .....%.;.;.;.;.=.| i.:.-.=...=.%.Y ' ;.%.&.%.| R R H %.` F %.%.R =.| H | &.%.&.;.%.| ' X.X.| =.} | } | ..X.&.X.R } ' %.E.%.2 m | -. .} } H F F } , 2 0 F D D N ..} G m z > h.f.| X.Y Y ....} =...Y ;.",
"U U Y U U R ! t.T Q R R R Q T +.T e.Q t.e.Q d.s...=.y.g.=.t.t.;.=.p.t.t.t.t.s.! Y =.=.y.R +.=.u.t.! ..! U E q.t.q.! W Q Q q.E q.q.E K W q.+.t.t.y.o.Y Y G R ! T Y %.D D Y D Y U : 9 k m z U +.9 U Q T U C P ! c ; ' g.R %.:.%.=.y.z.+.+.=.R Y d.t.R R ! Y | =.R } &.X.Y } X. .}  .| R } ! s.B.j.j.j.B.j.=.Y =.%.} Y | ..%.f.R N Y T G Y %.Y X.} F =.%.Y R R R %.R U ..} R ....Y R R w.....} W W Y W B U R W W R L N z k N U N F 0 - 7 x x j j d + G f.D | R T R ! R t...t.Y | ! ....=.U R R R t.+.Y G R =.! t.=.Y t.! =.=.R ! +.+.=.R +.R t.R ! =.| | =.=.| ..! ..=.R ! ..t.t.t.U ! +.u.=.t.+.=.U b ! =.y.t.+.+.=.=.R t.R y.Q =.%.%.R =.=.H =.=.| ..%.Y %.R =.%.=.u.i.Q =.R =.=...=.! ! y.y.s.=.t.;.%.! R ;.;.} ..=...T R W ! ! U W Y R R ..T T R R U N ! E T ..R N - : j , j , : > > & N -.F Y B k F B N m Y Y D Z D F D | %.%.H %.;.| H =.-...H | | =.| R Y X.%.=.&.=.=.} } -.y. .Y ..=.=.X. .} | } } R } F | =.:.%.Y ' %.:.&.Y =.;.X.} } Y  .-.:.%. . .Y &.} } | } Y R  ...f.=.3.b.%.Y y. .X.} F Y } A Y : 0 z m D Y Y Y Y R N b , g.f.Y ..Y ..Y ! ....} ..| ",
"U U Y U G R =.R =.+.o.t.! ! Q =.q.q.R =.E T r.u.t.s.d.i.u.t.t.R +.t.! r.s.t.! T R t.t.r.e.t.+.u.t.q.t.q.! ! q.q.! E q.! Q 0.E K Q q.P q.! q.i.d.O.R Q =.z R p.T Y R R +.T G G b 7 , 0 z y %.e.q C T b D b C b b & Y :.G T =.Y ;.y.=.t.i.:.=.y.=.T Y +.=.=.R =.=.Y =.=.` B Y N } F Y R ..i.;.y.;.f.g.a.;.| } | R |  .Y =.:.;.=.R | Y Y ....=...} ;.F Y | X.X.%.H  .! ..R U W W ....w...Y ....Y W N | N U T | ..W L Y N k c W m N l , , 6 6 j 6 j * =.i.! ! R D Y T ! t.U ..=.} ..T | R ..U R ! t.+.=.R +.R Q +.+.t.=...=.+.T +.! t.+.+.=.R +.R R =...R =.=.=.! =.=.=.=.=...R t...G +.R y.u.! i.=.! b +.=.i.=.;.=.=.;.o.+.y.u.d.=.+.=.=.i.=.=.=.=.Y D Y %.y.=.z.=.;.t.=.| %.X.R =.=.=.=.! +.:.=.;.T +.| +.R %.%.=.R t.R U R w.R ! ..R | R t.W R ! ! U Y W W F N Y T B 4 l Z =.! D H Y N 4 5 X.M H ..N Y D D B m D D F H Y Y | %.} | %. .| X.} X.y.:.&.-.%.H %.R X.%.=.%.g.Y } X.=.-.H R } | ..%.%.| | Y &.;.H X.=.| &.:.&.%.-.%.&.:.&.%.' &.Y  .H %.X. .X.X.} ....%.X.} } } Y i.y...} %.%.Y } ..F H B A | Y B : 4 0 b w z z z N b N 0 O :.w.L F F | ..R  .y.R ....",
"....D R ;.+.o.R +.Q T T =.! Q D T ! I T Q W T =.t.y.Q y.+.+.=.R +.+.e.s.p...! ! Q e.s.e.p.s.! t.p.p...w.w.0.w.p.! w.0.Q ! E t.W W E E W ! ..t...R U ! R U R ! T ! t.R ! G Y F N , , 8 D y Y +.T r.O.Q o.o.I T D j Y g.} | +.=.t.=.=.=.-.t.=.t...t.t.t.i.y.=.i.t.Y Y %.:. .| X...R N ..! i...| } ` Y ..} Y n | | } ......X.Y N L ..R Y | X.w.W } X.X.} X.| } X.X.X.} } W W W | Y Y ..| Y | Y } w.W | L R ....w.| N | R T D R D N 9 , , 0 j q : , , } i.Y W L Y Y r.! ! ! Q u.Y Y Y U ..t.Y Y Y Y R R =.R Q ! Q W Q +.! t.=.Q R ! R +.=.t.+.=.y.=.=.=.=.Y =.=.o.t.+.=.t.! +.t.R R R +.=.;.=.u.+.=.+.T =.d.d.;.Y =.=.:.;.=.=.s.y.+.+.=.=.e.y.=.=.R ;.Y =.y.y.+.=.=.y.=.H R | | :.=.T T ..t.p.=.=.e.T =.=.=.R %.=.=.=.R t.! ! ! R ! ..! ..t...Y ! W ! ! W ..R F Y Y F U & , b Y G R N D z 0 l  .F B Y N D D D B k F F H F B B ..X.Y &.&.Y -.X.;. .} Y &.%.| |  .%.H R | %.%.Y }  .| %.X.%.R H } X. ...| ' -.%.H } ;.&.' &.%.;.%.%.&.=.| ' 2.%.=. .} ' &.-.&.} | F } =.} ' } H  . .} Y X.} } H }  .} H ` } N R Y : : 9 = : - 7 , : - 4 , : 3.} U Y W } R ....l 1 , N ",
"y.T T =.O.R R O.R R Q U R =.Q R U ! E T +.! R i.t.+.y.+.C =.;.=.;.s.+.p.t.! ! ! +.R Q ! +.+.t.p.t.w.w.W ! ! ! ! q.! E ! ! W 0.! T R 0.E W ..i.=.R Y =.Y T U Q C R T R U b Y Y l : , j D V T o.9 D b C l q C j b = ! h.N %.;.t.=.=.t...:.y...y.i.=.t.t.u.y.i.d.y.|  .} | } | Y =...Y t.R =.H } X.} ..} } B Y | w.=.} X.| X.Y c F R ..} w.X.X.} ..| w.} } X.} Y w.| X.....| | W R T w...w...w.} q.L Y R w.W ..t.W L L U D N G c b 9 : - O , + - + & } y.Y R ..R q.w.! ! T +.=.R +.%.=.Y ..! ..U Y U +.=.! ! ! ! +.R =.R +.=.+.=.=.+.t.T R R =.+.=.=.y.=.=.=.R =.=.! =.=.=.=.! Q R D R R ;.;.t.=.R Y D =.i.:.=.;.=.%.R =.%.d.u.s.+.=.;.=.! =.%.=.o.:. .%.=.%.e.+.=.u.=.=.%.;.| =.t.G R ! ! =.p.u.+.=.y.;.=.t.=.X.;.! R U t.=...R W ..R R ....F ! w.U w.! N N W U Y Y N & & O - : O & * & & k &.m N B F F z F R Y N m F D F Y F B Y } ' }  ...y.Y } Y } } } F R R | Y F %.} } ..%.%...} =.=.H R %.....=.} H &...| %.| &.' %.| F ' } ' &.:.&.' =.} X...R X.Y } Y | } } } %.H } B } | B Y } Y Y } ` H `  .B F } n * - 6 : , : : j 9 , 7 , , c.X.W Y F ..B } } z : , l ",
"y.=.Q ! D R Y Y T ! E C T ! U T ! W R T T Q ;.d.+.+.o.=.;.=.;.t.T +.+.! ! p.r.! G T ! ! Q t.! q...! W ..W W W q.0.W E E E E q.L L q.! ! T y.a...F Y Y Y ..t.! T ! R T U D C U l - 0 0 D R Y E 6 V D b l x l j x O R i.T H =.=.-.;.| -.y.y.y.X.X.t.t.y.u.t.u.j.i.-.;.R H  .=.=.t.Y R =...;.} F Y U Y | W Y B } } ..} X.X.| Y N m ....} ....| | W } Y | } w.X...f.w.} } W X.W W W ..R W } ....w.} w.L W | | W Y Y D U U U b U R P b , l N ! U Q D - Y i.T U W ..! r.W t.t.....! Y +.R U T ! T R F R Q Q p.s.! T R t.=.=.t.=.Y ! T ! =.=.+.=.t.+.t.O.=.=.=.=.+.R ! R =.=.=.Q =.U +.D +.R t.y.=.u.+.U l =.Y i.=.t.d.=.y.=.t.u.=.u.=.&.i.| H =.R o.=.R Y | =.=.i.u.+.+.t.+.| %.&.R R w.! ! p.=...+.=.+.o.;.i.=.=.=.Y =.! R ..+.=.U T ..R y.R ..T W R U W U ..Y W W Y Y b : = , 9 D b b k b , & z 8 D B k D F D B F N D F Z ..Y  .}  .' Y %.X.=.} H Y | | F U R R | Y H X. .| H } R H ;.| } &.X.' | X. . . .Y '  .%.} %.X.M A ' H %. . .&. .' X.} `  .;...}  .} } } } }  .B M A ` } } Y Y } Y  .B ' } Y | }  .X.z 4 - j 5 z 0 z k m 0 0 4 , 2.-.n Y Y } X.Y Y j , 4 0 ",
"=.=.T R D T Q T Q t.e.P U e.O.o.E W U +.R R s.d.R Q +.=.+.R +.+.+.e.U b U U U T l B D b U ! ! e.p.! W ..q.q.q.q.W q.! ! q.q.E L E q.! ! R ..t.w.+.R ! ..U T ! T Y %.U U T R N D : , k q D R Q , z V j b > 6 x j * R &.U G +.=.-.;.%. .-...&.:.=.=.i.=.t.+.t.} Y | | =.-.| | =.t...t.=. .=.y.X.R R  .} Y Y B  .| ..R R .. .} a N Y } } W Y W Y Y | ..X.w.} X.X.y.y.} | | | X.....Y R Y ..w.w.w.w.Y W Y Y ..| R | D U U Y N R N E D : l R i.s.=.Y 7 Y j.U R ....! w.R ! R ! =.=.=.=.U ..R ! ..! =.=.=.! p.! ! +.+.! +.R =.R ! R t.t.! +.+.! R ! +.Y o.+.%.! +.=.T ! T R U ! =.=.Y b T R =.y.Q ! R T D t.R y.o.e.t.y.+.y.u.u.u.z.t.Y Y ..;.=.o.=.%.%.| =.=.s.t.s.O.s.e.=.;.} -.&.%.=.t.! E s.=.=.t.Y F =.! =.| %.=.Y ..t.! R t.! R T ....R ..W R W w.W ....R R ..R Y b - , 2 j b Z D z l 4 4 : , z N k B D F N N F M Z B } F F ` Y H F | F } Y m H %.Y %.Y H Y } %.Y } ..R Y X.| | } ..| | Y R %.H Z A H F ;.R Y H H Y } } } ;.#.F F Z X.H } | X.X.`  .} } F } F } ....R B A F F Y B } N F H D M B m } X.| k & j a , 8 k m m B H m D k : 2.&.} ` R | | | Y j : , 4 ",
"i.q.C D R R T R +.R O.+.! +.e.R T R T O.=.! d.z.T =.W +.o.+.=.u.+.t.D l q j U D z z j 9 U +.! W ! w...! q.U w.p.T 0.W t.! W w.E W W ! T ..w...q.Q T R ..R R ! U %.=.T U b R =.D & , 0 l z G D 7 z z , V 3.g.4.#.M R -.D Y R ..| &.| ' %.;.} } g.=.t.=...y.;.Y ..t.=.=.! Q R =.R | a.R X.:.| -.%.=.Y  .X.N B } | } Y =...X.Y j m | } w.X.F Y ..W } | X.} } X.} X.| ..| | } } W } } } } ..0.w.W } Y W W | W W ..T b Y R b D U C b z : 6 j v v l l - R i.T Y W ! U T ! ! ! R | t.=...=.! ! =.+.Q ! =.} Y t...R =.R =.+.| ....! ! ! t.! +.! =.Q =.R =.t.=.R =.+.o.Y G +.U ! =.+.=.! D T R ;.y.t.+.=.G D +.+.o.o.;.o.=.y.d.=.d.t.=.t.} | ..R =.t.=.=.R ..t.u.t...=.=.t.p.t.-.=.R =.=.t.=.t.! t.! =.i.+.| o.R +.R R ;...a.} ....R R Y ..! ....+.U ....W ..R ......W T Y D & , 6 k k Z A 6 b j - , = : 7 : , 0 4 , 4 7 0 9 7 0 , 0 5 j : 0 7 j & 4 j k k z k l q 9 z l , j 0 4 0 k 0 z z 0 9 k - 4 7 , l N 5 4 0 k 7 l - 0 4 5 4 4 0 4 z 0 4 0 j j k 0 z k 4 7 4 4 5 j k l j k 2 z 5 - 4 4 j 0 4 a , 0 5 k z 4 4 4 7 B  .| X.&.D : k j U 9 : h.X.B } } } ..} R B : : k ",
"j.t.T Y T D U O.R Q O.T Q +.+.O.Q R R ! Q ! i.u.R +.r.+.+.R +.e.+.r.T b 6 0 D T b N 9 7 G +.T T ! W t.! m.! W p.w.W t.w.W q.W ! ! E ! U t.t.y.t...T T R U D W P D R T Y Y G R G O , 4 k m C U 7 w l , b S ' %.A 8 G :.=.R ..Y ;.X.=.| ;.=.' &.=.=.i.=.i.i.s.;.&.=.t.-.=.+.=.t.y.R w...Y :.R R | ;.Y | F n n | W ..t.=.} Y L z Y Y } X.W B Y } } Y ..X.} } w.} | ..} } W W Y T Y Y F } w.} } B w.Y Y w.....W W ..N U D N b ! C C C * 6 C I E U l : } y.T ..U W Y R ! ! U =.R t.| =.t.t.! =.! ! F R R =.t.=.%.y.R ! =.! t.t.! e.R R p.T R +.Y +.=.Q R R ;.=.=.=.=.R +.! R R =.+.+.D R T z.u.t.R +.R D e.t.i.u.=.t.t.=.+.y.t.i.t.u.e.t.R } | =.%.i.y.! =.t.=...R | =.t.+.=.y.=.y.=.t...R ! t.w.i.=.=.+.+.+.! =.y.=.s.R =.t.! T =.Q T W t...R ! T ..R U T W W L L R Y D O d 4 b b * 7 l l l 4 4 7 : O & - - : + , & : : : - * 4 & - * : , * - 4 , : , - : : , : * - 4 : = , : * O : , , : & - * : & * , & 4 & ; 4 & . - - 4 - , , 9 & , 7 - & : : : & 4 : O & - , 4 , : : 4 : , : - 4 4 = , , 4 4 : : & 4 , 0 0 m  .2.3.3.g.:.- D 5 D l > >.-.} R ! R ....R k , 4 k ",
"y.+.D ! R Y +.Q R Q Q T ! r.Q U D u.=.+.e.+.s.l.o.U u.+.U Q +.+.+.t.T Y l 0 D U G b b , D =.Y ! q.t.! q.w.q.0.! w.w.q.q.w.U N T E E ! ! y.t.w.w.W R W R R U T N F =.D C U Y Y D = k x 8 y T U 3 z l 6 9 V D D b & Y ;.D %.Y F X.;.%.R :.;.R y.=.t.y.=.;.y.y.y.-.X.g...&.u.=.=.t.%.=.i.=.i.%.R ..=.%.%.F F L Y | R ..Y =.w.F a Y } X.Y W W X...X.B X.X.} } } w.} } } Y ..W Y w.} W W w.w.w.} w.} Y | ..E T Y Y F N L D D b R U P b 6 6 6 h b x j : N ..U R ..R R ! R ! T t.Y ! ..t.! ! ! t.! U =.Y Y ! ..=.=.t.=.=...=.t.t.! ..G Y ! ! R ! =.+.R =.=.R o.Q =...=.! R =.T Q R T +.C T +.;.;.T ;.R +.b t.+.;.Q +.=.R ..=.u.=.i.t.d.y.t.R R &.| | =.=.=.| =.t.=.e.=.=.! =.%.d.i.;.y.=.t.+.t.q.q.i.! R t.R +.R Y y...=...T W T ..R +.U L ....Y ..F B F ..R ..Y ..R Y ! U & 4 9 l D l 9 k l j x 9 4 + & , : : = = & & & # & : & ; = : & * : & : : O = 7 9 , 9 j 0 - q , , , , , , : , , * - = , ; = , - * = : : , 4 * , = - : - , 9 , : , : 4 4 , 0 , 4 , , : : a , , j , j 4 - : , ; , j , : , , : , * = , 4 a k z N k k 0 r.b 2 z : j j , 2.X.} ! Y Y X. ...b , - j ",
"l.t.D R O.R R R Y Q +.e.! W ! ! K +.+.Q R t.s.=.+.R +.e.+.e.s.+.e.t.b C 7 l C N D l 0 , m t.! t.q.q.t.w.w.w.W U Q W ..! w.q.! T E ! W E =.t.a.! Y R ! W D l U B F H R D D R R l & 4 , N m D T - z l 4 l D D b b 6 Y :.| =.Y | o.%.=.R x.:.=.| =.t...&.X.X.......| -...| y...=.&.=.-.=...g.X...| =.} ..U N L W | } &...%.X.Y z F } X.} } W } } w.} X.X.W } X.L X.} W } W } F Y X.W } } X.} } } w.} ..Y Y W W R R U Y U T U Q U C C = 0 G | ....F k T y.! U Y W t.=.....t.q.R Y ! s.! R =.R R T Y R ..=.! y.! ! R =.=.t.t.i.! ! e.! ! =.Q =.R +.R +.o.+.%.=.=.| Y o.=.O.t.e.+.e.+.C =.+.y.+.;.o.+.H R =.=.R o.R =.Y =.s.i.u.t.t.=.=.R p.=.R ..%.=.=.=.! t.t.t.u.s.+.u.R R %.%.=.=...! s.! t.t.! R =.+.R t.+.| R ..t.d...t.W t.=.=.b L Y ..R ..R R t.w.w.....t.R U =.R * - 9 z b b b l b D k N z O , 9 j , m M M M u n M A n n A M m n m t m n M M z k j , 6 z 9 k j , 0 j q j j 0 k , 0 0 4 5 4 5 4 7 j 0 4 , 4 k 9 9 4 4 k k k 0 9 k 9 z j 4 , 4 , 0 4 : , 4 a , j j 4 j 7 0 0 k 4 , 9 4 j a 4 j 9 j 4 5 j 4 b m F Y M ..b 0 l j U , ; 2.2...Y R Y Y T U 7 , : 0 ",
"v.=.! ! T ! ! T T D R E E R ! ! U ! Q 0.W t.t.d.T G t.e.+.O.+.Q Q ! Q T , 9 U Q G N b 7 Y u.T Q q.E ! ! ! Y ! q.q.W W ..! q.p.W U ! R W w.t.t.w.! Y ..=.U U D N Y R m D D D H m & : 7 m n Y U , z m 6 9 b Y N b & R x.T =.} =.=.H %.%.-.i.d.=.Y %.%.X.X.} X.:. ...X.=.R =.| ;.%.X.X.} X.:.&.&.-.} } | Y c N ..| } X.| =. .Y c N ..} ..| ......X.| | } X.} } } X.w.Y w.X.X.X.X.} L w.} w.} } } } w.Y w.W W W L L b T R Y N U T D l , m ;.b.v.v.=.B Y y.C T R ! ! w.R t.! w.t.! ! ! ! T t...=.T Y Y =.T =.+.=.U R Y +.=.R R %.+.! +.! +.=.+.t.=.T ;.=.=.+.R o.R +.+.o.R y.O...u.+.C o.+.l.u.=.! =.T D +.+.u.+.y.+.+.p.=.t.t.t.t.! -.W D ..R y.%.=.=.t.! =.y...=.t...! =.=.;.i.y.;.;.=.t.s.R ! +.=.R =.+.R =.T =.=.O.i.t.R ! =.i.+.b Y D Y | Y Y Q ..Y T R ! ! ! ! Y U : : l l m b b b D b b %.Y + 6 0 9 x F Z H A m A } H A ' &.A  .A B  . .A  .M z 7 m 8 z k z m z z m D l m z m l D 0 z m m m k 0 7 4 N m k z m z k n m z F z 0 0 m z m 7 9 & j k k k & k 9 z D j 4 j z N j j l 0 j 0 N 4 b N N b 9 b G D z D N R R Y t.c j j 4 b 4 : h...U R ! R R R ..l : * 0 ",
"l.+.T R T U ! ! Q W T U G T T ! Q R ! e.q.Y a.t.r.R +.=.=.=.;.r.! ! O.D 7 l R =.O.T T D O.u.r.r.q.t.q.q.T Y W T Y Y ..w.R ! q.! R U L W R i.s.t.Q U ! U N Y D B G i.b m M F A Z : - l m Z D U 7 w D 4 l D G N m * | j.| %.| %.i.R %.&.-.=.t.t.z.=.=...:.:.....i...;.o.=.:.X.X.&.X. .;...y...| X.T Y m Y L L } ..| } Y X...N k Y X.w.} ..} } | }  .} } w.} } } X.} X.} X.w.} } X.} } w.} } X.} w.W } } L W Y W Y N T R Y b T T U U , > l b U C b , D -.N T ..! ! ..T =.! R ! ! ! ! =.! ..=.U U | Q R =.+.o.R U +.o.=.R =.=.=.i.R R R o.=.=.o.R +.=.U o.R R ;.R ;.=.R Q t.=...o.t.C o.+.u.i.t.! =.H D ! ! i.+.=.d.! t.%.R i.t.R ! w...T =.=.' ' =.+.y.=.! ..} =.=.=.=.u.=.=.t.=.=.y.s.t.t.t.t.! t.+.u.u.=.=.=.=.=.=.=.R ! R ..=.W ! =...F Y ..U R R Y t...t...Y ! R N * , 0 l l Z b b b b j R R , 9 z l 0 l b N B M B m 0 m F M N N B j 4 N Y D Y b B D Y Y G N D D Y F D M D D B H Z F D D D M D D z Y N Z Z m } H B ` A H F ` A ` D B z = 6 l j z m D 0 j D l c L k m } F n N z B k z U D Y U z b Z N D T D D N Y L U p.b j x 4 K l & j...w.T W Y R Y } b : = 9 ",
"d.=.Q ! E T ! E U ! T t.u.i.i.t.y.s.B.M.s.j.d.i.W O.o.O.t.s.s.+.e.e.t.C C 0 T e.R u.=.R R +.e.! e.t.p.! W ! E U W W U q.w.! ! W U L W Y ..a.a.R Q ! T B R R D Y b T U b A A D z & 4 9 N M Y H 5 F b , l D D N b , F i.Y R H %.t.;.X.' :.=.s.+.d.=.....i...y.=.y...i.X.%... .Y -.....=.} v.=.=.=.....R Y L F | ..;.} } X.&.N N Y X.} X.} } ..} ..X.} | X.} ....w.} } } w.X.W L } } X.} X.} w.} } } } W W | w...Y b Y R Y D R U U b * 9 j U U U b 4 T ..D L R U Y T =.=.=.=.Q ! +.! ! R t.R ! D G R +.=.=.=.o.+.=.+.;.;.+.+.! =.! +.=.=.Y +.;.o.o.=...+.=.R R =.y.;.O.+.o.t.t.+.+.C +.u.;.i.T =.s.=.D =.F *.R %.+.T =.u.a.u.d.u.y.R } =.t.t.%.Y Y u.R R t.t.%.=.t.=.t.;.} =...R | =.t.i.t.t.! t.i.+.t.t.i.=.=.=.o.t.R R =.! =.R Y ! ! =.=.=...=.R ..! a.....! ..Y U D & , 9 b b b b D l D q ..' - 9 l b k D B } A B F R m D H F } D Z D N D F F G D m Y =.H } } Y D F } Z D Y D Y F H Y F Y A D F F B } R } } A D H } Y D B F H  .B D k = , l w b b H D z 9 b Y D L W Y Y N } N R G N Y B Y } Y Y D N b N F N Y L N c N q.l 4 x 9 x , & j.y.Y Y T T F ..F 4 , & j ",
"i.=.U ! T T R I ! ! Q s.v.=.=.t.=.i.d.a.j.d.a...+.+.+.u.t.+.e.r.r.+.U D 7 9 T e.Q t.u.t.R R t.! ! t.R =.R ! q.U L W U ..w.! q.T W T R ....s.t.w.u.! D H F B Z Y B  .-.D Z m A D O 0 k G U T R 9 D C 9 m D Y Y z O =.x.%.R o.%.;.;.;.;.-.;.y.| %.=.} =.-.=.=.Y | =.d.=.y.w.} ......-...y.:.y.;.-.} ..Y B L N Y } Y X.R w.-.L l B X.X...| X.X.X...w.} | ..X.| w.X...} w.} | ..W w.L X.w.} } } } w...} } q.L ..W } U T ..Y l U U P U O j l U b D N , U =.Y U ! T R R w.t.t.R t.=.t.t.t.t.=.U =.Y R t.=.T +.+.+.! T =.R =.o.=.! R T Y R d.T T =.=.+...R Q +.+.O.;.+.o.R r.r.+.=.+.=.T o.+.i.i.Y ! =.R Y ..' :.:.=.| } ..=.t.u.v.=.| ` | y.i.Q ..=.i.p.R H A R } =.s.=.| F =.=.=.=.=.=.y.=.t.t.t.=.=.=.! y.i.=.=.+.=.+.=.! ! =.t.| ..i.R } ....=.R ! ..t.=.;.=.y.R R R m , 9 , l D b b b D D l Y R - 9 4 D b m Y F F F F F H } Y F Y F m b B m m b N F U D Y Y H } Y | U F Y H F H Y Y Y A D H Y } } Y B Y T Y ..Z F Y } } A H ` Y } 0 , 4 k m D D D z Y Y 9 <.Y b Z N L k | Y R N L N N T m B } T L R U N Y U F D U L U l ! b , b x L x X k.y.T U T T R ..W 9 , = j ",
"..R T U T E ! T W e.Q ! T T R R R R Q R ! T ! ! t.+.t.t.i.s.;.t.=.! T D q 4 U +.=.! e.R +.u.p.! e.+.t.=...R ! W T ! ! ! T ..W R E E R t.i.t.s.t.t.R =.Y M m A B B Y R Z z 0 F z : , 7 z D t.+.3 Z b 4 k T Y N k , R g.R =.| Y =.;.=.=.j.z.%.H i.;.=.=.H =.i.t.R t.=.=.y.X.-.-.X.y.| =.j.;.} N B N b D z k n Y | F | X... .} a } X...X.X...X.w.w.-.X. . .&.&.-.f.} | ;.X...w.w.} } X.X.} } } X.X.X.....R | w...Y R N Y T P ! P b j - j k T U T z , G -.T R ..D W +.+.t.i.;.d.i.s.t.i.i.y.u.i.t.R O.R R R =.R +.=.;.o.i.+.y.s.+.z.d.y.l.=.;.+.l.u.i.u.;.u.i.o.t.y.O.i.+.+.t.o.%.T C o.+.i.z.t.%.=.D Q =.Y y.=.X.%.R t.i.i.i.t.;.&.| ;.i.=.R R ;.R R D =.| =.R =.R =.Y Y Z H D R R =.R | R R ! =.R ! R =.t.=.D Y y.y.=.=.! R R T R R R H Y R =...a.t.....! =.! ..R R D - 6 , b D b b l N U v %.| : j z D l z D Y Z N F M N D Y D A Y D Y Y B F Y D F D F R H G D Y B F D H H Y } Y Y R Y Z X.Y Z } F F Y F ..Y X.F F S } ` A Z A q : q F m Z D b z V b Y j  .c.N m Y N N | Y Y N F L Y F Y Y Y R N U U D U D D Y R T U U Q b j C , 0.b , -...! N U W U ! w.j 9 6 9 ",
"..R T N U T R T T +.+.+.T R ;.o.=.! ..+.! E ! t.R t.+.t.s.u.+.t.R ;.T G x 9 G R =.! ! Q T p.p.t.! R R =...R ! L R w.....! t.t.w.! w.! t.! t.i.=.+.Q =.R D F Z Z D Y x Y Z m G D O 6 j z m ! +.k Y b 4 b D G D z = H 3.R | H ;.-.=.%.| ;.n.V.b.g.c.b.3.b.v.v.v.V.d.g.j.v.3.f.h.c.3.h.g.g.2.b p , 9 9 , 4 4 F w...F X...} F c n w.h.h.h.f.f.h.G.3.h.f.:.f.h.c.f.b.f.g.h.v.a.v.g.f.X.h.f.X.L W | w...X...} } W U Y c N b c U T T U b : 9 l U U N c : U =.! ! =.! ! +.t.z.v.i.v.v.d.d.v.B.s.B.z.v.t.R Y o.%.o.=.+.H t.l.z.z.y.z.=.z.x.z.z.v.z.z.B.z.B.v.z.u.+.+.+.o.;.R =.e.Q +.+.O.G T r.y.;.t.=.u.=.R =.| =.=.R =.R R =.Y t.t.=.;.y.t.R =.=.;.=.&.%.=.R =.y.R Y =.Y  .F F =.Y H H | Y | =.%.F R %.R =.R | =.%.Y =.o.R +.! G =.=.=.R Y =.G R R =.a.R t.! ! =.....R =.T + , l j b C C b b U b | %.& , 9 m l k F F Z Y Y G l D Y F ' } D F H U B F N Y Y N D D F m H F Y X.} } | | H  .F } Y F Y Y F Y X.B F } Y U =.Y R | Z Z H - : 0 z G B D b l D w C R 9 D Y b m N N N | | Y D z Y m  .N N m Y Y U b U N Y Y G R U N W p.U x x 4 E x & } l b T T ! N T R b : 6 9 ",
"..R U a N T T T R +.t.Q :.=.R =.+.R Y %.T W q.! R =.t.;.+.y.+.+.o.R R D 7 x b | u.! T U +.t.s.p.t.t.t.=.! ! ! ! y.R R ..R w.! w...W t.! ! t.s.t.=.R -.=.T z Z n Z m 0 j H H U b & , 0 D m ..+.7 D N , 9 N D F l : H g.=.%.R Y =.;. .X.%.=.g.g.:.-.2.y.j.i.y.-.=.d.i.B.g.X.g.;.&.-.g.=.i.y.N j z l k z j b R  .} X.} X...Y k B X.X.2.g.2.g.w.X.f.X.y.2.f.y.f.y.-.-.i.i.s.d.d.-.f.w.w.w.} ..B } ..} ..R U Y R W W T Y Y D U U C U b - 9 l D U U N 9 N =.T ! R ! W R u.s.e.+.t.R e.! t.t.U R t.=.T +.Q ! Y =.+.+.R t.l.+.=.Y G R R ;.O.o.T R R R o.o.=.+.;.=.+.O.=.t.T =.+.+.o.R Q C O.+.;.i.R R i.+.G ....H +.U =.=...=.+.t.| y.%.=.u.=.R ;.%.%.;.y.y.=.u.i.! 1 o.R 3 G F z z Z m m R D M H 0 z t.z k F m b H %.t.;.o.t.=.R =.! t.! R | Y w.F t.t.D =.G R F ..R ..R D O j 9 k l D U C b T d | F O 9 l m z N R } Y M M m M M A A F F F B D H Z Y Y m m m H F H F U F F Y A F R Y H F D Y Y D G } D B | F H | Y Y F H H G D z : 9 k m D m U m m 0 D z D U 9 M F 7 b N U T D R Y D Y U F R L U Y H Z z N Y W Y b j & l T T t.b x b 4 W x ; ..N D ..W T T R R 9 : = x ",
"R T U N R b U N T +.e.T Q +.R +.=.! | +.R T p...G s.e.O.i.+.+.=.Y =.R C b 0 m G ! U ..U T U s.d.=.! e.=.=.R ! ! =.W R L ..Y ..T U T ! t.t.t.v.=.y.! ..R t.Y M n } Y 0 M z b Y N , , 7 D m Y R 9 b T 7 k z G m b & G x.R ' D | R | ..R =.y.%.=.%..... .T =.=...! t.R } -.....y.....! ..! =.R ..! ..R ..Y } ..R ! Y | X.....} W } Y } X.X.} | ..X.| ........X. .Y | ..=.t.! ! ! ..W } } W } w.} w...=...b } R R W ..W T Y z , , D b * : j D U N k , Y ;.Y R Q ! R +.u.+.T Q t.Q +.=.! ! ! T R R U T +.R G o.o.o.R t.=.R t.=.! T U D R ! o.Q D T +.o.o.R T b O.e.+.t.e.;.O.y.+.=.+.D t.u.=.y.=...=.R U Q ! %.%.H R t...} R ! =.| =.u.=.;.y.R H d.u.=.u.s.t.u.U + Z S X D F O 7 w O 0 Y + O F & - S 7 & D Z , 0 ' | t.t.+.=...=.=.Q ! R ..R F D R R N =.R Y B Y } ..=.Y O , , D D T C D N b 6 D M & + = O : - 7 N , * - - O 2 - * & 0 7 : 4 @ 2 0 j 7 4 , & - - : 2 q 0 - - 7 - @ - - j 7 : w - + * 2 0 & - @ + & 2 2 7 : & * * O & : , : , - & & * O - 6 & & : = , & & * 9 9 + * , : d 0 j , : k - - 4 j j , , k } m B n 0.l j T x L j 4 Y R D ..R } R R F l & , 9 ",
"..Y c B T G D =.R +.+.R T Q R +.R o.| =.! ! e.e.e.+.e.=.t.t.d.t.y.=.Q T 9 j z c k F p.+.e.! ! t.+.d.y.=.t.R ! t.! ..Y ..R R W ! T t...! +.d.i.=.T U Y R ! U m T | Y D D Z z m k : 4 0 Y D R =.7 Z U 4 , z b m l : A b.;.%.R | | | ..=.%.| X.} | ;...| i.t.=.=.;.R ! | ;.| ..X.X.......t.R =.=.d.s.| ..} } =.| | X. . ...| } } w.X.X.} | f.| w.X.w.X.w.w.X.X.2.X.| ! ....=.! =.Y Y R ..Y Y ..} W | | w.N ! Y T | Y W T ..N B b U l , , k N l N z ; N -.U Y R ! Y Q =.=.R R +.+.+.+.Q R Q =.R Q R D R +.Y T =.G R y.u.t.T T w.! ! T +.R Q R R +.o.;.o.G R C | T T +.=.+.t.;.+.=.+.U R +.y.=.o.=.t.U b t.! y.o.| ! Y F R =.=.+.=.+.o.;.=.R %.;.=.=.| =.y.t.s.T + B G O 8 D O 7 F - 2 F 2 - A 0 O o.m - R S & w ' =.=.t.=.! Y ! ..! ! F N R Y R B F ..t...t...R }  .=.Y : , 9 l l b b Y l b j z 5 X.b.j.k.k.j.k.k.k.k.k.g.g.h.g.x.b.b.b.b.j.j.b.g.c.b.c.J.n.c.h.L.b.h.b.U.Z.b.v.b.x.b.n.b.c.v.f.b.h.J.h.n.n.b.b.c.x.K.b.n.n.x.c.n.g.2.4.6.G.K.c.h.f.f.f.h.3.4.k.g.b.c.h.f.f.g.y.b.f.g.f.g.g.j.h.h.j.f.j.h.k.j.B 8 :.g.& D e.D : b j P l & R H b ....R ! R U j > 4 , ",
"..H j N T Y D U Y R %.R D R S %.R F +.R +.p.! ! =.e.+.u.=.t.+.=.;.=.R b l 7 D l G U c W e.p.t.Q O.y.+.t.t.=.=.! ! R | R Y ....W t.a.d.d.t.i.y.=.+.=.y.;.F Z  .=.| ..T b D U G N 4 4 l D D Q ! , D b j j D D D Z : ' c.%.=.%.F ;.| %.=.Y ;.Y ..&.=.....;.=.=.! Y | =.;.| w...W X.} X.a.t.! y.=.i.=.y.| ..Y } } Y ....-.} X.X.X.} X.| X...X.w...X.X.w.} X.X.X.=.-.=...t.R =.! R | =...| | | ..W } ......n } R T F Y } U D U T ! ! l : 9 l b N N N , N &.Y U D T T T ! R +.Q e.! t.R +.Q =.! ! R C T T T R =.! +.o.o.i.O.o.N T ! +.u.Y +.R Q T U D R R +.U D U R =.Q U t.=.e.r.+.t.U +.+.=.z.Y %.! Y D =.=.y.=.y.R -.Y R o.O.H +.;.+.t.=.=.Y ..H ;.R ! =.=.s.;.! ..R H | F | H m F H D %.%.| R y.R R =.R R o.o.R =.=.Y +.| R w.R ..R U D Y F D N Y T ..R ! ....Y Y =.b & : 9 b l N D b z l , 7 k.P.b.b.h.k.g.k.k.k.k.g.L.g.v.b.V.b.V.j.j.v.b.j.V.k.b.b.c.h.n.c.h.b.h.n.v.v.v.b.b.c.b.x.v.h.b.h.x.b.c.n.c.b.n.P.c.c.P.b.c.h.v.c.h.g.3.h.h.c.P.n.h.J.3.f.2.4.h.3.g.h.c.J.k.k.g.g.g.:.f.j.i.f.y.v.j.v.V.j.b.k.j.i.N 7 Z d b W l : b j q.j : } D D R R ..! t.! j 4 : j ",
"y.Y z D U +.R R | | =.R =.R G ! Q ;.H Y ! u.Q =.T +.R +.y.=.=.t.o.d.;.H m l U c U R 4 ! r.p.+.t.e.y.+.=.=.! t.! =.Y X.Y | ..R i.v.A.N.v.v.v.t.=.o.v.F.i.:.` ....l.=.! U b U U D = j 9 Z V =.Q 7 U 7 : j C z M m & F 3.R =.=.| R ..X.%.=.=.%.;.=.=.......| =.=.F ..Y R X.Y } X.X.X.&.a.+.! | | =.R ..w.|  ...X.} } X.| ....w.} ..w.X.} w.X.| w.} X...} w.-...Y &.=.=.t.=.=...Y ....W w.Y } ..} -.......W Y } R W ..T R L b ! U e.C = 4 z N l N l , N ..L U D W Y =.t.+.E ! W ! Q =.! Q ! ! ! T U T =.R =.R R +.=.R T R o.o.G ! =.;.o.R ..U D W Q R o.o.D b R +.! O.! =.! t.Q u.e.b t.u.u.t.Y %.t.! H t.=.=.=.R =.=.R =.=.R Z y.t.y.t.R | ! =.=.=.R ..y.a.u.R Y =.u Y Y 0 } Y z } } m =.Y B U t.T D =.Y D %.Y Y T y.+.t.} R t.Y R ..T ....N F F R T ..! R ..U Y U Y Y * 6 2 l b b b b N j & i.U.-.B N D D N N k n N b D N b F D Y b R U U D G G F F Y N Z m N M N D F D D R %.G F H H m F Z F F m Y H H H Z R Y F m A N D G N G U D z N D F B F F Z m z Y M F N U N N N L c U N R n U Y c l U D B N D N c N ....b q l b 0.C : l C T j ; X.N D ..U W ..! T 9 = 9 : ",
"-.} m N F =.R H %.Y =.! t.i.t.e.y.| =.+.! +.=.R +.t.R +.t.t.+.+.=.=.Y F 9 7 ! U l R ! e.! i.! t.y.t.+.t.! =.! ..| =.| R Y ..t.d.t.q.q.U Y ..R ..=.;.H Y R T b B z N N N D G D 5 : q w b m U +., b D - , 0 b m G = F :.Y } H =.=.Y } ;.R =.;.....Y ..=.&...-.| t.R ..w.....| =.w.-.=...R Y ..X.y.....y.} ....X...| X.y.X.} } } ..X.w.X.X.X.w.X.X.| | } w.| X.} ..t...y.t.=.X.} Y w.a.} } } R ....} ..Y } ..| R Y ..W Y Y b U T E v & 9 0 b U N N , B ..Y U U F Y =.Q C b v b b b b b G U D l C b D R +.+.+.R R =.+.R C l C b z z C b C l k l b l b Z b l l Y O.G o.o.=.u.R +.t.Q b T R ;.;.+.R R R U %.=.=.=.=.! =.%.=.t.+.R u.t.Q t.%.F ! t.=.u.=.H ! d.u.R D Y Y M D m ' F G m D 0 Y ..R R R S Y %.o.R o.R =.R o.t.Y U U ! Y ! R R N R Y ........q.W t.! R ..N R T O , 9 b b b b N l j 7 h.;.F R } ' Y Y N m Y F Y R T ..R R U Y =.Y F %.=.Y | F F Y | F ..R R | ;.G R | | } ' %.| H ' Y H | F ` } %.=.A %.H Y F H F X.H ..Y R H }  .} } Y ` } } F Y } F D ..} ..R Y Y T E R } N R R F U } | D Y N Y T T R R 9 9 c b u.C , D j Q l & X.D U R ....R ! ! b : 9 - ",
"' A b m D =.=.R U =.t.t.! t.t.p.e.! W Y ! +.H j j T Q Y Y =.t.+.T R R H G l R e.W U r.q.! =.=.t.t.u.=.=...! ! W T ......! y.R y.=.! a.R T U D =.=.Y U N z Y ..N l z B B N B b z , 4 9 l D Y D 6 C D , , l N Y 9 * | x.} Y } Y ..F } | R R =.| =.i...=..... .X.} ..-.=...Y } } | :.X.X.X.Y | | | ....W } } } ..} w.X.X.X. .| | | X.} y.} X.} w.} | | w.| } F  .=.} t.=...R  ...} | ....W y.R =.=.X...w.Y B W W Y ! F ! R U +.R Q b : l l L N U j > Y =.N D R Y T T R z + - - & 9 = = + * 6 : - 0 R +.R R e.R =.+.;.C 6 O O & = 6 * - O ; 6 & = % = & & O V =.i.Q t.o.+.+.=.! R +.D R Q s.s.t.R F b Z R R %.Q t.R =.=.D ..t.+.t.t.=.R %.} R Y ! R R } ..w.=.! b Y F w D F Z F Y z N M w Z Y F D R G H %.R t H ;.=.=.T Z ..R U Y R Y U Y T t.F ..R ! W ! W Y T R Y %.D & : , 9 l b b z j , k X.F F } F m } N N Y Y U F R U ! R Y R R R F R | H Y =.Y m Y Z Y R R =.G R =.=.R Y  .=.| Y =.H F A H F H Y Y Y Y =.Y | H } } Y =.} X.| } } X. .Y H } X.} R Y } } D Y } U R ..Z } D U Y Y H R Y N ..T N R T T b U R D 9 : l 9 T x 7 c x Q x : -.R L } ! T U Q =.b + , ; ",
"%.F m N b p.U :. .=.! =.! e.=.! t.+.+.! Q U & : b , G +.+.! ! R U R R =.F Y W t.W T U ! t.t.Q t.=.Q R s.! ..q.! t.s.! t.! t...t.t.! R W } L B ..| Y D B m n B N N T N N F Z G m : j 0 k m m D j V 0 j j D ..R k = M >.} A ..Y Y H Y =...;.=.R ..=.=.} Y } ......=...} =.} ..R X.-.X.X.w.} y.w.W Y w.} Y } X.W X.} } } w.| | Y } } X.X.| | X.| | } | | Y ..X.} y.y.;...R ..R =...w.w...! } W } ....} } ..W X.Y W Y U R b C ! ! W C : l z U N N z , N | N N T T T Q U U U b C P U D b b C b D T +.=.+.+.+.Y Y +.y.Q D U U b b b U D T U C 7 b c b C D C Y :.+.o.=.+.+.=.+.+.Q +.y.D Q +.y.=.+.+.R H T d.R o.+.=.t.! =.! =.+.R Q t.%.=.;.=...y.R R s...t.s.t.! - Z m & m F - 8 m & 0 F O - Y & & ! , - F l O b =.+.! t...R e.R U G ..T ..w.Y R ..R ....! T U U D Y D Z : , , j l c N l l 4 j f.D Y } Y Y F Y N N Y Y R T R } T Y Y ! Y R %.H U | } Y B F | R | Y Y R R } | =.| ' %.| | H R F H  .%.H ..M | | Y R } G Y Y =.| U Y | } Y ' } ` } Y =. .F Y Y T R ..} } } } Y Y ..Y ..Y R F Y Y R Y T ! ! ..D D M D j : 9 l T l j l 9 ! j =  ...D ..R ! R R T j : 6 , ",
"%.A M M N N b } ;.=.t.R R t...=.F R ! u.y.C q H b.v., Y T U T ! R R ! ! Y T T ! C b e.! ! R ! t.t.e.! t.! w.q.t.! t.! q...! ! R ! w.t.R | R D R ;.G D z m } n N l N Y } R ! G D * 9 0 N m R T j C U 6 , m Y H l & F <.Y X.Y X.R R Y | ;.y...| =.....Y ..=.R } -...R y.=...} X...X. .y.X.X.w...| | Y ....Y } ..} ..} ..| w.f...} | } | } } ..X.R ....} ....} | ..t.! t.! R ..W ! ..R ..! ! W ..W } ..w...B ..W Y R ! R D R R U +.D : a z N D z b d D ..U R U R T R Q R =.+.t.+.! Q t.t.O.+.+.R =.=.+.+.y.+.U ! t.=.G ! =.+.R =.=.+.+.R +.+.+.! R ;.t.+.=.y.+.+.%.R i.=.t.D =.+.Q D T +.d.=.R =.T Q U R T r.y.Q t...! t.t.=.R T d.+.R H R | t.Q ..=.=.=.s.=.Y & 0 S o w M - 0 B . 7 Y - - Y - - %.9 - H G O l i.R ..} =.a.! =.! R R R ..T R ....R E ! R Y R U N F F w & : : x D j U l j , n 2.Y Y Y R F Y R Y R L R Y B Y U F c Y U R Y } Y =.R ..Y F H Y ..R R Y ;.} Y %.R -.| | S  .%.R F H =.&.F } R =.Y ..R G | } } | :.R R %.%.H `  .F  .H Y R Y } R } R ..Y =...Y Y H | H } Y F Y X.R U R N U T U N N D U 9 , j l ! k , b q E p = ;.R U R t.Y R =.+.l , = , ",
"j.H z M F R X.H =.t.t.t.! w.t.+.F | =.+.+.z.G x.&.=.j ! T R T Y Q t.U Q =.p.! ! ! W T U T t.T ! t.t.=.t.e...R q.t...! ..R R ! a.! ! ! ..} U G Y =...N B R L n m k n A Y R D D Y * 4 z D B R +.4 G C 6 j B R H z > A &.' ' Z S | ;.| =.R =.! R R =.=.:.=.=.=.=...R } ..X.Y ..| X.| | X.X.2.-.X.a.-.y.:.X.w.} X.......R X.f.i.F } } R | } X...........R  .Y } R ..=.=.! ! ..R ! ..t.! =.=...! ! R w.W Y | Y } | | ! U T R U y.! e.U : 4 l U Y N 0 > F  .U U ..Y T R D Q +.+.! +.! +.R R =.o.+.=.l.d.+.=.=.R Y i.=.+.Y =.+.+.+.;.t.R o.p.! T Q T +.R =.;.=.;.t.+.;.o.;.;.=.t.+.R G D U Y =.%.o.=.t.Q U R +.y.=.R Y =.R R t.R +.e.d.T F =.y.+.t.t...=.t.t.t.;.Y ;.D A D Y M m N  .Y ! Y z B H F Y A F F Y Y U F ....t...=.=.| R Q =.=.R T ! =.| ..W Y U R T T Y N N D N = , 7 l j l z L z > 0 &.N Y F R F =...R B Y } F L F B R ..R F R H R | | R Y Y } } Y R %.%.=.%.=.%.;.R %.H | R =.%.%.H Y A Y } F H | U ....+.} H H Y ' Y ' H X. .X.&.} &.=...........D } } Y } y.=.Y } Y ! t.y.| } | ..N D N N ....W b Y N k , j z T x , l 9 U j : Y Y Y R U ! =.R +.b = , , ",
"i.| N } R %.| =.R =.o.u.=.w.e.! +.! t.y.Q T.z.w H D Q =.! U R T t.! R ! p.d.! e.Q t...L U ..R t.t.R w.R W Y T ..! s.e.t...R T ..=.Y =.X.Y G Z Y X.| T R Y F H m 0 n ` A F Y D G : j k N y R t.7 R T j l R H Z b = Y <.H H A F H %.} H | o.R ..R =.!  .X...X.-.w.F w.} } } W ..| } ..W } X.:.f.h.f.:.3.i.i...-.} } ....&.g.i. .A Y H H } } R | } B ..Y R | Y } Y ..R R ! ..R F ! ! t.=.t.! ! ..| ..} Y R Y Y R T R R R R U U T ! C : 9 k U Y z l > B =.D N D N T U D U T O.R +.T T =.R t.O.R y.y.y.R +.R +.=.o.=.R Z =.i.=.t.T t.R =.t.+.O.G o.+.R =.=.o.d.y.;.=.=.;.t.o.y.t.Q O.Y D R =.i.+.=.%.o.T +.R l.=.R R =.=.+.Y =.=.o.y.=.=.=.t.t.y.=.! =.t.=.=.t.=.=.F m ;.Y z  ...Z ..t.R ` H F t.=.X.A ;.F ......=...+.t.;.=.=.R =.! =.w.R R Y H R %.R Y Z Y U D L L U z : - j z l l N z 9 : k f.B B Y F ..t.a.y.H Y N R m Y F m U R Y Y Y } R -.i.y.-.&.Y =.Y =.i.v.v.i.x.v.z.y.H H Y F H R X.} | } | F H R | ..=.Y Y } F A c.x.:.b.:.3.g.:.&.b.V.j.j.i.v.:.&.B.y.:.=.t.=..... .i.j.i...j.i. .&.=.t.R R ..R F T Y 0 9 9 l ! j j k 5 T l = F b D ! R T ! R R j , a : ",
"-.X.T T Y +.Y =.R +...=.T ! +.p.+.p.=.+.+.t.T.N.Q s.t.t.R N ! t.T R T p.e.t.t.p.! ! t.! w.T ! q.! ....T T w.R t.w.! =.t.q...t.t.=...R ..} Y Y %.j.j.;.=.R Y u | k n } Z F Y F B - j N m A =.Q k R U j l H S | m 4 %.3.H H m H Y Y =.R =.t.=...y.;.} R ..} } w.....} } ....} B | ......| y.} -.Y ..} } &.y.| X.X.%.} ;.%.g...Y Y %.%.| X...R | %.=.t.=...| =.=.| ..t.y.} | ..R X.T ..t.R ..W R W ....Y L T ..T T T T W Y j j b W b , q l U N Y z : D f.U N U Y U ! ! T R R Q Q +.T +.t.t.o.o.=.;.D Y +.G R ! +.+.U G =.=.+.+.o.t.u.O.r.t.=.O.R R R o.+.=.;.%.=.o.R y.+.O.=.u.+.Q D Y T y.s.+.=.R G R O.=.y.;.o.=.| Y R Y H =.r.y.=.e.+.y.y.+.t.t...t.=.t.=. .Y | F =.H H =.=.B i.y.} &.} Y =.=.-. .%...| ..R t.t.=.Y Y | ! ..Y G ..R ! R R X.%.Y Z =.Y N b b U Y Y D & , l j N b l b j % l j.Y G R D .. .Y | F D Y Y N R Y W } R Y  .Y R Y y.;.y.%.;.....=.;.:.t.i.i.:.t.d.=.Y | | }  . .H A Y Y =.R =.| R =.} ` Y ..Y y.g.i.:.-.2.=.:.:.&.-.;.-.y.&.:.y.%.=.=.;.d...y.=.y...X.Y .. .y.} X. .....R U W | Y W N j 9 j z Q j j l 5 q.b & %.Y D ! R T U T T N , 9 : ",
"&. .b G o.u.=.t.Q +.p.! | a.+.! u.t.+.Q =.Y R z.s.=.! ! U T Q T U T T R ! ! e.q.t.! t.R t.U U ! t.T t.T t.W q.T T ! =.R ! t.t.! ! R Y H F G Y | j.y.H | R Y ' Y N m D F R Y R Y , 0 z B M i.e.1 R O.l b R | H D , R x.D Y | R Y =.Y R =.R } =...R R y...}  .| } } W W  ...X.Y ..F Y Y X.g.Y | =.! Y X.Y B B  ...X.=.| &.X.D N D =.R H ;.-.=.;.Y =.=.=...=.! | Y | ..R ..w...| W R ..a...t.W W ..N Y F R Y Y T W U z D b v b ! ! b & 9 b N U N z = G :.! D U U b Y R F R =.G T W U Q +.Q R e.=.y.R R +.U Q R ;.+.+.=.y.Q o.+.=.t.t.D o.+.y.R R G R ! R o.=.=.o.=.%.t.o.=.H R +.R b T o.=.;.R T ! D l T =.=.y.Y +.Y } | i.| } y.%.=.o.=.%.R e.R | R } i.y...y.y.t.%.=.p.i.R Y ;.i.T } ..R F ....:.R ..t.a...=.! t.=.i.| R ..R Y =.Y R W R Y Y V b b U B U ..N D T ! D O , , c c b b l j > N j.N F Y N T Y Y N D R W F } U Y Y U Y =.} T W ....T } Y N Y ..=.:.+.U =.=...R T D Z Y ..;.H ..R } =.Y =.| =.| F Y } | X.-.;.i.| %.%.X...R Z ..R R :.} } =.Y Y Y Y Y ..R R y.X.| =.Y F R R Y D B Y U U Y Y Y ..Y D D b & k 0 0.l 4 z 4 ! b + ;.=.b ! U W T R R b , j : ",
"x.| D b D T D Y =.+.D D =.+.! T Q =.t.Q =.R R Y D T +.W q.t.! W t.! D ! t.+.p.N W ! W W T ..q.! Y R F D U b j & v U ..a.q...=.! =.! X.D D R m m =.a.R | G %.} | N N A R } } Z Y , j N D A ;.y.8 A R j w b F | m O =.x.F R R +.%...T R } Y Y } ..=.;.X.X.B W  .} | X.B Y W ..| } W Y } y.y.} } F } H } F N Y ....%.=.| X.%.F k Y ;.R =.%.=.%.+.t.! =.R R =.Y R =.R } T R R X.......=.j.w...W ..W } Y Y Y ..N U T U N Y T b D W ! j & 9 9 U z N l : k } Y R U B U N U T U R U U U D R R =.O.+.R ;.+.=.R =.Y =.T R T y.o.y.o.+.T R R %.O.T +.Y +.O.R %.F ;.;.i.o.=.=.;.o.+.+.+.Y o.T R o.=.R =.R R T D E Q y.=.R o.R H Y ..F Y =.%.H t.Q +.R =.=.R Y ..d...=.=.d.s.R T t.=.| =...;...| } ..&...;.i.t.;.i.y.=.=.R ..Y =.| | R U U U R ....R D 6 - O * M D Y } N U U R U & 6 4 l N b b l l , j h.R R F F Y R Y N j U R R R R Y R F Y | Y ..! R ! N U F D D R =.! R R } R R R C l C %.R  .| ..R =.| | Y X.=.| } ..%.%...R &.=.=.=.%.=.Y } F Y R | =.Y ;.=...| } =.Y R G | | Y =.%.' F } ..T R T H T U N Y Y W R Y F j 9 9 l ! b z N 4 R j : ;.Y U ..G U ! T Y 0 , , , ",
":.=...F G B F D U Y Y =.u.p.+.%.D Y Q ..+.%.R Y o.;.+.Q +.t.e.t.q.t.t.t.t.t.u.e.t.! q.! W W t...Y m j 9 l ! U j 4 +.! =...R ..=.t.+.;.=.=.Y b Y =.y.=.R Y =.%.F C m Y Y R =. .Y : , b D %.=.d.t R Z 0 b | Y F b 6 | :.H F R U =.} W E t.| } w.| -...X.&.....B ..X.X.w.f...| } ..T =...=.i.Y =.%.} Y %.} l B R } X.%.Y -.X.H D D | &.| | R Y =.R | | ..R =.R +.T R R R ..Y | w.W ..| ..t.w.R R W ..W W ..L Y W N U N Y N U T T T N O 9 z N l D b , F :.R T U N T C D T R Y Q ! +.U Y T +.R R +.%.+.+.R R R =.o.Y o.R o.R R =.o.o.o.Q +.=.R T T R Y R R i.=.T R R =.R G Y =.+.Y D V F D =.t.! T Y R U +.R =.+.o.%.%.} G Y =.=.R | %.t.=.u.=.+.R ;.;.=.u...=.d.=...=.y.Q ..;.;...=.X.%.;.| ..&.=.i.=.X.;.=.| | R R R Y &.Y N ..w.Y R T R Y b : 8 :.b.O b D D N R D b U & , 4 l l l c l j > q -.R R N Y F D D b b Y H Z R N T R %.=.! R =.! T ..Y W R b Y } Y :.+.D y...Y U U b G =.Y ..H ....R Y } | =.=.| ..X.-.-.R =.=.i.=.i.y...R | } } -.R =.Y Y } ..| ......F Y Y -.R Y `  .D ..Y U T T } R b N B | ..R R U z 9 9 9 U b 0 N l W b > -.Y U =.Q T ! R R j , , : ",
"#. .N R t.U G Y H +.=.Q t.p.s.R U N ! t.=.O.+.R i.t.t.+.+.R e.p...t...=.Q p.p.+.! W W w.R Y t.} D 9 & 9 D t.t.j , R Y =.R R u.i.R R ....=.o.=.i.y.=.t.Y ! Y G M b N Y F B F H .., 0 N D =.i.O.0 G Y b V H ..R G & | <.A F ..R } ..R L R ..| w.......-.......} ..Y | } ..| Y w.w.Y ..i.%.i.:.;.} ;.t.R Y U N Y ` X.R %.:...D l F | =.R R =.R ! Y W w...Y R +.=.T =.R R W ......| ......} ..} R ..W Y Y R W | R N Y Y U L l R N Y l , 9 b b D N z : Y y.b N T L N D U U D D O.R U G G ! ! R +.Y d.=.U R T Q R =...+.Y R %.;.Y T R =.R b =.Y G R R R R t.R o.H ..G +.R R +.o.D O.R j R R ! t.U R R D C t.! i.+.o.R Y B Y F H =.=.Y Y =.! o.%.=.%.R  .Y =.y.:.y.} ..=.=.i.! } Y a.=.H &.| R =.&. .=.X...y.....| R R ..! =.H } N N | R R T U Y k -.} g.j D R Y N U Y T N O , , 4 b b z k j > 0 -.Y } R F Y B T Y l Y Y Y | Y T R R %.=.y.R ....R R | Y D N R =.R Y U R T ! ..U U N R =.} ..R -.Y } } | | X.| =.Y =.;.=.=.i.y.} ..R } Y Y Y R Y L | B Z Y F =.=.y.=.R N R =.R Y ..-.%.R U F W ..| Y D B W | Y G Y F l 6 j l R b b U l W b = X.Y U R Q T U R R x & , 9 ",
"3.` N U Y Y U t.R W Q +.+.! =.R R T ! +.=.+.T R t.e.+.R R H +.=.=.y.y.R =.+.t.t.! E Y W T t.! ! 9 , 6 U Q Q r.x , R R U G =.y.y.R Y | +.D +.%.g.n.d.=.R R Y z z b k m m B z m D , k b G R t.y.z U =.l z A ` Y D - %.g.H Y } Y ;.=.R Y ..W } | w.Y X. .R ..w.| L | w.Y } ....y.-.i...=.=.y.=...R | =.R F D Y | =.-.} | =.=.m 4 D G | =.Y R ! D R ..W Y Y =.t.R ! Y Y N W L W R R R ....-.W .. .R ..W W T E W Y R T Y U N b T T U j : : c b U b l : F i.R Y U T U N U T U U W U R U U G Y R T +.=.=.R Y +.+.R R O.R D R R o.;.H R T U U C T R R R +.=.R y.=.R R | =.! Y =.+.U =.R l D | ..Y U T =.G C +.Q =.Y Y R } ! Y R o.Y R D ! t.=.! +.Y R } ....R =.=.y.=.=.y.=...! =...=...=.H | =.;.X.| =.| R ..i.%.} R H ....;.X...Y R Y T U Y W =.i.' A N D +.U U N D Y R b & - 4 l N N b j 4 > 4 f.R R F B F Y R N j L Y R Y Y =.R R R =.=.....} =.D F Y b m ! R t.+.U Y R ..} Y c b D R | F Y } } R -.} %.} R R } =. ...a.=.} l j 9 x 4 a l a p , , , 0 4 x R Y ..=.R D Y Y ..} | R Y D U ....U N W b l R Y | T Y Y k : j k q.j l N j E j & | F U =.G N U U U l : 9 : ",
"i.F B F k A R R U Q ! Q T =.=.+.t.Q ! Q Q W V T R W D U R =.=.+.o.;.d.R +...R w.! W q.t.! R q.T : > D =.s.+.! ! ! i.Q Q T +.r.t.=.Y =.R R =.=.| ..| Y ..H R F D m j m 0 0 N U D , k N N D t.=.4 U G l m t ' R Z : R f.D H =.| %.} N W Y | W | | ..y.y.t...X.w.} w...| W y.....t.....R | =.&...R R | ..R U B Y %.R X.| &.;.D 9 m } =.| %.} N ..F W W R ! R R Y D R Y Y Y ..R R ..T T ..y.W w.! ..w.....W U Y ! ..T W R N U N U U b : j l D b U b : ..y.R W U U T U T C U R R R R T ! D T T Y Y +.R +.+.+.U y.T U U D H ;.=.+.U Y T G Y Y G U R Q G R D R y.Y Y =.T T Y T Q R R U l =.G =.+.R U ! T b U !  .D G R ..T G G U R =.! p.t.R t.=.%.R | R } =.t.t.t.R +.t.R ! ! ! u.=.a.;.} %.=.i.} | } &.=.t.t.=.t.Y R =. .=.Y X.w.R B U Y R Y ..F.O.q l Y F G N Y U U F l - , k k N b l k 0 , 0  .B D F F  .Y } N - z R U =.R R Y R R R ......} ;.Y F Y b Y R i.=.R Y Y Y D F F l D =.! | | } Y ....&.| ;.} ..=.Y =.t.! =.;.} b x j 4 a l j j 4 k k c j , D ! R R ;.| Y Y } Y ....Q Y F T Y R W ..y.b N R ..| R T F l 9 j N p.D k U x ! j , ;.Y T } Y z Y R b x , 9 , ",
"f.| F m t ` Z F R ! Q +.t.t.Y } G ! =.u.e.u.+.E Q +.R G R %.:.=.t.Y a.=.+.! U ..! W W q.t.! ! D , > U ! p.! U U t.+.u.t.T t.=.d.=.+.=.t.=.=.=.=.%.R H m t G %.Y l 0 m N R Y T U - , N N R w.! 4 D D j z M A N z : R h.R =.' %.y.=.F R =.| Y | Y R } =.y.....| ..w.-.=...y.t.R R R ..T ..t.Y Y } | R %.R D Y -...X...| X.R Y Z ..-.a.=.=.=...! Y R =.t.i.a.X.y.i.=.i.y.a.-.d.i.t...y...w.W Y ..U ..R ....W ! ! U R Y R L D U N L l : l j b L U b : N =.N R R D U b b W U =.R U U U Q D T T R R =.+.U +.Y +.D T Y R N Y Y =.R U R ..T R R G H Y U T R t.R ..Y N z ! ! z b R R T T T R R ! ! ! W U Z U R G R T Y T R Y F R T w.t.w.W ! =.t.u.! t.=...R ..t.t.R R R t.R ........R a.a.t.Y H } X.A  .=. .=.=.=.i.=...| =.| | R %.R L L Y Y R U R i.T R D Y } N U U z H b : : 0 j k b D k 0 : l } B | T Y R Y ! U : a Y W W ..! Y ..=.+.R Y =.X.;.F R Y N m X.X.| G U Y Y y.=.G b R y.Q Y ..R ..R } } &.:.F } | R ..=...t...y...} =.R R R | R X...} R =.} i.=.t...y.W D Y R } } w.Y =.w.....Y Y Y N N N R ..} R Y R k 9 j z U b b b x Q x - %.Y b N H m N R Y 4 , , , ",
"y.X.F Y H Y Z Y U ! ! R R ! F Y ..=.| =.t.=.u.e.R =.+.+.Q s.d.! ! R t.=.R T R t.t...w.W ! +.+.b 4 & U W q.U , : =.=.R =.! t.=.i.R =.R R | =...=.=.;.Y D D Y | D R D k F R N N N 4 a N T F t.t.b Y b - z Y } Y D , } i.t.R | =.%.=.Y R ..| D } ..! ..i. .} Y } w...X...N } R B ..-...X. .:. .` F | =.R U N U  .} } } | %.%.H =.x.S.f.j.b.d.=.} ......;.s.j.j.k.S.V.B.j.d.g.V.B.d.B.i.i...W W W ! ..=.w.! R ! W E W U Y Y N T D T l 4 , 4 b K c b : Y g.D N D D T C U ! P ! P R U R U U ! R U T u.=.+.Q ! R =.+.Y D N %...Y o.G R U C R D R R +.! R =.T T R W T U T R D U U U T U U U U T U T ! ! b U +.+.T T B ..Y T R ..U ! t...! ! ! Y } R R =.t.=.! s.! ! t...! t.a.R ..T t.t.i.=.;.%... .:.-.&.R } t.;.y...R Y ..} | | H ..R N T D R Y Y F R b F Y N N R D B F m : , - 7 D b l z 0 : 4  .F B } | | Y Y b 4 x R ..Y y...R R ..R Y } %.:.=.D } M k M R =.=.U =.R Y =.R ! b T R =...=.y...&.=.| -.| Y Y } ..X.Y ......-...=.R ....=.%.=.=.=...-.t.a.j...Y } } R U T } Y ..} H =...L ....L T Y Y N L W ..Y R N a 7 b b ! b 6 b c +.l = =.R N T N b U T U j : , : ",
"i.A D G D } R Y R b R +.+.R R H t.=.H =.e.=.=.t.=.Q +.e.r.s.y.=.! t.t.R R T ! ! ! w.t.q.e.e.t.P , = ! t.R b , & T ! R Y R t.u.t.=.G Y } Y =.| | | %.%.=.=.=.R m R B H | H M B z 4 a m T Y y.! b R D b m A } R N : | g.R R R o.=.R T T U F D | ..w.R y.} | w.} | } =.R ....y.-.a...R } F } B Y Y | Y | R Y n ..H | } =.=.y.=.Y F B W N F F N N R } ..=.Y ..Y Y } ..Y } T G } R =.U Y U T T L W w.! T ..W W T R ! t.U W ! Y R U U k * 4 b U b U l : G f.U U N D U C U U U U R R T Q +.Y U R D R =.=.+.e.C D T R m G G H R G R R G R R G Y D +.R =...=.R R ..Y R U D U ! ! N R T U ! ! D Y T E D ! W +.! T ! W U D D R Y Y T R t.! ! ! R R ;...D | =.s.=.=.! r.e.! t.t.! ..R Y ..t.t.......y... .' | ` t.| | ;...Y ..| D } H =.R } m ..G D Y Y D F N T U Y N Y D b 0 N = , j b m U U z j : k 2.H B Z Y | Y R Y a l R R W Y ..Y ....R ..F F X.&.R ..Y l G =.t.t.Y Y %.Y Y ;.| c F =.=...! ! =.| } Y -.;.} Y R i.-.R t...Y ..X.....Y =.} =.y.=.-.=...=.t.i...T Y Y T k N =. ...Y Y | Y W ..Y ..R R D N Y ..R U L Y 4 , 9 D r.b j l j E l : -...N N D M R T U l 9 : , ",
"i.=.U T D F F R G b | t.Q =.t.+.Y =.| A =.! Q =.o.! t.e.! z.u.t.p.s.! ! t.w.t.Y W q.t.t.t.! W N 4 : T ..t.N : j U | Y ..! =.t.=.o.+.=.=...Y Y =.=.} R Y } -.;.R U R } } n Y R N & j l N B T T 0 R N 7 k `  .} b , } b.=.+.=.;.o.=.U b R Y D ..! R R a.Y } X.| w.y.y.Y y.y.;. .=.......=. .R Y ..Y } %.Y N n  .| Y .. .| Y U Y R W Y ..F R b l R R ....F | | W } U ....R Y Y ..R Y T Y R L | w.Y ! ! t.t...W W w.! T U N G F G Y 4 : , j b L L b = B =.U T U U U U U b D G Y T ! R Y T T ! T H =.R T T D R T R H o.D D m Y T D T T +.T C U b U T U U T F } R R G U ..R W C U D U ! T G Y U T T U Q =.=.! ! R U ..Y T R U T ! ! T R R =.D } D R ..=.=.+.Q a.t.+.=.d...t.d...T ........t...R M ` :...` ;...=.d.=.} | Y Z | R =.Y Z Y L U U U H b M F L N N m N N U N z & , , q z l b k 4 & l 2.B B F H | | Y U 4 j ......Y F R =.R ..-.Y X.} ;.Y | F U U ..! =.R T Y Y %.R R b D y.R R ..&.&.| X.} =.=.| B R t.y.} } !  .X...} R =.=.R ;.| =.=.t.=.=...i.T W N ..U N Y } ..Y } ....} Y Y Y Y F U D N W R N F F B j * j b ! D , D 6 T N - ;.R D D B N Y Z G l , , , ",
"y.=.U U T F Y R ! X.=.+.=.! t.t...+.! Y | ..O.! t.t.p.! t.d.d.t.t.t.t.R ! ! +.Y W W Y W R ..W b = j D =.s.t.U U e.! Y ..=.t.y.=.=.Y | F Y X.F R | %.H F R | Y R b U R F Y Y F z = k z R U ! G z D H 9 k ' H Y F , %.P.=.R t.=.%...! U W R ! T Y R ..a.N Y Y Y R ..| Y w.:.y. . .| X.| R =...| R H H | F D D | H } Y Y | ;.U R R R } F Y Y l z Y F D T F  .W Y W R W ..Y R =.R R ..T N b ! ..Y ..w.q.W t...W W ! T R T Y R =.Y U b O , j C U b N j , l U T m R Y N U U =...Y =.=.=.R F R R +.R =.t.T R R R R =.G Y Y R =.R R ..Y R Y R ! =.E R w.R R U } ' +.+.R Y | U R T ! D U U ! U Y b t.! R C D t.! U D D Y R Y G Y R +.Q R ! ..=.R =.R Y =.%.| Q w.t...p.Q t.t.......R y...=.....R Y Y } =.X.H } =.;.=.` =.X.F R =.R R Y U N N U N N F B B B m m B B T D B F : , , , z N b m k 9 = 5 2.F F F F | n c c , x } ..} y.Y ..=.=.y.X.%.=.} ;.z F z z Y =.;.R b N D D G N N 4 G } X.X. .=.;.| } :.i.:.| Y ....| ..| .. . .} } ..........i.t.=.=.=.t...=.D L T ..W b T ! | } =.=.......R R ..L W c k T T B F Y k 0 , 9 0 U x 0 b 9 : j = y...N U U B T b Y z : : , ",
"y.=.z Y T F ..R ..T Q r.W T ! Q =.r.R =.=.t.+.+.e.p.t.! t.d.:.-.=.! t.! ! +.R +.R U T w.! w.T N - , ! =.T ..t...i.t.R =.=.t.t.=.R D | =.| R %.} | %.| %.D =.R D z b =.=.%.R =.N = j b Y R +.D b R Z w b M ( ` B , =.v.=.! %.:.R Y U b U ..R Y T ..T ..t.D } } R Y W B | } ..} R R X.| +.;...} | Y } | | N D Y +.=.R | ;.=.U R } L | | W Y k 4 R R R B z Y L n B R  .R Y =.} R ..R T U D U W W T ....a.| ..Y Y W R R ..R H | R Y l & 9 4 b b N l j , 7 0 T k Y U b D D ..&.;.:.-.=.=...-.y.=.j.d.T U U Z T T T H Z G %.+.=.=.i.=.;.=.=.j.=.a.R t.t.y...-.R Y T U T Y Y U U U ! T b U U T R U U R T R R =.! D Z B M Y Y ..R +.Y =.Q ! =.R =.=.F Y Y =.=.=.R t.! t...-.t.a.W T R ......R Y Y Y F } D Y =.=.;.Y ' } ..Y F D Y F Y U R T n k z M D N j N N z N D Y N , & 0 , , l l M k 0 9 : z g.F R  .R Y 4 9 : z y.i.:.a.y.y.f.i.k.g.f.c.h.3.` 4 l 7 k D ..} T j 9 : , 6 0 4 4 &.v.g.y.y.f.j.h.f.>.n.g.3.:.f.k.k.k.j.f.h.h.h.v.b.g.h.V.V.Z.i.-.y...=.=.=.D L Y R T D U Y W R ..........W | Y Y Y b z } F Y Y N b j = : l U j l b 0 , 4 = y...U R T T T ! ! N j , 9 ",
"y.Y D R Y m D m Y D U r.! r.! t.W Q u...! r.! +.R e.e.t.t.d.y.y.=.p.t.=.i.+.R R W R ....W W L b 6 , D =.! Y b D R ! %.+.e.T t.! ! T | R Y F Y R | %.A Z Z Z ! G U B ! Y Y R Y G , a l D D ! ! v D Z x b / )  .B , Y :.} | =.D D H } b R ..} F R R R a.R U R R ......W B } } X.| ;.} X.....}  .F | %.| } N m Y y.y.......y.R R Y R } | R N l b Y R ....} Y R R W } | R ..| ..R Y D Y U Y W U w...W w.w.....! w.} ..! R G F D D R z - 4 x b b b c j 9 , - - , 4 4 9 - , 5 j k z 0 D 0 b z m b k b 9 l 6 - 9 j 9 j 0 6 l 9 z m l z D l D l j 0 0 5 z m l N , 9 9 , 0 , j 4 7 9 : 0 a k j j 7 4 9 j 4 j 0 l l , 4 0 2 , j 4 l j 6 6 l , 7 : 9 j j 0 k k 7 4 0 l j 9 b a j N j a l l 4 k 4 0 4 0 0 4 2 k z 7 j j b 0 q k 5 2 k , , 7 0 4 k 4 - 4 0 , 4 4 4 4 , 7 , + - : & d j , D b z l z 7 z X.Y ..R } U k 9 z R } -.....y...-.i.f.&...y.&. .} Z N x m F H  .} z z 9 D 9 l z B =.&.2.=.-.-.X.y.X.f.2.f.&.X.g.g.y.2.X.X.X.f.:.j.g.i.g.i.j.i.a...X.R ....=.R U U R D B N L R R ..Y ..R Y Y ..Y U N z z Y R R Y T U 0 , 6 j ! c 6 b k , j :  ...Y D b b U b U j 9 , : ",
"=.+.U R D m B z U R ! ! e.! ! +.Q +.e.e.! e.e.=.H +.p.t.s.d.i.t.=...! ! +.! ! =.T T R R R ..W b 6 , D =.R l : : U =.+.+.=.t.y.t.R U -.Y D Z Y %.R +.i.%.F D m D b z ..N G G F b = 4 l b D U T b | D l D ..R F Y = X.P.Y D | H | &.F U ! =.| Y R =.! j...R R t.! Y W B W } ..| Y | R X.=.g.R Y | H Y | Y N D =.=.N T Y ....R W N Y R -.} Y b b ....=...Y Y  .B Y Y Y F Y =.R } R Y R U b ! ! U w.....! W W ! t...T T R b Y G Y H D * 7 j D m b U z 9 , 4 - : & * + * : & & , * : + & 6 , & & * O & , o : & + - : O O O & X & & & - & O * = = = : O * : & - & - , : * - : , : 4 : & & & ; : - 6 + = & - O - : 0 : - - : , - - * + * * : , , & O - , = : - : * * , O & & * , * 2 , * & 4 - * - : & - - O , 9 0 * - 6 + : - : , - , : & : 4 & & : , - & : : , & - - & > , 4 b b 0 z N D x , k X...} R Z m R } R } F | Y } Y  .} Y ..} F ..| } F Y ..Y } A =.%.} Y | | %.F F F }  .A X.} ..Y | } ..| y.} }  .} R } ..Y B X. .`  .t.} ..a.t.i...W ..W T ..y.R F R R N N L | Y ..=.R | } N Y T T N T U N R W T ..T U j - , 6 W c q l 9 , , , ..Y Y R Y U U U T 4 9 : , ",
"=.R T D b N k N Y ! r.W e.+.U Q +.e.+.T Y r.+.D H +.+.! r.d.d.t.y.=.=.! Y R Q t.Y ..U L q.! T b = : G a.R 0 : & D i.+.t.| =.T i.+.R Y } %...| ;.=.=.=.=.H R C U D l R U Y U T N : 4 k N D D W l +.W b D =.y. .R j ..v.D G  .X.Y =.U D =.} ..t.w.} -.y.t.U R w.....Y W X...-.-.X.} =.-.t.y.B k N N N c Y b b R =.R ..R U T T l b N b N b N c z } -...R z b N N N z L N b N m b m b U b D W ! R ..i.W w...W t.....Y R U Y Y F Y D z & 0 l N N D Y D 0 4 , q j 4 , - : + , 6 7 : - - = & , * : , , , - - , , , : : - : - * , & , , - - - 7 , , , : 9 , , 9 : , > , + , = : 4 4 . = : 4 : = : : : , : : - 9 , : : : + , : - , 4 , : , 9 : : + : , 4 : : , = , : - 7 , : : - , , , : + - , , 7 , 6 6 4 j , : - 7 , 4 9 4 , - 7 , = : - 7 : 9 : , * 6 : * 6 : & , * : * , : l k T b k j l k = z f...` R b F B =.} } R Y } Y }  .R R } } } } %.' } X.;.=.&.%.%.%.%.&.R | =.=.F  .&.=.&.' =.} =.| -. . ...X. .}  .} -.} ..} R } ..&.;.=.=.i.y.y.......R Y R ..R Y Y D D D Y =.} R | t.R Y Y D t.U Y R L U T R Y W T Y l , 4 j ! C x C j 6 6 : =.i.R Q ! T t.W E k , , 4 ",
"=.| U Q U U k Y N N ! 0.R Y Q Q ! +.+.=.R =.+.e.+.t.p.! ! d.s.e.t.Q ! =...U Q T T R T ! R R D k ; : R s.t.l & 6 Y ..=.=.t.=.+.t.! R Y Y Y Y Y R G ! =.=.T D R D l T D R T L U b 4 j l b m ! e.b U U C b H %...W x | 3.F D A Y Z } R Y X.X.y.g.a.i.b.j.=.R ..! ! t...W y.j.L.b.h.v.v.i.g...N j j , = , 4 7 Z Y R | ..Y U N 0 4 - 4 4 = : j 9  .y.f.f.m , = ; 4 , 4 j 4 a : j , 6 7 j 9 m U ..W T ..| ! ....w.W Y W F F T U N N Y b = , j b U N W C c l j k , : 4 , , , , 9 9 j 9 6 j d x 0 , 4 , : , 6 - , , 7 6 9 6 - 6 9 j 9 9 j 0 6 6 9 l , = 4 j 4 , j 7 , 9 = , q 0 , l : j j 9 7 9 9 , , 4 , j 9 l 4 z 4 - 7 6 j j j 9 , , , , 9 0 q x = 2 j 7 7 : k b , = 4 4 9 l : 9 4 9 j : * j 6 4 4 : 9 4 7 z k 0 l l , l k z 9 j x 9 6 , 9 0 j : 9 7 , 4 4 , 6 6 6 : , 9 l 9 0 j W L N N m : m 3.N m N N | Y R R } } R } B  .} ..| |  .} X.Y %.X.Y ;.=.Y %.R H =.%.+.:.} ..X.F ..:.%. .;.} Y X...} } } :.} X.} } } Y H } } B B } ....=.y.t...R ....Y Y R &...| ..} Y N U =.} ....=.Y R U D R U ! T b U Y Y T ..W L 4 , 4 l ! U j b l 6 7 : } | ! R ! T U R ! c , : , ",
"d.=.D T ! U U G l N m W e.Q +.+.Q +.T y.R R e.W Q ! ! E ! d.i.t.=.T Q =.! ! ! W T Y ! +.w.t.T l & & b ! e.+.D R =.=.=.=.R ;.U G U c b b j : x l j j C b b x x , j k D b R U N U , 4 0 U G Q T l R b l k } Y M A m z f.Y M H R Y ..} =. . . .:.y.X.y.:.} R R ..R ....Y X.:.y.y.y.g.y.y.-.R N k l j k l l b ..Y R R W ..R U b l j z c b a j k ..-.&...z j c j j z z c 4 4 l k j b j b D G T ..R T ..w.W R ....T ! R Y N W T Y T U N = 0 c T R U T D D D D b b l j 0 4 7 l b l b l j 4 U Q : l q , p : 6 6 l x D z w b b q Y 0 G b l l z b b N b 0 D b z 4 x 0 b l j j b b D l N b D b j l q b z l l b k N U l 0 l k b C l k z b b l m l k N N l k 9 9 4 b j Y X.D l b U N b , l b b z , j l z z N m m l l k D D m l D b k m j k z l 0 l l 4 - & O j m j k 9 4 j 4 , l l 0 b b D b U D 7 j z f.Y T N m R F ..} ..X.Y Y } } ..} | X.} Y H :.%.X.| } ;.%.| H | Y =.y.R +.H | Y X.| =.X.&.X.&.| | -.-.=.&.} } &.` ..} } } | Y ..Y } ....y.-...Y | } | ..&.:...y.-.| T U ! T } | j.=...R U Y ! ! T U P N W R T T U N a , 9 b Q D 9 b 9 x 6 - &.Y D N D T W R R x 4 4 , ",
"y.=.C U C =.D b m U W ! e.=.r.t.R +.;.t.=.| ;.=.;.u.! =.Q t.p.! ! +.t.s.t.! ! e.! W R =.! R ! l : : T =.t.t.t...R R | =.=.=.=.+.C j , 7 , 4 9 : 6 j q j , 9 9 0 l n Y B L R R N , j j L Y j 6 c N z l Y H H Z M 8 j H %.Y H Y T Y Y A } B Y Y ........R Y ....R W T ..=.&.| X.| ....T ..R W G U N Y R } R R R y...R R ..R Y ..Y Y Y R Y Y ..F } Y Y Y Y Y z N Y Y } R Y F Y ..Y T ! R R ..W T ..t.W ..w.W Y ....R Y Y R N T D Y l & : k U N D Y R U b l D U Z m N z G D C U m U U z U p.4 l b j 6 l 7 : C j S D D D Y z G b U U D Y F U a R Y G z Y D D R U T l , D k R ! F Y D b U Y R R N D U D Y N k R T U R D Y m D Z D m D N D G m N b Y D F m Z B D F H z C E N U D U b N D Y D l & m N H N Z Y F Y R N R Z D Y Y U D R D k m D z , @ -.&.& F m z l N z 4 x b D w N k N l l l 9 = z 2.} Y U n F Z Y } R } R R } |  . ...w.R F  .=.H Y R  .&.%.' %.R Y R =.R R %.X.=.Y Y | | ;.} =.X. .y.| } X.&. ...F  .} &...F ..W } } =.-.;.=.t.w.......X...y.=.} ;...L b D R t...=.Y b N N j z c v c b b W ..! ! N N j , c b Q b 7 D b , 6 : :.Y R D R R R R W 0 4 a 4 ",
";.=.T D ! P Q ! ..t.N.z.z.C.D.D.B.v.C.v.v.b.C.i.v.C.T.s.C.B.u.e.+.! p.e.q...W ! ! t.T Y R +.U D , : Y =.t.! b U ..| ' } :.! R R O.R D R =.T U ! ! T Y R U T l z N F N m m F m z 4 4 l l 4 j x b l b k N Z Y R L l : D =.D %.Y Z ` ^ / ] } ..R Y R Y | U ..} } Y ..T W ....i.d.........R ! ! W ..t...} Y | =.R R ..R =.Y ! ..=.! T T Y ......D ......=...! T R R ..| =.Y Y } ..W W W w.T W N R t.R ! U w.U W R R ..W L } Y D D N j : 0 l U U Y T U N Y z N Y m G N D m Y R R N U U U U e.j j b x , j ; 4 b N b R G F Y D G N U C Y R D Y N R T Y U ..=.N U U b j l T N R R Y D D U U D Y Y T C ! R G F N F m R ! D Y D D Y D N D Y D N , 4 l B B Y N Y Y G F N j U U D T b R ! 0 b D b m 7 , m Y Y } F F F Y Y T F =.Y Y R R H D D m F F 0 A  .X.7 D D F N D b 4 l b z N j c N l b z 0 6 k :.%.Y } F } F | } } | ..}  .} ..Y Y  .` } | } Y  .|  .Y  .Y Y &.%.o.=.=.G R &.%.&.=.| } | &.:... .} } ..w. .X.;. .} X.y...t.w...| }  .:.-.-.w.Y W ..} =.&.d.=.:.=.} Y b U ..t.s.;.H 9 , , : : = & b L U q...W R U U j 6 l z +.b j b l - , - &.=.R Y F Y F F T l : 4 , ",
"=.t.b l b W +.u.U R Y z D e.=.u.u.R =.o.y.=.=. .} | %.=.e.s.d.e.! e.d.e.q.w.t.t.W R R T t.t.T j , 4 U ..Y , : 0 Y | Y -.;.=.Y =.%.-.:.=.=.=.t.p.! i.=.=.Y Y Y Y D ..D t Y G F T : a j , j b D x 0 4 j k F ` } Y Y 5 j | Y R o.A M ` ` ]  .=...} F Y Y D ..R D Y R N Y t.y.w.=.| Y R T R T R R R R ..} ..=...;...! ! =.R ..! G t.......| -.t.R ......Y Y U ..Y Y | ..| | | } ..R R U W ..Y W ..! t.! ! R R R ..Y ....N U T ! L Y 4 - k z z T Y R T T z b b l 0 U l z 0 0 k 9 k x x l I U j b K d : : = = j k Z l l m z k m z l U b N R U T R Y R T D Y Y b x & & O > x , = , , , 6 , & > = > . 6 p , - & + * j 6 6 x , O * * O & & O - & * - - X & ; 4 j : , * & p p = > i 4 6 l 4 : - - - * - - , N l , 9 l b 9 z - 4 4 - : , - - : - - * 8 + * - : - : & j z 0 l k N N l N B j m N l 6 0 h.| A Y Y Y R  .| R } Y } } Y Y  .R &.%.| %.%...} Y Y  .&.-.} Y | R =.=.R =.=.H X.Y X.} ;.=.| -.y.}  ...X.X.}  .X.X.-.-. .| ..| W } } ..X.....Y F | w.....i.t.| =.=.R x ! ! ....=...b N U N b z z T T L W Y W U ! Y 4 = k l O.b j C b 9 & , a.=.R | R H R R F k 4 : 4 ",
"H R T ! b R p.! T U ! W ! R U R =.=.e.Q Y F R G Z ;.R Y Q Q P +.t.W R -.R t.t.! Y L a.t.t.e.U j , : ..&.Y j * & F -.B | | ' %.s.=.:.d.=.%.u.u...! +.t.=.R ! m M B X.H m H R R D , 9 = l U P l - 4 z U b Y  .H Z F m : Z R Y F ` Y } ) X.y.=.-.....m Y N Y B U R Y Y R ......=.! =.R } ! ..Y R T Y Y R | G } :.! T R +.R =.R ! ......R ......R w.! ....R L N n ..R F ;.R Y ;...R ..R ..W W ....W W R U W U ....! X.R =.U N R Y Y N - 4 z N N R U T b c x N b l 0 N z z m N z b b b b b C j b C b : - 9 D C D D v G D b D D N l U D c U D R U Y ..T N U l D v.V.S.v.V.V.S.V.V.l.v.v.b.b.b.n.v.b.V.Z.Z.b.V.b.v.b.v.v.v.B.Z.b.V.P.b.b.3.&.3.4.h.h.c.f.P.f.3.3.f.f.n.c.c.f.b.V.V.V.V.j.j.f.g.&.g.g.g.g.n.K.V.Z.Z.g.x.n.j.V.Z.Z.v.v.g.x.3.b.b.v.h.:.3.h.v.g.f.g.f.j j 0 m l 0 z k b z b z 0 , k f.=.} } ` Y } %.;.X.}  . .}  .} } X.} |  .| Z '  .} &.X.X.} ..=.+.| =.=...&.-.| R =.} =.i.=.i.X.=.%.} | | ..X. .| w.X.| X...Y R } } X.......Y F ..w.t.Y =.v.! R =.! ! D N ..y...=.Y D Y ..Y L T ....U Y T ..W W ..W j , 9 0 W U j C b , 4 O y.;.D R R Y Y U R b , & : ",
"H H z N U T U l U T T U ! T Q U T Y R ! =...R U G F +.T T U C R +.t.! =.R t.! ! ..| ..w.+.W b j = j =.;...l * j =...R X.%.%.%.=.=.y.y.O.y.z.e.+.t.=.i.Y G D Y A M m H B Z =.R Y - : , x U 4 9 0 j l l b R B } F m z , D Y Y H Y ..Y R ..R R ..R F F Y F F Y R =.} | | R } } t.+.R Y R W T W Y U L R ....=.o.R R t.U Y ! ! =.R Y ! R R R ..} ....! R t...R R w...Y R =.=.Y =.......=.! W W ..R R y...W ! w.T ..R ! R R N R Y T R N 4 9 z U c Y N N l 4 N i.a.F F | ..| | =.R t.R r.T D j , q C l - & F g.R =.H y.;...=.;...t.R d.=.l 0 D W D Y U N G b R ).Q.U.j.k.v.V.V.v.V.V.v.g.x.f.b.n.v.Z.n.V.V.Z.V.b.V.b.v.b.v.V.V.b.b.C.P.x.n.v.Z.b.c.b.c.j.h.k.>.3.h.3.b.n.j.g.b.b.b.j.V.b.v.g.g.f.3.h.c.c.Z.b.c.b.b.c.c.b.v.C.W.b.v.b.g.g.b.g.b.j.h.h.&.f.b.v.h.g.X.F , j q l 0 k k j z l c b : 0 h.Y F B Y Y F X.X.} X.} ..H X.| | &.-.X.} } } } } ' ;.} ..&.} F =.=.=.H =.&.=.;.' X.F ..;.%.i.| X.y.Y F R Y w.f.y.X.| X.X.| w.Y R R y.....X.....w.....=.a.d.t.R R =.R U Y ....y.t.R N R } ..W W ....T c ..Y ..U W U k , j z W D j U b , , * :.H Y Y R A } R Y 7 x 7 : ",
"y.D 9 U I U P b U C P T U Q C D R b N ! T e.Q e.u.+.u.O.+.C U t.=.y.d.=.o.=.=.y.R =...=.! t.b j & 0 R t.%.=.7 R R =.| %.;.;.:.;.%.;.=.! t.i.t.=.i.! t.R D G F D Y } | Y Y -.R W , , l l 0 j 4 N z 4 j N Y Y R Y Z B 9 j } | R =...R ..Y | ;.=.R F R F D Y R D N Y Y Y F Y Y t.R W R Y T R U T R ..R Y R R R R R T T U ....R R R O.=.R ! R Y | Y ....Y ..| ....W ! R ......R ....Y T W ! W R W R =.! ..=.=.} ..R =.=.U M Y R Y T c , 9 j N U L U N j , D -.! Y Y D Y F H =.| ! =.p.T b j = , j 6 - & m v.O.y.=.R =.;.-.=.=.u.t.Y N b j z U R Y G D b D P.b.! T D U U L U K L D R c l R D H Y G ..R D N Y b U Y L U U T R Y T o.Q U +.R N B z M M N N m D m 1 l j Z n m Y F F R R U D F U F | Y M D =.%.F } D F F Y G R Y D R Y b l D D m z k j k x k l N b b F l q j l k l N l l z 9 l = m g.} U Y Y } Y } }  . .| | | X.| | X.i.&...Y } Y &.| | y.-.} Y } Y } =.| =.X.:.X.| -.} ..i.y.&.;.X.-.X.} Y ..y.| X.f.X.| X.....| } ..W | } ..i.....W W W ..t.! R T ..T b U =.t.=...R N T R | L Y W W L b ..R ..L N Y k , j b e.D x U j 4 , : f.%.Y Y | R H Y R N 6 9 : ",
"t.t.D U D U U W U P U W Q t.Q W R ! Q W P q.! R =.r.+.p.D U U e.t.t.y.:.o.=.=...R U =.t.=.=.U j > , R =.%.i.=...| =.H o.;.=.%.&.&.:.%.=.=.y...a.+.t.=.R Y F Y F R ..! ..Y ;...R , 4 c 4 4 j F Y M 0 j l Y Y Y } | } z , F ` } R Y D F } | &.Y } Y ..R } Z Y N B N F Y Y m  .....R ..R ! T =.R =.U N Y Y +.! R R R ..R R Y ! U ! R ! R =.R =.Y Y W | ..! T ..W ..R t.R Y R y.Y W ! R Y U ..! W q.....R | =.R =.=.! ..Y m B U N R z , 4 4 N L L U x j , B g.=.! =.F } =.Y } =.R =.! T j 9 > j P l - : D g.;.=...=.;.i.=.=.i.t.H y.G 4 0 Y U Y R m U 4 y.Z.Y ..T R t.Y R Y D U Y ! R ! F X.R | R } R ..R ! ..Y B R ! ....D ! R t.R ! ! Y =.| } } H Y X.Y F F B B R } Y X.| %.Y R R R R ..} |  .F B H Y =.Y } | ' ' Z =.=.R +.=.Y U U D F Y D Y m Y N N N Y N b N z 6 , j k l 0 Z z Z j 9 : N 2.X.B F  .R B Y  .} ..'  .} } ;.%.-.}  ... .A } } ' %.&.:.| H F ..&.&.R | ..} X.%.;.} } =.i.;.-.X...| &.} } =.| f.} ..} ....} X.X.Y } } R t.t...T | Y W Y i.! ! R =.U C T =.....T Y N Y W L Y R ..W U U R Y Y T U W l : 9 D ! l v U b 4 , : :.=.F A R | ..| ! j 0 9 , ",
";.t.U C b U T ! P U U P T G +.+.+.! W W D ! ! F y.R =.y.E D T ! :.;.y.y.d.z.+.=.....=.=.! t.D j & j Q &.Y F Z R y.%.%.=.y.i.#.%._ ] &.=...-...! =.} R D A A H D Z D R Y H Y ..U - 4 4 l 0 N y.` ' l b | A F F R Y M n 7 j A ` } F F F M  .=.=.F R T T Y Y F k R Y B B Y B ..;...R a.=.R =.+.| ! t.| ..Y ! R F =.X.=.D R U ! R =.t.Q =.R ..R ..W W Y W w.T R t...R ....R R ..T T E ! ! ..! ..! ! =.R =.R ! =.R ! +.R Y D Y ! D Y l = 0 x l l b b l 4 4 j -.| R | Z H Y Y R X.F F y.F , 9 , j C 6 - , 4 =.-.=.=.%.=.=.=.=.=.=.H ;.Y : j b D U Q U z * ..y.G D +.T R T N A B U D Y Y Y D | Y -.Y =.t.=.| F Y %.F ..R R R | Y ! +.%.H R R Y H | Y ..} ` F } &.} N B Y F H H } U U D ! | ;.B G Y Y R %.| %.}  .| | A H } =.%.=.=.=.%.R Y T Y F D D b z N N z m k k l + j w b b D j b l l j 6 j &.X.D F F ! U F Y Y X.Y } H } | -.=.y.` y.X.=.=...} :.=.y.=.} B Y  ...%...} |  .} H  .} &.;.| &.} } ......} X.X.X.| | Y } R } .. .} X.| ......R W T ..! w.d.W ....R U D Y =.=.! =.R D R ..R ! W ..R D L U Y Y Y N N j 6 9 z Q T C R l 4 , + -...U R Y D F ..=.j , 6 6 ",
"y...T W D U U N W +.W W T D T W r.U P E U e.Q +.o.R %.Y I C D t.;.=.u.p.t.+.o.=.} ..R i.=...b , 6 : U | R 9 & b ;.y.y.:.%.;.*.$.#._ ) =.X.] ] =.%.=.=.R F F R Y A Y D Z A F m m - , 4 k m  .X.M m d ' 3.Y D D ..F Z 0 z , U  .| D Y Y B }  .] ` F R Y Y =.D j B R D F D B } R | ! ..=.y.=.=.=.! ! =...Y =.R R | Y Y Y U T R =.! R ! ..=...R ..R W R w.Y U L U ..! R t.R y.R W L L ! t.! W U ! T W ....Y ! U R ! ;.=.U ..R R w.W N & 7 b b N Y b N j 6 j - 9 , w l 2 5 , l b l 0 c j m l : d C 6 , , z 4 m q 9 9 k k k l 9 j 9 : 9 j l U D R R R b : %.i.D U T U R T Y Y D B D T R m R F } =.&.` R =.=.Y H D Z U ! R U ! R =.%.y.=.Y F d.H | } } } F } F %.-.L F H A =.R ..F Y R G R } H R =.X.H H ;.Y F ' F H %.| B Y | o.R Y Y Z m D m H m z j b D N m N z z N : 6 6 l b b D b z l j , 0 &.Y D F F t.j.j.} H F } | } Z Y ..=.} X.} R | H ;.i.x.j.j.&.;.Y  .:.b.x.g.&.:.&.X.} Y ..:.=.-...| ..} F } Y F | X.B | ..} Y ..} } ..Y Y } T R L } U R W R ..Y ! T =.T b Y y.....=.R T ..w.W L Y R y.b F W W T W N U a , 7 l +.C b Y l : , , X...D T R | H R +.N 9 , , ",
"%.R D U D z Z m U D k D D +.U D E T D Q e.! R ! =.Q W R b D D e.y.z.t.=.X.&.%.=.=.R ....=.=.U 9 = : G -.D 6 6 O o.t.t.=.:.*.) <.#.#.#.%.%.&.)  .=.=.+.F %.R R R Y Z ` M A } Z H , , , Z  .X.&.M j :.:.} R N B B B B m m , N ..Y D F R ` R } ' A } H F W ....5 A Y N R Y Y Y | =.=.=.=.i.a.i.t.t.+.R R =.Q R +.R ;.=.Y ..=...! ! ! U =.R ..Y } R Y } U U L W ! R W R D } | ....Y ....T Y T t.U U R ..Y Y +.Y y.=.=.R =.+.R T ..Y b , b k F b D Y D z , l l 0 l b l 9 7 j l 9 l 9 b 9 l l , j b 9 : 4 x l z j 0 j k l 0 j j 6 , , 0 c l l z T R =.N 4 y.d.Y W e.! q.! Y R D D F D F N D H `  .H Z %.=.=.R G ! Y ..Y D D R } =.+.=.+.=...+.R } ..Z R %.Z A %.=.! R | R R Y } H Y U Y Y | ..Y D ..| X. .H F &.o.%.:.R H H | =.! Y } Y F m n F 9 = - & 9 m N c N U N : - 9 j b b k k N N z j m &.} B R =.d.j.;. .} H A R } F Y } | ` R } Y } } d.i.:.g.y.Y | =.&. .X.-.2. .} Y &.X.} H } R R | } Y } } R ..A } X.X.} | } } } ....Y R -.Y Y R T ..U W U T =.Y T N ..U z T =.Y =.X...L Y Y R Y c R R c z U T R Y T Y z 6 6 9 T N j l 9 : , + } =.D Y R ! =.T ! l , , , ",
"=.R D D Y N m B C z D Q C C Q G Q +.E U Q ! T U T R Q T D U T t.t.p.R &.H } ' | ....Y | =.=.D , 6 9 Y y.Y = & 9 i.i.=.;.=.-.%.y.=.&.*.;.u.%.) ) ' R ! F ' m G ..R M M H %.H M F : j n ` } } Z N &.f.Y | N c N n n B m m a a F F H Y B Y } F X.` ! ..B B D ..l D F D R m B ..y.=...=.i.s.t.a.i.=.Q +.! +.R | Y R R =.......T ! ! ! E R =.F Y R | Y R L Y W Y w.W T ..R R Y L Y R T W W ! ! t.T W R ..W w.R Y | o.R Q +.Y ! R N Y b * j z z F D N Y b l 9 , , : 7 & - 9 9 : - - , & , = j - 6 C l , 4 : X , : : - , , , , = , = : 9 q 0 b k B U D b - =.g.Y t.y.Q R q.R R Z F Z F ..D G Y F A H R o.%.R R =.=.=.R R R Y H F ! +.=.G t.! Y ! ..! Y ;.| ' | t.! F ! ;.:.=.=.F ..;.| Y } X...=.| | %.H D R %.%.-.%.%.%.R =.Y Y ..R ..| T Y ..G = < &.-.= Z N N c D D - 9 9 T l D 0 k k j l : z h.} L Y | d...X.B m H ..t.=.=. .H =.=.;.} ;.! =.i.F Y } Y Y | -.:.' F F Z D l z 0 Z R ..} |  .} X.| } X.} X.Y B } } Y } X.} ..X....... ...y.w.W ..w.W ..L &.=.t.U T T D T a.! ..y.R N Y Y ..W U ..R N N ! N R R U T 4 : 9 N T l j D m , 7 : &.| D Y G R R ! R l 2 , 7 ",
"=.F Z Y R G n D D Y U R U E U ! T O.R P E R +.! Q Y D U R k m ! t.d...| =.F } =.R ....=.=...F 9 = , Y  .Y m D A =.y.=.R =.-.=.l.o.&.;.y.=.=.=.=.s.+.R R | H Y U Y ..} A R R / D , 9 B F  .F l 3.2.N Y F m N k B F m z n n , 0 M A } ` } .. .........} R a.Y l L B N F Y N ! =...! ..a...t.t.t.! ! R R T Q R =.R R R y...! ..w.! U R ....T Y F Y ..W R R R Y ..Y Y R ! R T Y T ..L T U U R T U ..Y } ..Y U F =.=.t.U R +.Q ..Y Y b & 4 D D R D T D z N j l j 9 l b 7 j 6 9 l 6 j 9 j b R 6 j U C = , 4 4 z 9 x 0 l 5 N k m b j k c l D D Y b N T l * =.i.R R u.! ! ! T Y H B D Y ! Y H R =.Y A | R  .i.u.R o.o.Y D H %.=.| ! ....R T } ! R ....t.R R +.=.t.t.t.Y y.=.=.R ..} F H Y Y H =.X.' %.%.%.%.H :.:.R =.%.R | } ..| +.R H B ..F R Y , 2.A f.k l D D k T N & : x x D P b l b b a : 7 &...m D Y y.R | | 0 ! y...} H F } ..=.X.R ..a.=.d.} Y D D N R ' X.H B Y H 0 0 } Y | ..-.} H -...a.w.X.} ` } } } } ` } } X. .X.-. .R } Y ..=.R ..R W ! T ..i.=.a...} Y b W ..R ..} R N Y W ....N w.a.U L W U L U Y T 0 , j m U N j T 4 = = - =.R D ! T G R R R 9 6 6 j ",
";.Y M M M Z F z D C b ! R R T T T Y R +.T r.W e.C ! +.Y R Y m R t.R =.R U R ! =...R R X.:.=.D 7 > 7 ' | %.%.=.%.=.=.;.;.=.;.=.u.o.o.+.+.| =.;.| +.+.R Y H R %.H A ..Y X.R Y Y Y = 0 F } T m  .3.B n ` N U L n Y Y m B n n j l } ` ( } R B } ..R R ..R R w.| 4 n Y Y B F N T t...y.T =.=.t.t.=.R R ! T D +.R =.=.U ..R R U Y =.=.! R ..W } W T ....Y | w.W Y R ....Y T ..Y Y L U R W ! R R Y ! ..R Y R -.Y F R =.! +.+.=.! ! ..! l & j N z D z Y D Y z N k j , 0 m b j m 9 0 0 z b l Y T l C U l 4 9 4 , 7 l z z l Y G D w l D C D b R ! U Y D N k & &.;.+.T T b ! R ! U R ..| F H | t.R =.! H ` ;.;.e.d.;.%.+.Y %.=.=.R t.t.R ..R R ..=.=.t.=.! +.=.! =.! T R &.=.| -.| ..y.R F } =.%.=.| X.=.=.=.| ;.%.i.%.y.=...F =.F | R ! R Y B R D =.-. .A F V F N D l U L & 4 k U U U T T ! U c j 9 :.B N B m } Z D Y z D Y ..R } ..X.} R %.y.=.t.=.=.Y F U D G | %.;.=.Y F F U m | X.| Y D Y } y.} y.| |  .X.w.| } } }  .X.| ..X.-... .} } R =...} ..T R W R i.R ....R U L U U ....t.R N | W t...N w.W N c R W ..R T R k j 0 l ! D b D 0 6 , , =.:.T R R ! ..R ..9 6 - , ",
" .Y D M D b b z L R T U U U U U Y R Y T ! p.+.+.R T T Y G b N R =...e.i.! t.! Y Y R | X.-.Y G 0 6 k H H &.G ! F =.%.R +.H ` #.=.R %.;.=.%.%.| ' } t.Q ) ) t.Y ` A Y M  .Y Y ..n , z m m z / ( B H n F F U Y F Y D m Z k N , 4 F }  .} H A F Y R T Y Y ....Y j Y Y N D D N R ! U t.! R ! t.R R t.R R ! R R ..t...=.R } R W T ..T W W ..Y ....R ..} W | | T R Y Y Y ....T Y ..U F T w.R w.R ! T ..=...! ....! t.R ! ! ! ..t.D R R z , 9 N b T D D Y Y D D k N l & 2 = , - * & j : > & l C : - > O & & * * X * , x , l w 0 R F D G R U T R D D T j l 2 ! i.U T R U R +.R R Q u.=.%.R Y %.%.t.+.! =.i.y.u.u.p.i.%.i.r.R +.u.+.=.Y } ! F =.R Y ..=.=.o.R u.+.+.H =...Y :.R =.%.%.=.X.| } y.R  .%.%.R H ;...=...| H =.R G | H F =.+.R Y Y Y D H x.=.v D Y Y Y N N D T : : 9 0 v q j j 9 : , & 0  .m D Y Y R N D U a Y &. .R t.X...y.} R =.R =.=.=.R R D C T R -.;.} } F B D T } | %.Y ;.=.......} X.} ..} } } | Y `  .X.` H &.X.Y } } ....Y ..} | ! W Y | ..........Y N N R ....| W N ! R ! ..Y T Y E T Y R W Y L T z j 4 z R T j G 0 q j 6 b Y ! R R =.R G D * 7 , 9 ",
"g.| U =.U R R G l U ! b U U U U N U N z l U U l U N b D D U m t.=...=.t.=.R | R | | | H =.| R F 0 6 7 R Y , , l o.=.T R R ` %.%.:.H | ;.:.=.&.) / ..Q %. .=.Y } Z D ' ..N Y Y Y , j m k  .' B M ` F F M B F R Z n n D F n k , z Y } } } A } H F } T Y ....F j m N N D U R ! R Y R q.! T w.q.T t...=...! %.=.t.R ! ..t.R R ..Y W ..| R ..W ..} ....W ..Y R R R Y Y W R Y R } ..T R T ....U R ! R t.t.! t.R ! U ..+...| ! R E ! R D : k z T R D G Y Y Y T G 4 b f.i.f.=.-.;.-.i.y.;.y.i.:.i.g.i.g.i.} ;.=.&.y.:.;.i.:.| D D D R R t.R T T R Y N N D - i.i.D +.=.+.T O.t.R t.d.s.! =.+.%.=.Q ! t.=.i.;.u.d.d.i.o.i.N.u.y.t.+.=.| R +.R | =.t.;.y.| | R e.t.F =.i.=.%.=.:.=.t.%.| | Y -.t.y.;.-.Y %.F } | ..=.=.=.=.H X.| &.R =.+.Y H F Y R G D ;.R Y Z H R b k k j = & 9 z D D b x N b j > 9 -.N D B U Y Y D T j B } R N Y B Y ..Y U =.=.=.R =.=.=.T C b :.:.f...} B  .z m } | R =.=...Y ..} } } } B Y | | } =. .&...X. .;.| } H } ..! ..t.R T T U Y W a.w...} R Y Y T ....w...R N W U ..w.W ....N N Y U W ..N } l j l j ..N a G l 6 9 - - 9 U U T T R D : 9 l , , ",
"<.` G Y C D U 0 j z l j x j , d , l x 9 : j j 9 9 j , j k k D R D A +.y.Y .. .| | =.%.R } =.%.F 0 , 6 D D 6 - - H H H =.o.R :.R =.%.H %.;.t.` ( ` ..R R R X.A A A R Y R Z M M F : j k M  ...N Y B Z F M B m B B B Y Y D Y N k , R ` M Y  .Y R ..R U F Y Y b a N D D D Y U T ....w.U R ..! =.R ..! L R w.+.U =.=.! R R =.W t.R R T W ..=.Y -.R R ..........Y Y Y ....R ....R T R ..T R ! U Y y.t.=.! t.=.t.=.Y | =...=.R T ! ! w.l * 4 k T R D R Y | G H j m I.U.j.P.j.k.P.b.Z.V.V.C.P.c.W.R.Q.W.U.Z.P.b.b.b.b.h.P.x.n.:.H x D Y b | } R Y Y X.R D = y.:.Q +.O.Y Y =.t.S } t.+.t.o.+.o.R Y =.Q =.v.t.s.d.+.t.+.;.y.u.+.=.t.R %.D R Y | R } R y.%.%.! =.=.| R +.=.! t.t.&.=.=.y.=.:.=...=.;.=.| X.Y Z ` =.=.%.Y Y R R +.y.;.R ..Y ..R U D Y D D D R G D Y D N G z - , , l C x j U C b k : z f.D M D Y ....| R 0 Y Y F B ..R T T D ! R G =.=.R R R U D U ;.:.y...} ` F 0 F } } =...} } } ` Y B } X.T ..f.V.h.g.b.k.h.b.b.y.i.&.-.} X.Y =.....! w.! Y w.w.....R =.Y L U ......X.N N W W ..W R ....N z T Y W D T T 5 4 j 9 ! D 2 Y c & 9 7 : , , 9 9 9 9 : 9 9 9 9 , ",
"-.&.F D D D b 9 , z 4 l 6 j j 6 j , 4 p , , , , j 4 j , , 4 R w.R =.o.R Y =.F | } | } Y Y H =.m 9 : - Y G & , 7 D Y D Y =.) ' &.&.%.=.%.R H / ( / X.| ~ &.' H ..Z |  .Z H ` B B - 7 Y Z N T N B B ` Z } M D M ` R } R D Y k j 4 B F ( ` B F Y ....R ! ..} N k m N D D D L Y R T ! W ! R R ! R =.W W ....=.Y R t.=.T t.....| T N Y R Y ..y.w.w.......T W Y R ....R ..R Y } Y ....! R ! ! | W ....=.W =.u.! R +.+.=.+.E ..R ! T T b * k l Y R R R o.F F D 9 Y.h.N I b U K b N T c z z b D O.=.+.T D D R R ! T G U D z D o.D q l b D R Y D Y F Z z b & =.i.H =.=.o.o.o.=.R | t.t.s.R R R Y =.=.t.+.i.u.v.N.z.z.z.z.:.d.%.i.i.i.%.:...=.=.b.%.=.i.;.=.R R R =.u.i.s.=.=.} s.=.y.t.y.Y :.;.} | y.t.&.&.X.-.&.| :.Y | Y D =.! } =.R =.Y Y D R U Y D Z G %.N D N U Y z - , 9 l b b v b b z j , 0 :.m D B H =.R ..U N Y Y R F ..N Y R m D R R ! R +.T R U U D =.y.-...} } Y 4 m Y X. .Z B | Y | ..| | X.=...y.k.h. .y.g.i.:.f.y.P.b.b.g.g.V.B.k.i.T a.M.d.N.B.X.w.....T N m w...} ..W b ! ..R L Y Y R l N W N R U ! N 0 j q C e.Y b Y 7 6 & : : j j * : 0 * 0 j , , j j ",
"| ;.! Y R M Z Z D z w T C C b U l j l k D U l P C w D Z m D F G Y =.o.R Y Y R H R %.Y Y F D F D b b l R | D D m G G F =.U F | } A } Y Y | R ' / ^ `  .( &.| H }  .M A H F ` ` m 4 z N U U T B F B M M M D B M F } } Y N B n k j 2 A A M M A Y m H Y X.&. .m k B D N N Y U Y D ! W ..W ....T R ! m } ..N R | H D t.Y R t.X.| ..T ..T } R ..t...=...R R w.R R =.=.=.=.=.F ..R R =.y.! ! =.=.=.=.=.t.R =.y.R =.=.| R =.Q ! R Y Q T b 4 4 b D R Y R T G U * b.W.b F N U D U N D T T U T ..! Y =.Y o.o.D G -.F Y Y H H l Y R R , c U o.D D G F H R D D : y.=.G ! +.=.+.R H ;.=.+.t.+.=.o.H %.%.R +.=.u.u.z.B.C.z.F.T.B.B.v.B.v.C.:.:.V.l.j.g.:.| %.=.=.t.;.=.=.u.u.+.=.u.| &.-.s.s.a.=.;.=.y.=.R d.&. .....2.X.R =.=.H =.=.=.} ..Y R ! R =.R Y N Y G %.! D R U m Y z , , j b l U U l j l U : z :.F M M | =.! Y G b Y } ..} =.R T U Y F F Y Y | =.=.D G b N ..y.-.Y Y =...U z }  .} A ..=.y.Y y...} ..} R t.k.....| | &.v.X.j.y. .;.} -.i.;.| Y R R w...T ..| } W ..R Y m ........R Y W W ..T Y Y Y U U U D U R T Y j b : D T G l D 9 : = , 9 8 j 4 , 4 4 9 9 j b j j ",
", z Y R F m m D T m Z T D C D D R U T Y T R ! U T Z Z m F A F F H Z Y Y F | R } Y Y | ' R 0 D F =.;.R R ! R Y %.Y H F =.G H F H Y U F F F ) ` M t  .Y / )  .A ) ` n F Y B B m : j z k n B U Y Y Y B } M Z M n M M B Y B m l k l 4 A Y A Z A M A A D %.Y ..H z F Y N ..T Y W ..T T W R W ..R t.=.F Y R m G R G D =.=.=.=.=.=.! ..t.! R T Y Y ..........R | R ! =.=.=.| | =.R =.=.t.Q =.=.R =.! i.t.=.R =.=.t.R ..=.Y Y G Y R T R N & 9 z G Q T Y ! Y D > =.;.U Y D b U P C D G T D ! ..p.Q U Y D =.Y H H R F U T R =.| D C j , l Y H F D F Y H o.w : =.R R R +.+.;.H | %.R +.O.R =.+.;.%.i...+.! o.z.y.R y.=.d.d.t.u.=.=.u.=.|  ...} X...Y H Y R Y %.R X.%.d.=.=.d.s.=...=.t.d.p.;.X.y.d.i.=.i.-.&.&.} X.| } y.| =...=.} ....D R Y R t.! z D F =.=.F Y U Y m F N , 6 , b C T U b , 0 j j b &.F F R =.=.R Y b b U F Y ....R t.T Y %.Y X.R | t.Y R ! b Y ..}  .B | Y R j F A H :.R t...R ....X.| | } ..X.2.w.t.a.y...&...-.X.X.=.R | Y R %.t.w.......Y W ....T | Y U L W w.....! N ! ..U R U R T U l R U ! ! U L k j , 0 R C b D 0 9 j 9 , z z j 0 z 0 j 0 , b q & ",
"4 5 b b N n M G N k 0 z l 9 b 4 l l N c k D C D b b m M Z m k m F m D z N D z b b D D D Z k z G D %.D Y T D Y H F T z T D l m D D D N b m M e M N m t N H F b y y m m D m N * 4 4 l N B n z B Y B } ..} A B B B F D D B B B n j : k F m w t F z m F H =.} B k U R R Y W b Y L R ..Y ..T T ..+.! F m b H D Z y =.R =.t.=.Y T ....R ..T ..R ....=.} ....T =.| =.=.=.=.Y =.! +.| =.=.! Y =.o.y.=.! a...d.=.R o.=.Y R +.T T T Q U R D : j D G R ! T T D z 7 l U U U b U U b b U C D R T ! +.R D D T o.T R =.Y =.D Y R Y R ! U 7 9 7 D Y R b F Y H D z 0 ;.i.D +.Y H o.=.%.=.+.y.=.=.=.R =.;.=...=.+.r.d.z.t.+.=.r.e.u.+...u.u.p.| ' F ! =.F D D o.%.A :.%.| | ;.R ;.d.y.....t.i.N.i.R ..=.=.y...t.=.&.%.` `  ...u.R X.%.R } N ! D F R F | T =.R Y Y Y G H ! R F Y Y , 7 l b U P j j = = 9 9 z <.` Y D ..t.U N k j N m Y Y R ....R R R R Y } %.=.Y U U z z R ..-. .|  .Y 0 Y } ..X.Y =.y. .....-.t.| -.X.y.X.X.y.y...X.-. .:.=.;...| | Y =.%.R ! R W U w.W R W R W W N N L | ! W R D T T W R ! T Y N z } R } Y Y Y j : 9 8 e.D l D j , j 6 : b m j D N F N N l v b j ",
", , 5 4 * , = & O : , 9 * , : - + + - : - & O : , > : : & : * : - , : = + , , , : & & & - 4 : * , & - , O = & & : = + - : , , & = & & O : : 4 : = , : & : & - - : , , & a 4 4 j l c N U F m M Y B M ` F M R m B F B m m B F z j 9 * : Z , & m 4 : m F =.} Y 7 D Y ..T R U R | W R W R R ..W =.=.Z - - ' 2 - Z =.! ....R R T ..R =.R Y R R ..R R ! T R ..R ..R R %.=.R ;.Y ..R ! t.=.=.R R d.a.t.w.t.t.i.=.+.R R o.;.T R R =.T R l > 7 D T D T R ! ..b 0 k R b l R U b T l U o.R Q D +.R R ! U D T T R R R R Y F H F T =.! j , 6 w D R R R F Y F l - =.=.D o.=.o.=.%.o.o.R =.%.R ;.%.;.R t.Q u.t.r.s.u.d.=.r.s.t.y.=.=.i.t.R ;.%.=.Y %.H D w R =.t.v.| H X.;.| y.| ..u Y =.a.u.i.R t.a.y.d.y.y.:.&.%.&.-.%.=.t.y.i.;.y...R T R R =.=.Y ..R Y } ..=.R | ..T R Y B : 9 9 c D D D l j j j 9 m 3.| N D } Y Y Y N j 5 F W ......X.} R =.R R ..Y R Z D Y D Y =.;.g.Y B Y B N N ..&.X.R -...Y R | X.| ..| ..X.y.y..... .X. .H i.=.=.| =.....| R ..W | Y -.W =.} W Y } Y b L ..Y ....W n T R U U D D | Y Y T Y R D Z B : 0 x l =.D b C l , j 6 9 U N l T Y U G D l b l , ",
", , , j 4 & , 4 , , 6 , q 9 - & - , & , , - , 6 : - 9 : 6 * 6 , 7 : , , , , 6 7 - : 7 9 , : : 7 , , : 9 - , 6 * - 7 : , - - , , : , - & - + - - - : * - - - 2 4 , , : , 9 4 j x c z B ` H m R D A M A } Z Y Y F n N F Y U F m l j , 9 D + & D 7 = Y X.=.+.B 6 Y Y | T D D ..Y T R U R R R T ....Z & 6 S O & S =.Q =.=.R R t.! y.+.U } R Y ! R ..R Y C Y Y G | =.! t.y.=.R =.! =.! R =.=.Y +.;.=.e.e.o.+.=.R Y R =.y.o.T D %.R Y l 9 j U +.U Y Y H Y H 0 Y o.G b N C U R Y G F +.+.T ! U Y U C U ! T R =.Y R | D %.H Y R =.x * j C R U R Y R ! N l , i.i.Y %.=.+.=.R y.;.| ..} Y H Y | =.=.=.t.t.s.a.a.t.p.p.p.! u.d.%.=.d.t.y.z.R R &.Y D R O.z.N.s.| X.| ;.A ;.-.%.%.X.=.y.! =...-.......=.t.f. .&.&.=.X.X.t.y.y.a.%...=.D =...R Y o.Y F Y b =.Y D R R | R U D : 9 x b 0 b D l 0 k j 4 m v...Y R Y ` N m l j Y }  .R ..| X.| } w.X.| Y F B z N D z N R R X.M ` m l z D ..-.&.=.-.X.&.-. .3.w.X.X.| y.f.w.| X.X.} -.=.a.W E Y } F N U U L N U N c N B z z G Y Y k L W W Y ..T k W Y Y } Y | } B N Y Z R }  .z - k j 0 ! b j T C 6 j j 9 F D b G R =.Y m l P 9 7 ",
"2 0 j 9 j 9 7 l 9 j 7 9 9 , : 9 4 , 4 : - : : 9 - 6 l 9 9 : , 9 , , 4 2 - , , 6 , 9 , , 9 : 9 9 , j , , , , 6 : * , , = 7 : @ - * & - + * = , , , q 4 7 , , , 9 9 4 0 : 0 l , k F Z N D n B R Y F M R R m l G Z N U U ! Y D M 0 j j j U m D M D N R R ! =.Y l F Y =.+.H G R R R Y Y Y R ......w.%.D Z %.F D H %.=.t.! =.=.t.=.R ! R T t.Y | ! R R | U R R ..=.R ..| =.! %.R =.+.+.=.t.t.y.+.O.d.y.=.+.R ;.+.=.O.o.=.;.C b z Y T b - 7 l F o.R o.Y H D , G Y R Z T P T U G T R ! D U R T ! N U U R T Q =.Y R H R =.R R G +.v O 6 U R U R R R F z 0 O y.-.D o.+.+.O.R +.=.H Y ..R =.R Y ! =.=.p.y.a.N.d.t.d.u.r.=.:.y.%.+.i.Q t.s.=.;.=.+.T C d.d.e.t.=.| :.| %.i.' Y -.Y R ..i.=.} A } X.} =.i.g.=.y.;.y.y.....t.t.=.=.=.=.Y Y ;.=...! =.G R =.=.R =.T R ! Y ! N > 7 7 l b l j l k l j m k :.=.Y N F F 4 l : 3 `  .X.f.f.j.g.k.-.f.f. .&.-.} l - 4 , U ....B z a j j 0 } 3.3.g.j.k.j.j.b.h.h.k.g.h.k.k.j.} X.X.w.} ..&.} N j a a j j j 4 k a , j a j x j : j j j k Y R | W W U R y.-.X.y.-.-.Y n z Y F D Y D & 7 j b G ! b l D l 6 l 4 q D D b D R | H m l b 9 l ",
", k n k 0 j k 6 : 6 - 9 : : & j l b - , 0 , 9 , 0 n w , l 5 l 0 j j b k 0 t 0 b 0 l l l j 0 j j z j , & , , , - * : , = - : , , , , : : , : 6 , a 4 N 0 4 j , a 9 j , F F z N N G D F l N F L } Y Y &.U F b D Y U U L Y D Y D Z b 7 x 0 A G z D b D ! R ..R j Z H R R D Y R ..R Y D Z R t.R } ! Y o.R Y Z Y Z R t.Y R ! ! Y R R ! ! ! ! R R Y =.T =.=.Q ..=.o...;.R Y =.=.=.o.=.+.=.t.! =.O.+.=.;.+.=.Y R %.T R +.+.U C z 0 U +.z - 0 l G R =.R t.R F , 9 F G D D T b b N D T R R U G K U P b R T R T Y T R R +.U R T R Q 7 9 9 j T T U U m F R b * i.j.R o.R ! e.o.o.d.F Y Y %.R i.;.t.=...i.=.t.B.t.p.r.e.t...| ;.y.t.t.t.u.+.u.u.u.! U G +.r.p.s.+.=.=.-.:.;.;.F ;.o.t.=.=.y... . .;.X.=.d.&.;.-.X.} &.-.=.u.=.y.=.Q R R i.;.R ;.u.=.=.R R =.t...! Y U Y U b : , , l C v b j z j , l 0 y.=.R B R Y k 0 j n } } X.X.f.w.} -.} X.] -.y.t.| N l c U U Y &...m l l k D } f.3.} g.y.y.X.g.y.f.h.f.y.-.f.y.X.X.X.| ....X.| F z b c j a l 4 z k a j 0 j k 0 z z l c N Y W ....Y W } ..%.Y t.y.....D F D Y F U > : l 7 D D =.D l D b j j j j T V w Y R H A t 9 b x q ",
"k 4 , k , : 2 : : + - : , 6 , k z : j j 9 j d z ` k n m D N b U D N D z N 0 m z z N N N k N N D b : 9 j j 6 6 = = 6 7 7 l 0 9 z b k k m z m k n k m m j m B a n j a X.Y N N m F Y F Y D m Y Y } =.Y F T T D D U N n b } Y F Y Y Z w : - A D D F D N D ! Q Y z Y H Y +.Y Y Y ! T Y R F R R ..} =.D o.R N S R T b ! R ..t.! ..! t.! ! R ! ! R =.=.R =.+.=.t.=.y.t.| o.| =.+.t.+.+.+.! ! Q =.=.! +.=.+.+.+.Y +.R Q R G D b q z F G 7 6 , Z Y =.| =.| R U , b G D F D U U U N T N D ! D D U Q W U W T R R ! R R +.Q ! ! T D T 9 7 z l G ..D N U %.R D : ;.d.+.T G R r.+.R y.R H H R o.=.i.t.t.t.u.t.d.m.p.t.+.t.p.R R =.u.o.u.e.t.t.t.e.e.t.+.O.r.s.u.+.s.t.+.H | =.F M %.&.} =.%.=.=.=.} .. .| i.d.y...=.-.H } a.+.=...R R Q ! =...| F +.t.t.=.u.=.....U T D F Y b : 6 0 C C b v j z j k , N j.R F Y ..Y U B n B Y F B ` }  .}  ...B | ....w.w.R R ..R ..R R y.} } H } R ..}  . . .} X...| | X.} X.....-.| X.-.X.X.| R ..} } } } w.F Y Y ....} | } U U F Y ....T B W t.Y ..| W W | Y ..! R D R R ! Y Y m 4 : , , 0 l b D u.D 7 D b a l , j D D j 0 D 9 0 0 k b z 4 ",
", 4 4 0 l , 4 0 l j 4 l q j U b 6 j j l z 4 0 ) n M w } H b U R m D } Y m A F D H D Y D b D G Y 7 , l N l 9 : 7 0 w D F H H X.R G Z ` / ( ^ / A ^ ] B n M B n 5 D >.] m Z B B n H F Y D Y ` F R F ! D D D R G B M D D } M m T B D j 9 , D m G N Y R G R R D F | T ;.=.=.y.y.+.D R W ! T ....=.! | G Y H H R Y F =.=.W ! +.R R y.T T ! t.! R ! Q W ! ! Q =.! =.R Y ! ! =...t.t.! Q =.T R +.t.;.+.;.+.+.=.=.=.T T R T D 0 q m D w 6 - 9 b | | | ;.=.R D 9 D R G G N D D C l Y D T Q U P I Q R T T U W W e.T T t.N T R ! ! Q j , 9 l m R ..T R R H M : i.j.Y U R =.+.o.o.=.+.R %.%.t.q.t.s.v.V.T.B.S.B.R t.R ..s.T R t.s.=.t.p...i.t.+.t.e.Q D t.d.t.+.=.=.| R =.=.=.A %.;.X...} &.=.| Y } -.-.i.t.....=...:...y.=.y.%.=.} =.R e.t.R +.=.s.p.! +.H ! ! Y R T B R U = 9 9 j z C b q b N 7 x 4 ..=.R m N B F } Y N N B } F } } | ..w.| } B ..d.y...Y F ! t.} t.;. . .X.=.X.X.&.i.-.-.;.T R -.X.X.} | | w.f.w.w. .X.} Y Y X.| X.} } } } ......| X.f.X...} | w...t...Y W R R ..y.....Y R +.R T R W R R D m = , 9 j l j b R D t.D q C b 4 l , 5 G D l 7 j 0 : 2 k l 0 8 ",
"4 l m k z 0 z z 5 B 5 U b N k & b l j N b l ] A m D A A Z T R F Z m Y Z A Y Y A Y F F R Y Y D : j b 9 j 9 : j 0 N H | :.%.` &.-.%.Y  .} &.`  . .>.` }  .M z k N :.:.H D n Z Z Y A D m D | } Y R D Y T m D F Z M G w F D Z H Y Y N 0 l 0 - : D 0 7 ' Y U =.U D | R R Y ..;.y.=.t.t...R =.=...;.=.F , 7 H , = A R R ! =.! R Q Q ! T T ! ! R R =.Y =.+.+.t.Y Q =.R =.R ! =.=.R t.! R 9 & + R +.R Q y.+.=.o.R R O.R +.T D z b Y Z 6 , , w Z H R %.| R R D q w | R R G Y Y U ! G G +.Q U 0.Q T Q T e.E I U e.W ! t.T b T R ! D 0 : 9 z Y +.| } Y =.H z 2 v.i.+.! =.G +.+.s.t.%.;.%.y.s.! q.B.d.t.t.p.=.r.Y W t.w.p.! F F ..=.d.! =.t.o.y.t.y.T U r.M.t.+.+.! R +.=.Q R F ;.i.=.=.| }  .=.&.;.i.d.i.y.i.i.i.i.-.i.s.t.y.Y | Y R R s.y.y.t.+.i.+.! =.-.! ! L R R U B N , , , j l D c j b N 9 j k  .D B Y B Y m m F B B B R Y U | | Y | | W } } X.| ..X...t.=...y.R  ...| X.%.| | X.} ..X.&.w... .} | X.F ....-.| | | } } Y } X...} } ..} ....X.w...w.X.W ......} ..X.w.......| Y ..W U | ! T T R R D B z : , , 9 9 z Y W F R p.D w C j a l ; 4 D U Z b m D z m m z j 0 ",
"9 k z m M D G D j k m N D b - 4 j z C c 0 :.R z Z M F Z D R R F R m F F F ..! F D Y Y Y R N : x b j j 7 - 7 l M | ..| x.*.:.*.%.=.| ' ' X.&.&.] ) &.:.]  .j 5  .:.m D Z m Z F F F D M D F A Y Y R Y D F 0 w m D U Y H H F w z Y Y m k j 5 O H 2 : D o.Y ! U H R =.o.=.=.=.y.i.+.=.R ....t.t.=.=.S & 7 } : & m G T R R R Y ! ! Q W ..G U =.R R U R ! R T R T +.R O.o.G =.+.+.R | l 6 H =.7 ;.+.+.T =.R ;.o.Y R T G Y D 9 b R H - , 9 l F H H Y | %.R G 7 b o.R o.Y R o.=.Y R +.T Q E ! J I Q U e.U ! K +.W P r.! ! T U ! D j 9 b G F Y Y Y D %.Y G O i.v.+.Q ;.R T =.+.t.R R =.u.t.s.=.s.a.a.p.t.Y =.....t.s.p.=.R w.i.t.s...;.=.=.t.;.+.D C +.d.=.+.p.=.=.o.%.=.=.;.=.y...;.=.&.} X.;.i.d.s.i.j.g.v.B.g.&.-.t.t.y.R Y =.=.G O.t.t.T t...! H Y ..t.R R F R Z Y Y : 4 l b C b b l D l 9 a k  .N Y m Y R Y L N Y N Y B F m B ..| ` } X.Y w...H y.t.R t.R y. .t...| &.Y Y | B  .} Y | X.-.&. .F Y | Y R -.y.w.f.w.} } ..w.X.X.| X.....w...X.| w.X.w.w.X...| | X.R ....! ..w.| R ..W Y R ! T Y Y N ; * , 0 , j D N U R T R t.C l T l 4 l 4 0 U D R D k m A Y C M k j ",
"- 0 m A A B Y D M B D 0 D N b b k m b 9 $.] Z m D D A A A m D F F Y F F Y ! ..D Y Y Y Y z , p P W C : , 0 G Y H X.;.;.| ) 3.3.:. .` 3.&.4.3.:.' ..i.( { n z { { k k F Y M A D F F ! D D F G Y Z Y H Z D D F b Z G Y F Y D N F D Z Y l j q k D N D D =.R =.b D =.O.=.R =.+.=.t.=.=.t.! } =.s.t.=.H w D Y n 7 b R T D ....+.+.=.! R R R T Y Q +.R ! +.! +.Q =.T +.=.+.! =.=.R +.=.6 %.%.Z.C C y.=.R ..o.O.T R T R R R R 9 0 Y 0 - 7 6 b R ;.=.R | =.R F l 9 +.=.R R +.=.o.R R +.+.=.+.+.+.U +.+.t.+.E ! e.+.U U P R T t.! D l : 9 l B Y Y F A D G l & y.l.o.R ;.O.R Q +.R +.| o.s.t.t.=.d.y.R t.q.R s.t.t.w.p.e.p.t.t.t.t.y.=.i. .Y =.=.R R U s.s.t.=.+.s.y.+.R t.=.=.=...t.t.=.} X.=.j.d.N.d.;.i.i.j.d.j.a.i...} =.U } s...G =.=.=.=...R +...D Y R ..w.w...R Y Z , 9 7 j b N q 0 N k 9 , z j.Y E Y R U N N Y n N N m Y Y W  .W Y | } } } } ..} Y ..t...=.y.a.w.....Y } Y Y  ...} F  .` ....} B t.R ..=...X.X.w.....W } ..| w.a.Y R R y.w.w.X.| w.X.| X.w.w.w.} T ........R ..R U U N F R N j & , , 4 z l Y T U R U ..T t.G b Z z 4 l : l R D b N H A } Z Z D v 9 ",
"4 : 9 4 6 9 l 9 c v l 4 * z G m z l j 2.*.A D D D =.F D Y F F R F Y D Y } =.! Y N N U N & l b U b 9 * k N F }  .&.=.&.' :.x.l.v.&.:.&.&.3.x.&.=.i.;. .A D 6.$.A M m m N m D D A Y R ;.D R F m Y Y D D G N F D m Y } Y Y Y D F F A D Z z 9 Z F F U D Y R ! R Z ! R T R =.R o.Y =.t.y.=.=.=.=.=.t.o.F R H D G z R U T G +.U ! T Q ! R U ! =.=.Q ! R +.=.! =.! +.+.T Y =.=.R +.=.;.o.H &.| H o.R =.+.+.O.R T T Q R O.R H C q 0 * 9 6 , b ! R Y T R U U D z w o.=.=.=.=.o.o.o.=.e.O.s.=.;.r.;.i.r.;.=.T ! ! ! ! T U ! +.Q ! Y , j k N Y H R Y -.D N D , j.:.Y T R R O.o.=.=.+.p.u.z.r.s.t.R F N T ! U R U U P E W U W U U U R b D A D H G B D ! p.r.r.+.| =.Y R o.R =.t.=.Y R ..i...&.} d.j.d.s.i.d.=.d.N.i.| X.i.i.| R ! t.R F ! =...p.R U ....Y X.Y ......! ..D B , 7 j j j z N 4 9 j j 4 c y.R Y } ! R c , 7 l D D B m ..Y } Y L F } X.} W } W W ....t.w.t.t.R -.X.F Y ..}  ...R F } } E R W ....W ..t...! W | ..| } } | W B } w.L ! W ! w.a.| | | X.w.} | X.X.Y R W R D ..Y W R T U F b : 4 : , j k N R R w.! ! W ! T p.D l b b * : 9 : j 0 l 7 7 l 5 0 j 6 - , ",
", q m z b S D b b T D N D z m k l 6 :.3.m D U D z U t.U D T R R D D Z D Y R R U F R D & 4 v N P & : m F | ..&.&. . .| -.-.3.3.y.*.x.x.&.3.<...v.:. .H D n.3.} X.( A A N N m z H Y Y Y F } Y D R Y N T D G Y b l N Y D | F G Z D | Y D z 9 6 N G R D Y =.R b b R R E +.Q =.=.=.o.+.e.R u.+.+.o.t.O.T %.R D U b R Y R R T =.R ! Q ! ! R R T T =.! +.! R t.! +.=.+.R O.+.=.o.+.R R Z.=.7 z T ;.o.O.R T R R T R R U R T D b , + , : 6 q Y Y G U R ! U T D k b ;.%.=.=.;.o.t.+.t.+.+.e.u.t.e.r.s.O.u.Q U e.T U ! U U ! R R Q Y k : l R Y i.R G %.D m G O s.i.T +.=.=.=.t.i.d.p.z.N.d.B.N.B.=.N , j d v , 6 6 6 6 4 a , , 6 6 l l l 9 l l 9 j l U u.u.t.=.=.H Y ..=.Q =.=.=.R R } y.=.H =.y.s.i.:.s.j.%.y.t.i.=.-.;.s.R =.t.=.Y | Y R ..=.R Y Y F } Y W N F | | R Y F : 6 z b D U b l l l j c k k.Y Y W Y b = 4 k & m Y N B } B F B B n } | Y } | } X.| | ..t.p.w.-...X.X.| R Y ..} X.|  ...=.t...R ! R W T t.! R Y w...L | w.Y } W } } R w.Y ..W | X.X.W w...w.w...Y } T U R Y Y ..R R U 9 & 4 , 4 , z N T T W t.R ..Y ..U d.G z V k * 9 & 9 D l C Z m D m Y D w 0 0 ",
"0 4 k k N z C b b j l b l j j 0 6 Y R D Z U R D D D L U N R R U G b Z Y R } =.D D m : 9 D U l : , k H H } H ' ' | }  .=.%.%.:.=.:.i.&.#.]  .i.3. .M F 9.x.=.=.=. .' } B N D z B R } F Y A ..D U D z D N b b G m z Y } R F Y B D F D N z 9 , D ;.%.R R Y ! D l ! T R T %.o.+.=.=.+.R R u.O.=.e.O.o.+.+.+.=.Y T G R R R R ! +.=.R =.R ! ..T R R R R R ! +.+.=.! T ;.+.+.R =.=.o.U d.C.u.+.=.! R u.+.+.O.T O.T R U T U T - : 0 6 9 9 l T R D T R U D G N 4 R %.R ;.d.=.o.t.e.e.+.+.o.u.z.e.+.d.t.s.+.T R Q E ! ! t.t.T +.R Y 6 7 l Y =.y.=.o.D D F R 6 i.i.T | y.u.+.R ;.y.d.d.u.d.d.d.d...Y b a 0 z C l b V q l b l l c D 7 l b b z w l l T t.e.=.=.%.y.' ' =.u.! =.! s.w.Y :.%.;.-.y.=.y.=.d.u.d.u.y...y.t.-...t.+.t.%.F Y F | R X.D Y Y ....Y X.R Y H H Y R ..N * : 7 d l N j j a j 0 : k a.N T ..T l 0 Z g.&.; Y Y Y X.F m B Y } } } W } } | | ..y.a.t.t.} =.y.X.=.i.U } `  .Y N R -.W =.R ..! U T W =.t.t...W ....W Y | ..} } | ..w.R ..W w.X.| W } } ......Y } R Y W F Y D W N - , 4 , 9 4 j L U ..L ......Q ! R D e.U b D l 6 7 , 9 C 7 Z b z z m l z l 6 , ",
"4 , k , & j f 6 6 : , 6 , j 6 p Z F D T U D R T Q D t...b N D R Y N D D ..G Y U b : 4 b C 0 , 9 m H Y A F | F X.F A ' %.;.*.H %.o.:.%.%.F &.:.Y m U n.6.y.' } ..' ^ ..N m Z b B Y } H A Z Y F N G Y N R D D D D F R R H D G D Y Y Y D b Z j 6 R R ..R ! R D D Y Y =.R R T R ! =.R ! Q y.+.R +.o.R =.R ! +.Y R +.R +.+.R R U =.=.+.U Q D R ! +.=.=.+.Q R +.! +.T Q =.=.e.=.o.y.! o.o.t.o.=.Q +.+.=.=.R U G R T C D l , + : : j x 9 b U R T ! U D G Y j k Y %.=.y.=.=.+.e.=.y.+.+.e.u.M.e.s.r.i.+.+.Q ;.=.p.r.e.T e.U Q ! U 7 9 9 Z R =.=.Y D =.Y Y j y.l.R o.=.+.=.=.t.e.;.y.+.;.t.w.s.t.T } U ..R +.e.t.R +.t...t.+.o.} ..t.+.=.=.R Q } | a.t.t.o.R R o.Y U t.R y.! a...%.} H | H =.=.&.=.z.z.s.l.y.} :.y.=.Y =...t.Y =.R ..=.R t.T =.t...=...w.Y Y %.R | D Y z 7 m / h.J.J.b.b.h.A d , N -.L Y w.U ..k :.H } , L T B Y B m F N m } Y B } w.w.} | R ..! y.y.i.=.R | } &.=.=.Y M B } R Y ....t.! T W ! ! ..w...Y ..| Y Y W ..X.} | | R } R X.| R ..} } w.....W Y W T ....R D N 4 - : : , 9 9 N L Y U ! ..w.! =.! T D D W d = , 0 * o , & > p : - ; : $ ; - O : j ",
", j & -.b.c.&.4.>.] <.>.&.&.F k M t m D T W ! G ! R R T Y N Y Y N D R F T N z m , 9 b C 7 : 9 m ` H  .} } Y X.Y F Y ' | ;.' %.=.%.' | +.%.` B x m 4.2.' y.=.%.H A ` } Y Z M Y R ..T } F ..Y F D m N B U U b b F D D D N N D Y Y R F Y N m j 9 D ..H Y ..R c C R R Y +.=.R +.=.R ! +.R =.=.! Y =.=.+.R U o.R ! ! R =.o.Q =.o.=.O.+.+.R ! ! ! T R =.T =.+.o.+.R +.=.=.;.Q =.T +.Y ! o.=.O.O.=.=.o.=.o.U R T T b b D O O - , , v b b q G F D U T G T a T =.H %.Y =.u.+.+.+.=.i.=.+.e.r.u.u.s.z.z.;.R t.;.y.d.R R +.=.T Q ! U 9 , 9 C R %.=.Q R =.G G , %.=.%.+.;.i.l.t.;.O.u.u.d.e.d.d.;.R Y t.=.| =.+.t.u.u.t.t.| =.=.;...=.i.i.y.u.R =.%.| X.;.! =.R %.=.D t...Y ! ! ! ..F F | | %.&.&.f.i.:.l.d.z.=.:.-.t.-.X.;...=...Y Y +.U D T t.t.t.t.t.t.R ......! U F } D , j M } 3.' ....=.m j j 4 ..U Y Y z =...m F b Q Y L N n F W N L n B B n } } W | } ..t.t.| t.;.t.X.y.X...=.Y  .` ` } t.B } y.W ! T ! ..T W ! w.t.W w.R Y Y | ..F ....Y Y R ..R Y } w.R ..| X...! Y R ! R ..z : 4 0 : 9 j k c T W N ..q.R ..! Y R R U d x Y &.y.X.=.=.-.&.y.%.&.&.&.X. .' &.&.;.B ",
"j = ;.V.i. .&.A ' ' H ` Y X.' D k k m D U ! R G =.t.Y ! U m R Y B R N Y L B 0 : 7 b C j : 6 0 ' %.} } Z ` Y F F B ` %.%.| H  .&.=.H ' y.=.m x N b.2.! %.R Y A =.Y M m B F F F Y R Y ..m D R F D z Z D Y Y l b b G m D m G z z U z D Z G D 9 , k D D F D U l z Q =.U %.T D ! ....R =.+.=.! =.+.=.t.! Q +.+.R Y R Y Q =.Y o.R R t.+.! +.R T R Y =.=.+.T R o.Q T R O.H =.t.! ! O.R Y ! Y R R R R o.R T T G R D Q C , & 6 = , , K b l l Y R Y D Z D - Y '.g.T R Q =.=.;.O.y.+.=.t.t.t.t.+.+.z.u.t.t.=.i.=.u.+.=.t.i.t.U +.R N j : b l R R R T =.=.Y R & :.g.Y =.=.%.u.e.T ! u.l.u.p.s.p.+.;.i.u.! R =.R Q e.e.t.t.t.=.=.&.i.d.%.;.y.p.=.y.;.=.%.' =.:.;.| y.....! T q.0.! T B Y } Y }  .&.i.v.y.y.u.u.t.%.%...y.=.-.;.=.Y T Y Y V D ! w.t.t.t.p.t.! W t.R ..=.R D F : : j N N D Y | T j j a 0 X.N T Y T ! B.+.l R T Y Y F L L L N Y B Y Y B N Y Y B R Y ..w.......y.......| } X. . .-.X.Y R | T W T W ..W F } R t.R F ..R ..Y Y W w.w.| Y ..T Y Y W T ..} } W y...Y Y T L Y k - : 4 4 9 0 z Y Y T | ! w.! R R R D Y & b b.!.I.Y.P.b.n.n.V.W.I.J.P.E.K.G.G.G.G.P.J.m ",
"= ' c...b G T b m m z z j 9 D N j j z G U Q R R F T F R R F R Y H m N W N N : 9 9 b , 7 9 Z A X.| ' | Z  .} F  .} } F } H %.H ` Y | ;.=.Y b Z <.&.R ! D F } R ! } Z N D D Y M } m B B B D B F Y F F F D D D Y T D R m z z z l m 9 D b N b l j : D D D G U 0 b R R ..R =.| R =.;.=...=.+.Q R i.;.=.! ! U Y o.G Y R T R R o.+.T R T Q =.R R U R =.o.o.R R =.R U +.! T Q =.R +.T =.T R Y R Q D T T R T T R G Y l & : = , 9 9 6 I C l D D F U R U l Y '.Q.T +.U =.=.R o.:.=.+.+.R R =.t.t.y.z.O.s.+.+.=.=.R ;.=.+.=.=.Q o.R R j : z D Y =.o.=.=.=.N D - | =.G R =.R t.u.+.y.t.u.t.u.s.e.t.t.=.=.! Y =.R t.! Q d.i.y.=.a.=.s.s.:.=.Y ! %.t.=.=.i.R :.' &.H t...H Y ! t.s.p.w.Y } Y &.| ` X.=.d.v.t.z.=.=.v.i.y.:.R =.i.a.p.G =...! R t.! U ! s.i.t.! ....! ..U ! } c * q 0 D D U D z R n a j 4 B U E L L N U R ! D D W W Y k n L } F F B Y L F N N X...} R } Y R N ..} ..R }  . .:.} } X.Y B m Y N N L Y N U W ! T Y } | ......W ..W Y ..W } R Y ..Y Y Y R } Y L X.Y Y U D j - 0 4 , l N U D U N W w.R ! ..R Y Y N - .._.Y.h.Y N L Y m Z m U Q z n Y m Y D H F G D - ",
": ] ] M D G H y y F Z z m b D m 9 9 z N G T R D R Y U Y R G G Y U z 4 4 : - & ; & & = : : l k M m m 2 0 m k k z m m w 0 Z Z Z 0 w Z l 6 * 6 :.' 4 k 9 0 8 0 b 0 z m 4 4 x x d a j j k c 4 4 0 N b R G Y Y U B Y m N m k N N b 0 0 N l b Z 9 0 4 m R R R Y z Y =.! R ..R R y.=.=.=.t.Q R +.=.! +.=.R o.U =.R T D R T R R R D T R R ! =.+.R T Q ! =.R T R Q =.Q R R R T U U T T T U b U R R R G G D D D D D D & , 7 - , j l v U C l m R F z H 9 U [.W.R +.=.R =.t.=.R =.! R t.o.=.O.d.+.e.e.=.u.u.e.R d , b =.| =.t.+.o.R R 7 - k D =.R H =.;.%.G l 6 | y.=.R =.Y =.u.s.u.;.i.t.+.t.e.u.! H Y =.y.;.R Y R R T Q =.| a.d.s.y.=.y.u.=.D | ;.R :.%.T ! ' o.s.! %.} | t.t.t.0.t.=.' =.U X.%.:.;.d.=.a.} -.;.d.d.y.=.t.i...=.=.Y =.r.+.t.! N t.p.u.t.t.....R ..R R ! l - , b M M D B F Y j a a & 0 N U U W T U R D m Y L Y U W F m Y Y } N F W Y N Y | R } R | Y } } R Y R F  ...F R }  ...B B Y } ....F B F Y ..! W W Y ..N N W R R T w...Y w...W W ..| Y R  .Y | ..Y b 4 * 4 , 9 j z Y T W T R ..R W q.! R w.R L : c.`.b.z z R N T N B Y G D D 0 D Y N G H Y Y H m - ",
"& #.S M A m =.G S D D m D D D D 9 , , U D T R D W ! U R T U D C l t.i.} =.R } Y R | R } %.&.-.i.-.=.-.%.} %.| =.;.y.=.;.-.:.;.;.=.y.-.i.j.g.c.3.i.:.g.i.3.:.f.3.>.:.=.%.X.}  .-.-.&. .X.H X.F k b N z D D D Y N m D m 7 j , k 3 0 9 0 9 4 9 7 , 4 R R ..| N N Y =...R =.=.=.| ;.=.R R =.d.! =.! %.R R =.R o.b D G G T U D R T T U ! U U R U R T +.R T R ! b D U R T T R T ! G Y N U R ! ! U U b R Y T R C - - 7 9 , - l l l T b j w F R D 6 D ].C.D R =.=.Q =.=...R R o.y.t.y.o.+.Q t.T R t.T ! w.& 9 Z , Y i.+.! +.R =.=.b , l D R R Y i.;.R D j 4 &.:.R t.=.T u.r.r.=.;.d.=.+.u.y.t.o.=.R +.R R | F Y y.O.t.y.l.B.d.i.z.d.v.B.N.t.=.i.y.;.;.Y R | | F ..=.Z ;.&.T =.+.! R d.t.! X.i.j.d.:.X.&. .&.;.y.j.t.=.=.d.o.t.y.R s.p.=.! U U U ..R t.t.Y ..w.t.T ! U n , 4 c | Y Y D U N j 4 j 4 & 4 N Y U W N Y N N L N N T W T n N B } F Y B B B F Y =.Y R Y Z X.Y H m } X...U Y R R } ! m } Y Y } U F Y N R T ..! ! R U Y Y B U U W ..w...} T T Y R X.` F ..F X.F b 4 * , , , - z D R W y.w.R ..| ..w.R R R Y - V._.y.b G Y R Y D b G ! U F D m D Z F R Y R ! U D X ",
": &. .A A Z R F D F m G D D Y N 9 v k b U U ! b ! U b D U D j Y b.).Z.b.b.b.g.f.b.b.c.h.Z.x.x.R.K.R.V.n.x.P.K.P.V.Z.V.v.n.n.Z.c.Z.Z.K.P.(.U.!.^.R.R.Q.(.Q.I.R.P.K.G.b.b.3.3.4.b.b.b.3.G.c.J.3.F 4 l n N B D F D D D b 2 D -.y.;.=...%.i.| Y 7 : 0 j Y ..R b B Y Y R Y =.=.;.Y =.R ! R +.=.! R ! R ! =.R R R l D T R R U +.! T =.T R U R D ! T o.R R R +.Y U D U Y o.R D U Y U T U T R b R ! T G D D G Y * + : , 6 9 j j C D R C 9 l Y G l C ].R.b D R =.+.R R =.R =.=.t.+.+.=.+.Q u.u.=.t.! U t.b 4 H h.g.= R R ;.=.+.+.R 9 9 z D R o.! t.t.:.Y m , ;.g.D u.y.+.+.=.o.R =.+.R r.u.e.e.+.+.+.t.U ! =.Y =.v.i.v.i.D.d.b.v.l.i.b.d.l.i.v.B.v.=.=.=.;.Y Y F =.t.R =.R T +.a.Y ..d.p.y.t.d.d.y.;.-.&.H :.t.:.i.i.| R ;.+.t.t.R =.t.p...T ..D e.=.s.R Y ..y.R w.w.W z : a k F D U B n n N , j 4 9 : & 4 j 4 4 4 4 4 4 4 , 0 4 j 4 j j 4 4 4 j 4 c 9 j N z N k z z k 0 j N b z k N k N b b z B N k l 0 0 U c k b b N b U N Y F Y T U U ....=.....Y N ..Y H =.H R F z , , , , a d U j Y R ..Y } w.Y R ..R R U l - W.~.&.b N Y Y U Y D D Y Y U G G Q G F Y R G U U Y B - ",
"- :.t.R H Z F Z G D Y F G U b U 4 6 9 z N D U U U U U D l l 0 I.j.N z N D Y Y 0 0 b N N z b D %.=.;.%.=.X.A A %.;.=.m H T ! G Y | R D H =.R ;.O.O.i.e.T A A H Y Y F Y m F D z b R L R Y Y T R Y z j 0 k D m F U F D z - y.y.| t.=.+.! Y R N , 9 , , 9 R =.m D ..;.Y R Y ! =.Y =.R R ! +.R ..Q R ! U =.Y R R D H H Y R R U R T Y D T R G T G %.R U Y G D =.R Y G R T T T R T G Y Y U D b U U U U Y D l - : 7 , 9 9 D l 7 V b +.b z l G k & Q.W.D Y R T +.+.R R =.=.=.y.=.=.+.+.W Q t.e.! q.w.t.e.=.D g.&.l.C y.O.R =.=...=.k - l H R =.;.....;.R m & &.x.Y =.Y =.+.+.! +.D +.e.d.e.r.u.y.| e.s.Y t.+.t.=.d.i.s.=.y.;.=.i...X.%.=.+.t.t.=.! Y ! t.F ! U } | ! | | Y } R ..} } ....=.! a.y.j.v.j.y.| y.! =.=...=.| F H R t.=.y.t.t.a.t.=.t...! R ....s.y...t.w...D X 4 L j N m Y B z N , a k 5 5 & : O X : X - X - : X , * - & & ; - : & - : = O : & , - 4 - O - - + X * - * - & & , - : : - & & , , * & ; : - - : - 4 z R Y W D U W W ..w.w.t.W T T Y } ..B : & 2 , , j j l L R l Y ..! R Y Y } R W T 4 0 !.Q.Y U Y Y H G z D D D D F N N Y Y D Z A H R R F Y M , ",
": &.=.| ' ` R Z H R D D U B m M 0 : 9 b U U Q U ! P D N b - g.Z.0 b T N D R N N m D G F D G R F z H Y F H z m 0 M F Z Y R =.H Y G B Y Y =.+.=.=.R R =.| &.} Y Y R  .} F D G F D R F N T D N R D z 4 4 l z b B U D F z , y.=.! t.y.:.! R ..N , q 9 j , 9 z 0 9 G D B C z D D T R D N Y D G D R b Y b D C D U D G b C b D D b D b b C U U l D D b z C D C b D D l C j l U l x D Z m N b 9 v b b D l 7 4 4 6 6 l l z z b b C C Q C 9 9 w - T.Q.U ! o.T U +.R R Q +.T ! Q i.;.e.+.+.t.t.t.! t.U Y T F.B.0 n V t.R t.R R R | F D & j H R =.} Y Y y.H z : i.v.R o.Y R =.+.t.y.+.e.u.+.+.t.Q t.+.e.+.=.t.! =.X.y.s.=.t.u.=.=.=.=.Z ;.Y t.! ;.=.U m G t.! t.X.=.i.t.;.=...} | e.} -...R ..t.t.t.t.s...i.i.y.:.i.R | X.%.Y } R G +.u.+.t...t.t...+.t.! ..R w.w...t...| N - 4 k m Y Y T D Y j j b j 7 0 & * : , & * , , 4 - , , : : & : : - : 4 : , 0 - 0 j 4 2 4 , 4 4 4 , * : 0 , , 4 4 , 4 4 - - & + : , 0 , , 4 , 0 : , , : 4 U T U U ..W ! W R ! ..} ! Y M k & & 4 4 9 9 k U N j k j j R ....R N N D Y : R !.I.D z Y R D D H H D Y D ! N b U Y R M F Z | U Y ! R M = ",
"* i.:.Z ' ` R H Z Z G Y R m D D 4 0 , k D U N U ! N b N 0 , :.} N Y N N U D b l b N z U F G Y U U N Y F H M Z z D z m Y R T D H H F | ! R T Y H H F F Y &.B ` } } Y U Y D Z B G } T Y D D D F N k , 4 m z N Y N N m b : t.....t.=...! =.t.U , l 0 j , 9 , : , , : : = = * = , * - & & O & : = & - * : & & & & : * * * - * * - & O = - , * & - * * O * & * : * O O & O & 4 * - , - : O : & & - - + , 6 : 4 j l m Z G b l U k U b l w * R.Q.U T R D T D D D R R U T R R =.Q +.o.s.t.t.e.e.=...! +.u.F.z.e.u.p.Q O.i.Q =.D D N , , G R R ..R | =.| H & ;.v.Y R Y R R =.+.! ! R t.t.R ..D ..=.t.+.t.t.T =.=.t...R q.u.=.R R G R =.y.%.=.=.o.P b D =.u.d.t.i.p.t.:.=.=.t.t.p.s.t.=.r.t.t.a.=.i.v.Y ;.;.i.g.y.i.} R R ;.} H B T a.t.=...t.T ..y.a.t.=.| X...t.i.Y F B : 0 9 N N Y R M B k x D j k 8 & , 4 4 4 , a j a 4 a , 4 j j 4 , 4 4 : 4 , 4 4 4 0 9 j j 4 0 k 4 & - 4 j a j 4 : , : q , * , 6 4 , j j b k x a , l 4 4 4 X L Y Y T R ! R T R R L R R - , , , : , , b U U N - 4 j U 2 D U ..z Y D + =.`.P.k N U D T R T D M Y D Y U G D G D Y D T Y Y R Y Z D m : ",
"O 3.i.T } } H Z H Y Y R ! F D D j , , j z z C Y N b b k z : ' H N m D N F B N l D N N Y b b Y D D D D D N G D Z N b k T H +.T H H Y G Y G z D Y H %.H Y ..} H H Y | D F } F F m R D D D F D N D N : 4 j D N D Y D Y m - y.t.! t.t.s.t.=...U - z b 0 4 9 9 , 9 , , : , 6 - 6 - 6 9 : = 6 , 7 : , 4 * - : 6 , * - , : 6 9 : 9 , 4 - - : 9 , , 4 - - - 6 6 & 9 6 * - : - : , - - - - - - & * = - - , 9 q 9 a z F N D D b l T l U c z & n.!.S T T R o.R Y T Y Y R =.U R t.+.R =.t.t.w.e.=.! t.i.t.t.Q u.N.u.d.+.i.R =.! ! =.Y b , U 0 R ..i.l.i.:.=.m O y.v.Y ! %.F +.=.;.+.R +.y.Y ..t.G =.;.t.=.Y ..R t.a.t...t.t.t.! F ! ! =.Y ..y.y.e.+.C D F y.t.y.+.t.t.! F F =.t.u.t.+.=.R p.t.p.d.=.i.i.&.:.;.g.j.y.-.&.} | } F ....=.=...t.R t...i.t.=.;...} y.-.;...Y ..N : k 0 N R U R Y m 5 k k l M ` & - x c a , 4 z j j j c c 7 k a b j z a j j l 0 j 0 l b N k b z 4 9 l j c 4 l j z 7 x N : 7 j j j > m N N 0 j 9 c 4 k a l 4 * b Y U R R R D U ! U 0 : - 4 4 9 l 9 j P U W b 4 j 0 b k 7 b N N D , i.[.V.N ..U U Y Y R G D D H U U D F U U D N D U D m G Y Z H Y 2 ",
"+ x.v.e.%.Y Y Y R Y Y D D F D U j , , j k z D D z c z b 9 = ' H D D D N m D D l F D z F l m G Z 9 G R Y U R } R m l 0 N F G Y F D Y Z D H D D Y R G R H F Y Y X.F F b D Z ' A Y R z Y N m D D G N : l 4 F U D N D D D & y.i...+.t.t.! t.R m , k N N 0 z 7 j x 4 : 6 & , d , * 9 , d , , 6 d 7 , , : 6 , : , , = , , 6 : 9 7 , q : : 6 , 2 : , 7 * 6 - 6 9 : : , : 7 q , : = , , , : , , * - : 6 9 j j k m B D T G Y z , z l ! N , Z._.%.D ! R +.R Q R R ..Y =.R R T =.U Y :.=.t.t.R t.t.t.t.=.R y.+.e.! ! =.t.+.R o.R =.! k 4 b Q C F ..=.y.-.=.D - y.j.=.+.} G =.y.i.+.H t.%.t.s.t.=.=.i.! R t.t.t.i.d.i.! t.s.t.F R Y =.i.=.H Y ! Q u.W Q o.y.t...R } :.u.%.Y ! ! +.r.r.R } p.t.s.i.i.i.Y X.:.X.&.d.R %.y.Y Y -.X...s.t.y.D Y  .N =.y.! ;.=.` =.w.} } ..R | Z , j 4 k D b b Y M b x F z M A   - l U j , l z N B N k N c b B R N c L L b c z N N N N N U z : k j j l N l z U N N U x , 6 j l d }  .U N l U N N l l j j j 4 : k U U D B N W b , O , - 4 9 j b N b D T U b 4 , x D b N 5 N Y & b.(.h.5 R F ..U D R Y G D D D D G F N m Y U D R R D Z Z F U R U : ",
"- x.i...R R Y ..=.Y F Y D | D D , : 9 k m l N b z z N k 4 X | H z T F D m D m k D Y m B b Y | D Y Y G D R Y R H G U b D G H F Y D D D R G U G R T D G Y H F G Y Y Y } Z F =.Y Y Y D Y D D N D Y N , j 0 z N D D D D D * y.a.! ..R y.=.! =.U * 0 m Y Y G z b P , 6 9 & j , 9 j 6 , j c 7 x l , , 4 9 , , , q : 6 9 9 j 0 l l 9 0 9 9 6 9 q l l l z 6 0 w 0 x 7 9 9 6 9 , w j 9 l 6 7 4 , q 9 l w j k N B k N U B N D m D z 7 D & :.Q.&.b R ! R T +.o.D R o.o.=.o.G C +.R ;.! o.+.t.t.t.t.t.s.=.=.=.+.t.t.t.+.e.t.+.+.! t.T k : 4 C s.R | =.D ' | } * j.g.&.%.| ! t.=.=.u.;.t.=.U u.y.=.=.t.t.+.e.t.t.s.s.=.R t.d.e.t.R | ! | Y +.=.y.e.s.W P +.p.d.e.T R t.=.o.%.r.p.q.t.d.t.=.q.p.t.t...F Y R X...F =...=.&.Y } &...i.=...y.y.Y T B ..R ..s.s.y...} ..Y } Y } B * a 4 c l B 0 B D k l D N m ` X , D N j j b m n N z n c Y L N c Y W L U N N N N j n N U N , , l j l l l N b N a U c j c 7 b x } f.} N N Y U N L B L N c 4 4 0 : 0 Y D k k N : , 9 , 9 l l j b U U C U T b : D 4 N N l m 4 $ b.(.t.b R R B Y G U Y Y U R Y N m Y U Y A Y U Y D U G Z F Z Y Y G - ",
"= i.;.| R u.+.R D F F R B D m N 4 , 0 l w b b N k k 0 9 - O H } D D D N D N D z D N B F N D R F N G D D T R Y U G N b Y | Y R G T R U T U k C R R U G U %.Y H Y | F Y H F R T R F B B N Y Y R Y N 4 j j b z U Y F U N * y.t...! t.! t.! =.T 9 k N Y G D D G ! 4 j T l N l b Z b l b D l C P = j j j z j l 0 q j 9 b b N T m b b z V b b m z 0 m b D Z z D N k k z D l b m m N j b Z D l z j z l N z D N b R D D m D Y x z m & :.^.&.z D D Y R D Y =.R Y %.=.H %.Y ! %.U F U y.e.t.t.! t.=.y.y.=.s.t.Q =.t.p.t.=.! R ! =.! l , , , E m.! T t.| H F O i.v.A X.| F i.=.=.y.=.y.l.;.=.t.t.u.d.u.e.e.Q F y.B.d.U ! ..w.p...B Y Y R B.s.y.p.e.T Y =.t.z.r.! t.d.a.y.t.! 0.e.0.e.r.r.e.Y =.! q.R Y Y %.| :.=.&.| =.X.A X...y.&.=.=.=.X.' R Y m } &.=.a.t.} i.} ..Y M N , 4 P T b n n F m a l N L B m & , j 4 4 $ z k k c j N N c c a c k c L l c b c l k z 7 9 & : , x , p , a j 4 k c i : c j N x Y X.N L m L N Y Y N U D U Y b x 9 9 : 4 0 4 , O 7 , j 6 j j D N m D D b D Y U : b b D b D 4 , L.I.X.k F Y Y G R R U ! F b R Y D b F Y Y D T T D Y U Y U Y m M F D , ",
"- b.:.H R +.! R G D Y U G D M B 0 : 4 l b k z b 0 l j , 6 , H } m D D D D F N j D B D N N F %.Y Y F D Y Y R R =.R D N R R U R R N U N N Y N Y Y D N Y o.+.| Y Y Y %.} } Y } R R Y Y D b G Y Y Y N , 0 k 0 Y Y D G D N * a.t.R q.t.! =.R ! R 9 k D Y Y Y Y U e.0 C ! k c b G G b z b D z U Q & z k l z b m z j c l D G Y Y ! R Y Y Z N T G U D U b Y Y G U Y G D z U m D N z D D Z m D U F N N N R D B Y Y D D U U U N , N - Y '.h.l b Y D R Y Y R +.=.=.;.+.R o.Y ! =.+.R =.R U +.! Y %.t.=.y.=.=.=.p.t...s.q.U t.t.Q R R 9 : 4 b 7 U s.b U | R B O :.g.H =.=.=.;.%.=.y.R e.u.y.=.t.y.u.e.e.t.t.u.t.p.B.i.%.! t...t.p.R O.=.#.i.t.t.e.t.T F =.=.=.s.s.r.t.! y.t.p.r.0.r.e.r.e.! e.r.p.s.=.=.Y X.%.| =...Y F ..Y } f.&.i.i.-.F F ..| Y  .&.%.} Y W .. .} R Y } B : j b b m m n B B 4 j c x m m 1 m L B Y F m B n N B B F F L W B N N U N L | N B m m l z z b N B N D n m N R D W D F Y Y j L :.} F L F Y L N F R Y B D D b k j 9 , , , : , , , j j j z z N U D k N U z D D = R q 7 D O j Y.I.B b Y N R Y T T Y T D Z D F Y R G b m D N N Y N m D ! Y Z H m H D : ",
": v.i.R ! =.R R Y G G D D U D N 4 , : z N z z z z 9 & 6 - : Y F N b b b T F k k z D Y N b B F F R Y N Z D Y ..R R G z R +.U D R R U Y U R R Y F Y &.H +.+.R Y | } | R Z Y L D T R R R D Y ! U U b 9 9 j N b N R U b j * =.R ! ! ! ! ! R =.b j 9 b Y } ! G U ! 9 c E 9 c C D b b V b b Z +.O.- j 9 j 9 k l b j l b 9 D U R Y D Y G Y N ! Y U U U U D U D D Y Y Y F D D b D Y U D U B b N N D b N D N D m U l D N B D 0 j . F `.b.j Y F Y R F R R Y R H R o.=.=.=.t.! +.! T Y Y =.u.+.=.:.=...t.t.t.e.i.t.t.i.+.! +.=.t.+.} 0 & , j b j b r.U F R z - y.g.H y.=.! =.=.;.=.+.+.=.O.! =.T t.+.i.+.d.=.} t.a.d.=.| t.q.w.+.! Z y.y.=.y.=.t.R b N +.e.s.j.i. .R ! ..r.p.r.0.r.r.m.e.r.p.r.t...R } ..Y =.=.%.G D Y ..} X.:.:.d.s.X. .X.} ..} } =.} t...| ..Y ` Y } } B : 9 l B Y N F N n z l 5 & B c.c.3. .k.P.G.k.2.2.g.1.J.k.k.k.b.f.f.S.L.V.k.b.P.f.f. .:.b.x.f.h.:.b.h.-.2.k.P.b.V.Z.P.h.b.X.B m N F N F N Y Y Y U Y B N N N z l j 9 , 7 , : j x c b 9 N b D l D U 4 M m 9 c 6 U j 4 * D I.J.j N m Y R U U U ! N N D Z Y | R D D U U D b L T U B ! R Y Y R D T U , ",
"O =.=.U R R R U D D D m Y N R b 4 - j j z B z N k = , & 7 , Y Y b D D D F N z l N Y G Y D F Y %.Y D G H H =.G R Y D D } R ! U R T F F U Y Y D H R ! R R R H ! X.` Y Y D F Y R R T D Y D R U U D b 4 4 z N B Y R D D z + t.a.+.t.t.=.t.q.R U 9 4 Y } Y U U ! s.9 C U 6 D D z C N D D D V E W - j x 7 k l , N l b k j G Y Y D D T G D U N D b D U D U U D D Y R o.F D D D Y D D F G N M Y D Y D Y Y D F D N B F B m D m : j Q.b.l R G R ..F G R R G R R F =.o.=.t.! e.e.! =.H R ! y.=.=.:.t...! t.=.s.! u...-.=.t.=.! Y R Y c ; , , l N b v r.U k B , -.g...+.=.e.o.+.R ;.R R =.u.=.%.=.! +.+.%.R y.=.a.d.u.i.t.i.q.t.p.r.R s.p.t.t.t.t.| Y D H d.! -.:.&.=.! R p.r.! e.e.e.r.s.m.t.t.t.s.T D ! ;.R R =.} D Y R :.| y.l.s.=. .&.i.i.H X.&.=.t.=.}  .} t.=...F ..Y - * 0 z n n L b F a j a B h. .B L n R W B Y N B B Y B L Y N F Y Y Y Y W N B W N Y k N G m D c W R N U N U T Y L R Y } ..R R 4 z N L N Y N Y N Y T N F F D z N D k 0 j x j 0 0 U U , 9 b c D b m R l z F D 9 C l * } Q.h.j T N T R T Y D Y N U R D Z H R ! H D R ! ! U ! N Y Y R Y Y R ! D ! U 7 ",
": &.=.G R W R ! Y D C G Y Y ! D 0 & , j k Y N 9 : , , 6 , - | H l D D D Y D N ..;.y.....&.i.;.=.Y Y N G H Y Y R %.U D T R ;.R R Y G R R Y Y D F | | | ! %.R R Z A } Y W R N R U D R U U U T U U l 4 j z Y D D D T D l 4 -.w.! =.! T ..! t.D : b D G U Y U R p.k b W j C C b l D C C D b U I 2 7 9 9 7 l b 9 , j b l H o.D D F F Y N G N D ! N T N U U U Y G R F Y Y D U N U b Y F Y D N D N D Y D D D Y B b D M m A 0 & W.P.0 Y U Y Y H Y =.%.=.=.R +.;.;.t.i.U R +.t.R T T Y U R =.=.i.=.t.t.! t.t.s.t.d...a...U t.R ..R l * , 9 b b b l c p.E 7 O i.v.R R +.+.t.t.R +.R } :.t.=.X.;.t.+.=.t.....=...t.u.=...=.t.t.t...p.s.! a.t.p.t.Y G D ;.i.| g.;.=.%.%.:.e.r.Q U s.s.r.e.N.s...s.p...Y ;.t.R Y =.;.=.M F Y -.>.i.| m  .:.=.-.X.Y } y.....&.....Y  .R Y ..W , a j L N n L F m 5 k & f.2.5 k c N L W F L R N L L L b N Y U L N L U U m N E K K j 4 z b E N U b U U b j b L L U U U R N Y a z N N N l N W U Y N Y Y D D N U T R b b N l D m R U d l N b D b m N T x N 0 , D + :.~.y., U N F L U T Y U D U R D F R Y Y Y F Y N R R T R N R R ..R Y R R D D Y 2 ",
"- -.-.Y R ! ..R R | R H R R U R 4 : 4 z m m j , : , , , 9 * X.Y D m N U L b U Y Y Y D Y D B ..R | R T R Y G Y } G N b ! o.;...R Y | R ..Y %.H | | F %.=.R Y T z N N F | ! N T D D D U N D T b R b - 4 l m D D G R R z , ..t.t.t.T Y R ! R b 4 0 z D D D N U e.0 v U j l b D b l l D b l U Q * 9 9 9 0 l b l 6 w z 9 | R F Y G H Y Y b U b D Y D D U b D } G H R N M D D N R D N Y z N z F N D M N b Z F C C D m m 0 & ^.R.D G ..Y F Z A | =.=.%.R ! +.R R i...R ..=.R R o.Y H +.+.=.s.R ! s.t.t.t.i.=.=.t.t.t.a.y...T ! R a ; , 9 D l x l b D r.C O ..i.R R o.=.! =.=.! ....t.y.=.t.i.=.! =.! t...=...d.t.s.t.! =.y.! ! j.B.t.p.t.s.t.t.U Y &...;.=...} %.;.y.p.q.e.r.e.p.p.m.u.=.! t.U |  .} =.} Y B H  .Y ` } X.w.| F X.Y ` ..t.y.;.} ..t.=.a.|  .y.X.Y Y } N 4 , 1 F Y F W N ` z > j 2.B n m j N ! c B L N L N F n Y W Y N N c L N N N N T T c j 4 j b Y N U b b D b c N U z L N N Y Y N l 4 B n N N Y U D T z L U F Y T Y Y D U D D z m F Y T 9 N N k z m z 0 N N j j 0 * f.~.-.K R N b Y T D R R D Y R T Y ..Y F Y T T Y Y R R Y R ........R G ..} Y Y F 4 ",
"+ g.y.G U ..R Y H } R Y R D U D 4 2 4 l l m 4 4 q j x , - , | | D z z D N T D D T Y Y } Y R U ! Y =.T R =.! U R R U G R +.+.=.R Y | | +.Y %.;.R ;.=.R t.R U Y Y Y } N F N Y U R D D F F Y N Y R N : : 9 N M U U Y R l - ..=.=...R R ..R ! b 4 j z D C G N U e.- C W 6 D D N D b 9 C C l E e.& l 0 7 j l w z 2 D D q | =.F R H Y Y F N Y U U Y Y D b Y N Y Y D Y D Y D T Y z N N b N N D N m Z B D M F F D F } Z Z : E._.Y Y G F H H %.Y =.=.R =.=.t.Q =.t.! ! ..y.%.R R =.R T R +.u.u.t.+.! t.t.u.t.i.! w.t...R ! ..t.R N z : 9 l b x U D U b l U & X.i.Q Q T ;.R ! =.Q R | &.t.=.t.=.R } ;.y.....w.y.d.v.t.p.t.=. .y.t.s.s.s.t.i.t.;.;.! Y }  .:.+.} =.%.F y.d.r.m.p.r.t.M.s.=.Y R X.Y Y Y U F D | Y } R Y  . .| X.-. . .&...a.a.a.t...-.X.y.X.t. ...Y } X.F c : 4 k N ! W N F B N : k } B n L T U t.N L m ..c N F Y N L L Y c N N N W N L P U z b j N b Y B N N U N b L T N N N N b N D Y 4 4 n N m m Y U D L b L Y m V G D b j Z T Y D N D D T , N l D z l l N k N N , & b.Q. .c t.U c N L T T T ! F Y R R R R F U ! ! N U T ....} B T } ..} R Y ..} Y R Y & ",
", i.i.H R +.F R R R Y R ! U ! D 9 : j l 4 : 4 b U N 7 : 9 = =.Y D D N z D D D m N b Y } Y ..D Y R =.B Y t.R ..=.! N D ! +.+.=.=.=.;.;.=.u.=.i.t.=.=.=.R R Y Y =.f.i. .m N Y D N H Y G Y Y Y Y Y 0 & 0 j N G F Y D N k - =.=.Y R ..T U Y R C = , : - b N D T e.j c W 6 C b l Z b D b D C Q +.; q l q l D b l 9 D T D R R R =.%.R F R R ! G Y F Y Y D F Y G F C z H R D b N N N N U W U F N m F N D B D G Y Y Y D : P.^.;.T Y R F ' | | H Y =.Y =.t.R R +.t.=.=.Y Q d.=.R R =.+.=.Q i.! t.=.t.t.w.i.t.t.a.d...=.T D Y T R ..a : 4 l x j U b N G k - * :.g.! R R y.Q +.R R Y Y Y ;.=.R +.t.} X.R ..W ..t.j.y.;.! p.i.=.t.d.t.t.M.+.t.R | | D N :. .=.t.%.} H &...t.p.+.a.a.m.=.i.=.=.R H } R R F F B F Y | i.R } }  .i... . . .y.T y...t.} X...y.X.} } ....W R R m 4 j a b U ! W n Y j ; m f.N n Y N U Y N R L W L N k U R L L N N b N D N Y U U b U j j N l N N b B N U k b T L c Y N N N N Y 4 a c c N m m N U N N B U U D C - - : - F D N F D Y E 9 l b z Y D k j U b , ; P.I.A b B F z N n U N U U | R G ! D R ..R W ! ! ! T R ! R R T R ..y.t.R R R ..! Y G , ",
", i.y.R =.R Y ..R Q Y R R T W R k 7 l 6 & j b b b l & b l , %.Y T U D N D U D N ..U R R Y ..Y Y R H Y =.R ..| R =.D U R t.o.=.t.R t.%.=.=.=.} ! =.' | D D ..y.j.j.y.=.F , D Y F D ..Y G Y R N R z & 9 z D U G F Y Y k * ....D ..! R G =.R l , & :.Y V Y G U O.9 D C , D U k D b D C C C ! e.- l 4 x 0 l k j 9 D b G ;.;.=.-.o.| | R | G D U G ..Y R G Y F N G B D Y D D b N N N N n F B n N N N R Y F R Y R T & V.[...Q R R Y H Y Y %.=.Y R =...s.t.R =.=.i.! t.t.+.+.Y =.=.y.Q ..! u...t.t.t.i.t.t.=.=.! t.! ! R Y T U T j 4 4 l N c b D b N k 4 & g.y.Y R Y ..! ! ! Y R R .. .R U Y T Y R F Y R R =.g.y.&.=.=.=.=.u.u.=.u.u.+.| ..;.R D D ;.&.H R ' X.F i. .i.y.R | i.s.:.;.! U N F D R e.Y Q Y k ..:.y.t.-. . ...w.X.] | | k.} | ..=.&.-...i.| } } t...R R B O j k m R ..Y L R 4 = a f.W Y W N L N L N Y U N F L N N L n U c z L m m N W T b N l 9 z j B N Y D U b D b N k N L U b z b U 9 j j N z N N Y N U U D T N z l 6 0 &.&.9 m l D D R U j j G b b b b b b : b I.L.B k Y T R U N B Y T Y R T ..R ..Y R t.R Y T W Y T U Y ..R ! ....y.y.U Y R R Y R D 4 ",
", d.:.T +.R =.=.R R U W Y R ! T j - : - j b b U j : C U 9 , =.Y D F z Y Y R R c R R ..T R N R =.D R Y Y R Y R Y ..T D R =.;.;.t.d...=.t.=...} =.s.=.t.U R =.:.j.i.i...Y b z Y D G R Y U Y R D Y 0 - : j b B D N F G z - Y R G F Y F Y Y Y D 7 8 %.| 9 R Y O.u.w b Q , U l l D D T C b D T +.- z j l j k z l j G D z F =.=.y.=.| R | Y G R Y N N R F F D Y D D Y Y F F z U F Y N N Y N Y T Y N N Y Y N W U B X k._.y.m =.=.F R R ..Z H R R o.t.i.=.! ! ....=.T q.! t.p.=.=.i.+.R R =.=.t.t.t.a.s.N.=.p.y.=.t.y.=.a.Y N N U N , p k D l b B b N x j . y.:.F R Y ..R ..t.W ..=.| R Y R R } ..F %.=.Y R t.v.t.=.i.-.| ..i.! R y.+.! =.;.X.| R N d.i.%.&.-.| | } &.:.=. .i.%.X.i.d.=.u.} } D +.W =.! R R a.d.=.a.| `  .y.....Y ..| w... ...y...t. .2.i.y.X.w...w.Y m 4 4 D b N n N Y ..k , j | Y L L T U c N U T L c N N a L N L L N m Y k N U c Y Y N c 0 l z j k N N b c l U U b U U U N b U z 4 4 k j N b U L b E T Y N N U N 7 F F %.= b N Y z +.Q 7 D b b b b N D 4 | Q.K.N B Y } N Y L L Y R ....Y ....T ....R ..W ..! Y Y N ! N T W R ..t.W } T T R ..R Y U , ",
"- i.y.G o.=.=.T =.R R t.! T W T j & * j x b U 9 : R T b 9 : | Y N Y G N D U ! Y R R ....R D R =.R ! Y U R F F Y Y G D R =.t.;.=.! R t.t.+.R ..s.R ! T b R } y.j.f.=.=.R j 0 D Y Y R F Y H D Y U b & , l D N D D N N Z , 9 b k k l M z k l l - 7 Z z V F D Y u.l b Q , C b l G N C C C D W e.4 l l j l m D N j R U l H %.;.=.:.=.R Y | R R =.R Y Y Y H H D F R R F Y Y Y G N N U ! Y N T B F N B U U R b Y & =.{.d.b R Y | R | R Y H R y.D +.+.R t.Y ;...t...R t.e.+.u.p.;.R =.R =.-.R =.=.y.=.=.d.t.t.! y.i.=.=...T T ..R z , , 0 l l b z z N l j & &.f.H X.A &.} R ;.....y.Y R R } -.....=.| ! R D =.=.=.y.y.i.;.| ..U R +.Q R R -.X.| +.m t.+.| ;.&.| &...=.| :.%.:.| H d.+.r.r.y.=.+.+.u.t.s.y.R =.d.s.t.m ` | | | X.| Y  .R Y ..-.i.j.y.`  ...Y } i.y.Y R Y , 4 l k z ..w.F D z , N ] L L L W T Y N Y T L N z N L W N L c L L z n k N U N T U b b z k b x 9 4 b z D j L N U U c U N D c 4 j 4 z z l N U N L b D U N L L N z z 0 b z Z Y b R E 9 b C c c N T , -._.h.5 R } | R R B R R ..T ..R R R =.R Y Y ..=.t...W ..R R Y U U Y ..R w.-.} ..| ....R R Y : ",
": b.t.Y Y T Y R ..! ..W ! W R N 0 , , l b D b : T R F b l > %.| b R ..R Y R R R R W R ....T Y } Y F Y Y %.Y R } D Y H | =.R ;.=...R ..R =...! R R Y T U D Y f.j.g.=.=.D z j Y ..R R Y | T R R Y Y , 7 k U N D b U m z - , & 4 - & 6 - - - 4 0 , , D Y R | } e.9 C R , b b Z C C D C C b ! e.@ b k z l N D b b U D m D Z D Y | Y Y H b Z H Y } Y D F G D F D H Y B D F F U D U D W R U Y N N Y Y B N N F - y.|.b.z Y R ! R =.| | R %.=.u.R =.t.Q R w.R ! t.! w.t.t.t.t.u.=.R R =.R =.y...Y t.d.t.t.s...=.=.=.:.d...} R ..} 4 , a j 9 l j l l z b j &  .y.N R F ..R | ;.=.-.R -.R Y R } -.+.t.y.t.R R y.y.y.=.| g.| ..%.=.=.R Y =.=.%.%.;.Y Z i.a.;.=.=.H %.=.| | %.&.:.%.F u.r.z.+.u.t.u.p.p.z.i.D Y Y g.t.F F ` f... .} M  .D F } ..t...R }  .} | Y ..R t.W t.L : k j 0 N F L z Y z : a w.N c b T Y n a L W N N Y U T Y F Y Y L U N Y M F U l P b L b z z b b - - : j R U N N W U U W N ! D - , j k N Y N D L U b N T L b L D b , j N l B D b ! U = b k C l N - :.[.g.N D F w.F Y F R ....! W W ..R Y ..| ....| ....R T W R U ..R ..W ! ....X.| Y } ..F t.! D , ",
"- i.=.T F ..U R ! ..! T ! ! Y T j , 9 j b k , b U N U b x : i.=.D Y T } | R Y N T N ....R F Y Y D Y R ..} R ..=.Y N D =.| -.:.| } =.....T ..t.! ! ....L b N | y.R  .B z k j T R R R R %...D Y Y z * 4 , b D N U R b z j 0 : , : , 6 - 7 , 7 j z D G D F Y ..p.2 C U j b b D D b V D b l Q r.+ 9 b b b z V m l D G 9 : , : : - , , 9 6 - 9 7 9 6 6 - - : : - - 6 7 = , - 9 b b N } W Y L Y Y D N D m B 4 F }.P.m =.Y t.R T ....Y =.=.=.t.q.! ! ! +.e.R ! t.t.t.! ! ! p.t.R y.t.u.;.Y R =.R u.d.t.i.y.=.i.=.Y =.=.t.R ;.} =.0 4 j b 9 N N c l N j , +  . .D T U ..=.=.! =.=.} } =.&.Y | %.=...R R D Y ..i.y.! Y } Y Y Y ..R F G R R ! R X.F Y ..s...i.y...} &.X.} &.%.-.&.H a.r.z.d.r.s.q.s.B.l.=.=.=.| Y -.R ..y.-...} M H Y } R =.R w.! | | ..R ..! t.p.t.w.t.! 2 b b U N m n m m 4 4 l X.j n F Y Y F U F E b N } N Y N N Y L W Y L b N W U b b c N b T N c , 9 F g.0 k z N N E U U N T b U 4 , a n Y Y U U b L N W T b z N z N Z m z z U D D ! I : D 9 k j : j._.f.5 Y Y ` } | Y R Y Y | W ..| Y ..R ......R ....R .. .....R T W R R R R w.X.X.U D } ..R ..Y 4 ",
"* :.=.D R Y =.+.! R ..T ! T W W l : j z 4 : R T l N U D j & x.R b R Y D Y Y R R R T Y R U R Y Y F X.R G Y ..R R Y D U H =.=.=.| } ..&.R } R =...R w.t.W N l N N Y z b z 4 l F Y ! Y Y R ..G R R D , 4 l k U Y D D U G z k 4 q 0 9 9 , j 9 w C l l R Y R D ! s.0 b W j C b D C b l b D Z E Q 9 l l b b D z C 7 b D 7 7 z 7 q q 8 7 0 6 9 7 l q 2 8 2 7 7 + q 9 0 7 4 b 6 4 9 B D R U N N Y T Y T N T l z }.~.Y =.o.R R ..R W R R T =.=.;.+.e.! t.! ..! t.R t.t.! R s.i.=.a.e.t.! ' H R | ..t.s.i.s.t.s.i.| R d.=.=.R R R Y N : 4 l , j k l b b L 4 - | :.b U T ! R R R =.Y ..t.} Y &.' :.| X.%.y.i.a.v.V.R Y j l N l j l j l j l l b D D 0 G ! =.&.:.i.X. .Y  .y.| %.;.&.&.=.s.d.e.M.N.p.s.g.i.v.u.=.;.y.t.d...=.! | =.} T R Y =.i.! y.R L } y...t...w.a.p.p.! ! - j b B k z N B N z : j ` m N N W D N N U W U N L L N Y W F Y F L N K Y T U N T U N U T U U = D M ..b j c T U K T T D N U U 9 , k m L N j N T L N U N N D m D k D N m D b b b ! ! 4 b b p 1 L.`.g.b D Y  .} ..y.L Y ..Y R } W ..R w...R ! ......=.....Y ......R ......W ..} X.y.| } ..R W ..R - ",
": g.i.Y R ! ! ..! U R ! R R U T 4 , 9 p : R R U D G D j 0 , i.R m D Y ..Y Y Y l b b l b l U N l b m D b z b b N D m z | =.:.;.|  .R -.....} X.Y F R Y F N c z m z b k m j R Y } } ..F R R Y G Y N & 4 l N Y D b D D N k 0 D D D 7 z b b b b N N U U R Y G R y.- j U , z l 0 b b m 9 b m U +.* b l N b V b z 9 +.r.r.e.Q +.e.p.e.O.Q O.O.e.t.t.! O.O.s.t.u.r.e.s.e.E e.! l 4 0 D U R N Y U U m Y G 5 + [._.%.=.=.=...! R R ......o.R =.Y =.e.e.t.! ! ! t.! ! t.t.! =.=.i.t.t.! ! Y R t...Y y.t.t.Y H t.=.Y u.+.y.R t.=.Y T z - x l z D 4 j j k j 9 o =.:.Y ! U T Y -...} Y &.&.|  .&.:.b.x.h.x.v.v.v.g.=.R N 9 , : , 9 & = , 4 : 9 7 : 4 k Y =.l.....&.:.:. .-...H | H  .-.X.d.d.d.s.s.t.| ..u.u.s.&...u.t.X.R ..=.} Y R t.y.a.t.t.y.U Y } | ..w.t.t.w.p.t.t.q.E + 4 b B N | Y ..z j : b a.B L F Y Y m m z N ! W F W W ....F N N c b ! c b N N R K U U U Q +.d.z Z b k c Y Y U U x T U U N b k 4 j l N D U U L N Y N T D D F N D N U b N N N l ! I 4 v , : Y._...N ..D ..} ....R Y L R T W w...W ....t...t...! ....X.X.w.........T ..y.R R Y ..| Y X.} ..| R .., ",
"- i.d.T U ....R R R R R ! R R Y a 4 , * U T D U N G D z 4 : :...N D D B Y F z 4 > 4 , : , , , , , , , 6 , 6 , j , , b +.:.=.| R Y Y } ..` ` F Y L N  .Y ..N j 4 z k 0 - l T R R R ! R R U } D Y N , , k N Y G U Y D Y z z k z N z l b b D m N j N B H R H O.d., x l 4 l l l b b l l b b R Q - l N b G z z D l T ;.e.+.+.Q +.p.=.D T U T +.U O.e.O.O.e.+.;.O.! +.e.! T u.+.- = b U n B m l L m B D * ).).D %.R ! R ! ! t.....R R R Y R ..i.t.! ! t.+.! ! =.t.! T ! e.! t.t.u.=.=.=.R t.=.d.t.t.! =.} y.s.i.=.+.=.y.i.=...R 0 : 9 0 l l j k k c j , & X.:.Y } R } Y Y | } } ;.=.=.....3.g.=.R R R =.=.R =.R R b U D D F Y D F F D Z Y F R | y.:.v.=.-. ...i.y.X. .| &.&...Y } v.z.r.d.M.=.t.t.R t.! -.&. .=.=.d.j.-.i.=.t.j.d.a.a.t.t.w.} j...W t...w.Y ! t.q.t.! : j N L L Y L W c k , m k...m Y L n N B D N W U ..R ..W F W Y Y N l c L c L W W U N W ! ! Q l.u.6 x ! E b Y T K D l b N Y D : , c n F T Y Y L n Y m F D U b U U T ! b b l b l U U k = j I.Q.a N ..R B R R R } R N Y Y R ..| a.| W ..R ..=...D ..y...t...! X.} } R ! ......} | ..R } ......} R 4 ",
"- i.i.T T R R T ! R T U ! ! U T b , X b N U U D U N U k 9 : :.} B | Y D Y | Y k l z k k z m l k m k 4 z z D l l l D ! u.=.t.=...| R } ..X.} ..m T R R } T Y G D 0 j b ! t.R R Y R T R Y D D Y } G * 9 j D G R R m R R Y | =.G N b D G D F } G D F D Y R Y =.r.0 j D j b b j b l 0 b b z G U : b l b N z b D j D D Y D C G m l G V V w C Z Y D D D R Z G Z b H m D D b b u.Q - 9 b b B U D N Y N : (.[.U R y...U R W T T R R R R R R R =.R D R ! +.t.+.! i...:.t.q.t.e.+.u.t.y.=.=.=.H =.t.t...t.t.t.=.X...;.-...Y Y =.Y R j & , j k j k k l j a , * &.j.F N R } } ! ..} | y.y.y.:.i.g.i.} Y | R =.R F | ..R ;.Y H ..| -.| ..y.%.%.:.=.d.-.:.-.i.&.i.&...F Y =.:.%. .:.*. ...i.d.z.d.M...t.R ! R ! N | X.v.N.B.B.j.S.k.B.A.C.j.t...w...X.t.R R t.w.! ! w...t.a.t.2 j j b n R Y N m 4 j k -.W a Y F n U Y B z Y U W ..R w...b U W U L L W L E w.W T ! ! E E q.! s.! T U N U U T b D l b N U Y 9 , c z B k D F N N B N D D N N N K K T N N U U b K I O } ).Y.Y L F } =.R } ..L ..Y Y N Y F Y L T | ....Y ............X.R ....w...y.w.R ....-...} -.R F | y.Y } Y : ",
"= l.a.T W ! ..R T ! ! ! ! ! W U z - j j l N U D b N U x j = ..X.U Y Y Y H | Y F Y Y Y | =.Y Y F } ..Y H H =.+.=.p.+.u.:.=.i.} Y U D Y =.t.e.q...R ..T y...U R Y Y ..t.=.=.R Y } Y F R } U D H Y B - 6 j z Y Y F D D H D Z Y D N m b b Y F R G Y G D N D b T e.9 j b , N j D l w l b b D U C j D m z b D z N l G R N G D Y G G Y D D C D D G T G G R G H G T G G b D G D D p.N * , N B R U c N & W.'...R =...G =.t.R R T w...! ..T T t.d.! e.Q ! =.=.=.! y.=.=.t.p.t.t.t.t.p...i.;.t.=.=.t.! t.y.t.! %.| | =.=...;.=.| G R , = 4 a N c j c b z m 9 - i.i.Y Y Y R | ..=.R ..=.=.=.y.=.g.g.} } ......| | | | } ..&.Y -.y.| %.=.=.i.;.=.y.%.-.&.%.:.i.y.=.t.Y  .X.=.%.;. .X.D ..Y =.p.s.s.y.} T ! ..;.| | -.k.g.X...t.| t.-.=.t.} W R j.....w.w...p.a.q.! w.t.t.e.t.: 4 k Y n Y Y ! Y j , a X.N N z m Y Y R Y N N ! ! w.a...L w.W ! L W E U ! W W Y W ! W U q.! ! U N N N b U U U U D b D N D D , , x k Y Y n Y T W U B D U U D D U b b c l b U b J ; .._.v.N L Y N } R | } T | R Y R R N Y ..W ......y.....Y ........y. .Y } ....W T R ..| ..Y =.y.R Y R ..X...R 4 ",
"= g.t.D ! R R ! R U Y T T ! | U l , x j c D D b T G N l j , } ..D Y Y F %.R R R D ..=.| ;.} =.T ....%.| R =.=.R =.y.+.%.:.i.R Y R Y R Q =...! Y Y -.t.t...=.R R ..! t.i.=.=.Y Y =.W U Y R Y F D N , & O - - , - - , 4 - 7 : , , , : - 7 & : : - - + , : - O o + , = & & = = 6 : = > , l l x & , j ; x j l 9 : j D 9 l j l l Z l z b q z j l z 0 C D D l b D Y U F R ! U U b e.l $ k n Y U N & L.[.-...! R R R F R R Y U t.t.! T ..R U R R t.! b R ;.=.! ! ..y.s.+.i.=.! u.i.t.=.t.p.! t.t.! N.s.=.t.t.R =.a.i.:...F F Y D 0 , 9 4 l z c N z N l 9 , i.3.Y Y } Y ....| ..R } y.=.R =.=.f.X.} R =.| ..=.Y ..Y R Y } | =.X.&.&.=.:.=.=.;.| &.-.;.y.v.y.t.p.R &.=.;.=.i.%.;.=.=.y...=.=.=.Y ....y.2.X.-.;.Y i.=.i.} / i.t.=...=.N ..T t.a.! t.....w.s.q.! R a.t.t.Y 4 l l F F N T } U j , c f.L D B Y W Y B B Y T ! R w.w.a.t.! W W Y w.W W ! E T U T ..! q.! E ! E U L N K U U j b U c N b b U 4 6 j k D Y U T T R Y N D l N L U b b D b b b N l & i._.k.a L Y F W T R ..Y Y Y Y Y ..w.Y R w.-.R ..Y ..w.t.Y ......=.....=.R ..R ..R R w...| } i.y.R R Y ......U , ",
", d.d.Y ! ..T W R R U T ! Y ..T k 4 4 b C N U N N U D b l : g.-.F Y Y Y X.Y Y Y R R R | =.=.| %.Y Y Y ' =.R =.Y | =.=.| } =.R ..%.R R D D R R R R R ..! ..=.t.} =.=.t.t.=.t...t...R R Y U F Y G D 7 6 j 7 l k k l 9 j l x j 9 l l 9 z - 2 | } Z D S D D } D m b D m b G z z m D D D Y Y | R Y F Y Y F F | } D H H H H G F R F F D m Z H H D S R F Z F Y Z z b Z C b C D D D T p.: , 4 m N $ j.{.=.U =.e.D Y %.Q Y t.L U R N E U ! T ..R U F U +.+.=.y.=.;.=.R t.! Y =.t.t.u.t.+.=.R X.R R =...! u.t.| R =.i.t.a.t.R %.} N , , 9 j j j j N N l k j . g.f.Y X.Y ..W ....| F Y =.=...R | :.| } } Y } ..X.=.| =.} } F Y Y ' =.:.=.F Y =.%.&.%.;...%.y.=.&.y.=.=.u.v.;.:.X.H ' =.Y &.=.! =.R ..&.:...} ..&.R a.=.-.f.} =.t.R y.=.W ....a.....t.t...t.t.t.q.w.=.t...F , 4 k N B B U Y Y 4 j N X.Y n T | W R Y T R W t.w.F W t.w.t.R q.U U ..Y W b l q.R W W w.E E U U U L T Y b L N b U b b c U U , , 4 l D T N U U D N Y U Y b b D b N b T b c , X g.Y.-.0 Y N W N T Y N R } Y ..W Y W w.............W W Y ..W ..W | ..} ..R W ..Y ..W W ....| U ..-.W R W } R T Y , ",
": y.j.U T T R ..! ! ! ! R Q ! ! b , , l C P b c l c c v , - ;...D Y G } } R U ..=...R | =.Y R -.X.| | A | Y ! =.=.%.=.=.} X.+.%.y.R t.Y R R ..Y ..} F W ! } ! T =.s.w.w.=.w...R ! R H U U Y G F D , 9 , j 9 k 9 k z b l b b w l V z - i.).!.E.P.n.P.R.P.P.R.b.V.b.b.n.b.n.b.n.P.n.V.P.P.Z.P.P.E.P.W.n.I.Q.E.P.K.E.E.Q.R.R.E.P.I.P.J.K.Z.P.n.R.n.n.E.R.n.c.%.9 D U b D Y D b m Q Q O j z & t.{.V.D R D U ..R w.Y R R ..T R ! W ! ! ! =.R Y | =.! t.t.=.=.+.t.i.R | =.y.y.s.M.=.R ..i.R R R =.Y ..q.! =.=.i.=.! ! =...! =.G b : 4 4 a l k Z k l b 9 * ..-.G D } ....w...| } | y.t.=...g.i.} y.Y Y Y ..X.Y ..} Y T F | Y F ..| =.| %.f.%.:.i.:.y.y.=.y.y...%.:.y.=.&.:.} ..D Y ..;...y...y.y.y.-.X.-.X.` i.i.w.t...y.;.d...! ! P W t...Y Y t.t...t...! e...y.i.Y M , j k Y W Y L n B k a 4 } B A B Y Y Y T Y m N Y W Y Y w.q.0.! W L R ..b W Y L ! W ! q.! ! ! W ! T T U U D U C b b U D U U U , , 4 b b W Y Y W Y R D T U c N b c c a j : : R b.L.Y j Y N b R Y N N Y R N Y Y ....w.U L t.t.t.} Y R Y ..| y.-.g.j.b.j.j.k.y.y.d.j.y.i.g.h.j.w.&.=.Y W T R B W ..4 ",
", t...R R ....R ! W R T R T E W l 9 v W +.q.r.r.0.r.r.+.L a y.X.Y } Y | R T U } X...| R =.=.=...%.} Y +.| Y =.t.=.| ;.Y X.t.=.+.=.u.=.R ..R R R F R X.w...R ! =.t.t.! R t.R =...Y R Y R F F Y F D , 6 x j b N b b l D b D b z V z - :._.n.=.R ! %.R +.%.;.| +.R =.U D Y F Y Y F R F R F R =.| =.R R D i.g.&.;.:.i.R ;.} } H X.Y | &.%.Y o.-.%.} R %.%.F %.%.b D D b D T H l l l e.E : ; m _.P.L =.=.! R ! R ....Y T R ! T ..N ! R q.T R G | %.Y | =.=.R d.y.+.=.=.+.=.=.i.t.R ..t.R T ..t.y.=...! ..=.R ..a.t.i.! t.Y R Y b * 5 z 2 N B z m b z 0 O X.-.Y F R ..y...Y | =.i.j.g.h.j.Z.i... .X.H Y Y F | R R R U Y Y Y ..} ..;.H } -.X.=.} %.=.=.%.| Y  .&.x.:.%.-.;.y.X.-.-.Y } X.;.X.&.>.f.i.:.X. .%.3.:.....=.t.=.y.s.t.! b T w.t...t.a.p.W i.....p.y.-.a.Y D 4 a n U N N B n j j 4 k X.B Y N F L D } B ..| Y R ....E ! ! ! W ..t.a...Y ! T R =.! U W W q.! U U T R T R R ! D D U W D U U d , l b U U U Y N Y Y D 4 z F N ..Y B Y U -.P.Q.k.n b Y N U T Y B N Y R U Y R F W W R ..W } t...! W T ....R y.| -.y.k.i.B.k.y.g.j.f.f.v.g.g.=.-.X.X.R | Y W Y W T : ",
"* g.y.T t.F =...t.T U ..y.O.! W C 4 j b b D c D K U b l , , y...G ..R Y Y Y R | Y Y Y | =.=.u.=.;.%.=.y.o.} R =.=.;.:.| R =.=.+.a...R R W X.=.-.R ..y.| | ..=.t.....! t.! ..! R =.R | R R Y H Y D : 7 j k j l j l j c b D c 9 b j z n.:.Z +.Y D D H Y Y D F Y Y D D D Y Y U D U R l N U R R R | z D b g.x.R ;.Y %.=.R ..Y | Y Y R %.H U H G | ;.H Y H R F Y D 7 w b b z D D b b l r.K : L.Y.N T Q =.=.T ..R R } Y Y T R R R T R Q =.Y ..R Y Y R R ..Y +.+.! =.=.R =.Y | =.=.| ....=.t.p.t.=.| ..R t.R ! t.! ! ..t.=.Y U Y m - 4 z m k z D D b z 0 & -.-.F F Y F ..w.Y R -.w.g.y.i.i.i.} H F F | X.H R R Y R R =.R R | F =.R } } } %.| B F | F  .&.| -.' -.-.:.i.=.:.g.| F } | y.y.y.;.3.g.f.y.2.:.X.&. . .R ..y.=.y.| =.s.! U W t.w.w.q.! t.! t.i.t.y.R ....! N 4 k k Y N k c m N j : n i.Y a N N Y } } Y N ! W Y ..w.U W t.w.! ..a.a.k.=.=.d.i.d.! W ! ! q.I ! U ! R b U Q D b G D T D U E , , b l N D T L Y T D , -.!.I.k.L.b.b.V.L.V.j.R N U N Y Y T T Y R Y Y W U Y W } m Y U W w.t.w.| U Y W ..R R -.Y T R ....R B | Y B ..| X.Y F Z Y Y Y Y } R Y Y N F & ",
"& y.y.T Y ! ! =.! ! =.+.=.+.e.R b 9 , l b N l C U b N L j > y.| Y | Y Y D R ..:.b.x.v.y.i.g.l.l.v.V.l.i.i.d.v.y.v.i.-.X.=.=.R =... ...T ..W ....t.....| R ! =.R =...! t.w.! t...X.| %.G Y | H Y Z 6 , 6 j 0 l l 7 l b 0 l l 0 l * } b.H =.R Y V C D R R R | G =.U R | G ! R D Y Y m D N T R %.R D o.l -.f.+.%.;.=.R ;.F Y R F R F } D H H R Y Y R H %.Y R G Y 9 l l l b C D b x x K E N Y.i.U t.=.=...R R R Y Y T Y R Y B F Y ..! a.R ..R ..Y U R R R y.;.=.o.=.| ;...| =.R Y t.;.t.=.! a.t.R =.Q t.=.=.U =.Y =.N U N D m 0 - , k m z k C m D j 9 & :.f.Y Y R Y Y | W R R ..;.=.| Y D ..=.| R F F Y Y Y H Y Y ! D R R F X...&.H =.| ! ..| ..| X.;.=.:.:.;.R &.:.:.;.%.=. .X.i.y.v...=.i.X.y.2. .2.y.=.Y } t.y.;.i.=.} Y ! U P ! q.W t.W ..w.U ! w.Y Y ..R ! ! R - 2 a n B m N m b j , N k.W B L Y Y N Y N U W T Y ..R R R ! U ..R U R N Y Y =.=.E ! U W T t.q.! ! +.U T T Y U R N Y +.T C U j d l z T Y Y T N N , :.U.i...R | T ! R T D l T D U U D Y Y Y Y R Y W ..T Y T R W n ..t...| w.w.W Y ..W ! ! X.} R Y ..w...Y w.....w.Y =.R | Y R N N ` } } F Y Y N : ",
": i.d.R ..T ..q.W ....t.! U T ! 9 9 , c D C D U D b C c 0 & -. .R Y R R Y | :.i.B.l.v.i.v.v.v.l.d.v.l.d.;.i.v.i.v.y.' H =.| R t.=.Y | ! =.=.R } =.y.| =.d.y.i.y.d.t...=.R ..| t.y.=.=.:.R | | Y D - 7 l l b z D b b b 0 C l V l : H g.G R D D b R D R R R R O.=.D D G D G D R R Y D D Y D R | R G D 0 y.f.=.=.=.i.R | | | | R %.R X.F G %.R %.o.Y R } =.Y G D O t  .&.i.i.;.-.y.-.X.y h.W.Y ! R ....-.R ! D L ..R R } } F N R Y Y ..Y ..t.Y Y R F ......=...=.t.y.=.=.;.u.+.=.=.=.%.R i.=.s.+.t.=.;.| =.T ! =.Q U R R U D z - 9 k z D D m m N z k : *.g.A | T R Y T R ..&.| ..=.=...X.Y ' =.X.F Y Y F } R B T F Y } F Y R ..Z | Y Y -.i.| Y %.| :.=.y.;.R i.:.%.&.%.;.%.%.w.i.} y.Y | y.t.a.&.&.i.t.=...y.t.' B Y ....T ! ! c R t.E s.p.! q.w.W ! R Y N | w.} n : 4 j 0 m Y Y Y N k = k -.T | Y N N m F T U U R Y ..L U T T ! R } U U T W R =...E b U E ! ! R t.! Q U W U C T D U b T Y b D , j 9 k D U D U N D k b.g.U T ! U L W L U W W R U Y R R T Y W N Y T } T T ! ....R D R ..t.R ..W ! R U R R =.=.F | R R ! ..R W w...R R | ..} R F D z H Y } | Y w.F : ",
"O -.a.R ! W ! ..R ..! T E T T ..k : 9 b D C U U C C G U 4 ; y.-.Y %.R | Y Y | R y.t.=.=.=.=.;.:.=.%.y.t.=.=.! y.;.Q y.%.=...R t.+.R =.! =.=.=...=.d.i.i.B.d.y.v.i.=.=.=.=...y.y.v.v.y.i.o.Y F Y N , j > * + * * - & + - + * * , O F 3.H T U N Y R D D Y R R R =.Y =.D D T Y R U l 7 : R G Y Y R b R b =.i.| H R R ;.Y Y H Y | Y F H | F H Y =.R R R D H D F m 6 4 z Y F } G B R N F : i.v.T t.R y.....T R t.| R ..=.R D U ....W | Y B ! ..} Y U Y =.Y | R =...R +.+.e.d.i.=.u.y.=.R %.:.i.=.y.=.| =.=.=.! ! =.Q ! Y F =.D 0 O , 5 z m z l b m l 6 & :.f.H Y } T } F } T D =.=.} ..=.Y } X.} Y R F B F Z Y F B =.R F F Y D H Y Y H =.=.=.R %.R | t.i.:.-.| :.i.-.;.%.} :.;.| ..i.| R } X... .:.f.R ..=.X.:...Y Y m R W ..q.W U R s.q.a.q.! ....0.! N ....R ..R D - 9 j N z N L Y D j & l -.Y N F Y N B } } ..W t.Y ! ..R W E ! ! R W R T W T R T b L E E W W R W t.Q R ! E E b U G Y Y T b N j 7 j x D U U T b j } j.R U Y ..L N T U L R ..R ..! R R ! W =.....W R W ....W Y L N W R | R R ! W ..Y ! R } =.F R Y U w.R R T t.=.R R T F ..Y F m D R T W | w.} F a ",
"& k.y.T R U ..T ..! U U ! ! ! ! k , x j l U U T U ! D b j : i.y.=.;.| | %.i.y.=.i.=.t.i.i.o.i.i.:.;.i.t.+.y.=.j.=.=.R =.i.=.=.t.Q =.+.y.t.| =.=.=.;.y.y.| | ;.Y =.R =.t.=.=.;.&.R ..F Y Y D Y G Y 4 j  .:.g.h.h.3.x.x.:.g.f.g. .A H i.F Y D D D G H T C Y R R U H R Y F F H F G b b 7 R G R =.Y Y ! j } g.| Y =.=.} %.=.| =.%.R R | X.Y Y H R R Y R ;.R D H b , j , l z b m l D K c O R ;.Y ! ......W ..! R R ..R a...Y U R N Y Y } Y Y R R ..Y F T Y | Y } R ! +.u.+.u.i.t.t.i.y.Y ` y.t.t.=.=.=.X.=.t.=.+.=.t.! R D U %.l & j j z l j k 9 Z C 0 &  .2.G M D D Y Y H Y Y F R R ..! R R F H } F Y F Y | Y F H } Y X.=.Y H H Y =.} %.Y =.:.| :.:.v.:. . .%.;.i.i.-.H F &...} ..R R ..d.} y.2.2.i.X.R y.` &.%.=.Z H R t.t.y.W U U ! T q.q...w.! E R t.T ! w.} ..N - 9 j z L Y R k U b : b y.L B R R L B Y B =.w.R ! ! ! ! ! q.L ..! b R W R T W ! U D R ! W E ! ! u.! U E Q +.T =.Y Y D T T C 6 , j N C D U Q k d T 2.T } R R T R T U U N G D ..D R R ..R ..R t.....W ..Y T ..} N ! ..W W a...| W R ! Y =.} Y ..Y =.R T } ......} Y R Y } Y R U D Y X.| } | } L & ",
": a.y.U ! U q...t.t.R ! W E ! ! j : 9 j l b U U b b R U j , i.y.;.=.;.;.R ;.=.:.a...t.t.i.=.-.:.=.=.;.g.y.=.....:.Y D ! t.=.v.=.=.=.+.Q R =.o.! Y =.t.-.H X.X.R U b R &.=...=.=.F H H R z b Y D b 4 z H -.:.g.x.:.b.:.:.g.3.&.:.m } 2.Y H U G N D C 6 + * G R o.o.T R R ! R U U R U +.=.=.R =.R R ! l ;.:.=.=.=.%.=.%.=.;.R =.%.H ;.=.R G D H R H R H ..Y H H + , 0 9 D Y U l U x k O :.g.Y ! ....W ..Y ..R R R R =...T L R ..Y | Y R R R } Y B Z N ..t.%.=.=.=.R =.u.y.y.=.t.a.;.X.R =.t.i.t.=.%.:.;...u.t.=.+.R U R R | 0 , 9 l 9 b l b l k l 9 O X.b.Y R F F Y Y Y -...R T R | X...R H H R } F D H Y H  .Y t.R R F Y Y Y Y =.-.&.%.y.:.&.%.t.i.-.%.=.=.%.%.&.} =.=.=.X.X.Y Y t.y.X.X.| h.&.g.&.t...%.:.=.=.| ..! p.q...U b ! W E ! q.q.0.q.t.! e.e.Q ! T B z : 9 l N B N c k z 9 6 j | F L ..W T W N b ..! ..Y ! t.R q.W ! R ! Y ..L w.R R ! U x L ! T ! ! W ! R ! ! R T R Q Y N Y T ..T j 4 k D U U D R b p R g.U ..R N N Y Y W N , , : R ! ! T w.W w.t.w.....W w.R Y |  .N ..R R R W L Y ....R Y F Y D } Y T ! Y Y Y R F D Y Y Y Y ! N N z N ..W Y } Y N & ",
"- X.t.Y W t.R ! ! Q Q +.Q ! +.! l , j j b b U b b T U C j , y.y.D } =.=.=.=.d.=.t.y.i.t.y.;.X.=.;.X.-.;.} =.a.y.=.T b ..y.y.=.y.t.! R | R =.+.y...| y.+.F Y =.%.Y N ..;.%.| ;.| R Y | Y z m F G N 4 6 6 j c l l l D k l b b l 0 O Y x.H Y N Y Y U j - D %.w %.=.=.=.+.+.R =.+.o.! t.+.R =.y.R R R ;.z x.g.+.:.-.%.Y | Y R o.%.H &.F =.F Y Y H %.R H H Y R Y m : , x j D D b D z N a - i.i.Y ..=.| W ..W R ..R R ....R Y ! W R } Y -...Y G Y R ..Y U Y =.;.| =.;.t.Q =.t.=.i.=.y.=.R ;.y.y.u.| %.:.R %.R y.u.=.=.+.=.| | Y 9 & l l 9 9 9 l m l k 4 . &.:.G Y D Y Y F Y =.D Y ..} H Y F H Y Y R B Y F B F } :...i.j.j.i.g.:.-.i.V.v.Z.b.C.B.v.%.i.y.&.=.| | =.} } F ..R =...i.g.=...y. .X...-.&.} | y.....f.| | | &...w.e.t.E b U ! w.I ! e.! 0.! ! s.! q.U N m N , j j b L N k n N l : 0 X.R L N R Y ! W ! ..w.W E ! q.W q.E ! p.! K W ! R R q.U U K U U Y ..w...t.! T W Y T =.T R U D D T U , : l N L T U R N , R g.N R T Y F U ! T = 7 G Y z ..R w.w.! ! w.R w.y.X.L T U | } N T R R ..w.R U ..Y U R ..Y N N z k l l l z x z z 5 l b j 0 x k m Y W L | B W L O ",
"& y...W a.W U T ! R Q T ! Q ! e.0 4 4 j b C U b b U b D 0 = j.R D F G :.| d.=.=.t.=.t.y.....=.} =.y.| } Y R a.t.t.Y m =.y.y.t.z.i.! o.! R R ;.R =.| =...! | =.t.Y G Y } =.=.=.R R R G R l z D D D 4 j l z G D N D D z Y F D m l = Y i.Y D z N Y D - } A K.Y G =.=.o.;.=.y.R +.R ....=.=.=.=.=.R ..=.b f.x.=.;.g.%.R R R R =.o.%.| %.&.H H H R R D D D | D H Z - , 0 l b b D m z k z & y.y.R R =.L Y W ....! } ..R R T U T ! t.R F ;.R X.F B Y } R F Y Y R R | :.=.=.=.=.=.y.=.a.d...&.y.y.t...&.=.y.;.' S t.u.+.=.D Y M D , - 9 4 j j l b m l j - O }  .B } Y N G Y ! R F F ` } Y ..F D Y ..Y Y B H B R ;.:.Y ..=.i.=.i.:.-.=.:.i.v.i.g.l.s.:.-.-.&.;.&.=.....} U U =.....Y ..;.y.Y ......&.} X.-.i.i.w.t.X.=.F Y ......t.U x U w.p.! q.W T ! t.t.! R ! c B m N : a c N Y Y U L N j , N X.T R Y ..! w.t.R Y T R U W ! ! E ! ! t.! ! N G T ! U b b U E ! w.! w...! ! R T +.! Q ! R U Y Y T D j 6 z b b F U L D p T a.U } R ..T R ! N , ..} V.4 R w.y.W ! ! w...a. .w.w...W |  .z ..w.....! R | R ..R R } } l 4 j 4 j 4 , 4 j 9 9 , 4 4 4 : : 4 N } } } Y W B F 4 ",
"- B.i.U ! R W W U R U W U =.R Q l , j l j P U c c v b c 6 , =.y.U Y T ..=.t.t.! i.=.=.Y } ..| =.y.| Y ..! R ..-.=.R Y ..=.! +.y.y.=.Y G %.o.+.R Q } =.=.R =.! t.D m Y -.=.=.y.Y R } D U D z D D N : j j B l D z M D D Z D N m j = Y =.N D m G F =.i.%.<.:.D R =.y.;.=.=.O.=.i.+.! t.=.=.=.;.o.| =.;.0 ;.g.y.| =.Y R =.%.%.Y R :.| | Y ;.D F B G G F D D G D Z : j 0 j N b D b l l n O k.j.F Y Y ..W ..Y } R ......R ! ! Y E q...=.Y A | %.H | } Y R ..=...t.....%.i.i.Q =.=.i.t.i...-.X.;...| =.i.y.:.=.=.t.t.! ! R ..D Z 2 O , 4 x b l 9 k z 9 , & -.-.b D D Y Y A %.| Y W =.;.| Y } R R ..R Z F }  . .y.;.m b N Y k Y C D D F H A ;.Y +.R t.y.=.| &.;.=.=.Y | R ..&.y.=.} } -.&.&...} Y -.&.| a.t.y.-.i.&.%...} X.y.t.! E U U U r.r.W ! W q.q.! W W t.R R ! b : 0 b N W L W U x j , z f.R Y R T ! t.b T U R R b R ! t.R E E W E ! T | T ! ! ! U J U ! w.W ! ! q.! =.t.W Q ! R T T F T U U : 9 0 z Y T U k N a D a.T Y R R ....! i.Q :.&...N =.Y t.t.t.w.a.y.} y.w.i.t.W X.-.Y | w.X.W ! R ..R ....! R R R T N N D Y Y Y D N N N U N R B U U T Y | } ..W W W $ ",
"$ k...L W W W W ! ! +.E T R Y ! 9 : j l b b b N U D C D l = i.i.D R Y ..! =.s.i.+.y...=.=.y.R =.y.Y ......| R t.t.R B ;.;.;.R +.R Y | R =.! =.=.;.R R =.T R =.=.D D ..R R ! y.-.R F Y T D z N R N , 9 j k D N z N b D w b l D 0 & F -.F R D D Y %.Z.=.w 0 =.i.+.t.+.=.y.i.=.;.R =.R =.=.t.t.=.=.=.Y 9 ;.g.=.| ;.%.R Y R ;.&.%.%.| Y ;.&.%.Y Y Y D Z m H | Y D : , l b l D b D x l k & y.g.Y ..Y ....W R w.....} ! D U b ! R K N D D R R Y Y Y R R R R =...M.t.:.y.=.=...=.y.t.t.=.=.;...-.=.y.t.y.;.i.t.i.+.=.! U t.| R } D = , j 4 k l m x N q a X f.-.G Y N T R ..Y Y ..j.i.j.f.=.y.i.y.i.y.-.X.&.f.j.t.D l k z z l q D 9 C c l j b D b z o.i...&.} &.:.:.' A F X.-.y.;.=....... .F } i.2. .&.t.| -. .&.%. . .H Y } ! R W b E ! r.! w.W 0.p.! w...} =.w.! e.U O j b N D Y L b T j : n f.Y R R U T ! U R Y W T W T R e.W L b U E U T ! ! ! W N U K T w.w.t.W w.! E W +.Q +.+.R ! D Y ! T G , 7 j b U Y ! ! N j m X...R ..R =.-...t.W.U z l ..a.t.W ....w.t.y.X.i.X.w...L X.X.Y W ..R y.........R T ..w.X.| W ....w...} ..} Y | R } R ..Y | R Y F Y W B Y ..Y & ",
": y...! T T =.U ! ! U Q Q =.Q ! x 2 j j b L K b c b b l l : g.=.D Y o.G =.y.y.t.u.t.t.=.t.=.=.=.=.R -.R ..X.=.t.y.R Y ..&.} =.=.=.R ;...=.t.R =.=...t.R L ..w.} R N =...R t.i.R ....F U N D B R D * , 4 7 m m D D b l D D z z j ; N -.Y N D G U R l.b.t.+.l.=.R ! t.=.=.t.=.=.| +.;.=.Y | ! =.=.=.X.9 | %.Y X.%.=.;.=.t.f.i.i.;.:.=.:.;.i.&.=.B m R Y R %.=.F & , k l b z c b Y N 4 . y.&.U Y F T Y B Y } ..-.B z N Y R N G Y U U U T U R U U ! ! Y Y i.t.t.t.y.R | %.=.%.R =.=.=.=.g.......| t.y.y.+.=.=.=.y.=.R R } } F 0 : , 9 , j b j b k z j : :.h.| R U R =.w.T t.=.| i.j.2.g.g.i.y.i.f.x.k.g.d.a.Y m , : 9 : j 6 , , 4 & , , 6 = 0 F &.&.y.;. .} X.%. .Y } | R } } %.| d.i.H Y } -.:.&.=.X.W  .X. ...} ' ' Y F ..T U c U q.0.! q.t.W q.! T T W } W ..w.U & j x z T R W L T b : z k.Y Y L R T U R U Y Y Y T W T Q =.T I ! T U R T U T T T b K Q e.E t.t.t.w.! ! R w.t.Q R U R U R Y G 9 , b l D W ! U U , Y i...W N R ..;.....B.D.W t.w.} t.Y ! ..! T y...| ....y.L X.-.N Y t.R w.........W T ......t.w.R ..w...} X.} F R } } | } } Y } | W Y | W W Y N $ ",
"+ -.d.R Q R Q +.Q W T W Q ! R +.z 4 j l b b b b P U b C 9 : y.=.R Y R R t.y.d.u.u.l.=.a.y.=.! =.y.=.| } ..-.=...;.Q N Y y.=.y.t.y.! +.R +.=.;.=.s.! =.t.T R ..R R N R t...! =.....R Y D N F m Y B - , 0 b b D b G m Z D F G N z : F f.F N R Y Y R o.+.:.o.d.=.+.t.=.;.;.y.=.....F | y...=.R R d.i.y.b X.:.-.=.;.=.| =.i.i.:.:.%.;.y.;.i.;.-.F Y H R H %.| Y z : j 0 z b b k b z N b & =.g.N | N N R R } ..R R l N T | Y | =.Y ..t.t.a...R ! W ! } R R } Y } | =.t.=.| ..:.=.=.;.i.j.a.i.=.t.i.y.i.i.y.=.y.;.Y =.=.+.F D D 9 + : j j j l l z 0 7 4 & } -...} R R ! ! R a...} H Y &.X.! | F R ` -.R | X.R F T b N N b D D U T Y Y D Y Y D G =...=.;...| } A ;.=.%.t.a.=.R } | =.! i.! -.&.}  .:.}  .}  ... .} } }  .Z Y } D T N q.t.t.t.M.p.w.a...! T R Y ..R w.W & j j D T N N W E l 4 k X.R Y W L ! L ! t...R W ! R ..! R T U W ! L Y U U R ! ! U U U ! q.q.s.W ! ! t.p.! R Y ! R H b R D U 4 d j N B T ! U b x ..t.W ..T ......! =...d.y...w.W Y y...R ! ! ..X.y.....w...-.X.Y U t.R w.t.w...W ..W W ....w.t.! ..w.R W ....Y ..W ..X.W R W ..Y | X.} Y } B k 4 ",
"& y.=.! ! =.Y =.Q ! +.q.! U Q U l 4 x b b c T b D C C D j : g.t.R R H R ;.y.l.;.s.=.=.y.=.t.t.t.=.t.=.=.y.......R R D t.;.=.;.=.y.R R ! ! Y =.=.=.y.=.t.........U b T R R ! y.T } ! ! Y z z F D b , 9 l b D Y D D N D m D m D 0 ; F ;.U R } R Y o.o.o.Y =.t.u.+.=.R ;.-.:.=.=.Y t.y.=.=.d.i.%.%.y.=.0 g.b.R :.i.R Y i.:.R  .Y =.=.| R %.H m m D R Y Y F G Y N : , , k N z j z G b b & t.i.c T | D ..R R R w.W N z } X.| | ..t.} } t.R i.t...U ! } Y D Y Y H D %.U Y Y H D R Y H R ..=.-.d...=.i.%.y.=...R ..M Y %.T Y B D 9 = , , 4 0 4 b k - 4 4 & } &.R ;.} Y t...} R ..H | -.}  .R Y U B m U T | Y ;.R E T Y =.R R y.! =.=.t.;.y.R t.=.R | }  .;.=.Y &.=.t.=.Y ..R ..R R y.=.y.=.y.X.} X. .-.....s...=...&.} B Z H F Y ! ..B.S.B.d.j.X.a.j.w.t.w.Y F T R ! U , 9 l N U z j c N k , j f.W j U T U N ..t.W W R ..R U ..! U L U U U Y Y U Y ....P b T ! q.t.p.....! q.! ! ! R Q Y T Y Q R D 9 7 l N R U U U c q ..j.W y...| ..=.=...=.....w.w.Y | =...} ......X.y.f.-.y...f.y.U U t.=.! ..W ..W ..U w...! T t.w.W | | ..R R ..R ..B | L Y | W } } X.| F Y Y n , ",
"- v.i.R Y R ! ! ! ! ! ! U R R U z 4 j c N L D D T b D b k - g.=.H =.H R %.i.y.=.u.=.:.=.i.t.=.=.=.t.=.| i.y.t.R Y U N ..y.=.=.y.=.! R R ! %.R =.o.=.i.t...w.} | U U U ..! ..i.Y R T R Y b k G D D 2 j j z m D b F B l D m m N N $ F :.B Y } D D =.R Y ;.=.=.=.=.y.=.=.t.=.=.=.R R =.i.=.=.=.y.%...&.0 g.v.=.=.=.| ! t.;.H %.%...| | F ' | H D D Y Y F Y G F z , , 9 l b N D l D z k & =.i.L w.w.R Y =.=...R ..k m Y Y  .-.Y ..=.| R R Y ..a.T T X.Y z Y R R R =.R | =.| ! =.=.R Y G =...:.i.a.y.i.d.y.| } H } =.=.U D F z 9 9 9 j j 9 k 0 n z l : O X.i.Y Y | T T ..R =.! =.Y  .R Y Y R U D ..Y R } } Z N Y ..Y ! =.! ..=.t.u.t.a.=.t.s.=.| R } %.%.g.=.Q =.t.+.s.e.R R y.| R =...y.;.=.} -.X...-.R p.w.:.}  .}  .` ' B R t.t.g.d.j.y.B Y B ..t.! ! B Y ! ! ! b : 4 : 4 4 , : & - : , j d.R L U N t.W w.W W ! Y ..! T R U U E E E R D T L U T U C l T R ! ! w.w.w...t.! ..E ! Y R Y ..Q R D : 9 l N N T U N U j N f.W ! ..Y ....} ..w.......| W ..d...=.y.....-.i.y.a...w.2.f.N W ..W R T ..w...Y W ..W W W ..w...X.w.| ......w.R } W | W Y } X.} W Y Y } Y N & ",
"+ y.g.=...Y U ! ! ! +.U T U U U z , , l b l b U U U C D 0 = i.y.| Y =.%.| =.| =.t.=.y.=.t.=...=.a.=.;...a.t.R  .Y U B ..y.t.&.-.a.Y R t.G ! =.=.+.t.=.t.e...T T G Y ! ..! ..d.! ..T Y Y D z U D Z , 7 b z B N D D F D N D b F z , N | F F ..Y ..R R | =.=.=.;.=.o.=.y.l.i.i.d.=.=.| ..j.Y =.| =.-.i.0 =.h.-.=.} | O.:.%.:.H | | R | R ` F G b m F | H G G H z : = , 2 7 - 2 , 4 4 5 - ..y.Y ..| } R } t...Y B N z } ..y.| =.R R =.R R R ......X.....z D ..;.y.i.i.i.y.f.%.=.R t.H m Y } F } y.i.=.=.t.=.....=.a.R | Y ..F j : * j 0 N b l z z 4 2 - Z &.D c D U N ..=.a.| Y Z Y %.H D R Y } R m D D F Y ....i.i.y.v.d.d.d.v.v.B.B.B.B.C.y.;.=.| =.=.u.! T ! r.Q t.! p.t.R Y | ! ..t.t...}  . .R X...=.....H Y `  .] ] B t.=.} ..n Y ..Y F N B Y T R F ..! w.R D * 9 x j , j x x j x d l i.D b E Y F Y | ! b L | Y w.T W W y.....U U T R D D T T L b R t.! ! t.W U ! a.R ..! T T ;.Y Y =.R Y , 6 l N D T L U c : H ..Y W W W ..W ..! t.a...Y Y Y T W ....y.w.w.f.y.f.y.w.W X. .N b T ....W Y W W T L Y ! ! T R ..w.X.} ....w.W w.........} } W Y | | W ..} } N , ",
"O i.t.R T ! ! ! R =.Q ! ! ! U ! l 0 , k D D C C U U U c l , i.f.o.G o.Y R ;.R =.! y.=.t.i.=.=.=.Y =.Y ....t.R ..| D z Y Y } &.=.R R U R =.R o.o.=.+.+.y.t...R R U b ....t.=...R Y R Y ..b m m F D : 9 l l N N U N N F F F D D 0 & R y.Z F Y R b Y G | R =.=.o.+.+.=.;.C.C.Z.l.o.;.=...=.=.i.=.=.t.t.z 3.g.X.;.-.y.R %.i.Y H | %.=.=.S R F F z N Y F } F b F z , = : j 9 , : 2 k 4 4 O | f.Y F Y D ..| } D Y } Y z } X.-.X.&.=.D =.t.R ......} ..t.t.Y Y R =.R Y =.t.| } F H Y %.Y | ' ' } i.R :.%.| %.Y X.R U } %.F G D R 9 : q , 9 a N z j j 9 , + X.f.G Y N N L ! R T |  .` ` H N F B n T T T R U N R ..=.....=.i.| =.;.i.a.j.=.i.i.;.x.y.i.=.=.=.t.e.e.r.W p.e.e.e.! | t.t.t...s.t. . .&.y... .` -...' } ..}  . .} } =.} } } Y Y ` B } } j Y N Y X.w.! w.t.L , , x b b c j U U v , b g.U b b L n L Y c N Y N W U Y L ..W w.Y Y L T R T N U T T N T ! U U t.t.t.N R R ! W ! W ! R G Y R Y 7 = l C U N U D b , ..f.F B | Y | ....w.R ......| ..W w.! ........i...a.....D | W N L ..R D w...| W Y W ! w.w.R Y Y ..} Y F } w.} W -.W Y Y W W } Y } L Y Y ..| N , ",
": d.d.! T ! R Q ! ! ! ! ! Q Q ! 9 9 4 9 C U D U U C b x 9 > :.y.Y R =.| R &...=.! t.=.=.t.y.y.! ! R D Y D D b U Y D B =.R | ..=.=...R Y R =.y.;.=.=.+.=.R =...R U b R =.! =.=.! Y Y Y U j b D D l & q 4 j N N N D N Y Z D F D z & N f.F T G D D D o.R t.i.u.d.t.u.t.l.d.| i.R F X.R y.=.-.y.=.-.=.&.D :.b.R %.;.=.%.l.%.;.=.F F %.Y | =.H D Z k F | Y D G B m O , 4 k D k k z B b l - X.f.F L ....W R R D R W m b } ..} Y Y Y R =.R R E R R %...R d.T U U b G b U Y ! D R D Y Q b R -.F F R R Y H T F ` F U F F m l B l 9 9 , , 6 j 9 b j j c j - . %.:.Y Y Y Y ! ! N B =.=. .=.=.H M Y Y R ..L R ! ! Y y...Y T ! T D U R ..Y ..! R =.=.R Y | i.=.t.+.u.r.p.e.e.Q e.0.0.e.p.;...=.=.g.:.y.i.&...} ` ..&.} } ..} ! -. .| =.=.| Y Y Y B Y B Y W L n F ..W R ..! L & 4 j j b U U b b c j c y.L U R b c N N z Y Y W Y | R W | U L ..R D Y R R R U q.T b L R E E w.R t.t.! a.! ! T E R ! U U U U a 4 4 D N U b U z j B g.} W E W | w...W R L W w.W w.R w.w.a.X.w.i.w.y.w.t...R X.R c U R ! W W | ..Y U R W a.W L U W ..W W Y W W } w...| ..W | ..w.| ....Y W Y B L & ",
"+ i.s.W ! T R ! ! e.=.Q =.! ! ! b 4 x l U C D U C C U b j & ;...F G Y U U =.Y ..! =.=.=.=...! ! D b - j x , j j , 4 N =.;.y.:.......R =...R =.+.=.=.=.=.t.! ..R Y z R ! ....! G G Y Y D b k D F F : , 0 k m N b N B Y Y D U D 8 & F 3.D D B R R R +.+.y.R ! y.| y.i.i.t.+.R R R } R | y.| ;.;.=.=.:.w ;.b.Y =.;.=.=.;.:.%.%.Y X.=.&.R F %.| m D D D | N z Y b = 6 9 m l m z b z 0 j X X.y.n Y | } W ..R ..} G k k } R ..=.Y | | Y ..| ..R =.} +.d.a.D t.t...t.=.t.+.:.=.R =.s.! =.d.R 7 ! &.&.f.%.| } =.D 9 Y R B F | F D 6 - 7 9 j b b j 5 k j , & -.j.D F F D U Y } R H ..Y | -.H B R } R ! R Y =.+.=.=.! N T q.U ! R R R ..W ! =.=.=.G k ..;.-.=.q.p.e.! ! s.Q e.0.r.e.R X.M =.y.' :.f.=.=. .:.}  . .&.y.} X...t.......} ..Y Y w.w.} } q.W W F B B Y w.R ..U = , j b p l l c b v , x X.U Q R F Y m Y L L R W L F R ..W L T ..U D ! Y D T ! N b N T U T U ! ..=.t.! R R T ! T U D Y b N D : 4 b l U ! L b N , R g...W Y ....w.t.Y Y W w.w...t...t.! t.t.w...X.w...w.w.N } R k U w.T T W | R W R W W ....| Y Y Y W W } W } } } } Y Y W W | | W Y Y Y F Y Y N - ",
"* i.j.E ! ! ! q.Q =.! Q R ! T R l : : l 9 j j j j C l x 9 : :.Y F Y D U Y ..G l j b k b b l N l x - j z c b c C N B Y =.=.=.;.} | R D &.t.R } =.=.| i.;.R | ! R R U R =.=.R T Y R U R Y 0 k b U k & : l D z D N U N Y ..N m z k , F 2.D R D Y Y =.o.=.+.R y.=.;.=.} i.R R %.D N =.=.=.=.i.=.g.;.y.g.0 ..f.| %.=.=.=.-.-.&.R | | %.Y A H } Y Z z z F F D D D z - - 4 9 , j , , j , - & X.g.Y B Y Y } Y R R } R l k } %.Y R H Y Y } =.H A %.R %.T -.R Y ! R X.=.+.o.O.R | T %...=.! t.U 0 H A  . . ...Y } D 0 D Z F m N } Y 9 & : x 5 z k l 4 K a 2 & y.g.Y Z Y Y U F | D Y A F Z Z Y T =.=.R ! Y Y Y Y X.t.w.R ! ! W ..W | ;.| =.y...y.=.F m Y =.Q Q r.e.! =.=.=.+.r.Q r.q.t.X...%.X.X.' y.-.y.&. . . .:.y.....| f.X.w.} } w.} } W ..w.| | ..Y Y B } | F T W | L & j b T W 0.q.! p.U l l | Y T L Y W Y W Y Y w.W Y W T L N W R ..! ..R W T Y U E U U Q i.R T R ! ! ! R w...! R W T T L R T B a 4 j z b Y T U l ,  .i.N Y R ..Y w.w.w.w.| Y W W ! t.p.w.d.w.q...W y.R ..y.Y | ..b N W ! W ......Y E Y W w...w.Y F } w.W W ..X.} } W | y.w.y.-.| ..R | } } W W L - ",
"- j.s.E ! W ! U ! Q R T ! t.=.R l 0 b Y H ;.=.=.y.;.%.=.H , :.;.G R N D Y } l , : , , : : 6 : , 0 H ..=.=...Y =.! i.......=...;.%.R R R ..y.| =.:.=.=.s.! R R =.R U T ..=.=.+.R Y F D F N z z U z - j 4 m M F z N N R Y N B m z , Y &.N R N Y Y R =.=.=.;.=.=.=.y.;.y.%.=...D b R =.| ;.-.;.;.y...i.z ;.b.R  .;. .%.%.i.| H =.} ;.| -.Y | | D b Z H Y D Z D Z , 4 4 k M z m t m m 4 + y.f.U R R } =.=.W F ..=.z b ..%.Y H D F T Y A Y ..=.H S G } D G b b 2 C =.U Y T U T U ! R D U F D %.%.&.=.=.! | :. .Y R F D D | ..} l & , 4 j z U N z K x 4 & X.-.M D H N D Y D n F } } H } R Y :.R %.=.T R Y G =.=.! T ..R W ! R ..t.Y =.R =.=.| D D =.=.e.0.! W t.+.Q ;.=.e.e.r.! =.| =.=.=.y.;.;.:.&.&.-.i.t.=.j.a...|  .} w...} } ] | W Y X.F M } M n B L ..Y | w.W m > 4 a j b b K N x a 4 4 | ..N N T L Y Y W w.! W ..L ......W T =.! W N T ! G Y R ! D R a.U R ! U ..! U ! R ! T R ! T Y Y N U 0 , j N b U T N b a D -.U ! ! W w...t.w.W | ..R W ....W ..w.R ! t.a.R t.w.w.! X.=.U U w.W R R Y W w.Y q.w.| ....q.} } w.....w.} X.} X.f.f.j.g.f.y.} W | W Y } } N * ",
"O j.a.U R W ! W R U ! +.+.Y R =.z , 2 D D R Y R Y Y Y H m : y.| B Y U G +.| Y R T U Y =.R +.T %.=.y.s.t.! R =.=.t.=.t.=.y.! R =.R R R ..+.=.! R | ..=.! ! R R ! U D R ..t...=.=...Y D D m l N Y Y 4 4 j m D D m N F D F z N F z : Y f.D B T U R Y +.=.y.;.=.;.i.y.;.v.y.R | R b R =.t.=.d.=.y.i.i.%.z :.x.=.%.%.F =.g.y.| | %.;.%.| %. .X.F Z z H ..| D D N 7 = 4 j F m k B M k B k =  .f.F R } R W ! t.| Y R l B ..y.=.} H U R T R R U R T D H Y D T Y Y Z w Y R +...R Y Y y...;.i.:. .X.%.-.X.....} =.&.H ..| m | | R ..7 & > 9 l l N L c N b , X &.X.D F b 0 z R F H D Y R ..=.R } R :.X.H T R ..=.;.:...! R W | W | R R H } &.=.=...R D =.t.+.e.! I 0.Q T t.e.r.T t.p.! =.i.e.t.=.X.y.&.&.| =.s...y.d.a.p.} y...i.| ..Y X.i.} } R R n } N b n w.W  .| Y Y L : : : * > , , * $ & : 0 y.L c Y Y b L N U U W W ! Y R Y R ! ..R W U Y ..R U R Y U D ! R R W t...R ! T U ! ..T L R L N N U T , , a j N b Y N b a D  .l F T ! w.w...w.w.W R W R ! ..t.t.U W W ! y.i...d...U ..X.U L q.T ..W W w.w.W ..W L W w.q.L } ....} } w.} X.f.f.} | T } R R W W | W W Y L - ",
"& j.y.W ! ! W W R =.=.! T +.+.Q z 9 & & , + 6 * O & O = & , :.=.Y H G Y F R o.=.i.=.a.=.t.t.%.y.i.v.t.d.W R =.| -.R =.&...t.y.=.} R ! =.R ! q.R Z T =.=.T T R R ! b Y ..=.! i.! Y F Y Y z k T F G : 4 k N D M F b N Y m B D z k : } :.Y G Y Y R R =.=.=.;.t.i.;.=.;.i.| %.=.U b =.y...i.:.=.;.y.i.-.m :.c.;.y.Y H =.:.:.H  .| &.=.| H | Z D z b F Y Z F F D D = , 4 n m n k B n 5 j O X.y.Y R R Y ..! R R t.R k m T t.! =.R R t.R o.Y T D Z F D H F D F Z D T D U %.Y M D H } ..i.=.%.| =.R &.-.' ..d.y.y.} ....F &.%.R Y k O , k z c z E b N c j $ y.:.Y Y U D z Y H ` Y } | =.=...Y ` | H X.Y Y Y X.&.....R W L ..Y ..F Y F -.=.=.=.+.D U R R T +.u.m.0.W T +.t.p.p.t.| Y =.i.u.=.} X.i. .} ' y.....-.i.R a.i...w.w...a...=.} B } } B B W m U m Y ..| X.} Y F : , > , k a , : : , $ k X.Y T T U L Y B U N W } N U Y W U U W ! T U R R Y R R T D U ..R W ! ..w.=.! w.! w...T T R z N R ..D : , j l D U N N j l m  .z j N R Y R =.t...W ! ..t.=.R w...q.a.a.t...! w...! W ..Y N L q.! E ! Y ..W W Y L W } W ..Y W } w.X.W } w.w.X.} ..W E N U N N } ..Y R Y B & ",
"* a.a.E ! E ! W Q +.G } R Q =.Q l 4 = j : , 6 - 9 = , , , O i.| m R Y | Y R =.o.=.i.y.y.t.t.=.;...j.t.i.u.=.R =.........=.=.=.t.=.R T T R R R =.=.=...=...R R W R b U R i.=.t.=.R ..R D D b D D z & - l G B N H D F F B B N m 5 , R  .N Y R D T T =.=.;.=.i.a.y.=.;.y.i.y.=.U z R =.;.=.;.=.;.=.=.:.D x.g.| y.=.X.=.%.:.%.| t.H %.| R | R H D D D %.H H H H m & l m F } B B B F n m & } =.B Y Y U G F G H R R N D R R ! ..R U I T G R T T U Y D H | Y F Z Y =.R F ..! Y Z H %.| ..t.H ....Y Z A } ! } Y | G R Y | | =.R F z & q j x c b c z N c 4 * y.b.X.} F R Y F ..B M Y ..} X.} =.} H =.Y } ' F A &. .Y B Y F F m Y Y Y =.R =.t.t.+.Y m Y ! R ! p.0.Q Q Q +.y.i.=.=.=.| s.s.-...X.y.d.=.i.X.y. .F a.d.y...t.....} =.a.R } F | W B B U U N N L L R } M W } N 4 : - & & O 4 * : - O 7 y.Y N W N ..U z W T B R ..T Y W ! W U w.R N Y T Y R t.U R L R ! ! W ! a.i.! E ! ! E R ! Y L N T T L 4 k , N b U W U N : T f.T Y b b N N R t.! U L ! ....t...! t.q.W =.e.y.R ..w.Y Y R b L E ! E W ! w...W } W w.w.W W W W ..| w.w.} Y L R Y F } ! U l z Y W F Y Y N c : ",
"+ j.i.W ! W ! L R =.R Y ..! ....l , , j x 9 j j j c l l 7 ; :.=.D R R Y | R Q +.! i.=.=.=.y.s.;.y.t.t.p.t.t.....&.;...=.=.R =.t.p.T R Q R ....R R =.=.t.R ....R T b R ! =.Q u...F Y R b b D U N z : 0 4 k Z Y ..z n D N N m m k : Y :.G R Y R G } y.t.i.y.=.=.=.o.:.i.;.y.=.Y b Y =.y.;.=.%.i.y.%.;.D g.v.=.=.=.;.%.-.i.=.R =.R %.%.%.&.H H R M | X.Y Y Y D G : 4 0 k m 0 5 t t 0 k - ..X.F D T B R } Y Y R | ! T =.t...T R R ! =.Q ..+.+.! e.=.H ;.| &.' R :.=.....=.=.-.} =.Y &.s.....| } B F R i.=...=.=.Y ..%.Y | | H l : l j j l b l x c j , & j.V.X...R =.G F R F Y R ` | R T | Y ! ..F F F } ` }  .B D B N Y B W | Y =.=.=.Y ! =.C D =.| ..t.! q.e.W O.y.y.:.-.=.Y b b b Y &.t.u.=.|  .Y y. .;.a.i.R b W U D U L N U L U Y N b z N c N U Y L R W ..| W N - 4 N M F Y ..X.j : : N i.T U c T L U B } T W Y W Y n L E E L R U U U R Y R R =.U L R t.! w.! ..! ..U ! U b R U T U N T U T 4 4 j z N N T T L : ! k.R t...y.R U z T ! ! T R } ..t.....=.! t.! U ..} ! R N } ..N N w.W E E W W ....W ....w.w.W } W } W } ..L Y B Y Y D R R Y U b Y Y N T Y Y Y 4 ",
": j.d.! ! W ! ! Q +.! +.+.R ! ! 7 , 9 C D C C D D b D D 4 = &.| R } G Y Y =.R =.=.i.i.d.:.t.y.u.d.t.=.t.i.=.=.=.F =.%.+.=.=.y.+.Q R Y R ! T ! ..R Q ..! F m R R D b R ! =.=.t.! R Y b D z l | U z - , z m Y Y B N b m N m l k l , Y :.D ..Y Y H R =.=.R t.=.Y =.+.o.i.=.X.=.R z H ! =.=.t.i.t.y.y.:.C :.v.=.=.=.i.%.-.;.%.R  .H H D %.F | Y Z H X.F X.Y F } m : : j k 0 m 0 0 k 0 l & -.&.m T N B } F Y R R R =.! T ! R ..! =.t.=.=.=.R U ....=.y.o.d.=.%.i.:.%.y. .=.=.X.=.| } =.t.t.R ..R T } ..=...;.| ' H F F =.;.} =.l : 6 j l v b j x b c j . j.b...R ..R H m D Y U F } Z t.R R  .=.} H Z F Y } ' F Y B Y F F R F H } | t.=.} Y Y Y C Y =...! ! r.r.e.t.=.-.:.=.} 9 & Z m m :.y.z.t.-.X. .H X.&.g.R z j a j 4 p x 4 j a , , , , j 4 j a b U ! ! b Y Y Y U 4 a k z B T R R j & * N B...U L b b T Y ..W W L R ..L Y T U W ..E U t.R | X.! ..U b W ! q.t.T t.R ! ....! R R U U N Y U Y T a , j k D U ! N z , Y X.F Y | W W ..R L k L ..w...=.! =.R y.R t.T W w.W ..W Y ....N E w...U ! W ..T w.W } w.W W W } q.W W } } Y | Y } Y F U U U D B Y Y N Y N F F : ",
"- v.d.! ! U U ! +.R Y Q +.R =.=.z 9 9 j U b D V C b C D j : :.=.Y R Y R %.R +.t.=.=.+...t.y.+.y.j.d.=.t.=.y...=.=.=.! =.R =.=.! | R Y R R ! t.t.R =.R z j j x b l j U =.! +.R b j 9 l l 9 z U D D 4 4 k m k F Y F N F N D m m j : m :.F F =.F Y =.R +.=.=.=.=.=.=.=.l.=.=.=.U Y =.=.y.+.:.i.d.i.y.i.D g.V.=.&.;.=.=.;.;.R =.| ;.%.R %.| H H Z Z | F Y H H Z D , 8 M  .X.:.:.:.X.:.M X &.=.z B B B Y F } Y %.O.y.! R y.R t...R t.t.! Q ! R ! t.=.t.t.=.%.-.;.:.=.=.&.%.| X.&.i.o.y.t.T Y =.! ..} ! =.Y =.:.H } F Y =.! t.| 0 + , l z l U j L c c 4 , t.V.} ..R ..Y Y D F R Y } Y Y R H F F M M Y Y Y Y  .Y Y B L Y Y R Y Y | =.=.! ..R %.Y D R =.R t.t.! e.u.t...=.=.R F 7 F %.W.H H =.y.d...;.=.} :.%.=.! N N b k N l j z c N z j z c z j c l l Q w.Y z W ..N N 4 m ` 2.f.p p j j , = N d.W E Y L b Y N t.W Y F W R R W T L R y.R U ..R y.R T R W b ! R U ......y.+.=.a.! ! T T U T L N N R 4 4 0 z T W U T b j Y X...R ..W ..R ! t.R N n Y R j.=.t.t...=...R } W W | ..R T R k L R T T W ..W ..W | w.L Y W w.w.W } | W | | | L R T F R R ! D b N } U N R Y m & ",
": j.=.U ! ! ! R T R ! t.t...=...k , 9 N D U Q U D P U C z > *.=.R F =.R +.=.=.y.=.;.=.Q i.t.=.=.i.C.=.%.y.y.=.=.t.=.t.=.t.! =.=.T R R U T ! Q y.=.! R k 6 , , 6 j b ! ! ! t...x 6 - : 4 4 b Y N D 2 4 0 8 N N F m D F Z D m m 0 ; H &.G Y Y F =.=.+.i.=.t.i.=.i.:.=.i.i.;.=.b N G =.R o.;.=.=.;.=.t.z g.n.=.y.=.=.=.=.%.=.Y %.%.=.%.R F R R R F H D } H } Y m = 9 j F H Y H Z H D l & =.} n Y Y T Y Y } Y | ! =.D R =.=.R ! ! ! R e.t.U +.p.=.=.y.=.=.e.;.i.y.;.;.| &.| | ;.y.t.q...=.R | =...X.F ! =.=.Z H | Y Y y.=.=.=.m * 6 j k x l , j k k j O -.k.w.t.y.N Y } F Y X.Y ` N m F R N Y Y Y Y H M | w.F z 4 n m N D F Y H } F Y D R | D D o.| =.! t.! ! t.=. .=. .| } F :.:.:.H %.%.&.-. .y.=.| &.' =.-...y.Y B A n Y Y X.Y B ^ Y T Y } Y U ..Y T M n N Y Y N , k m Y } c j a a - = b t.U c U n N N W ..t.Y Y Y Y N } F l L | =.R U R ..=.! R C U U ..T w.....R ! R ! ! U U R b b L N c U 7 - l b N D U N N > Y :.R w.....W W W w.! ! D 7 > v.y.t.t...........Y ..} w.| N F k Y ! W W W ! W W W ..F W B L ..W ..W ..} W | Y Y T Y R } R T b N ..| Y L Y Y n : ",
"+ v.i.=.=.! ! t.! T +.! ......! k , > = 6 f d , 6 6 6 ; 6 ; %.o.G R Y R =.=.R t.=.d.y.y.u.! =.=.y.d.t.=.....=...s.=.R t.=.y.=.%...T T L ! U =.=.=.Y =.Y D D U N N R Q ! +.t.R ! U b B Y U U D G k - = 0 z m Y m D Y Y D D m w 4 = } -.Y Y N ..R =.t.j.i.g.v.v.V.b.g.i.i.=.} U z =.R =.%.d.+.d.i.y.%.Z g.b.%.3.%.;.F y.y.%.=.R =.=.| %.| Y Y H m H H Y H F m N O j 4 l b 9 0 l z 7 , & &.=.N Y R R Y R } R F R ..Q ..R R +.t.=.R ! e.! =.! t.+.+.%.=.+.=.o.-.t.t.:.%.H ..=.y.=.t.! D -.R =.Y =.i.=.Y H H m | =.Y m &.=.| M , : , j l 9 j l c l j j & f.V.L  .} } Y D B Y Z  .} %.;.d.i...g.X.i.} -. .f. .F n j 4 x x z 9 l z l m b l k z 9 m | ;.R t.t.! ! =.;.-.-.Z ....n.Y A F H g.%.&.*.*.;.} i.=.Y %.Y  .&.` B Y =.} B F | } B } } }  . .T W N B m B Y B z N X , 4 l 4 j b L : , , k t.L j U L F U W W W L W w.W U R F W ..Y R U C R Y R R Y U b R ! t.R =.t.R R t...R U Y ..N N U U U T , , 0 l b N U T U , D =.....R ..W ..! t...! b 9 : V.B.! R y.w...w.| W ..w.w.q.n Y n Y ..Y W W w.Y L } W Y W W w.} w.W Y W } Y | ..w.R U T T W Y N N L L Y | Y B Y : ",
"- B.t.R w.R t.t.=.e...! R T ! ..0 4 A :.:.x.b.b.l.n.x.g.&.M &.F =.%.| %.;.R o.t.=.! e.=.t.y.=.d.d.j.=.t.t.t.} t.y.=.+.=.-.=.=.y.....T E t.! R ! =.! Q ! T T ! R R ! =.R ! ! ! t...D R U Y F R T D - : k m D m N D D F G D m k k ; F g.F } R G ..;.;.i.i.i.y.i.v.l.;.y.i.;.i.U U Y %.o.R ;.d.i.i.=.y.V g.Z.;.:.| %.=.=.i.=.;.&.;.| &.} H ' | H G Y %.Y G D F m : x 0 B Z F F D H B z -  .X.B B N ..} Y Y =.Y Y R +.R F ..=.%.R R ! E t.s.T R +.R =.=.t.d.=.g.F =.=.=. .| &.=...=.| R ..Y i.;.R H F !  .Y H ..R Z Z =.Y | b O : j m N k 0 b c c b l : j.F.U } Y F } N R B Y X.:.i.f.=.&.i.i.:.g.i.y.2.-.} m a 9 : 7 , : & 7 - 0 4 : , , - q F Y y.......T U =.=.} | ..! ! v.v.Z o.i. .3.3. .X.=.| %.=.U Y R } &.Y t.T B H A } }  .B N n } ` Y | ....Y D N L N n n : q N l b 4 c N l L 9 c X.N L N Y Y m m Y L Y | ..} R Y Y R  ...R U R Y | =.=.Y P z G ..R =.U ....! T ..Y ! F T D G R U N b 9 : a b U N D Y k : R y.R ....R ! w.R w...=.b , : b.V.....W X.w.....} w.| ....B B j ....| W t.Y L ! } W w.| } W w.} ..| } W Y W ..W R W U W ..W b c W W F | Y F B : ",
"- B.d.! ! R ! ! ! ! ! R ! =...R 0 , Z %.x.g.x.g.i.x.-.:.A w &.%.R ..R =.%.R +.! t.! t.t.y.t.=.=.i.d.! ! ! t.R R =.! +.p.T R ....} R R T ! ! ..=.! ! R =.=.=.R =.U R ! t.t.=...=.w.} ..F U N Y F m : 0 l b D Y U Y U D B D Y 0 k : Y i.Y R =.;.=.=.=.y.i.e.=.:.=.H %.:.:.-.! R T +.+.=.i.y.=.i.x.%.i.D x.v.;.i.=.;.=.;.:.%.| t.;.=.=.Y Y &.Y G Y } -.F F Y A m - 0 0 F H R X.' X.Z m , -.X.z Y B ' Z G Y R R R ! =.=.| =.R +.! t.p.q.+.Q ! R R ..=.+.y.t.=.y.R Y Y o.| Y t.! y...Y ! R ' Y =.G F D U Y B M +.R F } F F l - * 4 : j k k c 4 c N N 4 ; &.f.F  .Z Y R F | Y Y | ..} Y Y ..| R ..R R R N F R m m F m M 0 N D Z Y U D D F U G Y Y =.=.a.R ! ..Y ! X.Y ..! ..i.H :.%.y.t.=.&.&.&.;.:. .-.=.=.Y | }  .:.} R D F | X.` }  .Y ..} ` w.W N Y T Y F } U k m * : , D N l b L z c , k a.N z W k N W Y W L L L W Y W } y.R ....F U Y U Y R R R T V Y R Q +.! ! U ..R R R } R b T Y N U U N 9 4 j D N U b U z p } X.U W W Y q.w.w.....D j j ; v.j.Y a.w...Y W ..| ..W ..W L N N W W | w...| W Y W W ......w...w.} } W Y U T W ! w.W W R Y W U N ! ! W L F Y F O ",
"& j.a.! E ! ! w.=.! ! q.t.} R R k 9 9 j U D j b l N b l c : &.| R R R ..o.O.U t.+.t.! ! =.R Q ! i.y.! W W T ! R Q Q T R R ! T ..U ! | U P R U Q ! Q =.! =.=.| =.=...t.t.t.R =.R ! R | R U F Y %.D = 4 0 N b Y B D B m N N N m b & Y :.Y +.R ;.=...;.y.t.=.=...=.=.%.g.:.y...P D =.=.=.+.s.=.;.y.;.d.Z i.x.%.y.y.y.o.y.;.R ;.=.;.y.:.=.=.&.Y U D | | | D ' R D 4 , 0 b b b z m z z 0 & y.=.B F F F F F Y =.+.R R ..=.R +.%.+.R =.R +.! R +.=.R =.t.e.+.i.o.u.e.=.=.=.H Y Y D V - : O + o O + & : + & = : 7 , : : : * - : - - * k b a N a a k n c 9 = y.j...X.R R T F  .M H Y Z ..Y D =.=.=.R R ! Y Y } L Y  .F ` H F B H } | } R D =.;.=.R Y =.y.=.=.=.R =.Y %.Y t...! =.;.| } X.-...&.i.=.&.| &.:.....' A H =.&.=.W M } } } F | w.| B ` } B Y Y Z -.| H } F F N X 0 l b z k c l j b > j w.F F ..Y Y T Y U T 0.W L Y Y ..F F R ....D U U ! | H R b D } R R t.T R R ;...=.Y } Y T W T } W N F , , k b D D D D z , B f...R ..t.R ! w.w...R m : , k.j.L ....Y W w.w.....R W ..N n z ......| | ..| W Y w...Y W ....} q.W W B W W U ! q.W R W | W L B W X...W N T n & ",
"& j.k.T W T ! ..T =.q.! ! ..R T c l 9 N D R G Y D G Y D N : %.| R o.o.G ! +.T +.=.e.! Q =.+.R =.=.i.! ..R ! | R ! ! U T ..T ..! R ! R ! ! R U +.Q R R R +.Q +.=.y.=.} =.=.Y =.R t.=.=.R | Y Y Y m : 4 5 z G Y Y N z B B N b N z : } i.H R =.=.R =.i.=.y.;.i.=.-.=.=.i.i.i...T N %.=.| =.;.;.;.=.=.:.b :.i.=.i.;.l.i.;.%.%.R F H =.R R T D Z m m Y ' | X.R S F - , 9 9 D b M z N 4 a &  ...N F N R U Y R R Y R ! ..+.=.=.R =.Y t.+.Q O.R +.R R %.=.o.i.=.=.t.%.-.:.} %.=.G & o o , : O & : , 6 O = - + @ , > j 9 7 , 6 : q 7 : D N N j b m n N b j + | i.} Y R } ..U ..B M R Y R U F Y R Y Y =.Y Y Y ! R Y Y B B Z F Y } %.Y F } R R ..=.R Y  .;.=.Y | ..=.+.! ;.;.=.=.Y | .. .` y.R y.y...=.=.&.H Y Y  .=.H ' =.} R Y A Y Y | B B ^ ` } B | | Y ..} } } F B F j , j j Y z k c 4 j K x 0 f.L W Y L ..U t.| F } b m W Y | W ! } ..D R M T } Y G } R D R Y Y R a.! R } Y } R R T U Y U R R Y G 4 , k k b C D G N > D 2.T U ..W w.....! =.L j 4 & g.B...w...............} R y.F 5 L Y W W W W | ..W Y W ....W | ....} w.B Y Y W ..W ..R W ..w.| T B ..w.W Y T ..N : ",
"& j.j.} t.w...w.! ..! R ..! ..! j , 9 z U Y Y F G N N D l , %.Y R R R R =.Y +.R u.t.Y ! t.R R R =.y.R T ..t.! ! T ..! T R L R t.Q E ! ! ! U U t.R =.R ! ! =.t...-.t...t.y.R R =.%.! Y Y } Y Y Y N , q z j B R Y D U F Y D N R z * | f.R o.R ....=.t.;.&.| H ;.y.y.:.y.j.y.t.B N Y S %.;.=.;.d.:.%.=.C :.h.d.=.;.t.i.i.R D j l l l l q x j l w z '  .} %.} Y m , > 9 D D D G z - 4 z $ &.| D R N Y R Y ..R ! =.T R R =.=.+.R =.=.=.+.! =.y.;.y.R z.;.=.+.y.y.H %.Y } ..l + 9 : + & - * - : * , = 9 : - O + , 9 6 6 , 6 4 b , = b N b b b L N b j 4 : O j F M X.D } ..X.Y ..W F B Y D ..R Y | =.R R | R L Y B B Y F F Y ` ' H X.A U Y Y ..=.....| Y ' | ! Y =.=.R | =.;.} }  .R ..y. .;.-.=...X. . .! R Y R R H =.X.X.| Y M X.` F Y } ` ` B y.| B } X.A F M M z : , , j N N k k k x K j 5 } Y U N Y W U W ..Y Y L F B L W ....N X...D U | %.R Y R V b D ..U ....t.F Y R L R R T T T D m D U b , , k k D b U z N , Y g.H ..-.......t.t...! l , : j.k.Y y.W w.t.w...R t...Y ..Y 0 N ..W Y w.w.W Y ....R ....y.} w.W ..w.} W W ....a.........W ..K F ....W W w.R U & ",
", V.i.Y R R ! W D T ..R ..+.R U j 4 j l N D D b Y N N z b : ;.H D R T D R T D ! ! ! G R =.=.Q ! +.i.....! ! ! ! ;...! ! T ..! t.! U U U R T ! ! W R =.! ..R ..t...y.t.t.....=.%.R | Y F D Y H D m : : j z R F Y D Y U N N U N b - Y g.R =.R +.;.=.y.;.=.=.;.i...=.=.l.i.;.=.G Y =.=.%.=.;.i.v.t.o.;.F :.y.R y.i.t.+.=.o.j b l 9 4 9 9 j l 0 k D H Y Y H H R M - ; 7 Z D D b M 4 4 n : :. .D U D Y F Y F R Y R U U R t.R =.+.=.=.R R R R +.=.+.+.! =.l.t.s.;.%.R R &.4 & 7 & & & = o * - , & O , o O - , & , , 7 j j j b U b , c U b L b N l z N 4 : 4 - , Y N N Y D Y N Y m n n N z B m D b T D D R N N m L b N z N B m H D N Z m z D D F Y D D G m Y D D ! b T Z Y Y F Y m R ..R A ` Y D ` F Z D D D Y D B D Y R B k n k n Y m Y N n n m | B n M B Y T N z = 4 , j l L N k n b b c j l X.W m b L Y U N W Y Y Y W Y U | Y w...y.Y l D D F D %.Y Y 0 B ....Y Y R ..R Y Y U R Y T D U M k D m , & 9 N b D D U z : | g.} ....W T w.W ! ..D z 4 : f.B.W W X.w.w.W | ..y.| ..R n : W X.| R B ....} | W ....W w.w...| } w.W W w.Y w.t.y...! ..X.W L N ..W w...W R B , ",
"4 j.a.Y ..W ..t.N D +.=...| Y Y 0 , 4 0 D D D D B b D G z ;  .F H R R R G Y Y =.i.i.y.=.y.y.-.a.j.t.R ! w.R U ! ! R ! t.Q +.! ! =.+.U U T E R ! T W ! R T ......=.R R o.%.R ! R Y G Y Y Y B H H m 4 4 j N N R R Y F Y N D U N m > G g.R o.+.! =.=.y.=.y.-.y.i.y.y.i.=.=.o.R R Y :.=.=.=.;.=.;.G %.i.G X.b.;.i.d.=.t.o.=.G Y =.=.! =.R H H A H R | H Y | Y } B : , 0 l Z D z w 4 - k : -.X.t U F B D D D R U T U R +.=.=.=.R t.=.o.! ;.Y Y %.u.y.y.+.d.u.e.t.! R Y , + , o 6 6 l k j b z k z b l l 0 z C b l l b b c b R N j , U N D b x N z l N 4 & 4 , : = * - + : : , + - * - o * & & - X + - & - O * : + o - O & O = & & = & o : * + - - , - & * * : , 6 O + & - - : * - - & , , , & * , O : & * : O + O - : - - : , , & O - : * # - : & & 4 : X - , - : , - j k z N T a b L j N p j ..m Y N k k Y N R N W N N L U R ..} ....R j N ..N D Y =.Y D T ..D D Y D Y R ....=.D ! W b m M b D w , 7 k k m Y R D m : F g.T Y R W W W ..W w.N l & : y.k.W W W w.w...w...t.y.| } } a ....} Y B Y | W ..R ........y...y...w.Y W ........i.w...W w.| U Y w.| w.....} Y : ",
": k.-.R R W ! W D Y %.| R =.R D , 4 , j R Y b D V m G b z ; -.| +.R o.+.R R +.y.i.g.i.i.i.f.g.j.j.....R U q.U ! U ! ! E ! t.e.! ! U T U U U q.! T T U T U ! R R =.t.=.=.+.| =.Y Y } Y Y R D Y F k 4 , z b R Y R Y } Y F D N C k - Y x.R R =.=.=.=.y.;.=.;.-.y.y.y.y.;.R V D l F =.=.t.%.i.y.:.R R | b :.b.Y :.=.o.=.=.y.=.| :...=.| %.%.X.X.| Y R | Y Y G H G 4 9 j , N D D 0 : , 4 $ &.Y B M Z D G Y G U D R E R +.=.o.o.O.=.=.G ..e.+.Y t.u.R R +.=.i.u.t.=.=.0 : * - q 9 j D D D U k G U U U D D G D D z b N C b T R D j , U P x D N b 0 z l l : j 4 - 4 , , , , , , * - 6 - = + - & , - * 6 , - - : : j * , 6 6 - - & & : & , = 6 - - , - 6 6 @ - - , 9 7 - , : l 7 , & 7 , 4 0 : , 2 : 7 - : 9 4 4 , , : , , 4 2 - 2 - , - 4 4 = 4 & - 0 - * 4 , - 0 : - * 4 4 D R l N c b a N : b y.U L Y N Y Y ..Y F T W R U U W R L T B N c U U z Y Y Y U D R R N Y } D } B Y ..U c N U D Y D D D b - : j 7 z G D Y b ; Y f.Y Y ..! W ....t.| W z , 4 b.g.Y W | ....W w.w.....} ....R X.| w.| w.w...| ........W -.....y.f.....| w.i.t.t.y.| ..| X.R U T ....X.w.w.W W a ",
": f...R L W Y ! F Y =.R R Y U D , 0 x 9 D D D N M b b D b , ;.Y F R D =.+.o.R R y.=.| R ! R ......Y ! ! ! ! T ! ! R ! ! ! q.R ! ! ! U T T N T R ! U T T ! R U w.....=.| | Y | %.=.Y D D b F Z z 9 & j j N N Y T U Y Y D R N Y B - H i.%.Y y.+.=.i.;.y.=.;.:.i.;.y.s.t.G 0 , 7 U R =.=.-.y.=.=.;.o.=.b :.:.%.%.=.=.=...=.y.=.X.Y } | i.| ' R %.F Y Y Y F Y Y D , j , j m b l z + , 0 ; ] A D D z N N D R D R +.H +.+.+.Q R +.t.O.+.R o.t.%.;.=.+.o.%.o.H R ;.=., , 4 , , 0 D D b b F w D Z G U D Z H Z D Z G N D U D D U b k j N b b b b j l c c j , l 4 0 7 4 , 9 d 6 > , * & , O * = & : 6 , 7 , , q = 7 , 9 , 7 , : 4 , = 7 , , , 9 - - * * - , - - 6 6 - 6 j d 9 6 , 9 9 : , : , 9 0 : 0 7 , j 9 , - 9 7 9 j 9 : , 7 k : 4 4 4 j - , 0 : , 4 0 a - 4 7 4 l z j Y L T N a b U j L j j X.T N R R L W L Y N Y N T B L W ! N R y.R L R U D R N Y R l Y =.Y D R Z Y ..T B Y Y Y Y D D N N m N 4 , 4 5 z D D G Y & Y &.N R Y Y R Y R ..T Y k : ; f.y.w.....Y | w.....t.w.W Y w.| ....| ..X.! ....| | ......i.y.g.i.S.j.j.N.j.k.b.v.v.X.w.X.y...T N w...W ....W Y a ",
": j.y.U R W w.R b %.| +.R } } G : 4 9 x D N m z D U b D z : &.D R %.R R R Y R R R +.R =...R ..R R Y R W U ! ! U R =.Y ! ! ! t.w.+.! I U T W R L R | N R U U U R R =.=.=.=.%.%.Y G Y F U D m b D b & 4 l z T D R Y B Y R D R N j > Y g.R R | =.| =.t.i.:.%.i.i.y.=.=.=.=.G Y T ! =.=.%.y.l.y.=.y.R =.l :.b.=.y.:.=.=.H =.=.:.;.;.i.;.| } R =.R R =.} D U m M m & 9 9 b m D C z 7 : 0 & :.X.0 D D D D D U +.T R R =.R R +.o.;.+.=.o.+.;.+.=.;.R =.+.O.=.+.+.R l : & , q l b N T N D m D 0 C U b D F D D Y Y Y R N D R ! ! b k x U l N j l N c U b c 4 k j j l 9 - l , j 7 9 j 7 > q 6 = x = = , 9 9 j 7 9 z j j 9 D j b q 5 0 B l 6 7 9 , q l 9 l l 9 w l l l 0 j j 4 , 7 k , , 9 7 q l x z k k N 0 7 z z 0 b 0 9 b b 9 M m k k k j 0 k k z z 4 0 z 4 k n m z D m N k Y b N p k b j c 4 k k.R W F m Y Y Y F N Y N T T U ! R W y.R W N Y T T Y Y U D b Z Y R Y ! R ..N N Y Y R U W D U U D N D 4 , , 0 N F D U N , } f.Y L W Y Y ..R T R F 5 : & g.g.W W ..w.W w.W W w.| W ..} ....Y R | ..W W | ..w.....X.j.g.Y ! | i.y.w...w.y.y.f.| w.w.y.} Y Y w.| w...w...W 4 ",
"4 g.X.W W ! ..| Z Y R R R R R R , 4 4 z D N k B T N D z z , H F G R H Y G Y +.+.=.o.R ! | Y =...Y ..T R R t.! =.+.U Y T ! ! T ! R q.W ! R Y R ..T Y Y D ! R R ..R %.y.=.;.=.R =.o.Y R D D Y G Y z : , 0 m W Y m R D m N N N m m , D :.F F Y %.=.R i.=.%.;.:.=.:.=.=.=.d.;.;.=.t.=.%.=.&.y.y.:.! =.i.V i.v.R y.=.=.| H ;.y.y.=.=.;.y.%.&.%.G R Y H Y T R D D z - 9 6 l b z b 7 , 6 9 = 3.F j b 9 m G D b U R R o.o.+.G ! T ;.=.=.=.;.+.=.;.=.R o.R R H D Z 4 O : , 6 8 m N z V C G U l D D N Y D D m l m M R T G D G C C Q D , l k b b N U N b T j 4 z b C b 7 x l c b b N 4 N 8 l b k D j & = k N Z l b G F l M z D F | D M H F j j l D B z b 0 D Z z H U C b C D b N D l z & z z 2 z z D m N Y F B z N D F Y B H m N n B U N R B Y Y B B k Y m Y m B L m b U k b W z L l x x j b L 4 k g...D F F B F L Y Y N U R ..U R ..! W ..R Y U Y U Y U Y U m D R ..D R T L U m L E U Y Y N U U W D D 9 p 9 0 b z m B z > } f.F R | Y W ..| ..R U l : & g.j.W ..W w.W ! w.W W ! W w.| W | } ..| w.W ....X.} ......:...U ..W q.W W R ..R } w.w.w.y.f...! W w.W ..t.....W 4 ",
": k.i.L ..Y W W b Z | R ! R R N - 4 l m F D D F Y k Y b z = Y H Y R H R R R R +.R R ..! =.Y } Y Y T t.! U =.! =...! ..R U U w.! T R W Y W R R U U R R D D y.R R t.=.t.y.u.! R R =.Y R R G Y U ..D , 4 j D Y T U D N b U F R R z , G =.F Y | Y R =.| =.:.=.i.:.y.o.+...i.d.t.;.t.;.o.;.;.:.=.=.! y.y.l h.b.:.G R | %.| =...;.;.| i.y.R R %.=.R R %.Y G Y F U Z - 9 6 w Z V Z z : 7 4 % i.H D Z b D N U U R F R Y G o.R =.o.=.O.%.R t.H O.+.F =.+.%.;.=.G , - , & 9 z C V D z b D D N Z b Y N F N G m D M Z D D G T D U =.U D : b L c b L L c c N j k z j b D z D c U D R R U U z m D U b j x * O N F H Y F T F  .A | F H %.} %...9 D b Z U l Z G D D G T R G U T T N b T b b 7 l D b Z R H F } F Y B m R R R Y Y ..} U N } F } F D M F F D B N ..F B Y | 0 ! U N Y L U N D , b K c W l k } D n N L Y W L U Y U w.Y L R w...W ! w.} T Y T F L Y Y z N N ..D z R R b L ! U L U ..R b D D ! T U 9 a 4 k l N N N b & D ..w...Y Y } R W ..R F z & ; k.j...! W w...T W W ! W W | W | ..X.W w.w...W ..w.Y ....X...} D U R | w.....w.y...w.....Y y...W N | ..y.X...| Y : ",
"4 g.k.T W | Y Y l N =.Y Y R F Y 7 4 l j N D F T Y z D l 9 , %.D H Y Y G T +.Y o.R R R R R R Y Y N R U ! ! ! ! T W U q.W U T T R R Y W ..T T Y N C T G R Y =.;...=.! R y.t.| %.o...Y R R U Y Y Y N : 4 0 N 5 U U T Y N N n Y F k : H i.U Y G Y R R ;.=.=.;.=.=.t.;.;.i.i.;.R i.%.=.=.:.y.=.i.=.! =.;.9 g.x.R Y H ;.Y %.| X.| =.t.i.=...Y | %.H X.Y Y Y o.Y R D 6 , j z z b D m , 7 x & :.=.b D D D D Y Y T T Y F D R Q Y R R =.Q R R R =.R R =.R o.R H 9 & - : 0 l b D D G N z D U 0 0 D Y G G Z m z Z D Z Y z D R T Q +.T B , U b z N z N N U Y k j b z c b z G R N G R T U F D m U U U N b U j 9 b =.H R Y H  .' %.} &.&.:.;.D G D T T D D T G H D G H R T G D R G B ! Y D 6 H R z Y X...F R ..Y B Y Y U Y F ` Z X.R U B | } H Y D A Y Y F Z R F B B n B U ..Y R Y N l b , N U l U : | f.z N N F R X.Y T R T ..R Y R W t.R ..w.W N N L R T U R R b D Y N b ! T Y U T W W W W N D D U U N N , , j 0 z F R z z , ` y.U ! R Y ..} ..} R Y k : O -.f.W t.y...w.U W ! E W ! ..W | w.w.} W w.| .. .X.Y ..W ....D D D Y ..W ..R R T } R B U T w.R U N W w.y.X...X.Y a ",
"& g.-.R | F Y Y N N R G D F | ` z 4 0 b D N B R Y m G b 6 = %.H b Y R Y Y R T t.y.T Q Q R R Y T ....T ! e.=...! ! ! ! T ! ! ..Y ..} R R Y ! T R ! D T R Y Y R =.R =.t.=.=.=.;.R ..R R U U B F Y D , , k z N R R Y Y b Y R Y N c : Y 3.U Y T R ! =.i.y.=.%.:.=.| =.+.i.i.=.y.Y %.y.=.=.=.i.R i.t.&.%.V :.g.Y | ;.=.R =.;.=.=.;.R =.=.} R ! Y =.R Y H Y H R Y D : 6 j l D z D A - j 9 & :.| D Z D Y Y Y D H Y H D D H R Y R T o.o.o.%.R o.Y +.;.R ;.Y - 6 * - 9 l l b U b Y D z N G D Y N z 6 4 + O - : 2 7 , , = d f j d b , , c j l b a j a : p + * & : = ; = p d K 4 4 - & 4 : : : = ; - ; d & : + - 0 0 k z k t F D m m 0 Y 7 * * , 0 - : j d V C 6 6 z C j q b b b F U Y O T G C F ..}  .T Y T X.m ..B Y B ` ` ` ..} m Y D Y } D U } Y Y B B ..n B Y N F N Y N R Y U x , l b c j - I.k.m m R Y } B Y } N ..w.W Y  .w.Y L T w.T Y T Y U Y N N U c N U N b L T R N Y U R N W | Y N b b L N , , : z N U W Y z , } 2.Y T | .. .w...Y R N k , & k.a.F ..w.....R R ! w...| w.w.} ..w.} W } | w.w.w.} } W } Y z j 4 k j a k l c l z j b k l b j b N ........W ..R - ",
"* k.j.w...W W ..b b F F G B Y H - - * : - : & , , 4 = : O & H D Y G F } Y U =.R Y R ..W W Y W R ..R W ..! ..p...! R U R R R Y X.R R ! W ! ! U U ..Y U T =.....=.! | =.! R =.%.=.R R H Y D N l Z D - 4 k m m B R D Y N N D Y N k : F y.N G D Y o.Y | %.%.o.R ;.=.u.=.=.=.=.R R :.=.| ....=.....R =.y.m :.:.| ..=.+.y.%.;.Y | =.Y =.R | Y =.R R | Y F Y } F Y D , , j j l Y G m - 4 b :  ...D F Y H D Y C R H Y G } R R | R o.+.R o.G o.T G D Y %.G , : : : j l D k l b C D C z m 0 m : M -.=.%.g.x.&.:.g.3.g.b.g.-.-. .2.-.Y H F j ; O Y Y } 3.:.&.g.f.i.:. .&.a.f.t.-.-.g.g.=.:.:.| :.i.g.-.y.d.i.f.i.y.:.=.i.i.i.:.x.x.v.h.v.g.i.n.i.3.i.i.g.:. .;.;.i.i.i.i.t.i.! c z G R * z D Z Y D ..Z B B M n 4 & a 5 N 2 n 4 & ; j l j c - : j : 2 4 - : 4 & : O 2 & - : ; ; j j   , X & ; F J.J.N L ..R F n | ..Y L X.w...w...W Y L Y ..W U Y L R Y Y D U N U U L ..Y W T T R W } U T R T N N L b D 4 , l z l b b N N : F >.N N | ......Y ....Y k , & k.g.Y ..w.t.....W ! q...W T ..R W W W ..W W W w.....w.} w.} L a a a a z a z z k j k l c k b c z U R ..........N k ",
", k.f.Y ..| T B b U Y A F m Z D 4 , , , j j j j z j b 6 - & :.R D Y R R R Y +.T U R W ! W R Y R L Y Y W ! W ! R U Y Y F N R ..Y ..R W T R R D R ! R R ......R R =.=.=.=.R =.R ..R Y R R U Y D D z - j k N G N R Y N m n R N n l & Y f.Y U =.| R %.H =.:.=.;.=.=.=.d.=.=.o.%.o.R Y ;.R R ......=.=.=.U &.j...=...=.i.=.+.=.y.R =.Y R Y Y R =.%.R G F %.Y =.Y D : d 9 j D G G m & 4 j = :...F m U R U D b R ! Y Y Y Y Y R o.T ;.Y Y T R T Y D R D - 4 j , 7 C U D F ..R U =.G D Y D 0 J.Q.P.b.b.R.E.J.R.K.Q.W.R.P.P.Q.I.b.b.J.P.W.U.Q.P.Y.E.I.W.I.P.P.c.K.v.P.J.U.J.3.h.b.P.L.h.b.g.b.n.n.v.n.n.R.P.b.b.P.n.b.Q.P.R.E.Q.Q.R.R.P.E.Z.Q.P.R.J.P.R.R.P.P.n.Z.V.W.K.V.P.g.B 7 z H - D G 0 b U } Y ' D N J.h.k.k.g.h.g.g.h.h.b.b.b.b.L.P.P.b.L.b.P.h.P.h.k.j.b.b.b.k.g.k.U.V.V.k.f.k.V.k.Y.L.N Y F a L B W ..| X.F w.| q.W W | W L ....! N N Y b z D Y U z U ..R ..Y N ..W Y R R Y T W R L U Y U D , , 9 k N U U U l & Y  .Y ..|  ...W ....Y L z , O y.g.....w...! q.w...w.t.! ..} | ..W ..Y ..Y W | | } W ..w.W W } | w...} ..Y Y Y m F Y W | ..! w.W w.w...y.w.W U 4 ",
": k.2.X.| F | Y m Y R } D Z D D , j 9 l l D b b b b v b j - :.i.D R Y W Y R R =.U T R 0.Y W ..R Y ! W ..T R R R R R W R Y =.! R R T ! U ..Y R R Y Y =...W ....R =.R Y =.=.R R | R Y R R F R m H M X j z b Y R ..L m N N L R Y k = Y -.R ..R Y Y R =.R | | =.:.=.=.y.R ;.=.;.=.=.%.y.+.t...y...R | R G :.v.F %.=.T Y =.R R =.| ..d.} H R R Y R | Y F R Y Y Y B 4 j j b U l Z z - 0 k & =.Y G D U T Y G ! U R D Y F G R D R o.+.+.G R T G R U G : - j , q j C U C ..y.=.;.y.=.&.F A E.Q.%.F F X.R %.&.A F ' R F | D | ' F } } A i.i.i.Z.:.;...H R m e } ! ....=.B M $ M m 0 z U T l N R T C l 0 T G B D H D N D H R H =.%.%.Y ! ! R o.=.R F F D ! R U o.H R %.R | F R X.l k z O D D 4 N B F B z H ~.I.h.h.b.h.f.j.k.f.3.L.c.b.k.k.P.b.k.P.b.j.b.c.f.b.k.h.k.j.k.k.k.k.k.B.j.j.V.k.k.j.W W Y L W | ..W | | X.Y W W L ....W Y F L L z j 4 , j 4 a a j D U ..Y | L R | R Y ..} F D U N N T T D b & - j m U N U T l : B ..N Y Y Y | ..W } W B k 4 , f.h.L ..W w...! ....q.! ..w.} } W W | } X.W | ..Y ....w.} w...W w.X.....w.} X.....X.X.y.w.......W ! w...W ....Y : ",
"4 g.i...t.w.t.U z Z R } Y F m H 4 4 6 9 m z D l b D b C 0 & %.;.N Y R R R =.R Q T U W E R ! Y T t.Y | | R D } T Y Y T ! Q ! Q =.T R U b T ! U D G R ..U T ! R y.=.| Y Y +.=.Y Y Y | Y G G Y F Y G 4 4 m N R B U N m N N z N Y N , =.j.N D Y ..=.%.R -.| %.&.%.%.;.=.=.y.y.y.Y R =.=.! ! t.t.=.=...y.m f.i...=.| Y %.=...R R =.Y ;.=.| =.R R %.G G R Y Y Y Y D : , 7 l D D D z - 4 l ;  .} U b ..| ' } N U Y Y D G Y R Y R R R T Q R D T R T - : 0 : j l C P D c C b b C U U i k ~.K.m F H G } Y Y %.%.%.-.' ;.H } Z A %.Y A } A ' | D Y R  .H ..| F | Y ..t.R Y Y N H Z M T ;.} =.=.%.Y =.! T R ..R ..Y ..F | -.R H %.;.;.=.y.| | ! =.%.=.Y | F Y | R Y %.=.| F | Y R N N k * D H q F F n l 8 Q.f.u M B } B M t B N l M m | ..Y M =.N ..U ..%.U z U F N c F N c L N L N ! W N N B ..W L N L L N ....w.X...T W W Y N z U Y F W Y b j l a : j z a l F D R | ..N T U w...| } R T R U ..R D m G , , 4 j N U U D b : Y y.D L R Y } W W W ..F j 4 ; k.h.Y ..} ..R W ..! Y ....X.| ....X...y...| X.Y W } ....w...| W X...| w...W | } R ..y...X.w.w...| w...Y ..W | N : ",
": j.i.U ..R  .W Y Y Y } Y Y F F k : 9 l D b T ! E W ! U j & ;.-.Y Y D R R t.U T ..R T W ! T R Y } Y Y T } Y R T R T Y } ! +.R E W R W ! T R U N F R ..U R ! R ..=.R =.R R +.+.b R +...R Y F Y Y Y X , N Y Y Y Y N Y Y Y N U Y m - Y g.R R Y ..| | Y ;.=.;.i.;.=.=.R :.y.=.=.=.| =.+.=.t.t.t.=.=.| ' 0 g.f.H } ! ..} =...R ..=.=.=.=.R ....Y R R Y } R R G Y N , : j 0 b b H Z , j l , :.| D U | :.3.&.D l U U D R F m H F Y U D R R C ! D 6 & - = 9 C b v Q C b P T T P R N & U.P.m Y | G F m F | | ' &.%.R u.y.%.H Y | =. .%.%.%.R =.| | H | Y =.| Z } ..| =.:...z } D m Y | F y.Y | R F Y D %.| Y R R | %.R H =.-.%.%.i.=.=...=.H =.+.Y D Y | ;.=...| %.D %.H H =.F z - l * D D j F ..} 9 g.G.B M } B ` W Y F B R Y B B | a.X.=...} ..Y ..=.| R =.....Y ....W W ! N Y w.W w.Y Y T N c 4 L N n L | ..} ..! W ..w.Y D Y N ....w.R U Y L Y F W L R W W ....W w...T Y R w...Y W R U U N U N b , : 4 b b U b N l , T y.N Y | ..W Y } ..| W j : : 2.&.W Y | t.R w.....R ......X.X...w.X.X.X.| X.X...Y X.w.w.w.} w.} ..w.w.F ..R ..} ....w.y.a...t.t.! ....| L Y Y : ",
", k.X.R Y R B }  .Y Y A A Y F z 4 & & 4 q 6 , l 6 j d 9 , - f.y.N R b R ! ! ..! T R W Y ! ! Y R R W F Y ..W N Y Y ..| ..! Q T ! T W U ! U U D T ..N D T U T T T R =.R +.R Q T D T D R U D Y Y R z j 4 j N N Y L U N z Y N b M k , } :.H %.Y H ..;.=.:.y.:.=.u.;.y.;.o.=.=.%.R o.%.=.y.+.=.t.R y.R | F g.b.Y %.R ..R | =.=.} | } ..t.| R R } R =.Y Y R F D D l 4 9 l b G D D z , 9 0 9 i.} U D H &.' R D 9 D Y D G D D Z G Y G U G Y U b + + 6 6 9 j b U C T U j K U U T D - V.I.t F D Y R ..F H | X.Y H %.%.=.=.&.| i.| H Z H =.+.=.' H U =.y.=.Y R &.| Y ..R =.R 0 m N N m Y W | Y ! ! D m b %.=.=.=.| =.U %.R | Y H G =.=.y.R ..+.=.%.=.+.R | H m 6 Z =.R R %.%.t.| z - 7 * G N 7 Y A m c  .3.m  .` } } | n F T Y N n N B N Y D m B Y ..T } R } W ....Y W w.N L ..W t.W B Y L U W R W z Y T Y L F Y ..W ..L Y ! w.! W L ..} Y ..Y R Y W | | Y R ..} R Y W U w.R W N } W N Y R R U N N b b , : , j b U b U b , B g.R Y Y B | | Y F y.R j 4 , 2.f.......| X...| &.Y y.w.| -.X.X.Y | X.w.| Y w.} Y w.X.w.w.w.L ......W ..W ..=...R F -.X.t...} ..U W W W R N k 4 ",
"= y.j.T R R N m D Y F } Y D B N k , j j l C l C C C C l j & &...T R R T G R R ..! ! W ! W ! ! R ! ! R ! W } R } Y Y T ! R W ! ! T E T ! W T U D U Y Y Y Y R Y R =.R R ! Y R R U T F D G N D T N k 4 j 4 b N F N N b N N D D F z : Y g.R | %.%.;.-.X.;.+.=.l.y.d.y.=.%.;.o.;.=.=.R =.=.=.=.;.=.=.=.i.Z :.x.Y R Y Y ..R =.y.&.' Y R y.! =.Y =.Y o.Y G F U N U b 4 , j b C b D l Z l 0 , f.Y G b Y ' A A z l D D b Z Y D D Y N N U G R b & - : : 7 , l G C C D C v P U U b & g._.} m %.Y F ..| =...&.} | | H R Y ` &.R ! =.R | ' Y | &.H Y F | ..=.| =... .| | W +.Y R Y } Y ..R T D =.D Y G Y R R | +.+.R H H ` =.=.Y R %.=.y.t.Y G G =.=.;.o.=.| q - z 2 Z =.R | :...;.B , l : B m q m A B p ] ] } F } B ` Y F Y N W R B F W Y F F k T F B F ......F U W Y w...N w.L W W | L L L Y L W ..B L L L ..R W } ..W U W w.R L L Y R y.Y w.| Y W W }  .W Y | R Y T Y T U R W Y Y | T U Y T U U L D U 9 : 7 N D D T N b = } a.L B W B R ..W B X.Y N 4 : g.k.t.R ..| ..y.| y.y.=...X...| w...| | w.w.| | ..Y } w.w.w.W L ....! ....R w.X.....| ....t.! W R ....R W Y Y N : ",
", i.t...R ..Y Y Y Y D Z Y N D N 4 , , j 9 l C C U D U z l : y.} R T =.Y T ! t.! q...! e.U ! W T ! R R ! R T ..t.Y D T U W U U U ! T =.! R R T Y Y Y R Y ..=.=.R +.! +.R =.T U T F Y D G m Y R R m - j 4 z b B z D b N D N N b z - | v.Y %.;.%.%.| %.%.=.=.;.i.i.y.=.;.R =.;.| Y ;.! o.! ! =.y.=.;.-.Z R d.=.H Y R ..T T ..-.Y  .t.t.+.R =.t.R R =.=.D Y Y D D $ , j j b D C z D 9 l 6 =.| D G k z D D b 9 D D D F } Y N Y Y m D N D & , : ; q b l b C z C C T v b b b O y._.f.D F Y H Y F F ' F A H } &.H H F %.R | | %.=.R %.=.=.=.=.&.%.=...| &.:.;.;.%.| O.t.=.=.| ;.=.=.t.t.R =.R } +.=.Y =.R =.R R =.| ` ;.:.R o.=.;.=.R ;.y.=.=.o.y.R D H 7 M :.K.+ Y ;.=.=.%. .D & 9 : j b 4 D B 0 ; ] &.B } } } } B | m B Y Y F N F N n ( k Y Y B R } Y Y R R W ..t.w.U ..t.Y q...W W ..m N N R Y W ..W ! F N } Y } W } ..Y Y | Y Y w.R ..W W | | Y Y W ....R T D W U U W Y W | Y ..Y L Y T b b b b , : 0 l z N b l c > m y.Y W L Y Y W } Y ..F k : * j.V.q.......w.y.X.............Y X.y.| | ..X.} W | R Y | | w.W | w...W w.....} Y | ........w.w.q.a.y.t.i.w.R } j a ",
", d.i.U R H R U b D Y Z B D N N 0 9 : 4 l D b C C U D l 9 & ..| R T U Y R U ! ! ! ..t.E T T T L W T T Y W Y F F Y R W Y ! E E U U K W T T =.R F R Y Y Y R ! T R ! R R R ! R R Y Y U U U D Y Y F m , 0 k k k m m B b N N T N b m : Y h.Y | R :.%.R ;.y.=.+.-.:.R ;...;.:.;.| R F =.| Y | R ..R t.| R m Y =.Y F R R R T %.=.H Y H =.Y =.R =.T R Y R | R D b G b 7 9 j w b b b B & , l , =.R z R m 7 k 9 7 b G Y D G Y U D F Y R Y x O & : 6 7 z l 9 z D b C C b j b U & U !.b.z H F D m F F F X.D X.%. .| D | &.&.H Y ;.| y.=.%.=.| =.y.| ..} =.;.=.;.-.t.=.| R t.t.t.! ! ! ! +.T R ..=.=.u.=.R R =.y.+.D %.;.F ;.=.%.;.Y o.Y +.! =.=.=.u.y.%.o.:.Z :.*.3.b H =.;.=.-.' m - 7 , b Z x n m D =  .>.B ` B F F Y F F | Y ..R m B F B m N Y N W } } R ..Y Y ......T w.R Y N N ! B ..| w.W D Y W Y Y L w.E W ..} W L Y Y W W W } Y F | | | w...w.w.t...| } W Y U U W W ..W Y ..Y Y L N W Y B b U b : - x m D D U D j : Y i.Y X.T T W R ..R ! b N : : :.w.w.......X.| ..Y ....=.y...X.....X.} ..X.X.} W R W w.X.W W } } R Y | X.w.} ..X.i...w...W w.p.t.y...w.} W Y b : ",
"- g.u.t.T R T R R N D b U D D U , 7 & : : = : , , : = : * & } ..b ! R R D ..! T ! ! E ! ..U ..T U T T Y W | Y T W T Y W ! U U U T U U R R U R Y Y Y o.R ! R } R R D U R U U U D G U G R U U G Y B : j k z N z m m N D N N B z B ; Y h.| R :.| Y %.;.y.y.%.:.| :.&.%.;.i.:.y.=.=.-.=.H %.;.=.R ;.| | } Y =.D l 6 b R Y | %.| Y | Q F =.R R ! %.Y R Y R Y Y R D , , 9 l z z j N * 7 j : &.Y z F z l j 0 b U D D G } Y T D F b G z & & O : , 6 l b D b D C b D C C 6 b l W.P.F } } F } H H Y | Y R Y %.A H R &.` ' H R R =.+.:.%.;.%.=.=.&...;...&.%.R R y.=.;...t.s.t.R ! +.=.=.+.+.! +.y.y.Q T +.+.R H | H =.-.=.;.| =.:.o.T ! ;.=.u.o.t.;.R S :.x.S ` F T ;.R | =.X. .b - 9 * b H l 5 m D ;  .>.} } } F B F N  .} n N F F Y Y F B F | F } L W | R ..B Y U =...Y Y W W Y ..M ^ R ! R R Y Y L F Y ! L | t.w.....W W | Y W F W | W w.} | | | X.Y w...W } ..w.Y T ....T Y Y L | ....W W Y Y D b 4 , 0 b l D N D 0 ; } i.D H =...y.| ..R w.U 5 - * =.f.| ..W w..... .=.....! R t.y.i...-.=.y.t.w.| Y ..| w...} w.W Y Y W ....j...X.w.y.| w.....t.t.w.i.a.w...W } Y - ",
"6 d.:.u.r.T R T G D N D N Y D U , : & & + , - = 6 - 6 : : O U ! R U W ! T T =.R W T ! ! T T E W U W U U Y Y R R W ! W Y T T j U Q U U L Y R U Y R %.%.=.! t.R T D U R ! Q G T D D N D U Y U N Y z : k , 0 m m N b z m l D b z N : ..j.Y H =.%.R | =.y.=.:.%.-.:.%.=.:.i.;.:...;.=.=.+.| =.=.+.i.%.=.H -...R 7 , w Y F Y R F | ;.Y ;.| =.R =.| U Y U G D Y D b : , 6 z l w C k : : q : 4 B U N G Y l N Y F F b H Y F F D D C k & : & 7 j 9 l z Z z z T b D D U b b : ).P.Z H Y H G Y X.A F ..H F %.%.%.;.;.=.X. .%.&.;.=.| y.y.;.X.=.x. .=.=.t.=.%.=.| =.R R =.;.=.t.=.t.=.u.=.=.e.! =.=.=.=.R G =.y.:.%.%.| =.=.| =.| i.e.o.y.y.u.d.;.=.y.! T ;.b.l.G o.i.=.o.;.%.' %.m * b - b Y l m N z & >.4.} } F ` ` z B Y } } B F m B M W Y } ] B M B } F -.t.R =.t.y.t.E U ..R w...u ' ....t.w.R n N N W | Y } | ..} } } | Y W Y W B Y } } Y } | ......} } W w.w...R ! L T W Y W W ....Y R U Y B m T - - j b U D N B D ; B :.R H } ....} t.Y t.! 9 , & j.h.X..... .R | X.=.i...t.=...X.| y.w.=.R w.-.| W W ..Y w.w.W ......| X.| w.y.} y.w.w.X...w...t.y.f.w.w.| R R B : ",
"* l.i.;.o.o.o.C U U N N D F T D : 0 : 4 = : * 7 , 2 - , = & b U D D ! ! ! T R R T R R ..W W R T L Y U U R U T w...! Y R P E ! U R ! N T U w.Y G b G =.! ! R ..T R Y U T D U T G D D D D m H F R z : 0 9 k N D U z B D N B z Z z : } g.A R R %.R | =.:.y.=.y.=.:.:.:.;.y.=.=.:.=.;.=.=.+.i.! o.=.=.! ;.X.y.G z = b Y R Y Y Y } R X.=.+.+.=.| R T R N N Y U R D , 6 l l b l b B - & z 4 > 9 k b U D b U U Y Y G Z m D G D l - + : = , , l j D D b 0 9 C C l U Y j * F.].! R R R =.Y R ;.D U R =.! =.%. .%.=.y.;.H } Y %.R y.=.&.=.y.' ;.;.;.=.i.=.y.| R ! =.R &.R =.+.u.s.+.;.%.R R =.=.=.y.R T T ! =.=.-. .y.;.H :.;.=.s.;.;.u.R ;.=.%.=.=.=.R H F ;.y.;.o.=.H H &.R &.b 6 7 6 z 0 4 D R k & X.f.F ` B B ` Y F F F Y } Y N  .Y L Y m B F B L m X.=.F ..t.......Y ! W R Y N } B T a.w...R w.W n E Y } } W W Y B W } W } Y Y W } W | a.} X.| } ..Y ..R y.......! ..Y R W W ..W Y Y Y ..Y L R N 0 4 4 9 U R D N l & Y h.D Y } Y } Y ....N Z N & & &.X.W | ....| ..X...y.i...-.} .. .....a.} ..w.W W | W X.w.w.....| ..X.w.a.y.w...X.X.X.X.w...w.t.X.....i.W R ..F : ",
"- l.u.o.l.o.T o.D Y G D b b D D 4 : 7 j j b = : & 9 a a 4 : U U D C T ! R R R T R U R Q T W ! R N L T N T Y R W ..U T | R L ! L T ! N R =.R b : - & 9 R R R ! t.! ! ! R D U D D U R D U R D N D D : , l 9 b b k k F D z m j 0 l , Y g.F R F %.+.=.=.;.t.y.| =.:.:.-.=.i.i.R %.=.;.=.t.u.u.y.=.=.=.=.o.%.| Y q , b %.R | ..T ..y.=.a.R =.=.T o.Y Y F F | | U N & , 9 l N Z C b m j b 7 : * , 6 7 4 , 6 2 , - - - = O : . & + * - , , x j U b N b j j D C D T B = h.'.t.R ....F R R H R R H =.=.! H ` ' ;.-.%. .-.=.Y | =.:.y.=.=.%.X. .;.-.=.=.=.;.+.R R =.T H =.=.u.+.=.d.o.+.R =.=.+.=.O.o.R D Y =.=.-.;.t.y.t.y.;.=.=.;.o.%.;.;.z.l.=.o.=.;.;.=.| d.u.=.=.| A  .A  .F , l - D N j z m m &  .:.F Y F N m M  .A B Y F  .} } D D L } } N B } Y Y ..} ..a...R t.R Y R w.Y ..U ..Y ! w.R } W Y } W Y W } | } W Y L W B Y } Y X.} | w.X.X.w.X.f.X.X.t.X...y.......} ..| R W Y F Y R R T U ..! D 0 & 9 b N D N m z ; Y f.D } R } } ..R t.X.F 0 : O f.h.F ........-.y.....y.y.&.=.} -.:.-.t.-...| W | ....w.W ....w.w.....-.w.a.w.w.a.f.f.2.w.f...t.w.| ..R T ....Y : ",
"O z.d.;.o.O.G T U R G T R T U U k : x 0 A F N B : 9 4 4 * - C U E R P T U R ! U T t.+.W R ! T R L U W W L W Y U ! R R ! t.! W ! ! ....T ..! : m &.I.N D E ! ! ! Q =.! T D ! C U T R D Y F D D Y b 4 , = = & & * : : + O & & : = - %.j.Y R Y R =.R -.;.y.;.;.=.t.=.;.y.=.i.=.=.=...=.y.u.=.u.Q | ;.=.=.d.! H 0 : Z | R +...R ........=.R R Y H R =.=.! Y D T D & x j l D C b G G U N l j , 9 * = , , O - O O : & , 9 , = X : = , q 6 j c b U C l l b C b N G * =._.d.R =.R R =.| Y R | F D R t.=.R %.&.=.:.%.| X.-.| X.=.y.t.;.| H %.} =.y.t.t...=.i.t.! D o.=.;.| ! =.d.y.=.Y =.o.Z z +.T R H R T U Y i.;.| X.;.;.} =.;.y.;.:.-.l.z.i.v.l.F.v.v.:.g.v.d.=.Y H A R %.Y N 6 7 : D D x m M k & &.y.0 } H m m H } A Y Y F Y } Y Y R Y  .X.Y U T ..Y =...W t.w.W w...Y L w.w...=.Y F W t...T w...| ..Y } W X.X.} } X.F ..} X.X.| } } } ..| ..w.w.| X...| | X.y.w.W | ..W R Y E W W W ..R U W R Y , ; , N m N B m k , M 3.F B R ..T } Y Y Y W 0 * & i.f.| W | y...t...y.R ..w.t. ...-.&.y.} ......w.} X.w.....} } | W W ! ......X.X.d.f.w.w.X.w.a.y.t...t...N ! W W & ",
": l.=.T O.o.O.T Y T G T G D Y F 4 4 0 k F } } | D 0 = , , * b R U T Q R U T U W ! q.! e.U L U T R U W ! N c =.T Y ..R ....U Y ..! R R } O.G l :.&.x.F C ! W R ! ! ! Y C U R Y T U U D b T R G Y m : , j j 4 9 j l c j j j 4 4 0 - | g.F %.| R | | a.:.i.| =.=.:.;.=.t.t.%.i.=.=.R y.i.t.+.y.=.=.;.-.+.=.y.F k , b | R T R t.! T ..R +.G Y D R U =.R R G Y G G - , j Z b G D T D D b b j 6 - 6 : , 7 = : q : : , : , = & , , , q j l b b U C b N j b C b b l =.'.j.D =.N =.=.R -.R R H H F ;.=.R | =.=.t.%.H -...;.i.y.=.d.i.;.;.=.F y.=.t.t.+.! t.R t.! Q =.=.R | =.;.%.o.=.i.t.o.l R =.+.y.=.! ! Y ..y.=.&.:.X.y.;.y.z.o.R H &.l.;.i.x.:.v.i.o.| =.;.y.y.U =.| %.| Y z , j , F D z m F m = }  .n ^ F M F ..} H N Y } B Y } =.=.a.X.......R =.y.! ..R ! t.t.t.Y U w.t.! w.R W ..w.w.W F W X...} w.} Y | } ..| } ..X.X.| | ..X.| X.X.w.Y X.w.w.w.w.X...w.y.....w.W Y T N W W N W T L E N T Y , 9 4 N z D F z z a m ` 9 l l D b c m z k z x ; , i.X.} } a.y.d.a.| ..t.t.w.=.;.-. .:.Y y...w.....| t.....W Y } ..W R Y R w.L ..R | w.w.j.w.....W ..} w...T Y W Y 4 ",
"* ;.o.o.+.o.G o.V C D R G b b Y 0 : 4 4 k 0 m N H F m l 4 : R ! C T T t.! ! T T U ! t.! R U U Y T T W U T T T ! T t.! R ..T R W R R R ! Y =.V.| ` ' z Q ! ! t.! ! T ! U ! R U T R ! R T D U D D z - j , k k G m N n j z N k z j O R i.Y Y | | H ..=.t.=.=.=.=.=.d.y.t.i.;.=.Q ! =.o.;.=.=.t.=.;.y.t.=.R R D z & l ..R } T R ! ! R H ..=.o.Q R =.| =.Y | o.F D , , 4 V b D C D D T C b j w 9 , - , , 6 4 , 0 9 6 4 j j , 7 b l l v b C P C b N G N b b U l 7 '.R.N ..! T ....Y %.%.%.R X.;.R =.=.%.| =.t.=.| =.R =.i.=.=.y.=.| H ;.=.| =.=.p.+.=.U =.+.! t.=.%.+.R y.=.=.y.=.o.R %.m T p.=.! =.=.=.+.R ! %.&...;.-.*.l.y.y.=.;.=.z.;.%.%.o.%.m ;.B G Y %.Y Z H } F A H z , l + Z D 4 4 0 4 &  . . .F Y B H } } | F B R w.....R R Y ..! ..R ..j...Y R t.U ..t.-.U T L w.W Y R y...y.a.t.w.....Y Y } } } } F ..} ..| X.X.w.X.| X.a.} X.} X.X.w.w.} X.f...y.X...R ......Y Y F Y Y Y Y R ..U N T , = l 7 U U m B 4 = } c.&.<.2.&.&.>.&.f.:.f.y. . .V.b.....w.i.i.w...R y.a...i.t.y. .&.} =.X.| ..| ..| W ..Y L Y ..W ..W b ..W ......W ..w.X.y...b W ..w.! B N T N : ",
"- %.o.T +.Q T I G C o.G G V l C 9 - ' c. .9 & & m  .X.Z - : ..R C ! W U W U ! ! ....! ! Y ! R T T U U ! q.! ! ! =.=...T R U R ! D N R U R R Z.F.C v o.U T Y U R ! U ! ! T U R R U Y D ! T G N D q & j j b l b j D z k N D z k 4 & F g.Y R H | R =.-.=.y.%.=.;.=.t.i.d.y.=.t.y.=.=.t.=.y.=.t.t.t.=.Y q D U R G Y G ! =.R Y R R ! =.Y Y i.o.+.R =.R =.o.U R Y D , j q 9 N Y D U C b C l k l z l l 6 q 0 z l l b j C m 0 q b l b b b C D P b l D G G 9 b D O W.!.o.F =.=.=.t.=.R %.%.=.R %.%.=.Y R Y ;...=...=.;...! t.=...i.=.=.=.Z ..t.y.=.p.e.t.! t.=.=.+.=.=.=.=.t.u.i.;.| ! =.| D N s...} =.=.=.+.t.t.t.:.F ;.o.;.i.y.y.=.y.R %.G R Z %.%.&.Y Y U T Y D Z } y.:.} Y D - z - N D b 4 4 , , i.&.M F F ` A R } X.F } N D ......t.i.....-.Y ..s.a...| a.t.T =.y...U E N ..w.Y Y } | w.t...w...B | Y B X.} F | } } W | } } } } | } } } W ..w.} w.| Y X.| y.| | y.R Y ..| W Y ..W ..W L U W Y U , ; k N N N b m k - F b.X.>.:.f.>.h.g.b.f.g.:.-.h.V.-...-...t.i.W y.=...y...-.a.&.-. . .} } w...R ..| Y L } L Y Y W ..w.W W W a.X.w.K ..w.| ..t.T w.y.t.T Y N T | & ",
"- ;.o.D O.+.o.o.V D o.o.o.o.V V 7 - F X.H A & , & 0 H D O O F =.U Q T T W U ! ! R ! ! ! U Q T U ! ! ! ! t.q.R T R Y L T ..! W T U T T | Y F R i.;.Q T P R U T ! e.E U ! ! ! T T R T U C D Y U N z + , l b D D b U T N N U N b b & G g.H Y | F =...=.=.i.=.;.:.d.y.j.y.;.=.i.;.=.t.y.=.=.;.t.u.i.=.z * R l.%.| y.| R T D G R ! R R ! ! =.R T R ! Y =.R R Y o.D - 9 l k G D b U D D D l l l m b C l z C C C b z m l b D T b D D l b C U C D D b T b l D O V.).%.R R T =.=.X.| Y :.G Y | R ;.} } =.t.t...R R X.y.&.=.i.y.y.t.i.&.i.| =.t.=.=.| t.=.=.Q +.t.l.+.=.=.t.y.=.:.%...=...+.Q t.t.Y =.z.=.=.+.t.u.;.-.:.y.+.i.l.=.=.| =.| %.G Y R | | | G T R ....z D %.=.&.R %.z - k : k N U N l j = ` X.D Y M Z | H } m m ..D B R N B ....y.R a...F a.t.a...R t.! t.t.Y ....! } X.W W X.X.W W W | w...} y.R | X...X.| X...| w.w.w.X.} w.} ..W ..| } | w.} ....| | R L ....X.w.W W ..L L T y.W U L U , , 2 T T N D N 0 - A ] N N m B ..t.Y B }  .B W R Y m A -.-.t.a.W ..w.R w.w.X...X.%.} X...Y ....} w.| W W Y Y ..W ..W | c Y ..t.t...Y ..y.y...-.Y ..t...W N n } Y 4 ",
"* ;.o.D R =.G G D V o.I o.o.G V b - , l D Z 6 7 4 j b m 9 O %.y.D Q Q R E e.E T ! +.! T T q.! W ! T U U U U U ! T U P T t.! ! T Y ..! Y R R =.R R T R T Q T R T Q ! Q Q R Y U T T U D D b U D U , : - 4 , 9 j 7 , 4 4 j , , 0 l & Y :.Y | Y Y %.=.y.=.=.=.:.=.:.-.i.y.;.=.=.:.=.-.i.t.t.i.t.t.p.! z & ..b.=.| +.o.+.D ! R T R %.R R +.Q t.o.=.T Y R R U D G b = , 0 l D G D D T T b U T D U C D b b D C b b D l b U D T G R D D C b U U R G D T Z C : b.[.! H | } R =.U | =.R R R =.| R =.} H =.t.-.} ..R ;.:.;.t.d.=.t.;.:.=.&.| =.=.| Y %.=.+.+.+.+.+.=.y.y.=.+.;.l.R t.=.p.=.R +.t.i.H %.y.=.+.=.u.u.;.:.=.=.i.l.;.%.%.R =.} &.H =...G ! R %.=.U Y F N Z =. .-.} } l & 4 - 7 4 5 j k 9 X }  .m  .H Y F D R Y Y } X.Y Y ..Y y.} =...} | ..w.w...} ..=.! s...Y | | ..Y } } ..} X.y.w.| } } B } | B } B Y } X.} } ..} X.| X.} | ....| | | } } ......Y w.W | N Y N Y W N W ..W ..Y Y L W K L , 4 k M N N D D 9 O A -.T } -.=...w...F  .=.}  .} ..Y D } ..t.w.R X.Y ....X.y.| } X.X.| ..Y X.t...w.w.Y ..W N Y ..W W R Y W ....a.w.L ......X.w.Y R ..X.} N Y Y Y 4 ",
"= i.o.D T R o.O.D o.o.o.o.o.D V l 4 x j b b D U b b U c j o i.| b =.! T T T ! ! ! +.q.e.Q W W U R U ! ! T ! R ! ! U ! ! R T F Y =...R =.=.+.o.o.o.R R T D +.Q =.! ! =.U Q U U U D N C T R b N D & , b R O.Q U W r.r.! U ! ! q.b ; Y i.Y R R R =.R =.y.d.d.i.=.o.;.i.y.y.i.t.=...=.t.=.....d.t.t.=.z O =.x.=.y.i.R | =...Y T Y o.| ;.=.! =.U o.R G H Y Y D T D - , x b D N z G V N b N T D U l D C Z D D z D b N D Z C C b C l D C C C U C T C D b & t.].i.R H ' H Y ! =.! R %.|  .&.' R R ..=.=.| =.-.-.-.| ;.=.f.a.y.=.i.y.;.=.R =.| | t.t.y.t.t.t.=.=.=.=.| t.;.l.u.=.| ..t.t.R ! =.t.=.t.e.d.i.Y y.s.-.t.=.;.-.-.=.=.=.! | ;.%.Y ;.R D =.=...D D Y H 0 F R %.-.D F D * 9 - z B 0 k k 0 > ` >.Y B } | } | | } } Y y... ...R ..X.} R F N ..=.R R } Y Y T R }  ...Y } w.L } } } B X.j.w.W ....Y ..F } X.} Y | } X.w.w.X.X.w.} ....} | | ....w...R ..Y B Y w.U L R L Y Y Y | Y E T | E N E Y $ * 4 - , j 9 , , O Y y.Y ..} a...| } Y } -.X.:.&.' Y T ! w.w.y...} ` ..} a.f... .R W } Y B | w.W ..| W W Y Y t.i.w.w.W ..R ..w.w...U w.j.X.w...m w.w.w.Y ! N F Y & ",
"6 :.o.U T o.o.o.C T o.o.o.o.l V 7 , , j V T b D U P U b l * i.=.Z T R Q R Q +.! T T ! t.=.t.! ! ! U T T ! ..! E q.! U t.=.T Y R H =.=.R =.R R R R R o.T U t.! U +.T R R T D T T Y R T U N G D k , - 9 z b l b b l D b D H D N j : Y g.H | Y %.R %.t.+.=.l.t.;.| ;.:.y.d.u.+.y.=.t.d.y.t.=.+.=.i.=.G : =.n.-.=.%.=.R | Y R =.o.Y X.=.....=.F R Y G N D | Y R G : 4 k N N U T N N U l T b b T U U U D D D z N N D Y D b C D b C D C U b U U D b G 9 b !.n.H =.D H H } ! ..| Y F &.` R %.=.! =.y.y.=...:...&...%.%.=.=.y.=.d.;.%.y.:.:.;.=.| i.t.t.+.=.=.=.t...y.=.;.=.y.=.:.y.+.t.+.=.=.=.t.i.t.t.;. .t...;.y.i.y.%.Y y.=.y.=.=.=.:.o.=.%.=.=.=.Y Y R } D z y | %.-.D N U : 5 : D b b j l 0 = Y  ...R ..} R ..} } R ..;.R =.y. .F } Y Y B t...=. .;.=.| F Y -.R ..a...| ..Y n Y Y B -.| ..Y X.X.| W ..W | w. .} ..w.} } } X.X...| X.X.} ..} w.....w.t...Y B } W Y R Y N F } ....! R Y U W U N 4 4 & $ : , & , j $ ..f.U ..R | w.w...X.y.-.-.;.&.B &.-...R ..f.X.} X.w.} X...| Y W N B B } Y | U T W W ! U K y.....y...E ! ..q.t.t.R ..R ..a.| N ....w.....k U L , ",
"* l.T U V o.e.O.V G o.T o.G V C l : , x G C U T b I C P 9 - ;.=.Y Y R R U +.p.! T +.Q Q +.! Q R R T R T Q e.q.t.w.w.W E ! R ..y.=.R Y %.o.R t.o.R O.+.C R R Q R | =.Q T D D D Y | ! T D D D N , : 9 j l b j l w k k m z l z m q & y.b.} R =.=.! =.u.=.i.=.;.;.=.=.l.i.i.t.t.y.+.t.=.t.=.i.=.;.j.t.N , ..b.i.=.=.R D o.%.o.R =.R Y =...R %.R D R D U D Y R Y B - = l b l l U l b z z N N v D c 4 l l l C l N x l z b x l l c 9 l , b l b j N x j + ).R.H X.=.R R =.Y T Y R o.Y | %.H F | =.d.=.y.=.i.-.......=.y.=.:.d.y.i.:.X.| =.=.=.=.i...=.d.i.Y =.y.D R y.=.u.+.u.t.=.t.+.e.! +.H t.=.=.;.t.s.;.| | } i.:.Z R G =.=.;.=.R ..%.%.R =.%...} Y | Y D b b D Y =.%.R m j = 9 - 0 D 0 j D j ; }  .Y Y R | B R Y X...}  .} ..| H Y Y N m Y ..=.} ..y.} -.` B X...} w.R W W W F ..F t...w.w.Y } w.} ..} T ..} w.B w...w.W } } X.} ..w.} w...w.R w...W ....Y Y } R X...R W W ..W U ..W T U U L T & 4 4 l m N z 4 4 & Y 2.T ..w.| ..W t.y.y.| H -.} ` } &.F N ..y...X.X.W Y Y w.w.W | W } } Y ..W U ....F W U c t.| ..w.! ! w.! t.t.w.q.w.w.w.....W ..w.....Y N F R : ",
"& ;.G D O.G o.o.V o.o.o.o.G b D k 4 9 x l b T G U E C v l * ;.y.C U R U U W ! ! Q T +.+.+.! Q +.R y.R ! =.! ! ! =.+.=.! t.! R y.R =.%.=.%.+.=.+.+.Q Q t.R U ! ! R U +.R R R O.R +.b D N U D l , - : x b l D w 9 7 z l 2 z z m b O h.h.Q R =.Y =.=.d.i.=.=.X.=.y.t.u.;.y.y.t.=.=.=.=.y.=.o.=.%.y.y.z & | V.=.u.t.;.=.R o.Y o.%.%.H ;.Y | =.| U b G U U U T D Y , , , j x j j j b j j l j j j c j x j j 9 j j 6 j q , 9 9 j j l z j j x 9 9 l & - Q.Q.%.o.=.| %.| %.Y F o.F R ;.%.H | H Y ;.! =.y...i.=.=.=.} | y.=.=.d.;.y.t.=.y.d.=.=.R +.=.=.=.=.=.R =.R =.=...;.i.=.y.t.=.t.! +.t.T t.=.| ;.y.d.=.y.=.=.d.R R =.Y ;.} %.;.=.t.;.H =.y.G X.F =.T F D B 0 D =. . .| R j O 2 , z b c l c C 6 F ;.t.T F F R } ....R ..} =.} } } -.} R 0 D D B ..y.Y } y.X.| w.w...R t.W F Y F W ....-.t.U | B | L  .X.y.Y } ..L } } | } X.X.X.} } | w...R ..R ! w.X.w.W ..Y Y ..X.W ..} ..W ..w...T w.R N W b - : c n } | } k N p Y i.R ! w.| w.| Y | ..W ......A } X.} ..| X.w.X.} Y N ..w.W W Y B Y ..| w.Y b R B B ! U W t.t.w...w.U q.! ..q.! E w.y.! w...W ..y.} ..L L | } , ",
"* =.T D o.o.o.+.V I G +.G D V C j , j 0 l b O.U C U C C c 4 =.i.H R R Y T U ! ..Q R Q T =.=.! R ! p.t.R R T R T ! ! W ! =.=.t.=.=.o.;.%.R y.=.T e.e.=.R =.Q =.+.+.+.=.R ! =.R H R D D N Y T k O 9 j w b b b l b k m l z b b l j : K.i.D R %.=.+.=.+.=...=.Y y.;.i.y.y.=.;.t.=.=.;.=.t.u.u.i.+.=.y.D O =.b.t...=.=.;.=.+.%.| =.=.=.| R R +.Q U U R R U U D Y D 4 , j 4 j j x j , a l 4 : j 4 j 0 j 9 0 l j j 9 9 , 7 9 l 0 4 j , j 9 , : & & Y [._.H =.R ' ;.=.| H =.R ! Y ! | &.%.=.=.H y.y.=.o.| y.=.=.=.=.=.t.u.t.y.=.=.=.R =.R ;.y.y.Q ! ..t.=.t.X.+.Y Z ;.;.o.y.d.=.=.i.Q +.=.u.=.y.! X.=.t.+.;.=.F ;.=.} | | | Y ;.o.=.y.t.%.=.z.d.R t.....! F } Y w Y %.:.&.Y F 0 , & & , x 9 b 7 , - y.y.Y R R } R ..B Y B ..t... . . .} } F j Y } T ' &.X.y.g...X.w.| | R | ..W n n B F } -.} Y W } B Y Y w.w.| W } } X.} } } L X.w.X.w.X.w.Y ....R ..} ..w.....w.........W ....| W W W Y n F Y T z & - 4 n N Y m 3 2 X Y i.! ! ..y.W W | w.....t.t...} X.w.| X.| } X.X.Y N F a.a...Y W L w.| W t.W U =.W L W j T t.t.W ..W U w.t...i.t.b ..j.t.| ..Y | ..X...Y U Y Y : ",
"O ;.G R H o.+.+.V G F G D U l C l - 9 l b R T E U Q U C j & y.=.D R R R Q U ! +.T R R Q =.R R Q Q =.....T U W R ! t.! t...R +.+.t.! R R %.! R R +.W R +.R R Q =.T o.Y %.U R ..Y Y G B U G T , 2 , j D N l G D b D b D D D l z = G P.y.Y R R o.R t.i.=.! =.=.;.;.=.;.=.y.y.y.=.=.=.y.u.e.+.y.y.t.| Z : t.v.=.=.;.u.=.=.+.=.R =.=.R ;.| =.T L R L R R T ..b R G , * , , , , , , 6 : j 9 : & & X ; & - & : * X & * : O & , : * - 2 5 j 7 z ! V.[.P.H Y R =.;.R ;.Y | =.R =.=.R R =.| ! =.;.=.=.R ;.=.d.y.;.y.y.;.t.p.=.s.d.y.=.o.-.d.:.=.=.! +.;.y.=.=.i.i.Y G =.F ;.:.&.%.H b R o.+.+.=.O.=.=.;.=.R =.R %.o.=.R ..| =.| =.=.:.y.! ;.l.t.=.y.....R Y R | ..N F | &.&.F D b & * : j 6 , 9 , 4 , -.y.B R } Y N | ............} } X.Y ..N T a.v.a.f.g.| Y } R U } | | w...E ..c Y e m X...w.b ..g.w.f.j.w.f.b.j.v.:.-.X.} ..B ....f.b.a.j.j.j.a.j.d.v.a.d.V.y.g.j.V.B.j.j.w.w.w...! | W } U W R U & 2 5 B F D b j b . ..g.U ..R W ..W t.| X.w...X.a.R ..t.w.} -.} | X.X.R ! p...W w.R Y | ..W R R T Y Y ..t.N N w.a.....! L W ..t.w...U ! a...w.X.R w.t.a.w.} L Y ..: ",
"O H D T o.+.o.o.V G R G D U 0 Z 9 7 j j C P C D E P C V q o i.=.R T ! R =.! ! +.o.R +.=.R T t.U R Y t.=.......R ....e.R ....e.! +.! +.=.H +.Q Q t.U T Q G T R R Y Y o.+.G ! R ..R Y U D Y D : 4 , 9 l z D b N z 0 D b b U j N & j.L.m R T +.+.o.+.=.=.! =.=.} =.y.=.i.:.z.y.y.+.t.u.u.=.=.=.=.y.%.D , =.v.R =.r.+.z.;.=.;.=.;.R ;.=.=.| R R ! I U ! R =.! D D * > 6 q x 6 j d 6 q 9 , , V.P.L.P.b.I.I.P.E.J.K.b.b.P.j.J.P.P.Y.L.P.I.P.W.(.U.f.Z H | Z F R ..H H ;.R =.=.R t.o.R R =.;.=.i.i.=.+.%.=.Q ;.=.=.! =.=.t.i.t.t.=.d.y.:.=.;.=.R t.=.y.y.;.y.-.H Z X.=.=.H y Z G H Y +.T ! R i.+.R =.;.;.i.i.=.| %...| =...R =.%.=.| R t.=.| =.....R -.} X.L B l U ..%. .| | H + 5 x b D b D b l & ..-.D R R =.R ..Y } Y R Y ....X.%.X.} ..&.X... .y.a.t.} ..W R ..t.t.w.R R R B B M 0 Y w.W B ..X.X.X.X.X.X.X.X.=.| -.} .. .N ..-.-.y.X.y.;.y.i.i.t.! ..y.d...w.j.a.i.y...Y Y ....F W | R Y U U L , - 9 j b p , , , & Y f...W t.a.g.g.j.N.V.b.k.k.j.d.y.} ! ..y.} } | X.W E t.W ....R W | ..W =.D b ..m y.w.c N W ..y.R U L W | X...W L ! ..t.w.| Y | | X...F Y R Y : ",
"* | H R o.O.+.o.D G o.V T C w V l 4 , k C C U P C b b q 6 = =.y.R ;.Y ! Q +.T t.=.Y R R Y R +.Q ! =.T T R ..t.R t.=.! ....t.W d.t.R R t.R t.W D O.T T e.D T o.R G ! R R U R R T ..R Y D U 9 = , 9 , l m b b k z b V D l F N k z W.b.D %.=.R ! Y =.;.=.R ..y...i.! +.;.i.u.s.y.y.i.y.y.;.d.=.i.y.i.Z , R Z.u.t.i.y.d.;.t.y.+.%.=.i.o.+.Y | -.Y T R R R R Y D b * , & 6 j 0 d , , j 9 . Y.^.h.:.c.g.x.3.:.;.g.f.v.:.&.%.=.;.} =.;.=...=.=.R Z F =.| } D F H F | %.Y =.! +.=.=.;.R =.! +.=.i.u.t.=.%.%.=.=.+.l.;.t.u.i.l.t.t.t.+.y.y.y.i.%.=.;.H :.j.=.=...R N =.t.=.> O O S T =.=.R y.;.t.t.! =.R +.y.=.;.%.=.R Q ! ! ! :.;.%.Y Y g.R i.:.} R R }  .Y } R k B | X.&.| =.b , , j K U U P j m * y.X.m ..=.! ..t.t.R | F ! ..F R ` } .. ...-. ...R H L | ..w...w.t.t.w.w.w.W } W B Y } B Y ..w.R N n  .| } R ..Y Y L Y ....R y...} Y } } =.Y R ..R R R Y R ! w.......R L z Y ! t.E } R Y W U T b , : m B R ....' Y 8  .j.E ..t.d.t.w...y.....i.y.s...y...N ..w.Y } w.w.W W t.w.a.X.Y E w.} B R R N R Y W L n N ..Y t.a.U L ....w...U L ..d.i.w.} | | X.a.X.| U R } : ",
"= R U U R o.o.o.D C o.C o.D V D 9 j j l C E P T P U C v l & v.y.G =.! Y =.t.! ! R Y R +.! U R R R %.D R ..w...! ..R w.t.+.! Q +.+.G R +.U e.+.U D C +.e.+.R +.R R Y %.R D Y U R Y D D T D : 9 7 j j z D l D U N j 9 j D N N , j.Q.Z Y R %.Y %.+.R =...t...y.=.! =.=.=.t.t.u.=.y.t.d.y.y.y.y.l.y.l.D 4 =.Z.t.+.y.u.:.i.;.t.u.;.%.=.u.+.=.=.;.=.=.=.R O.G N R N , , b C I ! ! E ! R i J.W.| C D m M D G D D b D N D j M 0 D F k F R G m D R | Y ..=.| H F Y | %.o.=.=.+.| y.+.R =.| =.;.o.t.i.=.=.y.+.H | =.y.y.t.t.u.t.u.p.R =.=.d.+.=.=.+.%.Y ;.i.=.=.y.} R | H S y m Z F D T Q R =.U O.t.R t.t.R +.%.%.:.+.Q +.Q i.R u.e.=.=.! :.=.y.y.%.} | | U Y } Y G B  . .&.Y Y b + , g j v v d p j + i.X.z R F T W R p.w.} Y W R } Y | |  .f...H U Y Y T j T w.R ..t...w.t.a.B Y U ..Y W B W Y } X.Y N Y } } W ..R } } T z } ..y.:...R Y ..| R R Y | T R | ..W ..y...y.w.! x k R ..W W w.W T T W U b a : Z :.h.j.b.2. .m Y f.! ..y.y...W } Y B Y W ..w.Y y.R N Y a.| W w.! U U ..t.w...Y L } ..w.} ! Y Y ! q.Y F N w...w...N Y Y | | w.W N ..y.t.w.Y Y X.k...| W U R R & ",
"+ =.T D R o.+.o.D G G o.G Y D D z : 6 l q C b E Q U C U j & =.=.G T U =.+.=.t.! o.=.t.! t.R Y U Y G C %.! t.! =.Y R i.u.p.e.Q ! =.R R R R ! R T Q +.+.+.Q +.T o.+.R R F T R R H Y F Y U j * 9 j 0 4 z N Z l b q 9 H :.3.&.z j I.i.D F F Y Y =.=...y.=.t.+.p.=...! T ! =.i.t.t.=.o.y.t.=.t.p.i.s.=.b * ! Z.y.s.t.i.;.=.:.i.u.t.! i.;.=.R =.+.! ..=.Q R R U Q D 9 : j b b U b D b j l h.=.Y R ;.G R | } Y | Y T H G F D G D m D H Y Y R R H Y ;.%.Y | D G | =.=.Y +.o.| +.Q t.+.R y.i.T i.d.t.=.o.+.y.=.' R t.t.=.=.y.d.y.d.+.y.u.=.=.;.R o.+.R =.=.s.i.;.y.F Y ..H Z H o.' G D u.R =.=.+.R =.t...Y | | } Y R t.=.i.y.o.t.t.+.=.Y =.=.=.;.=.y.Y } Y Y F } N N X.f.X.+.R w , m A A =.;.y.y.m 8 i.w.m F z Y ..W p.w.T T R t.Y Y Y Y Y } } R D T ..U z | w.w.a.y...y...R w. .| ..Y W F W } ..y.Y } Y | } R B F } | W N F y.a.-.y.Y ..........Y ..Y R T R ..w...w...w.Y c c L F Y Y W ! W U W L U 4 : 6 c l c b K f & H f...W t...R R R Y Y R ..! W L w.a.U ..-...Y ..! U R T p.....U L w...X.Y L D ! } Y Y N N L w.| w.L L ..w.w.w.Y D R ....w.Y W w.j.X.w.W U ..N & ",
"O %.T R o.o.=.D D o.T H R U b U l 9 9 l P b T C P E C D l & =.R l ! D R +.t.+.+.=.! +.! +.o.=.Q ! =.R =.! t.Q R +.+.t.! R t.=.! R ! R =.t.R ! R D e.+.+.t.t.R o.H =.G R F T T T Y U U N * , 6 b l j z N l b D D C =.R M H 1 V.Q.F H | Y F %...G R R R =.! t.! ! ......t.t.=.+.u.=.u.i.=.=.t.u.d.y.b - R Z.i.i.y.=.y.y.i.;.:.=.+.O.=.;.=.%.R t.! =.R =.Q R b N : , , j b D G l C j 9 i.F | =.R %.H Y Y R Y Y Q D Z D m D D Z w D D D F Z F F %.Y ! o.R %.R ;.%.%.%.R Z H G S Y o.=.d.;.=.R o.=.H S o.S | =.+.R u.=.H R l.=.t.t.=.e.t.%.;.y.=.y.y.i.p.=.:.=.=.o.i.;.6 & o Z G U =.+.R t.s.=.T Y R R R G } ;.t.i.! y.=.i.y.=.=.! X.=.D Y R | ..Y F Y F F ` z N Y | | =.+.T O A ] >.3.x.b.f. .M Y } R W R W ..w.L E Y Q W ! D Y Y Y Y B ..R Y N Y D c Y Y ..} } i.a.....X...| | N B F L Y Y R Y R | | Y N Y N | B L D ! i.i.d.t.R y.y.=.} } N Y R ..=.Y  ...........! L N N ..L D T R E N Y T T 9 4 q k D U U K b = T h.M W R t.! U Y ..T R w.R T N Y | N } X.X.:...t.D Y w.w.W t.N N  .| ..Y L N a.w...N b N W t.Y ..! L q...w.t.! N R w.R w.F W w.} X.a.| G R N & ",
"o ;.o.G ;.o.o.T z R =.G o.D b U j , 6 l C E U P T U b D j & g.! c U G D Q R R =.Q u.=.R R ! Q e.R U R +.W ! +.=.t.p...=.=.t.+.! U R H =.O.R R l 6 P R =.=.=.;.=.+.Y } ;.R R R R =.=.t.U & 9 l D l 0 z B Z D b Y 9 + & , & 4 W.x.G ;.-.| Y Y ..=.U R R ! } T =.T ! ..=.d.d.d.=.t.+.t.t.t.;.=.t.u.=.z : ;.Z.s.d.y.=.=.y.t.+.=.=.=.;.y.d.s.+.;.R =.R +.| R Y F D : , j b 9 D U C V q k :.R D =.o.R R | T Y } T Y G F Y z N Z F b F Z Z Z H b S R +.R H R =.:.;.=.R T Y %.D o.H %.G =.=.o.+.o.G Y %.H D o.:.=.%.=.+.o.o.=.u.+.+.u.e.e.d.d.+.=.=.! =.y.t...R %.R R F T , o & F H E ! T e.d.r.+.Y ! R Y +.! | ;.=.+.u.d.;.d.i.;.%.=.=.D k 9 l 0 l l , k j l l 9 N Y ..l.u.+.E O : x N N N k l k ; M X.Y ! t.w.Y W w.t.Y =.t.t.Y R } H Y Y R 2 j 4 , k a Y X.p.y.y...} t.| Y } | } Y N L B Y | F z k j a k j 4 a 4 4 4 5 ..i.a.a.D j j b k l 4 k N z z l l c c c b b c D x j } T R Y F ..U U Y U N 4 4 j b D U U T K , Y h.B Y R ..! N | R ! ! ..T b L ..| N D } ..-.} ..D D ..w...w.W Y  .F W } Y N y.R W T c U L W t.t.! ! ! ..! w.L U w.....w.Y ..| | ..} Y N F T 4 ",
"O l.R G ;.;.o.R V =.o.R o.C b D l 4 v b C P E U Q b D l j = =.R U U T ! o.U +.t.R R ! +.R R +.R ! U +.+.Q =.+.=.+.! +.=.+.e.R G =.+.+.+.o.Y q , w w 7 | O.+.%.=.%.o.R o.%.-.Y =.R Y U j & j z F D b D D D D C b b & - , & b._.Y =.R Y D G F Y R R =.=.+.R ..Y R t.i.s.u.p.+.R =.o.s.=.+.=.+.u.=.+.b - R Z.u.y.t.i.=.=.y.i.=.=.=.%.=.o.=.+.=.o.=.=.=.=.Y ..D D - , 9 Z x l b C 0 , j 2...Y R R R G Y G D U D G Y =.H , O y @ + A 0 - H 2 * D R %.%.=.R R =.=.%.F * + H , + Y 0 & D =.+.=.R O O A 7 * Z | i.%.=.;.;.%.%.=.t.+.+.y.=.+.+.;.%.;.R =.+.y.=...! +.U 7 w Z S S Z D U D Q O.s.u.Z R ! Y U | R ! R ! =.=.;.=.=.:.=.Y +.o.U 0 , , , : , = - , : 4 , Y R i.d.=.O.v : 4 z U L D U B N :  . .Y n W ! w.t.t.w.....=...=.R R R ..Y R z j 4 4 4 Y ..| ..-.y.} Y ..R ..Y N W Y Y ..W Y N F 4 $ , 4 : - ; , , : , b ..| R Y N , j : > ; $ , : & , : , : , : = , = : 7 F ..T N ..R Y U L U Y D : , 4 L U b b N c ; R j...R B ..N U } ..R R R ..W L ! ..N Y  .| ..| ..N ....y.R ..N Y } Y ..| Y D w.R N t.N z R ! t.q.W U q.w.t.w.U U W y.i.X.Y F w.w...w...b | F & ",
"O %.o.G o.R G V l R o.R D D b D N j > b C O.T P P G U C k , i.=.U R T R O.+.t.+.R T Q y.R R o.%.t.U Y +.o.+.! +.t.=.R =.+.t.+.Q T T +.=.;.;.6 D | R.D D R %.%.=.%.%.+.y.+.Y o.+.=.%.R - , k z F D 9 b U Y D l D | :.f.&.A !.n.G Y D ..Y j G Y =.=.o.+.=.=.=.F =.;.=.z.t.T R G R =.=.e.e.t.t.d.=.R D - | n.+.t.d.t.y.o.i.=.y.=.G =.R Y t.! =.=.%.R ;.! ! z m D + , j l D D b b l j w x.R U Y T Y R U U D G U D U U m 7 = m - + D q & H z o G y.=.! =.;.Y ..=.i.=.O * H 0 O H w * G u.+.=.G + O A 2 + A %.y.+.=.:.R o.o.;.o.t.t.u.u.=.o.+.o.t.=.t.! t.t.=.t.! D +.Y 7 q w | D o.T D R t.+.H ! +.+.Y =.| R ;.=.R y.l.=.&.i.i.Z Y Y ! F N U N T U N L ! U U N R ! u.R t.p.C - & z z D z F L N : X.X...U ..R Y q.t.U T ! p.q.! t.! t.T Y ..W R } F -...i.Y } X... .} R R ....y.Y F W Y W Y Y | b L N N N b N N L N L | y.=.a.w.W } R N T R ..Y L Y T W ..L W ! E T ! T T R R T N Y Y T R D E U L , 4 x N W U U z l & ..g.Y ..T ..Y } R R ....R E K U w.w.N R } X...} D M T =.R q.R N ..y...Y N U Y t...U T N U ! w.W b N W w.! ! ! L Y ......W F Y w.w.} ..Y z L } : ",
"& :.%.Y R o.o.R %.T R O.R T O.U 0 , 9 b C E C G C T C V j > | ! T Q C t.;.Y T u.t.+.+.t.Y R =.=.t.+.+.t.R R ! Y R t.! Y =.Q +.T +.;.y.;.+.i.T *.:.g.D +.=.=.=.o.+.=.t.+.G U R o.H %.z - 7 9 H Y Z l D D G D b b 9 B D . f.!.o.| =.D Y Y j U R | =.| %.H R =.R =.y.t.=.+.R C R | R O.T R t.=.+.y.Y z : o.v.=.=.y.y.=.=.d.y.o.R ;.=.;.=.R =.=.! =.=.R R G k Y D & 6 0 z D D C w z : l x.R b Y R Y R G U D H D b R Y Y b b Z D Z Z t H F G b S =.! =.R ;.! R =.=.%.G G %.H A %.H Z o.t.+.=.o.G V S Z Z o.*.;.y.%.%.%.H o.=.+.i.u.o.o.t.=.o.Q t.t.+.Q t.! ! o.T D U t.7 * O A G R P T ! Y =.G G =.t.=.%.| =.%.| R =.z.i.=.l.-.;.=.=.F U ! ....w.! ! ! ! t.=.R =...a.=.F +.U - w 2 Z Z n z N z 4 X.f.! ! w.w.R W p.r.U T r.! t.t.W ! ....Y R ..-.-.y...}  . .X.X.R Y ....| | ..} Y n F Y L } w.w...Y Y L W W W | N ..y.d.................y.B ..T ..R w.t.t...R =.! t.=...Y N D Y D D N } Y W T N , : j b C U b C U = Y :.Y ..Y R E R R ! T } ..R T U =.a.W ..Y | W B D ..D ! R T m G ....=...=.R -...} W U T ! E q.E L W W ! q.! ..W W w.w.w.! Y | a.X.w...} F Y F & ",
"& y.y.T G R e.;.+.u.o.T Y ! T T j , 6 b v C C U U T D C l O =.Y U R O.R +.O.R +.R +.R R ..=.=.+.+.Q R Q R T Q Y ;.=.=.F R =.R =.o.;.R i.+.=.Z.o.H H R ;.=.t.u.=.;.e.=.G %.D R R Y Y , : j 9 F F D b C D U N l N , O & O Q.b.Y | | F Y D x G =.| R | Y R +.=.=.+.y.=.j.g.o.b Y O.R T R %.=.%.! ! o.j = R b.=.t.o.;...i.Y =.=.R g.d.y.=.=.=.=.Y R R D %.U b %.D & - q z m b b C Z 0 C f.Y G +.G Y R ! U Y Y R U U ! Y D R Y D =.D Z %.Y } y.=.R =.R =.Y Y | ....F =.t.R =.%.R %.y.u.t.y.t.D %.y.S %.;.%.o.:.%.:.&.:.o.| :.=.z.d.;.u.+.=.;.R =.Q R +.Q R R +.R D b q z G D R Y b U ! ! t.+.=.! ! R =.Y ;.R =.Y ;.| ;.y.y.i.y.=.=.t.H =.R ! R ! t.q.T s.s.t.s.a.=.=.d.R ! l - %.l z m F B z j , ..w.! ! w.! R p.e.e.U U r.t.s.p.w.! ......R t.y.R Y | .. .} =.%.y.....Y ..| Y  .Y } R | Y ..X.X.W ..Y Y Y Y L W } X.i.s.=.=.w...} ....} ..Y R T =.! ..w.a...w.a...t.R R ..R U U N m B m T N F b : , 0 l N b D C C > F i.R R ..T R T ..} ..q.T R U N ..t.U ....} ....y...w...X.} &.} ! ..y.=...t.=.=.R ..! W W W ..w.N ..W W W W W w.w.w.w.w.w...} f.| ..w.W R Y L 4 ",
"& l.l.o.+.o.+.+.+.o.=.o.R R N D c 9 , j C U V C C P V U z O | ..P C T y.+.O.+.e.G +.! +.o.+.+.+.+.+.R t.! o...| | ;.R R +.| &.+.e.+.;.;.t.+.T.W.=.O.z.=.i.t.+.+.t.t.=.=.R D T =.o.D - - z D R Y w j U D N z D D N - O v.Q.Y Y | | F R F , z Y R R =.=.=.=.+.%.=.t.i.v.;.+.D U R =.R o.=.R +.=.e.=.j : =.n.;.+.y.:.R +.=.%.%.%.;.=.t.+.=.R R ! ..Y Y F U z G D : 6 7 b l b D C z 6 l 2.H G G G Y R R R R Y T U D o.! b U b G F D Z Y m Z G R %.D Y Q Y =.R | t.G D D G S A H Z Z Z +.+.=.R D R Z H %.Z ;.y.:.;.=.;.y.R +.o.y.=.%.t.;.%.;.R +.t.+.+.! ! R F F D T D m b Z Z H U D Y R R d.R +.=.Y | Y R ! Q R =...y.+.=.| =.t.t.G | =.=.R R ..q.Q e.t.y.i.t.t.p.t.| R ! b , w 0 0 z N Y U 4 4 X.w.! N U Y Y W W r.! e.! e.t.! q.......T R R } y...=.t.R | m ;.R ..R W =.....} } ..| W w.W | W T Y N Y F X.| w.Y ..f.&.| ....} ..} ..Y X.y...} R ! ....w.w.R t.! y.....y.E T N Y ..U N T T D N , a , l b T D b v : ..j.U W ....Y R ....! ! ! T Y Y R ..N N W W } w.w.} W .... .Y y.w.W =.} R } R ..R E ! T ! q.w.R } ..w...w.Y W ....w.a.w.w...X.w.X...Y X...Y B - ",
"= l.i.o.o.+.o.T T o.=.Y R D G Y 9 j q j U b C U T T E V l - ....b D T ! E T T +.T R ! =.+.=.o.R O.+.R Q Y =.| H } y.=.;.;.+.H y.t.=.u.;.%.R o.l.v.y.=.=.t.i.o.+.t.+.i.R +.R H R %.N : 2 z m Y F D l D N N N D b D 9 : P.b.G R %.D N j , : C | =.Y -.=.R %.| %.R | =.d.i.| N G R %.R R =.=.t.R =.R b & %.n.%.o.=.y.=.=.t.:.=.;.=.y.=.o.=.R ....=.=.Y Y Y w D D O 6 0 V b D C D z 9 z h.R Y ;.U +.Y Y =.O.H Y H R R R T D R D Y R D H H Z Y -.!  .| | Y ..| | =.R R =.o.H  .%.R | +.R y.t.%.S H ;.S o.#.;.y.=.-.:.' | t.z.+.i.;.R :.%.=.t.o.+.=.+.t.t.=.=.| Y H %.%.q * O A F Y D T ! T =.;.d.O.o.;.T =.%.u.=.o.=.G ;.=.t.y.=.=.;.R =.;.R ..R R t.e.t.! i.t.t.t.t.| D =.U + - 7 N N L L Y N p B } Y Y U W ..w.w.e.! r.t.r.r.! r...} R R ....=.t.y.....y.| F Y } ....w.R ..} ..} U N ..Y B | ..Y Y | W Y | ....W Y X. .R w.| R ..w...} X.| =.F | ..F w...! t.! ..W T R Y T R U U R U N N T Y N k , 4 N U N Y U b : U k.t.} R ....D R | } ..W ..m k Y R 0 Y w.| | W ! N ....i.y.....W | } Y R Y D M Y D W Y T q.W ..W U W w.! Y W E ....w.w...} w.t.....R Y R | Y : ",
", ;.o.T o.o.T C b =.%.T D D D Q 9 : l x P U W C U P j C v & t.t.U +.R T R Q D D +.+.O.R R o.R ! T +.! t.O.R =.G t.l.o.R t.+.R d.u.t.o.y.;.:.%.%.%.=.;.;.;.y.+.;.=.o.;.G =.=.D H G - = 4 z D D } m l Y Y b z N b z O h.R.M H | | b 7 : o 7 Y R R | =.t.y.o.=.=.;.-.;.i.i.F G Y R ;.o.=.=.u.y.=.=.! N : Y v.=.+.t.=.R =.=.o.| ;.-.o.l.=.%.} ..Y =.=.R Y D q F H * - 0 l V w C D b q z g.=.Y R o.R G T R R R R T =.Y R 0 - | 0 7 Y 5 2 Y 8 + Z H &.%.H H R R y.+.| 2 7 A 2 O %.w O D %.i.y.H O . %.0 O o.-.y.=.;.:.=.%.;.y.u.;.R %.o.;.Y +.u.t.=.s.=.+.t.Q R R G Z Y F 0 m H F o.T ! ! ! +.=.Q o.=.+.R ;.+.=.y.R R =.%.u.t.y.=.=.=.=.=.=.Y ..U ! w.t.....! T R t.i.y.D Y j - 9 z N N F Y N m : | w.n W ..W T T ! q.Q e.W r.! q.Q ! T R t...t.t.=.a.;.....} X...-.} W ..R B ..X.....| ..W w.w.Y | ....w.W R Y X...Y y.=.R y.| ..| ........=.} Y ..| ! R R ..T R W w.R ....L U U T Y m D Y T U T z : j l D D C b C ; Y i.R Y F T } W ..Y W W | w.T Y B R F Y w.| ..W R N W ..F ..Y N T Y Y L Y z G Y Y N U U Y ..q.! ..K W ..W Y U N L ..w.W W L L ..| ..} L F W R 1 ",
", :.=.R s.o.o.D C o.Y R T V b D j , j x K U U E C P P C l & t.! D G R ! T R O.R H R o.T Q T T t.T +.R R Z R =.+.+.=.O.=.=.y.+.u.;.t.u.;.R %.=.=.o.=.=.y.=.;.y.;.=.+.Q =.+.T =.H m & 9 9 m H F D N N Y D z D b D k , P.g.H } | R Y R D Y F T R =.R =.-...=.=.i.y.=.-.i.:.%.b D R =.R =.R R t.t.=.T l & =.x.-.=.;.R i.=.=.Y Y =.i.i.y.;.=.;.-.=.R Y Z Y z Z Y b : 9 9 l C D G D 4 9 k f.| G ! =.Y D G R T R R =.| R R : . Z + & H 9 & R N * y D Y ;.} Y =.=.t.y.=.. O F , o %.q , Z y.;.i.o.- O o.0 + S :.O.;.y.-.:.i.y.=.i.u.i.;.=.t.=.+.+.t.+.=.t.t.+.R R R C F U H R T Y ! U Y T ..Y o.Q +.+.R +.=.=.+.t.=.+.=.;.;.i.=.y.u.=.Y Y %.=.X.T U T R Y B ..R } ..R ..%.| H 9 : 9 0 N Y N U N j = | X.W F ....U ! r.r.e.! q.e.e.E t.! ! a.w.t.=.....w.t.! W F w...} ..| | U | } W -.w...w.....| Y W | ..W w.} w.X.Y } y.X.Y ..R w.W X. .-...| ..} =.Y R t.....| Y L U L } ..W W U N N U N b N N U 4 & , 0 j l U b 7 O } y.T N Y R ..R | W W W X...U N ! R L W ..w.....w.c W w.Y F ..Y R ..} R Y N Y =.=.H Y L ....w.w...N ....| Y } Y Y ..a.w...B F w.X.R y.} } Y ..: ",
"+ ;.%.R i.+.+.T Z +.O.Y =.D D G k , , P U T ! P P V P x q & ..R C V Q =.Q Q R T R Y R +.R +.R Q +.R R D Q t.+.t.+.=.=.=.o.=.=.t.;.y.t.e.R | } H ;.=.=.;.+.;.;.o.=.=.o.+.%.Y R R k & 9 z D F R X.N z G U U z N k & b.~.Y } ;.%.H G H R | F R R =.;.=...=.y.y.=.=.y.| v.i.%.D U =.:.| H +.=.u.t.=.R m O =.b.| | %.i.} ;.Y Y | =.%.i.g.;.i.=.H } -.H ;.R D G Y Z - - 9 z D T D N j , z i.=.T R Y R Y Y Y | ;.R +.! =.! D b G z w R b w H Z - A H Y X.G Y =.y.=.y.+.7 9 R m < A w @ A ;.=.;.R b 9 #.A , S d.l.%.;.=.:.;.:.=.d.d.u.=.t.=.=.t.=.t.R =.G R t.y.R Y R Y +.M D G U R R U ! T o.o.Y o.R Q Q +.+.+.e.+.R R ;.i.=.=.R p.+.Y =.=...| U Y W ! ! q.! } Y Y %.Y ..=.Y b - j j N F Y R N k $ ..a.L W T ! =.Q P e.Q b l ! 0.! t.t.t.a.} T =.=.t.w.w.p.T  .W W | ..W F R W .. .Y W | Y ..L } N ....| | } } ] | | w.y.y.} R W } | | ....-...X.| | =...W Y R ........Y R Y L N F Y T R U G Y N U j ; : = , , : & : & Y t.U R Y X.Y R | W | ....T U T w.W L } W ........n Y ..Y } ..Y W ..Y } Y k F ....R W L L w.....t.U W y.....} Y L | w...| L F X.w.| R Y U ..} , ",
"* :.%.O.=.u.=.G z +.o.R D D b R l , > l C P E C U P x x j & =.t.D N T o.W U Q R R ! T o.Q u.T +.e.R Q +.i.e.! =.=.t.y.=.r.t.O.o.+.;.i.d.+.;.o.=.%.=.t.o.o.:.;.o.;.T =.+.Y o.! ! * , 9 z M Z H Y 0 9 b G N D N N 4 ^.b.Y | | H -.Y | R %.| Y } | H =.=.;.=.=.=.;.;...j.i.y.U F R &.H | R R R =.} R C , =.b.=.=.;.| =.| =.X.| =... .| :.d.=.R y.R Y R Y Y F R D : 6 l l z D b D C q N g.| T Y T Y Y Y T T ..Y R R | T T R D F R M F %.X.A } F } Y } Y ..=.t...i.} =.=.H X.| Z S R %.%.;.s.Y ;.=.&.:.i.:.T t.=.i.t.=.:.;.=.=.;.;.;.T o.;.t.=.=.R F o.=.y.t.o.;.R F =.F R R R F R T t.u.=.R r.=.G e.t.o.=.+.R R R =.=.=.T e.s.y.R ! F F R T T Y Y ! R ! w.U Y ..y.=...=.R U * , l D | R Y Y z * y.i.b R Y Y Y U E ! , O * o +.O.;.=...! ! ..! ! ! R w.t.t.T ....t.B W } R F ..w.......N R W Y ..| ..T } }  .} | R } X.y.....W | ..} } ....} | | ..| } W R y.| ......R R ..L U N R U R R Y b U U k : = j 9 N z l a : Y d.W W D } Y Y W | | | R T U U w.! b W R ..W ..! b R ..W X.R Y ..w.} w.} N R | R W ! U N Y } Y X.Y W | w.Y Y N F | | ..w.n | w.w.( ..W n ..Y 4 ",
"* %.o.=.d.R =.+.T Q +.+.+.b C D l 9 6 l T C P Q Q I U b b > R +.C T G C Q U U ! R +.o.R +.t.=.T +.Q +.+.R Q ! t.+.+.+.=.o.+.t.d.Q s.=.+.s.i.u.u.+.+.+.t.+.=.=.+.y.+.o.+.R G =.b O 0 b Y H Y Y Y m x D m N N b X f.E.Y Y R | ..R F =.%.;.=.} | R R y.=.| | =.;.} :.y.v.i.| R D Y =.;.R R ..R Y =.R G - =.v.R R } F =.R | | R ..:.X.| =.=.=...=...o.R G F D | b + 7 9 l b D D D C , l j.} R Y Y o.R T ..N D T Y Y Y U N N l l U b G =.G Z } R F } R T Y ..t.i.i.Y =.=.D %.o.R A :.=.X...i.D =.=.H %.y.R T s.=.i.i.i.t.t.i.y.y.-.i.;.=.y.y.t.! =.+.+.+.t.y.=.R R Y G H R =.R Y o.R +.=.D H =.Y %.y.O.o.%.R +.=.=.;.t.=.u.t.t.;.R R Y =. ...! W R =.R ! ! Y | R Y ..=.Y Q D + 9 9 D R Y z N z - X.} U N Y Y U E ! c , Z i.x.l R O.e.! p.t.=.w.p.t.t.w.a.a.a.=.i.j...X.} f.X.X.i.f.i.f.j...y.....w.X.:.i.g.&.i.f.y.i.j.-.w.w...R y.i.y.y.y.2.f.-.X.y.-.g.a.W y.&.-.X.X.X.Y T U T D D D ! D z l U 9 & 4 k l b D Y l . F f.W T ! Y T T L ..| w...R C U ! e.T U t.....w...N W } | Y Y N | ......G b R ..Y ....b ! R | | X.a Y w...y.w.N W | X.L | F | w.X.w.| B n | Y a ",
", -.R %.s.;.=.Y G R +.R ! b b C k 4 6 C P P E P J P U K , = Y R b U C D R R ! +.O.%.o.r.+.Y s.e.t.e.Q +.=.! =.=.+.=.O.+.+.+.t.e.R ;.d.o.u.u.y.=.t.+.o.+.+.=.=.t.+.T o.R G ..=.0 , k Z D A Y ..} z D N b D D N : U.b.D R %.R R -.R ..Y | X.H | X.=.y.R =.| | =...y.t.s.=.D U Y =.} ..;.} | X.} &.R b * ..b...Y &.=.y.X.H H R ..=...-.y.=.t.+...=.=.=.R G D G 0 - * l D N b U C C : c k...Y D U ..N U Y N N N N Y N L U T N D T R R R R Y F F Y N Y } =...=.X...=.=.R =.-.%.:.;. .-.;.X.;.=.v.y.| =.=.i.t.=.=.:.=.t.y.s.;.y.z.:.=.;.;.:.y...=.R R H o.=.o.R R T G G Y R U C Q =.R O.y.R G o.=.+.d.;.+.=.R ! ! ! | =.o.+.;.;.o.+...t.R ! ..R ! U R =.=.=.....R R R ..Q W K - l w M D B B k k : ..} U R R R ! Q r.W 0 ;.| i.6 +.u.r.! e.U ! w.j.B.j.j.a.i.j.j.f.y.g.f.k.j.f.k.k.f.k.k.k.V.y.k. .f.b.h.f.g.f.f.3.g.v.y.....w. .} X.f.h.g.k.f.g.2.y.2.f.j.i.y.i.:.y.y.f...T U U D R z N R R D N b 9 = 4 x j b N N b & Y y.N W R =.! ! ..W ..t.....! U ! P b T ..W ......N ..| Y Y ..N ....F ..! D N ..W | ..N W } X.X.| a B X...! ..N Y } X.w.X.n W f.w.w.X.M m } W : ",
"+ =.R ! =.=...D D =.R +.Y b D U l & b v C I b C I x l c q : | ..U W U D D Q ! +.! R t.=.+.+.+.=.;.t.p.y.! Q t.y.=.e.e.+.e.u.+.y.y.+.R =.o.s.=.=.+.=.=.+.y.=.+.+.o.t.+.R Y =.T - 9 9 z m A } Y Z 0 z T Y G D : g.W.%.Y ..;. .| =...&.| X.:.=.| =.=.%.R =.%.=.=.y.t.=.i.y.Y D R ..| =.i.=.=.| t.=.R b * } b.=.} Y %.| } | Y &.=.=.=.t.y.;.=.=...} | =.%.D F Z z - , l b Z D D C D j j j.R Y Y T U U U N N G U T ..T U U N T N ..U R W T ..! ..R B } t.=.| | =.-.;.;.y.=.=.%.%.| %.| } | ;.+.y.d.t.d.=.t.i.s.t.| :.i.=.l.y.d.=.y.=.x.=.=.=.m U D D D o.R R R H T m Z z H G U G R +.R +.=.H o.=.R =.u.R ;.=.+.G =.=.=.D =.t.=.=.+.;.W R ! ! U ! ....t.R ! =.! t.} R +.+.U c & 6 l l Y F B Y z O y.a.Y W R T Q ! W d.=.' &.D +.+.e.p.! e.I ! t.! ..r.! 0.Y ! U ..t.| Y | | | ..R t...W ..W ..Y ` ..X.....Y } .. .} ..R } ........X.} } ..} | ..Y X.W R | ..R T ..Y R Y T N T T D Y L R b m D U Y j & , j b b N N b = B i.T D T ..N T T L N Y B T U l U U I W W w.t.t.W L ..w.} } R U ..t.} w.N N } ..Y -...N B Y } ..R n F | ..Y Y Y F } X.w.X.k B w.k.X.` n B } B * ",
": :.;.=.d.y.=.G c ! =.T ! b b D b , j K U Q I Q D v c v j & ..R C C R T Q T Y +.+.T R ! u.u.p.T O.u.u.+.R Y t.y.y.+.+.e.u.t.e.t.=.z.+.y.;.R o.=.;.=.Q +.+.u.t.o.+.R T Y ..R k : 0 z m Y H Y Y F m C ! T B z , (.b.Y =.R :.=.y...H ..Y Y H X...Y | =.| =.+.;.;.y.....y.-.Y N m  .-.| =.=.R =.+.=.H b - Y Z.| Y } | ..Y Y -.=.=.t.=.;.&.&.i.} H Y =.R R F D D Z , 4 9 b l z U b D 6 j :.U G Y R F D b D U N U T T ..D U U U U R b E N ! ! ! ! R W =...=...=.;.| :. .=.=. .=.%.3.;.=.} ;.;.i.=.:.s.+.+.=.;.y.u.d.d.v.=.y.y.d.d.;.&.=.=.=.D z =.R R o.;.R R +.+.O.;.Y %.=.H G Q Y R +.+.R ;.=.R R =.| =.+.%.R G =.=.+.T =.s.t.+.=.=.=.j.j.v.b.v.i.....y.;.y.f.;.y.-.....Y N = 0 b Y Y Y D Y k & -.-.U W T N E W U d.D.e.d Q Q Y ! q.r.+.R ! R t.E U E U ! q.E w.R U } | R } } Y ..w.....t.t.W X.w.w.R ....} ..X.R ....} ..Y W W } } R Y Y  .Y ....W D } R T Y R ..R F b T R N N N z N U U D l D j & , x j D P b l ; R w.Y Y R D 6 = , : O & = & - c Q U P w.w.w...w.! U Y ..X...T L T | F ..W c D X.} d.t.m | } ..} } n Y | ......N Y W w...| L } W ..| | N m F Y ; ",
"* i.t.u.i.t.=.G b R ! R R U b T j : , b C I P Q T U K v 9 : =.R C D U ! Q =.=.+.t.+.t.=.Q u.p.Q =.=.t.t.R G Y ..e.y...O.Q +.e.r.e.o.=.u.=.R %.=.d.t.| +.u.+.u.e.=.t.=.+.=.R 2 - j D F R Y Y H G G 0 D R D . j.(.Y H ;.R | =.=.} ' =.=.} | | Y Y =.:.=.=.=.=.R X.t...-.R F D U ..Y =.| =.=...y.=.F z & =.h.Y | =.R R =.=.y.y.y.=.Y X.;.=.a...} H Y } Y R D D D & 6 l D D b C U D j j :.| D Y Y | Y B U ! U Y ......U T T T R T T T W T ! T R ..q.=.! Y ..Y %.R H D Y ..X.;.%.&.=.%.o.y.&.R =.i.u.y.=.=.=.R +.t.i.=.d.y.+.&.a.X.%.| %.;.H B R R ! =.H =.R =.t.H Y G Y G R +.R R G C b F G Y D Y U G D G G Y ..R | R =.=.=.t.t.R =.d.=.=.g.t.=.-.k.g.k.i.i.j.g.y.k.=.T t.U * 0 l U D T U b z ; Y y.U R R T q.W ! I ! z.r.+.R ! t.t.! =.R F R q.t.! U L ! q.w.U R ! W | Y W R } ........t.R t.R w...} } :.X.Y Y } ..} R R  .} | Y Y W ..} Y R } | Y Y Y R ..F R Y D G b T U T b U T U D T U T U j & j c c N U P 9 > Y >.B Y R U b l 0 j k b b c U Y Q W D ..t.i.W | W F W X.| | T Y W y...| Y L D ..R R W B | w.w...} m R ..W } Y z L ..w.} | L L ..w.....N Y | Y : ",
", :.=.=.t.i.=.T D +.T Q T C j D j > j b C b I I P P E C 6 - =.o.U G b Y R T Q ! T +.=.;.u.t.+.+.t.+.R u.u.t.%.s.u.e.+.=.=.+.+.=.u.+.+.t.R +.u.y.o.R =.! e.u.u.Q o.R =.! ! b O 4 x D R } H Y D Y b l z Y k : (.j.H =.=.| =...y.....R t.;.;.} | ..Y :.=.y.......&.X.=.y.Y b N F =.;.R ..=.! t.| } } N O | b.! ..%.R s.! =.| :.t.T ! =.X.=.|  .R ..Y %.| D D ! G , 6 j D C c C C l , j y.R R D } Y ..U U U W T Y U T R ! T T T R R T D T ! T T ..t.t.+.t.y.=.=.=.R F R =.R =.:.=.R %.Y R Y +.t.u.t.R u.u.d.i.=.=.-.;.y.=.' =...%.=.=.} ;.R b y.=.=.=.y.=.=.=.=.o.Y R o.o.R R Q Z 9 D V G R b G b F N R R T Y T Y y.o.;.i.R R o.=.=.t.X.R } ..U N R ! } Y | ......! +...=.C - 9 D N N Y Y N N : X.g.U R R t.U W U U b U W ....Y =.! R H Y Y ..! ! Q U 0.w.W Y Y T | | Y ....N Y R T R B R w...} ..} Y Y | } Y R ..Y R R } ..} Y | ..L X.T W W Y Y ..Y W R Y F R D B N W Y N U N b Y N D D N b R , = j , D C c b b , Y  .F T W U R Y Y ..=...=.T R t.t.! U t.w...t.w.Y L w.} w...T m ..| X.W N n ....R | m m L | X...Y n ..w...| | z F } ..} W b N Y ..} ..k N ..B 1 ",
": :.=.=.l.=.=.b U R ! R R P b D p j p j C U C U v P C C j O j.d.T =.t.=.z.e...! +.=.y.s.s.i.t.s.u.u.u.o.d.l.y.s.s.d.=.l.i.s.B.s.y.u.u.s.=.t.s.t.u.u.+.+.;.=.u.u.t.R +.e.! b O j z F D Y Y ! Y z 4 l b N O j.[.Y Y ! ..X.=.y.-.;.} y.i.b.g.x.g.h.b.v.b.Z.b.v.h.j.b.k.f.B 4 z F } Y R ....t.! | :.;.m + X.j.=.t.F y.t.=.H =.R =.R =...R =.t...Y T | o.G Y Y D D * , q b b l C C b 6 7 g.R Y Y R R R Y U T Y ..! Y T W ! U R Q +.R U U R U U W ! R u.y.s.+.+.=.i.s.=.=.=.| ;.=.t.=.+.l D Y Y ..i.i.t.=.G +.R i.y.| X.=.=.;.&.:.;...=.R =.! 9 =.! t.y.t.d.y.+.=.;.Y =.%.o.Y Q =.b C =.R ..F S Y ;.H R t.Y R Y T R =.+.T =.%.R %.=.=.=.Y ......=.N m D =.=.=.=.R W T R ..! b , , j N R D N N z O =.&.N Y U L U w.T b D ! Q R R Y Y =.! ! D ! t.W ! ! E ! W E L N Y w.R Y Y R } N R R W Y t...R X.R F F } Y Y } } Y R ..R ....L ....| Y Y ..Y } ..Y N Y R N B U T Y Y U N N N U T D R Y b z C D U 0 : 6 j l l U b N : F X.T U R F Y =.} } G F ..W ..y...C L ..y...w.| W b } ....} Y N ..Y Y ..R z Y ..R ..T N F ....R Y z U w...-.} z W ..W } Y n L | } W ..m Y R F ; ",
"6 3.;...i.=.! U D ! =.T T b U U j , , b P C C E I C E C d 6 x.d.=.=.t.=.d.t.y.y.;.=.v.s.b.l.V.l.d.s.;.T R =.i.v.d.B.B.v.z.=.v.d.B.d.v.d.y.! R Y y.+.R +.%.=.+.+.;.O.=.=.R - , c N ! R ! R R z , l N U j : Q.b.b R ..=.=...&.y.X.......-.3.i.;.:.:.f.-.f.x.3.:.i.k.y.-.` B m H H | =.=.=.! =.' ;.=.k O } V.=.=.=.| =.;.;.+.o.y.i.t...R y.! ! =.R U R R o.U T D - , j q b K b b j : k j.R R R N Y ! Y R U ! ! ! Q +.R ! R =.R T R T ..! ..q.W ! q.a.=.t.t.R =.y.t.=...=.;...=.=.=.Y m D Y =.j.d.=.;.-.m =.t.s.d.y.%.Y | =.&.j.=.} H =.R V b R +.t.;.r.=.=.u.+.F =.=.o.G Y T R z l R Q T ..%.Y R F ..R ! ! ! b =.R D ! t.e.=.! Y ;.y.R Y  .y...D U ! =.R R ....U T ..R ! c 4 j m D D U U B l ,  .-.U R ! T W T C D D R R R Y G R ..=.! ..! ! ! U q.T ! U E L N Y ! W } Y Y Y Y ..! t...! w.} W Y Y | B R F Y ..} R }  .R ..Y Y Y } Y Y z N Y F Y Y U Y N D N R D T R D b D D Y D D U b D U D D 0 : j j k b c b l & Z X.U U b R Y F Y Y ..Y ! ....y.! T L R y.......U N Y | w.} F N F ..W Y b B R } ....F N R ....w...N N R ..X...B Y } } ..} a L ..Y } W N N | B : ",
": :.G t.i.! =.b G o.u.R R l D Q l , , j E C C U C v C C j v R Y R Y U R R ! Q +.O.d.t.=.=.Q Q =.R =.R =.o.Y ! l.Y t.+.=.=.=.=.R =.! =.t.u.R R Y R R +.t.+.=.=.=.R U R o.D & 4 l T T ! ! U - : j N N b & j._.| N =.R y.t.=.=.t.;.} F H ` R =.| y.X.%.=.f.%.Y } | -.....R  .F H Y %.Y =.X...| } Y =.N + t.b.=.=.t.t.t.i.&.;.y.;.%.! ..=.;.! ! ! ! ! ! R =.R R D = 4 q l N b b C l , l k.} T Y L T Y ! R Q R | =.R R ! =.R =.+.+.R ! ..! ! t.W W ! ! t.! ! ! ! +.=...=.} Y } | %.R H G F } y.v.-.R Y =.} t.s.i.t.i.:.%.Y =.} =... .R =.=.R w =.T +.o.=.=.;.e.e.=.R =.+.G G R C b b j b b D Y l b T U C U N b U +.C D R b b I D Y R =.Y Y Y t.Y z F U T Y R w.! U w...R U K * j 4 N D D N Y z , l D T ..U U T U U Q H Y +.R R R ! R | Y ! U ..e.W ! T E U E U W Y b R W R Y R Y W ! T ..! w.T | T F Y } F Y Y } Y R Y Y Y T Y Y Y  .Y } R Y B U W N U N D N B H Y G T D B D m b D U U N N B b U - : : : , - & : * & F } D D Y Y ! R F  .Y R =.} t.a.a.R K | -...t.t.U U | ..w...L m T ..U R T k F ..U ! F 8 Y t.| W U j Y Y ..=.Y k L w.W W Y N ....L W ..N Y } N : ",
": &.;.=.d.y.! D D +.;.T U C C U l a j l T T T Q P C l b 9 x T U G N ! T R +.T T C +.+.! u.+.+.+.Y b D o.U Q R =.=.=.! U Y R o.! R =.Y ..U D R R D R %.R o.=.t.+.y.R %.+., & 7 z T ! M j * 9 j D b N z & W.Z.H %.t.t.=...%.;.i.y.=.Y Y Y &.R | | | =.;.=.| | =.=.;...=.Y =.X.=.=.R R ....Y } | | | q & =.V.=.i.y.i.i.i.a.d.=.H -.| =.;.i.=.;.=.=.Y y.R +.R ! D , 6 j b C c N D x , k g.T R ..Y T T Q Y Y Y =.| R | | ..R Y =.+.O.R =.R ..T Y +.U R e.u.y.=.=.+...D =.Y F =.=.=.D G G D H u.d.y.t.! =.R i.i.s.f.;.=.=.t...i.%.;.;.=.;.;.b z R +.t.y.T t.=.R +.%.t.=.T O.D T R b C G N D Y R G Y D x U ! q.U D T , D ! U U C R Y &.=., U =...} b b U R W T ..W U W W W ..m : : 9 z D Y T D N N , , c R ..U ! ! T T R D D R G ! ! ! Y R R | ..+.T R W ! U U T U Y Y R Y Y Y U R U ! N T T ..Y ..Y U F B L B Y Y Y B F Y X.Y Y Y Y Y D D N Y Y N Y Y } D G b N N D D N N U D Y D Y D U N G N N * & > l z m m D m z = Y X.N U Y R ..R R Y } } ..i.j...Y Y U ..w...| ....N w.w.w.| Y F Y X.T ..b Z } R U N R j Y  .R ..T N Y ......R k Y X.| } B k B ..B Y F N B Y N : ",
"O &.R =.=.=.Q Z Y =.! T U b C Y b , , x C T C C C b P I j , l 7 4 l b l j 9 l 6 b +.+.y.t.+.+.=.T b D Y =.u.=.y.+.R | t.Q D R ! B T T U N b F R ;.| %.G +.=.=.t.=.Q T C . , l m R U - & 4 k D b D U X f.P.=.R +.a.t.=...=.=.t.i.=.=...-...} | } ..=.} ..=...&.;.;.R | | ;...Y | Y Y R | F F R | | D . =.Z.i.y.t.t.i.d.s.l.:.d.=.:.d.t.=.&.i.:.R y.s.t.=.R Y G j , 7 z N P l l l 6 D i...L ..R U H R R | R | =.!  .A A F Y =.o.D U T R T N G Y t.+.! y.t.y.R | =.=.A ..=.=.%.O.+.Y b D d.=.=.=.=.=.&.Y ;...z.b.=.%.} =.| %.%.:.=.=.=.=.b z =.! t.+.U R =.;.%.=.=.R D T T G =.C Z R F N G D ! U b D R K ! ! +.N o b =...| R t.| ..T j Y ..=.=.z U T N ..W ..R U D R Y Y a 4 0 m z U D U N m j 4 , - , j j j , x c , , 6 , 9 j 9 7 l 9 j j 0 l 9 b 9 x j j k 4 a a - j 9 j j j j , j j z 4 4 j j j l a j k 5 j j z 0 0 l k j n k 4 5 , 4 j 4 5 a a j 4 , b 4 9 , - , 4 4 , 7 9 , , 4 j 0 7 = , 7 k A X.&.:.| } } k B ..! U T N R R R -.w.=.h.b.j.| ..N D ..w.w.w.} B Y ....w.} F F ......R D M F Y U Y F z B R b N m b n w...Y R B F X.w.| } n L W } ..b 5 b D N : ",
"& ;.R =.=.R +.l D =.=.+.Y b C R l 6 l v C U T I T Q U C d & l , , 6 : > : , = , D ! t.Q =.+.=.=.R D N F R u.p.=.y.D Y T W N R T U D N N b F Y Y R R | R %.%.o.t.R R T j * - q l z : , 9 b D C G b l : Q.v.Y =.! ..R ....=.=.X.=.;...a.-. .F ..;.%.| R } | | ..;...X.Y y.=.;.| R =.} =.R | Y | | H z O =.b.;.:.-.=.y.=.d.=.i.t.t.=.i.i.y.X.%.%...=.t.=.=.=.R T , j l ! Q E E L N x b j.R U ..R R R ..R ..! ..=.&.' H ` D Y R R t.Y Y T D F T t...t.y.u.R =.! =.} &.} %.H =.=.=.=.+.b Z t.%.%.Y ! o.=.Y R d.y.v.;.:.;.i.y.X.;.;.R =.R y.T 0 R o.Y R R G R R C C D D U U D U U b D N l l z l D b b b b k z D U U 0 U ! +.=.=.=.+.D R F Y X...} z U w...Y E Y | W R R R T m , 4 k N B N N z k l , j 4 : - & & & & = : , = : , - - , , & O , , O & & + - & : ; - & : - : , * O O , = : 4 O O X & : & - : , & : & = & : , & : , * : : & , : & : * & * : : + * & * : & - : & X : & , * , , * : , 5 m } 2.2.3.b.n.3. .m F  .U Y Y U U R B ....i.f.t...t.! U N R w.......U U R | X...R B D ....N B k D =.D l Z l F m z D N z D ..F m m c N ..w.Y Y m N Y Y Y n z c n z & ",
"O &.R o.+.=.R D G o.o.R Y D U Y 0 , j v C O.O.P U O.T O.v & X.F C T D D D U U R =.! e.=.t.R +.Q U D U ! +.t.t.p.=.R Y G R q...R U D Y U l Y H Y %.=.! T Y Y =.+.R Y R 6 - , 2 l 9 9 b Y z D Z b D * -.'.=.R =.| Y y.=.R =.%.=.y.&.} =.X.-.%.} | } X.;.=.=...=.y...y.R :...;.R =.=.=.| o.Y =.=.=.Y z + =.g.| =.=.i.....=...t.t.p.=.=.=.y.=.:.;.=.%.! %.R R =.Y , , 9 j l l k j j : 0 v.T ! R T U R Y ..W R ..Y F } Y R N Y T =.R ! R Y R R R =.W R t.t.=.;.=.! F ;.Y H R =.=.+.+.=.T Z R o.g.Y F %.| D R u.y.i.d.i.-.:...} :.y.=.=.=.:.l b R t.R R D D H b R G b D T C z D D D b b U N b V w l b b U T U b R T ! =.+.=.Y =.+.Q R t.=.F | Y Y D N W | W ..R W R ....D Y m : 4 0 k D N N z B N l 0 , - = j 4 k j , 7 - 9 j 6 9 j x j j 9 , 9 k 9 0 , 4 j 4 4 4 j , j j 9 j , j 9 : : , , j j 9 9 4 : , 4 , - 9 9 4 j j 9 , 6 9 , 0 , : 9 7 4 : , - 4 4 , 6 : 9 , , 6 : : , , , * * , , 6 4 8 m m  .H ' &.:.&.&.H 5 } X.U U T ..g.g.j.j.j.j.t...y...T U L w.X.....W U N ..i...W T z } -.R N N z R Y R m M k B z c ! U 4 N R N N B a W ..w.L L z Y W N m Y 4 N k B : ",
"& g.i.y.+.R R D Y =.o.+.D b Q ! j , j b C E o.I Q I E b x & =.=.D U F R R +.R =.:.=.+.R u.t.=.+.+.U U W ! r.t.t.O.Y +.! ! ..Y -.U R Y N m F F =.R H D N Y Y %.Y R U N O 9 9 C D D D F D D z m N m 4 U.b.Y | | i.;.=...=.....=.&.} %.| } } :.&.=.R =.=.} | Y } =.=.;... ...;.! ! R | ;.=...=.! p.R z * | V.t.=.=.! a.a.y...=.+.=.} ;.=.=.=.| ;.-.%.=.%.=.:.| D : , , , 9 , x a p > z i.R } R U F U ..R U U ..R F Y Y b U N N U N Y D R G N U ! R =.=.y.=.%.H =.Y F Y H b H Y G Q R +.G +.+.H R %.=.R N =.s.t.v.;.y.y.a...;.-.;.| =.d.t.j C R H Y +.U T V D T R H m b b D T T b D b C b D w b c U W T T W ! =.! =.+.=.%.R R %.! =.=.U =.-.w...D L ....Y T ..T Y } T R F 0 * 4 4 0 z N m z m z l 9 7 , 9 7 q k j 0 6 l j 9 7 j 7 k k j w 7 q , 0 6 9 , 4 0 4 l 0 j , , 7 9 , , , 9 x l , 4 z j j j N k l 4 z 7 0 4 4 z z k z z N k k l l j l k j z j j l 9 0 0 k 2 * 6 , d , = 9 6 j 9 4 4 c l z b z N N j 0 j j ; Y X.U R Y i.f.X.g.y.-.y.R ....! ..U N ! w.R L L U x ....U b T N Y R Y N N N L ..z m 0 B b L L b L k b c D U c Y L W E K U N W q.W L z N B F N : ",
": g.:.+.o.%.=.=.=.=.H R +.T ! ! l : 6 x C Q U +.W b I b b : +.=.R T U Y G R R } %.=.R +.t.=.O.U ! I +.u.t.e.y.p.Q u.=.! R t.T ! W ! } D l Z F =.T Y Y D ..R A Y R Y , & , 9 U T T D T U F b D F & ;.~.Y R Y =.y.=.=.....=.=.=.=.| =.R =.Y H X.} R =.=.=.i.R =.-.=... .;...} R %.Y R ..Y =.=.Y =.T b O Y V.=.t.t.t.t.s.=.Y u.=.=.y.=.=.=.&. . .X.;.t.H o.=.%.D : 4 D H X.=.&.:...Z m h.=.R Y G =.Q R R Y R G Y D } R F F Y N Y T G R ..R b U w.........=.;.} =.| H R :.o.G o.=.R +.U G =.o.#. .;.%.Z B =.t.v.v.Q ..;...=...;.:.=.=.! =.! y.t.=.+.R T H T H =.R Y R G R U Y G ! ! N D Y Y H Y U Y E T R t.W Q +.R =.+.o.=.;.| T =.i.M =.&.F  .N N R U R T ..&.Y =.b Y R k , - & , & & & 4 - - 9 : , * & : , : 4 - - - * - = : 9 : 4 6 9 9 6 , - - * : : * 4 4 = , & 9 o & : j 7 9 j c 9 , , , 9 7 k k 0 N - 4 , , j j 0 0 j 0 l 0 9 0 9 4 j 0 4 4 0 - - 0 9 0 - : 4 , j j 6 0 q l p , 0 l b k U N b N N b b N 9 : } y.T U ..-.W R N F D Y W W Y w...R U W ..R T W ! ! ..y...W Y Y N W W W L Y W B F Y N N D Y ! T T R L Y R ....R w...W W W W ! W ..} F Y Y B 0 : ",
"- j.v.Q =.! =.=.R R G ! ! Y D k l 4 j b P T T O.D T P P C   i.i.W ! Q R R Q +.=.j.y.=.u.! ! t.=.R P T ! t.Q t.! =.R ..U ! R t.q.! ! R G m m W } %.H G Y m F R | D m - , l U ! ! ..t.! U R N B W , E.b.S | &.;.y.=...| y.| =.Y ..D ..! ..=.....Y Y } :.=.| ;.=...| ;.:.-.=.} =...R ......} =.| | Y z X ..Z.R t.a.t...! ..Y ! Y ..=.| =.%. .%.&.F F =.Y :.R =.R - m #.3.b.c.b.n.:.' D v.=.Y Y ..| | R =.=.R Y B Y =.Y 9 & Y 7 & F q & F 9 & D ! Y Y t.o.! =.! =.Y X O H , O D 0 * G H G =.R * * G 7 - 0 ..t.a.d.d.i.=.=.=.Y X.Y | D | } t.R =.=.=.=.=.%.U R =.T ! T R Y R G D C R ..L U T F W t.R R R D D +.t.R =.y.t.Y } =.s.+.t.=.Y :.i.' Y b N Y Y Y Y | } Y =.D R ..l 4 - j j j j 0 4 l k j 7 9 , j 9 j k j j j j q l b b N 0 l z m l k b k , q x 9 , 9 9 9 , 0 j k 9 j 4 9 j v U 9 d , : , , 7 j 9 , 4 , : , & : 4 4 , & : - * : : & = & : : - : , : , : - , 0 j j : - j j k 4 a 9 D U b v s : p j , > ; > = D -.R R T R ..R R } T R D W T w.a.=.! =...! W w.....w.t.y.w...w.} Y w.} } ..X.X.| | } w.-.a.X.t.a.X.X.w.X.y.i.a.W w.....q.W W ..W Y W Y B R N : ",
"O B.d.=.i.=.=.t.=.o.t.t.T G +.m 9 4 j b W Q T C U T O.O.b = d.y.D Y Z R =.+.y.i.d.t.u.=.=.u.+.d.R T ! ! R ..t.=.! T W w.! =.R ....T Y D z B ..Y } H H } Y R R } F z - - 9 C T U D T T U N z B X &._.=.H R &.| =.y.=.....R -.R G R &.y.R } .. .R } =.| ;.| -.H =.| | =...=.=.t.! ! i. .-.&.=.Y | ..N 4 T v.t.=.-.=.y.i.R =...=.=.R y.| -.;.g.=.| =.=.i.%.' ' Y - q D N F F R D C , k :.X.%.| Y T ! R | R T U Y } ..=.0 & D * % S 9 : D l - Y =.! o.=.t.=.=.=.p.z + & S @ * S w - Z o.C =.%.+ - ) 0 O V F =.=.i.i.t.y.y.=.t.i.Y ' Y =.Y =.=.R ! ..! | =.R Y +.=.D T =.o.R U Y Q =.R T N Y Y U ..} Y R ! ! o.=.D | =.R =...=...t.! t.| &.| =.R D N ..B =.R =.R R Y =.B Y n , 0 , j j k N z 9 9 9 l 9 l x , l l 9 q b x j 9 9 b m m m k l z j 0 0 : 6 6 k j 0 l 0 j j j j : q b k 4 b b 7 , j j l j l j x 0 j 0 9 j 9 k 4 l k j j 0 k b w 9 , - a j k j - k j l 0 9 j 9 4 - l a j 4 j z , D b 6  .f.-.g.X.f.h.f.` M Y y.L U T ..R W Y W y.N N ..y.X...w.! R | | w.w.t.W | w.R | X.X.| } Y W w.w.| a.| | | } y.w.j.t.y.t.f.i.X.y.w.t.X.X.-...! a.i...t...Y ..Y | B & ",
", z.x.=.u.t.+.=.=.T +.=.+.o.=.D * j j l Q Q U T T C P C 9 * y.R G Y F Y =.R t.t.;.i.=.=.=.=.=.+.+.T D ..R R d.s.! t.R ! R U R R ..=.Y m G Y | } =.=.-.;.} F Y ..F 7 * - + : * 6 4 - , j j j j & W.b.A | | R R =.R | =.R Y ! R R } | R | =.| } X.=.| } y.Y =.%.X.=...| =.! R t.R ! R ......} } W ..z O R Z.t.t.y.i.a.t.a.t.y.t.! =.;.:.;.:.;.;.=.y.=.Y =.=.=.F , 9 z D Y =.R R D j 9 g.} ..R Y R T t.R U U G ....} =.D l H C x U b 7 F R j R ! R ! =.+.+.=.t.i.R b v =.D q Y Z l T o.T =.R Z V %.m Z Z Y | y.i.t.y.....;.X.' %.' ' | ' H =.=.=.R G Y R Y =.=.! t.T Y T +.R G =.R L N T T N U R W =.R Y T T Y Y Y D H R Y =.| =.R g.%.' &...R z N ....Y } | R %.Y Y H | m : - & , O : 9 & = . & , - , & = & : - O & : - 7 7 6 q , 9 - : * , , & * - & : , , 0 l z j 9 k 0 , j j 4 x c l x x l l l N j q j , j 9 9 j , j z z z j - 4 z z a k k z 4 4 4 4 0 z 0 0 l j 4 , k , l 4 , a j j k l A &.&.&.&.%.| ;.&.} 0 N &.U D F T ! D ..w.Y z Y w.Y | Y ....=...a.y.w.t.R R y.| w.....w.X.X.f.| w.....w.w.X.y.y.y.i.f.-.X.j...y...i.i.w.a.y.w.W w.t.| B | B F Y T N X ",
"& v.i.t.=.=.+.t.t.o.R Q Q C Y R l , l b P O.T O.T O.G v j : y.=.l m Y F F t.! } =.y.%.;.=.o.%.y.! T B ..R ..=.R N P U D b T Q c a K D b b Z R ..H R | %.=.R ;.A D * 6 - 7 7 z l m z 7 k a l - -.Q.} H =.} Y ! R F +.R R R | R %...W | ..} =.&...Y Y R | | =.| } ;.R R t.d.! Y R R R Y t.} F ....} z & =.Z.a.s.! ..X.} p.! =.t.t.d.i.=.=.&.&.' ;.=.;.;.=.=.=.R , j N D Y T Y H C 0 q g.=.Y T Y Y U R D b U Y } =.y.R t.+.R R +.Y ;.y.Y R +.! p.p.+.=.=.! t.! u.Y i.y.R u.u.o.H =.=.R +.o.Z *.%.R %.;.F Y =.l.B.=.| } } | %.} | ..| %.%.H Y =.=.Y H =.;.! o.=...R F F Y R +.+.+.E W U Y ..! U F ..=.| o.R D D ! +.Y =.Y D ..| =.;.=.R &.;...} N D ....Y =.Y R =.=.R | | D , 7 j 0 7 z 4 j 7 , , 9 j q 7 9 9 : x 6 , 0 9 l k l z z l 0 z 0 m : k 4 j 0 9 9 l q k k 9 9 j j j j , 0 9 c 4 d j l c j j l j 4 j 0 l j 9 9 9 , c j l k l k k k j l z b k j 4 j j k 9 x , = j 0 j j k k 5 0 k : m &.z b z z D b b l l = N X.Y R Y =.Y ..N R L z N } ..w...t.=.....R X.R ..} t.w.....X.w.} w.} } | } Y ..w.| | X.f...w.w.....w.w.y.y.y.....| | ..| w.t...Y ..Y F R R Y X ",
"& v.l.+.=.=.=.=.y.R ;.T T T T R l & , x +.e.+.T Q O.O.D x - =.y.F | G F ' Y =.X.| l.Y m D G G Q T U D a.t.=...N p 4 : 4 4 j 9 , , 6 : - k G F ..D A %.=.H R =.F 9 & 7 9 z D m Z F D D F M 0 X W.n.M Y X.Y | %.R Y R R ! Y X.R Y  .Y Y } Y } Y } F Y F %...R | T } R R y.j.t.U R Y T R ! H R | | U z & Y v.| ! ..=.! t.=.=.t.+.=.=.=.-.-.t.t.R =...%.t.y.=.R D - 4 N Y T F H G c 9 0 j.=.R U Y F D Y D D P T R ..=...Y R U C o.z F =.Y Y ! ! ! w.+.u.=.=.t.t.=.F o.F D F R D Z S o.m R d.Z o.H R H ;.Z G y.y.t.| =.t.Y %.y.-.} D Y Y Y } ' F R o.! R =.! R R G %.R R H Y R =.! R U T N ..Y R | Y | =.R Y R +.Q R =.! Y Y %.| R i.| } :.:...Y D Y } R | R R =.Y =...Y %.m 9 j 6 : b j w 9 w j z 9 j j 9 l C v d b b q , l b 9 l 0 k 0 z l l z b j 6 6 l w 9 0 : 0 j b j j : j 4 , x b j j b l j l c b j l b l 0 j l j z b 4 l j j k l l 4 , j j k l 4 j 0 l 9 0 j , 0 j j 4 j j 5 j l & M #.F Z b B M D D D z j & N X.N R D ..F =.| F Y N k } ..} ....W t...w.....| W | w.w. .| ..w.} } W ..} } y.f...Y | y.| w.w.w.W w.t.X.y.t.a...L ..! y.X...| Y F R Y U R Y X ",
"O g.i.=.o.+.O.+.T T O.E Q T D T 7 : 6 x C U T Y D R Q P l O g.i.y.=.-.%.&.X.B.A.:.=.D k b j k l l N R ! =.=...G N U k z D b k b G j D z F R ....;.| =.R R Y R .., > > 6 x b b c b T D b b O y.W.%.H | | H | o.R R R =...R Y R R Y Y =.} %.|  .| } &.} Y Y | } ..R R =.a.=.=.D R ..T ! R } Y Y N l : * m f.t.=.=.i.t...! y.| =.i.y.y.=.;.t.-.X...;.i.R =.=.%.D - 0 c R Y Y D } D j z x.=.R Y Y | Y Y R b b R ..R R ;.=.! =.o.R ! R R o...=.t.t.t.! ..! s.s.u.t.R R R H ;.H H o.H =.G T +.o.#.o.*.%.:.D H +.d.=.X.=.=.y.y.=.%.=.| | R T F | H R +.Y R R ..=.=.Y R =.R Y T H ! R R T Y L } Y R R }  .Y R R =.R =.Y F F Y R | =.| T :.|  .....R N N ..G =.t.=.R } =.} H ..D * 9 9 j j b z b b l 9 j b j l k V j j b j j l k b l z l k k 0 b b q D z l j 6 l j j l 9 j , , j j l l j c K j b j j l j c c C c j N b l l z 9 j 4 j j b j z k j j 0 9 j k a 0 z 9 9 0 , - x z j j j j j l , N ' F 0 m N D n m D D b 0 = B X.U F D Y U ..W | N N m } X.w.} ..a.t.w.w.....W ..w.w.w.w.B ..w.} } ..a...y.i.y.X.| a.w.a.X...U Y w.t.y.w...i.Y Y f.X.f.&.-.| L | } Y Y Y N & ",
"= v.d.t.+.i.o.=.=.=.R R P T O.R l 6 d C v O.Q C Q T T U C = i.i.d.i.| | =.i.g.i.t.=.U 9 , , 0 j 4 ! Y R t.! Y R R =.=.! ! Y =.| | R ! t.=.! R i.! R =.=.+.R D b & 7 0 Z R Z F F F H Y F m O W.K.H } %.o.=.R R R | =.=...%.R Y R F Y B } =.Y X.X.%.| X.| :...R ..T } t.! U D C U R =.....=.Y ..Y F 9 X } g.=.=...a.=.R t.=.=.R } y.y.%.i.i.-.Y Y Y | ..| o.=.Z - 0 j Y T U R ! D 4 b g...R R R =.T Y R U D Y ....y.=.l 0 G 9 9 ! l 4 R b , R a.! +.! p.! ..! t.=.O 9 ' V 7 o.Z & D R G +.o.7 7 =.m , m Y =.y.d.a.=.f.=.=.=.} =.} Y Y ..F ;.| Y Y =.R R =.| ..| R R Y U R R R t...R D N F ..R ! Y Y =.Q +.! ! R Y | R =.=.M Y Y | ;... .A X.T n B ....%.=.R R =.R ....T G & j : 8 z 9 7 z w @ k z 7 2 2 7 6 6 6 j 6 d , 4 9 9 b b w 2 7 9 9 j 7 7 j 7 : q l 7 q 4 4 9 6 9 j j j j b I q l b x C C x c l c D b b D l j l k l l l b b j b l , 9 9 j 4 j 0 l k j l 0 j c k k k 4 4 0 0 k H B z n M b D D N N N D z & F -.Y N Y Y D R N Y W c m L X.} } ..y.t.X.t.....w.| | } X.X.} } | } X.w.| Y ..-.y.a.W a.t.....t.N w...d.a...w...W W X.w.y.-. .w.Y R R F Y n l X ",
": v.i.t.+.=.+.o.+.+.G T o.U D C * j v U P C V U T C T Q l O y.=.U U Y =.+.Z } | R ..} T R Z z ! ..i.i...X.T R | } t.y.=.=...R =...=.....! e.! ! R +.! Q F %.' 9 , Z &.6.R.J.J.G.n.R.c.c.&.g.!.-.R %.Y | %.o.=.+.=.=.| F R %.| %.H F } | R =.Y A H ..=.=.Y =...=.=...i.! N b b R Y } Y R R R R ..H F 9 D f.=.=.t...=.U Y B G %.H y.y.Y  .;.=.;.| R R Y G T ! D , j l G R R Y Y D q l x.=.R | R R R R ..! T T T R t.t., - Z - O H 7 * Y , : ! t.t.i.p.e.+.R a.u.Y & O H 9 o Z 0 + F G R s.%.& + S 0 + 0 F +.d.t.=.;.=...} | D  .H Y } } H Z Y ' %.G H %.H | Y G D Y U R U ! =.Y =.Y T R } Y R ....=.=.+.U U G +.R | T R Y | Y Y Y =.&.=.} } T k F =.R Y R o.=.=.=.=...} D = j P K U e.! e.e.e.s.p.e.Q e.e.I e.Q r.Q e.! Q I ! p.s.t.t.T e.O.! Q E e.I W r.! T Q W U , C b j C c j K q.b U D T D C U U C | Y U C | N j D D z k x U U l N z l b z c N c N b k z Z l j N b z n N z k 0  .H l B z w b G D D b N 0 k = m X.L N m F Y } Y n N n F | } W Y Y y.w.X.....R ..} ..| X.W ..X.| X.} w.X.Y } w...} w.| R y.y.R N ..a.g.g.| X...w.} | | y.| | ..Y L W Y B N N ; ",
": N.d.+.Q u.=.t.O.H U R D Y D T , : 9 d v l C T C P P P j = i.y.R ! R +.! ! G | =.%.t.t.u.p.! s.s.a.t.i.%.y.y.t.=.s.+.=.R X...` H Y ..} | | ..&.! t.t...R %.Y - : 0 j 0 F F H ` Y ! R D . P.b.Y %.H R } R ! o.R =.-.| | %.=.o.| %.| H ..} R | =.R %.;.=...=...| =.R =.R Y b D R Y ..%.R R | Y } F Y b N h. ...q.t...! z & D ;.=.y.y.| &.=.| ! =.=.;.=.=.R Y G : 0 b G Y Y R Y N , l 3.| G Y R R R U T R T R R =.+.=.l : R V - H 0 : G m = b s.w.=.d.u.e.Y t.=.Y 7 - Y q O S 0 & Z D C ;.R 2 @ S t & w | R d.t.i.i.y.| =.y.} Y } } Y H } &.-.} H R =.Y %.R Y R +.! H D D R o.Y R ..R Y N R R R ..+.;.=.=...R | =.Y Y %.X.H Y F Z ..` Z N ` k 0 k } =.R | =.R ..=.} ..! m = 9 C T Q ! e.! p.t.r.e.Q q.T U E ! Q Q W Q E P Q Q Q t.O.=.+.+.! W Q T W E E O.W I D P e.r.4 b c c C l b r.b K C b D D b U b F U b l L N N c C c b N b N b U N b U N j l N N N b N Y z 4 b N N B N b 4 Y H N z z z z l z D D D D D k : B -.N N B Y Y B Y Y F N B Y Y B | w.| ..X...........w.w.w.y.| | X.| } } ..} w.X...| | a.....=...U Y w.g.&.w.w.f.| F ....=.y.X...N | Y F Y D k = ",
"& v.t.+.=.u.y.Q o.R +.R Q C T U 9 : b U W s.r.r.u.e.e.Q U = X.Y T T R R +.T R +.t.y.d.d.d.B.d.v.i.d.y.=.=.y.y.s.u.t.i.=.=...R ..R =.! ..| R D H ! ! R } | R b O 0 l D U b U T W t.b G 4 ;.R.+.H | Y =.%.%.o.R Y =.Y %.=.=.H %.o.| | X.| ;.R H =...| | Y R ..=.| =.R =.=.D l D %.R R F R ..R B Y Y F z B k.} U R R ! E N 4 G =.=.R o.;.:.:.=.=.;.y.R Y | o.R F 6 : b N D U Y Y N 2 l h.| Y Y F R ! ! U G R +.=.Y =.R u.e.R T ! D U T D Y t.! R t.=.y.s.p.! =.=.` ! Q R T =.R G o.o.Y Y o.R c.=.*.%.} H o.;.=.a.-.=.=.y.=.y...&.-.} R R ....H =.=.R T | | | T R +.o.+.U D T Y D D T U ..Y W ....w.Y | u.;.=...} -.=.Y =.;...| } =.Y 0 4 j 4 l 0 m =.=.R R =.Y -.D } ..=.D + x : 7 G b D D D N N N l P G j b 0 l j - 0 4 0 k b q 8 0 2 0 l 0 j , z b 7 8 q 8 z l m l Q Q 4 b b b c I U l c U C C l l C b l k z k j b j 0 z x l 9 D N c b b D j j l k l l k k b b 4 0 j k 4 j 4 a F M m m m m N Y N D F Z k D G k : F X.N m F } Y F B B F T Y N W Y } } X...w.| y.....w.f.w.....w.| X.X.X.X.| } Y | X.X.Y w.w.a.t.w.Y y.w.f.f...w.| Y Y ..-.=...} m L N F F F N l & ",
"O g.v.e.u.+.;.+.R R G +.+.T D D k 4 j l T Q ! Q Q +.+.W l ; &.Y +.U F R ! =.+.t.+.y.:.| t.t.i.t.s.d.=.w.r.! =.y.=.R ;.R | Y Y ..=.R Y Y =.R G U ..R R } } .., 4 j 9 U W U T D Y N j k O P.x.Z Y A D =.%.+.=.Y R o.=.=.%.R =.=.=.| T =.Y =.} R | R Y R X.%.%.| =.R =.d.=.D l D F | F } F ..Y F } N N l B b.} W w.R R R D 8 Y | ! Y R Z G H Y F R F D Y G | R Z , j k G N T Y D b j j i.| R F R G Y R +.+.R +.o.=.+.o.%.t.U =.t.C D R G H R R Q t.+.=.y.+.R +.=.H R =.D R T T H =.=.R G i.S x.l.R ` ;.F Y =.i.=.:.y.Y d.y.=.y.=.X.X.Y } ..X.| } } Q Y } R %.D R F =.t.W R T T U R L ..W F Y t.R Y F Y y.R ..Y y.T Y } =.R ....F R B k k 0 k 4 k F =.Y | Y R ..R R ..} Y N - 9 l b b D Y Y G R T Y D N D b l l b x l z z N 9 T N b b b k b j z z j D z l D x z b z b 0 U U 4 4 j c b U b b j l b l b m z D j N l j j l b x l c 9 l b k m z b l 0 j z 0 l k k 5 0 4 4 4 b k 0 , N B 0 l 0 j m m B U D D m N D z k , B -.N U R R F Y k B N N F } Y N } W Y W } ..y.} y...| ........R | -...t.X...} X.X...w.....W d...U ..-.-.y.....B Y k W ..:.M X.F F N N Y D T b X ",
"& B.v.+.i.t.t.=.o.Q R U o.T R U 4 : - l b 0 b V V C 9 4 9 & =.;.U +.R ..! ! t.-.%.;.=.G T ! t.W ! T R p.+.+.| ..%.R | -.R | =.| ;.| | | R Y R =.R Y R =.y.T & - & . * - & j ; O & : X ;.Q.%.m ' S R ;.R %.R Y | R ..%.| %.%.=.R R R R F =.} F X.R T R Y | | %.=.=.=.;.=.Y m F R G R Y } F } ..Y Y m j Y b.=.! T Q ! D D , b ;.y.R ! =.F R %.R H H F H Y Y F F * 4 m z Y U Y T N 9 j i.%.T G Y %.o.T R R R =.R i.=.+.U U U ! u.! t.t.R ..R =.! i.t.u.u.t.+.! t.+.D +.+.R o.Y +.=.=.Y H =.d.v.v.=.;.d.D | ;.;.-.a.d.:.=.=.i.a...y.| =.R ..R ..y.Y R | &.Y Y U Y =.=.R T U Y U Y Y } ..T U =.R =...| =.! =.......=.=.Y | ! =.R | ..R N m R F D H ;.=.R Y %.%.;.=.:.=.} Y D * , l D U D N R Y b N F N b C b 9 N F N N j B Y Y R G U R F Y R Y F Y N Y R U D D F Y U R R G T j N D Y U R Y T %.R Y | N Y Y R Y ....m Y D ..R R D U R } Y | Y U N U U D x B N Y Y Y Y L Y U B Y D k 9 z m : 7 z b U m Z z z z B N l - B -.T Y F Y D F m F N z B Y Y N } X.} w.X.| | } | j.w.w.y.X.y...Y ` ..} ..f.X.X.X.} | w...w.R R L y...y.i.T W Y Y F W Y  .-.} Y L b L L U D N : ",
"O j.i.| y.o.R O.Y ;.+.T D R D U q a j b j b l b C v l x l & i.=.b H R T R ! =.=.:.%.Y N U U R ! Y n ! ..=.s.u.z.z.d.v.n.V.g.i.g.i.x.v.v.R H R R =.=.%.| =.D & z Y ' :.j.i.y.;.:.%.X.w W.Z.F F | | Y =.%.+.+.=.;.%.| ;.=.=.=.Y =.Y Y R %.=.} Y Y R ..| ;.;.%...;.=.=.y.:.Y C D Y G R R R | F ..F B Y l R g.} N T R =.R D , b a.p.y.i.t.t.t.=.&.=.=.%.o.%.T R z - , D D R U R F D l 9 f.=.D ! Y R R T o.+.R =.Y =...R ! ..T R ! q.! ! U Y =.R ..t.s.t.i.t.t.+.R T T Y ! R T ! ! =.+.D Y u.u.B.=.y.s.=.T ..X...=.t.=.=.l.| i.a.&.=.=.y.H y...X.R T H X.%.o.=.G | Y Y R Y ! ! ..R =...R =.o.=.=.Y ......} t.-...t.! =.X.X.....R Y D } B Y ..| } %.+.! Y R } ;.-.=. .%.X.Y D & x k b D T T Y R T T L D k N 4 0 D B D m N N Y L Y F Y Y R } R N ..L R R U R T Y L U Y Y R T Y N R W | t.R R ! R R Y ..Y F U R R ..R B T ! R W R T ..Y R B W R N N U Y U U N N b F Y U Y N Y Z R D N M Z Z - 9 N m N z m m N D m z j , m } N ..D Y m N Y F F z D Y &.R L Y .. .Y =.y...y.X.i.i.X.} .. .} } ..-.y.| } w...| | | y.R ....U q.y.j.a.w.Y ..L L W | f.y.....Y N N Y D N b : ",
", i.y.=.Y R R +.o.R R D D D Y U 0 & & &.x.P.P.P.F.F.v.x.-.F :.=.m F %.=.R G =.;.i.%.Y U N R =.R T N U ..t.s.z.N.d.:.i.l.=.&.;.y.i.=.%.| %.Y F Y | Z Y %.+.= * D :.x.b.b.Z.Z.n.n.c.3.g.Q.=.T R H H %.%.%.=.R | R R } R =.R R -.o.%.Y %.i.i.%.%.;.;.=.R y...=.R ..+.=.y.=.H m D } } =.Y Y ..Y ..Y T ..j B b.Y Y ..} ;.U N & T t.t...=.=.=...! Y ;.R =.%.=.Y H D : , N b Y D R D G 7 l 3.=.U R R U T Y R %.R R %.R ..R ! =.e.t.! t.t.U ! Q t...t.t.=.t.t.=.Q R Q R T T T R ! T R U R D R =.! t.R | } ..R =.R =.X.=.=.R -.-.-...=.&.y.=.Y T ..| H Y Y %.| | ..T =.Y %.+.! F Y Y o.Y Q ! +.R =.Y U T ....R R ......=.a.y.R ! ..R R Y U Y U R | Y }  ...=.t.y. .Y =.} Y } | b - 6 7 z z Y Y Y D U D Y D b z , b m D N U D z N Y L N ` B R Y T R Y } R Y T ..T R } Y R R R ..Y U U | W =.R ....+.p.! | ..R T R W ....y...p.R Y R W Y Y Y R R Y W N z U T R U N b U U D Y U R Y D D k Y H z : : z D m 0 0 j z k l z l > B ..N F M U D D Y } F l m  .} Y Y B  . ...&.-.=.w.| | ..;.&.-.a.&...y.-.} | X.X...X...} g...w.y.U Y y.t.y.W ....Y W t...&.} ! T T ..F T b b k O ",
"= v.i.e.! Y =.U R ! U b Y N D D b 6 9 H %.i.%.x.y.;.X.| R 7 i.=.A Y R +.R Y Y ;.y.o.} ! D Y ! ! R T T ..i.p.u.y.R t.i.t...A A R Y H F m D D Z A Z Y H Y b O 4 0 j x G P T R Y U D O Q.P.G =.;.H R F | R =.R | y.=.| Y R o.R =.Y =.y.i.b.:.g.;.v.g...Y &.;.=.R | y.=.l.=.Y D b D Y | | ....R t.Y L ..j } k...T ..| | | b : D T R t.=.t.! ....| =.=.R H R H | b 4 - 0 D Y U | Y m 0 w g.=.Y Y D ! +.=.R Y %.=.=.%.R ..t.! ! t.q.t.=.=.! t.=.! w.w.=.t.t.q.T T Q R T Y D t.! G U R o.G D i.%.g.R D Y R m =.R y.-.-.=.=.;.| X.-.R ;...R ! R =.Y H ..H ..} | ..F =.R o.R Y F H Y R +.R R R =.R Y ! U R ..R R =.=.=.-.} ....=...R ..R ..G R =.! =.H } X.| =...Y &...} Y ..Y z - 7 9 z U R D N D U D G z z b 4 4 m D D B D } R } k Y W D N R T W T ..R N R R ......} Y } R R w.b L | w.T R y.R =.+.Y R ! ..=..... .-.=.R p.! ..W Y W N R N U ! D 0 N N L T N U U Y R Y Y Y } U R U m Y H B & 9 9 0 m b z m n m m l 5 = F ..Y R N Y N B } m B B k } X...| w.X.X.-...} } ........-.-.=.y.....f.y.| X...w.X.y.-.y.-.t.i.y.b R ..y.R ..X...| N | R  ...t.Y W U Y N D l j = ",
"& g.=.! Y Y R Y R R U T D G T H , 7 z m b o.Q M D D G G w : %.F D G H G G H R =.:.| R Y =.R R T D ! N t.t.Q =.! &.=.y.=...;.&.Y ' ` m m w D Y +.=.F A D 9 * - z 0 0 B ! Y R R R d y.].;.H %.H %.-.%.=.=.R =.;.%.%.%.=...| =.R o.Y =.=.R ....Y ....F y.| ..;.R | =.! i.=.H z z R %.Y | =.F ..} Y ..} b ..L...T B G D D b 9 D R t.t.=.=.t.=.R =.=.+.=.%.F R G G , 9 l D Y Y G R z b j i.Y U U D U R R +.%.+.=.R Y o.! =.=.t.t.t.! t.! ! t.e.R R ! t.t...=.+.+.+.R D Y T t.=.+.! =.! N T y.:.i.=.....Y N G y.i.;.=.;.%.R X...X.R } ..R ..! | Y | =...F ` } Y | ..F G ..| | =.| R ;.=.R T F R Y U ........=...| ! ......R ....=.R ..R R X.%.| =.} | %.| | =.} =.| } X.Y Y N & 9 k D U U b N U ! b U m l b 4 j Y T Y } F U L B W Y L Y R N R R Y R R | ....| ! ....R ..;...R Y Y Y R R Y ..w.! +.R =.=.=...w.} | R ..=.....t.w...R w.T D U ..b N T W N Y N T F D D ..Y D T T U Y m F Y N , , 0 N U D z U N m k j 0 : Y  .N U b N m D R B U b B } X.R W w.R w.....-.X.| w.X...} y.....t.....&...X.X...X.| i.R } | ....T =.X.X...W y.X.W Y } Y X.} Y R T N R U T N l : ",
"& y.=.G ..} +.G U T G T D U T T j , 4 j F Y R D D R F F D - %.=.Y Y G N m D Z Y o.Y Y Z ! Y =.t.T c U ! s.r.Q y.| | ;.=.=.%.| | ' Y R D H Q +.+.R H m D , : 4 m F m m z R T B k & W.Z.D R =.| } Y -.=.Y R | R y.=.=.X...! ..! T Y ..Y | Y | | R %.R =.=.t.=.| %.:.=.=.;.R Z D | R ! | y.| y.} =.Y } b R b.Y ;.F =.t...=.Y =.! =.=.i.u.t.=.;.R R R Y H R Y T D - j w D R D Y Y z l 0 :.;.N C U T +.o.=.R =.o.R R | ..=...=.t.t.t.t...! ! t.! R ! u.t.t.t.U R R R C R t.T t.t.R +.+.D D =.y.v.R ..Y R N ..y.| -...R } ;.i.3.......=.R U ..R F R ..} } Y m D Y F Y R R R R R R R =.! =.Y } Y ....w.t.! } t.=.Y ! =.....Y ....R ....t.=.} ;.G R =. ...-.f.=...=...} ..Z Y F : 4 z N } T T R L U T W Y m k , 4 z B Y Y m T N L R Y F Y Y F R R R Y ..| w.Y | } ..} ..y...! ..U =.=.R Y D Z X.=.=...| R } y... .R } | &.t.} } =.R ..W ..W w.Y j R U N F W D R } | R Y  .} ..W L B N B D M : 6 0 j D N N D z B D l m o m  .N N N N N D L | U N } } X.w.| N R W w.W R W X.` -.} } ....| | i...|  .Y ..H  ...-.f.} y.=...b Y ..f.........R D ..R i.-.Y z T F T L U U l & ",
"- i.y.R | Y Y Y F } } Y U U b D l , j b D z D M D H Z G b O i.Y z G 0 m Z F Y | R D Y D R Y R =.! R R ! =.t.%.d.| =.! =.+.=.t.=.;.=.R G D R =.+.Y F ' 0 X 4 j m m D R Y Y R G : } E.| H R R H Y G | S R H ! =.R R t.R | R ....U ..T ....%.Y =.%.R ..R ;...=.| =.| =.y.R +.D N =.=.| =.=.=...Y ;.R =.D Y b.....-.=.w.y.t.=.t.t.u.t.+.=.=.| ;.%.R =.Y o.R R D Z = , b Y R R Y F D 9 0 x.=.b R T =.R G Y R ! =.| R =.} ;.=.y.=.t.t.y.t.R t...=.R ! p.t.=...U Y T D U N T R R R +.+.O.T U y.y.i.F t.R R N } y.X.-.} ....-.X.=...&.y.y.R T ..} X.Y ..D Y Z Y Y F %.Y R R R Y ! Y ;.=.R o.Y Y } y. .y...Y ..T =...! ..t.&.H -.R Y ! t.Y ..Y | =.%.:.&.&.;.y.| Y X.t.t.} X.} N : k F y.i.j.k.k.k.i.j.i.f.y.B k 0 z Y L D B Y N Y T m Y Y Y Y R ..W ! ..} | | ..R ..R ..X.R R R R +...R t.Y A ..! Q =.=.Y R Y &.Y R | X.....=.-.Y Y ..W W ..Y N j T Y Y F L R W R R Y w.X.g...| W Y B G Y D , , 0 z N D D z D M b c b , n  .F N N D b D N N N l Y W W W w.R ..} Y ..F W R Y Y X.....} | | ....X.R 4 & , j f...W ..d.=.Y c y...| i.....R B N R R y.&.Y R L N U L Y N b ; ",
"O &.y.R ! Y R | :.2.-.F l U Y D k & q z D H Y R S %.+.T m & ;.=.C G H Z B B D Y %.Q +.D B D G +.W C T p.t.t.| %.;.R ! R Y =.=.;.+.=.! b C U +.=.+.R U 4 O 2 0 n k Z R U Y G F * R.K.F | D Y G Y Y D D Y G T U U G ..W ! U =.! =.Y T ....o.! =.R =.| =.R =.Y =.t.y.;.;.=.F F D | -...%.=.| R | =.=.| D R b...R t...s.! =.=.t.=.t.o.O.y.=.t.y.=.Y Y ;.R Y =.R D - q z b G R C F N 9 0 g.Y U U D U Y R R R %.R ;.| R T ....| Y U R ! W ....R T R ! ! =.=.t.H H G R Y N T ! R +.+.Y R ! G t.t.a.R ......R N -.=.:...} &.y.-...=...:.y...R R =.| } =.R R R } ' | R D G Y R D ..Y =.R R =.! T Y F Y ..! ..T X.=.i.R =.R ..N Y m D T D D H H Y X.} =.&.;.y.g.;...=.=...Y Y Y Y - j 4 N U U L N ! E L K c l z , j N L N Y R Y Y R N N Y F } Y R Y Y R &.f.....-...} | Y ..N =.} D U R R Y Y Y ..T R | =.=.;.Y | R ! R } ..w.R R H F R Y U T N c Y ....R Y W w.W T } ..} h.X.F R T U Y R Y Y * - j z b m F U G N b D b * N X.N | N z 0 m W N b j N F | n } Y Y } ..Y R | R ! Y Y y.R Y ..W .. ...4 4 ' b.R } } ..w.| =...l ....y.y.R R D R N R ..X...Y ..U U N Y U Y b $ ",
"+ i.;.R R T T &.x.v.&...Z l C D 0 : , b C A R G Y R R D b O =.! b D C D t D Y Y Y =.R D U U D =.Q R ! t.t.! R =.=.=.R R R R +.=...! R T C D R ! t.+.T - : 0 m j m ` ` N B F - y.!.%.Y H z G R R | R %.H ..=.R R R t.=.! R Y ..Y } ..Y w.+.=.R R =.F ! =.%.....R =.%.i.=.F l G :.%.! =.| -...| ..=.=.c R Y.=...=.=.! t...+.=.=.=.o.=.t.=.+.=.=.=.H R T H o.b b * 4 z D D D D F D k j g.Y Y T R F R R R R Y =.=.R =.Y | ..=.Y Y ..! =.R Y Y Y R Y =.t.R R R Y o.Y U b T ..+.R Y R =.R o.Q =.i...R =.R m T ..a.-.-.X.;.t.t.| | ..i...t.R ! R t.Y F =.| | H Y F R R | Y Y Y %.Y =.Y R R t.R R G R R ....W y.t.} ..y.! ..R R k R ..Y U | R | ....;.=.-.f.y.....=...T ..N F Y 2 , 4 z b L T W E W b U N l z j 0 N Y U T N D N B b Y Y Y Y R R } R X.=.....y.....y.....R } ..=.F D +.! =.} D N Y Y R t.=.=.=...t.! ....X.t.! R } ..Y F R } k Y } Y } T R ..Y L R ..R X.J.| F R B N U | Y D - 9 9 k D D F m U T Y D z 6 B 2.b N 0 N D k N k n n c w.Y W | | L B R | ..L W R F Y ..=.-.| y.} Y Y N m &.h.g.0 ..X.| X.R ..& R ..w.y.} Y | D b D } X.W R N N T N U N D l : ",
"& y...T =.! N &.i.&.=.F N , N D 9 : 4 b D m Z Z G R Y z l * %.o.b D T D M w Y =.y.+.R l R D T U N L N G t.R | +.W T T O.T b U D Y R R C C U R =.D G 2 & & j b m m | F D F z O v.h.m } Y D G =.! | %.%.F ..R ..R | H ;.R T R D ....R =.=.Y R R R G ..=.=.R y.=.=.y.y.l.y.Y D Y | D Y Y R ..| =.=.i.=.N } P...-.-.=.+.=.R u.=.=.=.=.+.y.r.=.t.;.Y | o.R =.Y 7 , , 4 z N Y D Y Y D 9 k g.=.D Y Y U Y =.=.R =.=.y.+...Y T ......R w.=.=.R D Y F F R | =.Y ! R R G R N U Y T Y Y G +.u.T W u.=.;.;.| ..! N R ..y.y.=.-.t.=...-.y...R ! R Y =.=.=...Y } | R R F | %.R R | ! ..| R i.R =.R =.=.Y ! W U ..} =.i.:.R -.R =.t...R l ..! ! =.=.y.=.! ..=.t.t...i.....T R ..D N R n : : j j ! W U U E U U U U N 4 j 5 D Y U Y F N N Y n B Y B R R T =.| =.-.w.t.....=.Y =...R | | =.D R R =.Y ! R F R G ..=.y.| | Z y...q.R } y...} | } R R W ..z } ..| } R R U R L T W ..-.g.} R L Y U =.} D Z & , k l D D U U R R F b l : m X.F N Z z D B z m z 0 b R Y F Y L F Y Y L y.| } B R ......R ..F R U H :.| 3.A B R Y w.W W w.X.& N R  ...U ..R F B W Y X.} B Y N ..R N L B l : ",
". ..R U R T l Y } R G m z , D m j 4 9 m D D Z F Y D Y T w * =.=.+.=.R Y Y Y ..=.=.T b l c j b l j l N Y t.Q y z j j j d q j k l l z b l 9 T Q H R m : & 4 N N z H F A D D * Y !.=.F R =.D D +.%.R o.%.R ........Y ....R T =.+...! ! =.R R =.R R ! ....R =.=.=.i.=.+.u.t.Y D R =.R R R ..=.:.o.:.=...D Y U.=...R ;.=.+.=.R =.y.=.y.=.y.=.;.=.R F R R Y F D 0 x - j z D B b Y D D m j :.R D U F =.=...R R =.o.R +.R T } R ....t.....! T R ! R R R R =.....Y D D Y G U ! D o.! ..! Q G U t.y.x.=.Y ! U b =.=.&.:.} } y.y.=.y.=...=.=.Y Y R | F R =.H R Y R =.| =.Y Y G ! ..R R G U T R R Y F | ..U ! R | ....! %.=.R =...} D =.R ..! =.! } } =.} T ..Y | ....F Y =.F Y } j : = 6 0 R W L E R E ! K E b j : 0 D Y N Y N U U Y ! B Y R R R R Y Y y.=.X.X.! } Y y.=.| U ! R t.G Y +.R R T R R =.T R D =...Y | Y R ! ..T R T R W Y R Y Y N R ....w.} R Y ..Y ! W | T }  .| R T U T ..T D D , 9 z m b U l N T m m R z & Z &.N N D D b 0 b B z j c N F F W Y L Y L Y R N W L Y R D Y } R X.} } B b.v.- q G  .N ! ..| W ..& N }  .Y ..R R N N Y ..Y ..Y Y T Y T D z U m O ",
"& &...b T U N l B b N z m , C D , 9 9 z 0 H T T %.o.R T D , %.:.y.u.R %.=.=.t.t.Y U l , , 9 9 4 , j U =.t.R U l 7 9 , , , , 6 , , , 9 7 0 T ! m R G + = - l U N D R R D b + b.b.D T R =.Q D =.=.%.R R X.=.t.=...| ..R R U ! t.R =.=.R Q R o.=.+.| T t.! t.t.+.=.+.y.=.! R D D | R T ..t.| t.=.=.R ..D ;.Z.=.....=.+.=.+.+.y.=.+.+.t.;.;.R =.+.| G o.R R F b l - 4 k N G G Y Y m 0 l :.} T R G R R T Y T U R R T N R W Y ....w.! R ! Y H R Y R =.=.%.| R G G D U U U H T o.U R ! ! U C +.+.:.! Y R q.D R &.i.f.=.} ..=.-...y.| =.Y , - B y.=.} D D z H G Z D D z l D D D U b b D D m D C 0 m N k D b Y Z B z D C n b N z m m D m m H 0 z Y F B B N B m N B m m N n Y B k , q , l b ..Y ! U b U L b b m j j N Y L N U Y L R | B Y Y T ..U ! Y t.&.i...=.=.R t.....t.R t.=.b 7 l w l 0 b k b l z j j l b z z 7 x 0 9 j 0 k c N z k k j ......w.R ..T ..R R Y ..R m  .Y R U R T R B Y D - 7 z m z D N U b D D z w = A X.b C b M l z l b 0 k z N U Y F W U U z Y ..L U W R B } Y Y U Y R Y B ..x.g.R X.} R R =.w.} B : m F ` Y Y ..} F N U W W R W R R Y N b T D D - ",
", ..R U N U Y z 0 k a j 0 U D N 9 : : k m F Z H R R =.D j 0 C T U T R D Z Y T +.G D D l l b b D N Y ! =.! =.Q R D b j z M 0 w w b m b D R Y Y D U 4 : : 4 l D D F D U D - } Q.;.Y R R t.R Y =.%.=.R Y ..&.} ..R ..=...| R ....=.R R ! U +.=.U R | Y =.=...=.! t.=.t.y.=.T Z D } | R ..-.y.y.i.O.! =.D | P.=.=.t.=.=.R T +.;.=.=.+.Q o.=.%.=.=.} R T Y R H 0 q 6 0 N N D U =.R D 9 9 f.=.D B R R U R Y U N G D G N U W | Y T U R R U Y R ! =.! R =.R G D D R R R U ! G Y Y =.Y R R z D t.+.y.+.=.R ..N R y.:.:.} -.......=...=.;.N = & B %.X.z , O 0 ..&.&.%.&.-.X.&.X.%.%.%.&.:.-.=.%.:...:.R ..| t.-.y.-.-.:.| :...&.-.&.-.-.=.| ..&.f.&.:.;.2.-.j.y.X.a.i.| f.y.&. .Z & , 9 l z T W U ..U L U U c k 4 k m Y Y N Y L Y F Y Y B B ..Y ..} ......=.R =.! ! R ..w.! R R ! w , : : & , , & - , - & - - : d : O : = : : & - : * , 4 : B ..-.g.t.R W Y T t.W W R R Y F ..U T U R W R U D : , k k Y N N Y D R U D 9 d w Y m F z z 7 6 , : = 4 z N N W Y U T W L Y T E Y W N F Y R R F Y F F F F Z | } Y R } Y ..B R L * z } Y } D m Y F b U L ..R Y N T W U U m R z * ",
": G D D N N N U k j j k z F R b , 9 4 l z m G Y H R Y D l 7 , , D Y R T T T T T Q D m D U e.U R U R ..Y ! R Y Y D R R D H A F H Y } Y Y ..=.! U + - @ & q b N b D m 0 n : b.P.A R ! Y t.o.T D T G D b Z D G D D N R | ! R R ;.! | =.Y R +.=.G T =.R | Q =.=.R y.t.! s.t.T N G =.%...} X.;.d.=.| =.y.Y ;.Q.=.=.;.R %.+.D ..y.=.t.+.R d.R +.Y %.R R =.T Y R 9 0 - : z D T Y F G b 0 l 3.F D D H b R R T N R Y b Y R Y T R R R T | R Y Y ! R Y Y Y =.=.! R T ..R =.U =.Y ..T %.! Y =.G U u.=.d.R =.=.} B R =.&.=.Y } -.=...a.} =.=.Y , & D } } w + F Z g.c.c.c.3.x.g.3.f.g.3.:.:.h.3.h.:.k.h.-.f.g.g.h.g.b.k.k.k.h.4.f.h.v.b.c.f.f.;.g.f.b.c.h.k.b.b.k.k.j.V.j.y.g.:.h.2.X.& : 9 b N U U U R T U D Y D l , N N n Y R ..T Y | ....| R R w...W | ..W ..=...! Y R | | R =.R R N ! D ! ! R U R R D } Y | ..Y R R R F Y R ..Y N Y T Y T =.R =.=...Y | W Y | | W Y Y w.Y z W R ! W ! Y W T | & , 5 U U L b D N D U N j = Z ` N Y T D 0 9 0 , j k m D Y U D N U W Y D U U R T Y N L R Y | R R H Y D M N R Y Y U Y F Y B b + D D F } R b Y B c Y Y U U U G B N D c R D k : ",
": z k z D N R N N N N Y G U b & 7 : - b D m Y G R %.G C l 9 9 : j z b l b l V b b j 0 k 7 b C b l l D N b 4 b l l l z b C z z z 7 b k z b l b , , , : * 9 k N N N b z * Y Q.&.D R +.R Y D C R Y Y F D R T G N U ..! R =.| R F ! R =.o.! R R ! R R Y ! =.=.=.t.y.t...t.=.T G Y :.=.| ;.=.;.y.| ..=.t.D ..Q.=.| y.R =.=.D ..t.=.i.;.=.=.u.R =.o.R U R G Y Y m z : 4 b N Y D R Y B 0 b :.G Y N H Y R Y R ! D R R U U ..Y Y Y D ..W R Y R U Y | R R H ;.} Y -.} :.R Y R R o.Y o.=.R =.D R =.t.l.y.+.| R F Y =.} :.} ..-.t...i...=.y.Y , : N Y | R , z X.%.=.-.=.| H F Y R Y =.=...F F | R Y Y N N T ..! R ..Y R } Y } ..! R Y Y Y F H | =.Y } =.=.R ..} | t.W w...L H ..F N : : j c U l U ....R L N N b l , j L W ..Y } R B W } } ..Y R ..w.R | | | ..w.! ..=.D W Y G Y R F =...T ! t.t.Y =.!  .} Y } y.f.=...X.X.W ....t.....R T ..t.....| R ..W Y ..W W R ! Y | Y N | ....R W R R R Z : , , b D N T Y U U D D z ; B 3.b B Z m m 0 B c B U D D Z Y D N N D 5 U Y | Y Y R ..U W W | B Y } Y D M Y R U F R Y } Y D U , D R ..R R R n N k Y W T D Y N N z N b D D Z : ",
": : 0 & , 0 j 4 4 9 , j 9 6 : 4 - * j C D H o.R o.G R Z H C j , = & O + O + * - - 6 = & , : @ * : - : - - @ : O - @ O : * * + - , : - - 2 - 7 6 7 : , , j N N U G D z O n.n.m R o.F Q U D U =.Q D | Q R Y Y =.! ;.| =.Y ..Y Y R Y Y =.R =.T +.Q R +.Y ;.=.+.i.=.=...d.g.Y b F =.R R ;.Y Y | =.R ..R R | R.y.Y ..=.=.R C ..i.! =.=.=.+.=.R R U Y Y R U R D w 9 * 7 q z F U Y F N 7 D b.Y Y G Y R R =.T D U D G U T L D Y U U Y R Y D G N Y R Y =.G ;.-.H Y y.%.| H F Y F | =.} R R U R o.=.x.R R Y Y b %...X.f.R -.-.=...=.y.=.=.F 4 : D T ..H l N -.} =.%.| :.Y } } ..Y =.=.=.H &...Y ;.| } R ..Y =.&.y...X.} A R  .R t.} ..T =.Y } =.-. ...w.X...| ......B R ..=.....B * O 0 c W L N W R W T U b b l : j N b N D N N B ..L W | N ! U T Y W N L m w.W ..=.T Y Y Y R R T t.w.T ..R R N N =.Y } R } -.i...w.y.| } ....i.......=.........t.! R Y Y W Y W R W Y } W W ! w.Y q.w...Y Y Y - j l N U N D R N U m D N p B &.z m m z b N U T U T N Z D F D U R D m k m T W R F B b Y ..F G D M Y F G D Y ..} } Y B F T b : N Y } } m Y Y N n R ..R T Y Y D N D U U G z , ",
"& & = j 4 4 - , 9 j : , : , 7 9 d j q D o.R R H R Y H R D D b 9 6 , = = * * o 6 & & * - - - : & , 6 , , - , , = , - - 6 : , 7 : , j 2 6 , 9 , 6 - - 9 j j G L N k D O Y !.&.R R R F Y D D P Q =.! R =.R Y | t.R R =.Y ..=.| Y R +.R =.! R ! ! +.! R =.R t.t.y.=.....s.=.Y B R R g...=.R R =.+...Y ..R Y R.y.=.=.t.y.=.C ! o.=.=.R =.R ! T H R Y R D D D C 9 l 9 j 9 z F N Y F D - z x.H F F Y | R Y T D D N D H T F R R R Y Y U Y ! =.Y H Y Y F R } R ;.i.| H ' } T U Y R | R R R T U =.y.+.=.=.%.| D F X.&.:.} } } =.R &.Y =.=.Z , - D ..=.| Y R } Y N =.i.-.;.Y } %.T Y Y | =.} } } ..B L =.} %.! } =. .....%.} ....X.} } } } } Y w.y.t.R | | t.=.| ..t.U R t.=.Y Y R * - l k N R U L Y R G D b j j 7 j Y b m U B U } | Y F Y T B } R Y L | Y R W F W ..R N t...R R ! ! R ..T R R Y Y ! =.=.! R i.=. .i...y.Y y.y.} ..........R } R ..t...=.R R Y W W Y F Y Y | Y U ! W W W T R N : 7 9 D N U D b b U D F k j N ..Y D Z Y ! U U T U U b B m D N N G H R Y N N U L z m n z c E Y B U Y R F Y H L Y F Y Y } Y m a n N  .B m B N L z m L Y T D T D D D D D D k O ",
"& : * - - * , , & : , , , - , : l : l G =.D R R R R =.| H D D C l 7 j 9 , 9 0 0 6 6 7 , 9 7 x j 7 , 9 9 9 q 7 0 - , 9 , l 7 j 9 0 0 6 7 k , 0 9 , 9 C j z b b L N b O b.n.Y | D H b G R U b =.+.! =.=.R =.=.T U R R =.R d.=.=.! R ! +.+.Y =.o.;.=.=.=.t.+.=.o.| ..R t.w.Y G R y.=.=.%.R R Y =.+.=.;.Y =.K.=.+.=.=.=.Y Y R =.+.+.+.=.=.R Y Y R D H R R T H 9 9 : , 0 N G D D H m 0 j -.| G R %.o.o.Y T R H Y F U ..} R T N T R T R G H R | H D =.R R =.;.-.R ;.H ..U Y Y F H R Y T ! Q =.=.;.=.R | R D Y } X.3.| } | ;.} | =.' | Y 9 - Y ..=.=.R U Y ..} | =.=.:.R |  .| Y } | F Y } | | R ..| ..R R | H | ;.H ..y.} R ..-.X.| X...=.t.=...R } } =.R t.t.! U R u.R Y Y z , , 9 b T U b U U D D D K N l 9 q N N F Y Y } W R | | w.| w.| ..} | Y ........w.w.W | R } ..t.! ! R T U ! w.T W R R ..R R t...&.-.........| ....| Y W R =.=.| Y R ..=.R ..U R W w.W Y ....Y R ..=.! R Y Y Y : 4 l z Y D z b D D Z D z 4 , b U b D U T U Y U ! R D D D D b F D N D U T U R R ..k ..D D T Y } Y R R Y Y F | W Y } | ..Y T z F Y | W R D R N 0 U T H } Y D T N G L U T 4 & ",
"6 - - : - 6 > , 4 : & , 4 4 , 9 9 9 l z G R G R R F Y | R D G Y D k D b D b b b Z l l D b 9 b D l b C C j k z z 0 w m 9 0 z l B D q b z z 0 z l , 9 b , l U L b l , F R.%.S H R Y T R U Y D +.=.=.R R R T =.=.=.R %.o.R R R =.R R R Y R =.=.%.=.! R =.=.;.%.Y R } Y a.=.Y D Y H %.;.R D Y t.y.+.| =.R ;.U...=...! =.! G =.! =.R +.o.T R R +.T R R Y T D G z 0 - , 0 z D m Y H b 4 l -.Y Y R H Y =.=.Y R Y R ! =.T =.R F ....U R ! Y F R =.F Y R =.R =.=.| :.| } =.R D R R R R T T R R y.%.y.=.=.o.=.m } | %.i.} } =.=.| ..%.| | D 9 7 D N R R N G H z R =.;.} ;.%.| | F %.F | } R =.%.%.=.....R ..} | X.|  .' %.} R =.y.} ` A Y R | =.i.} Y | ..R ......=.! =.y.;.R ;.F - , , : , 4 & : 4 : , : , : - - j Y } F F ..! R L | B ..y.Y ....| w.w.t.....Y w.....W R t.R ..a.+.! ! R W ..t...| Y ..R =...R X.W Y ..| | ..-...| W ....=.| | =.....| U U W R R N W ..w.......w.t...Y Z Y B O - 4 N T N N m m F Z D z 0 , j k b b D D c C b x b U D b D D m m m m b b Z N N F D B L m m G z D U T B m B | Y R Y R T N N : z N m N N N D c x z b Y D D U N D N b N l X 0 ",
", & , : j 9 , 7 9 9 j j j l z l l j l Y Y Y R R H G Y T D b D G G Y C D b D l T G b b l N Z z Z m b 9 D T U N z H H D D R m G F F b b Y b F D m q v b 0 k Y Y U b * V.Z.M H D H Y Y o.! +.R t.=.R +.! R ;.=.%.=.%.=.Y T R Y =.U | Y ;.=.+.=.R +.+.Y ! =.=.t.=.=.....y.=.%.D G | %.! T R R o.! t.=.t.D R W.=.T =.=...=.=.=.=.=.+.R o.T R Y +.! ! R D G D Y l z & x 0 m N F m D m j 0 g.=.} H R R | %.R R R Y =.R ..R T Y Y R R ..R =.Y R R Y R | R =.Y =.=.| | =...X.G H %.| =.H R R %.y.! =.%...R R G T =.%.=...Y F | } ;.| R } } X...Y T U ..T Y D D =.| R %.Y R %.%.R H X.X.Y } R =.=.-.-.R Y ! F F Y Y %.| =.} | Y } } .. ...} R -.R -.....-...=.=.} =.Y G ! | =.=.H - O : * , : : 4 - X : , : + O : - B n A ..Y ..T Y w.X.....} | W } R X.X...T ..W w.w.R | =.| R ..! ! E ..w.....R ..W ..Y ..;...X.y.Y R R ..R ....R ..! ....R ..R R Y R L R U T Y Y W R ..Y t.! ! ! R Y Y F Y 2 4 l z k l z b m z G b l l : ; - * & , + = - O = : & , - & 6 & : & * - O : = : O O & X ; : : : : : & * ; & ; : , = a 4 4 j 4 : , - , ; : & & = & & , - & , ; * = = 4 , : 4 ",
"q : , , 9 6 6 x D 6 b l l l b c U j j N R o.Y R D Y o.D D D D R Q U D D D U U N D F m m D Y F F | H F Y R D D Y Y +.+.Y Y R ..Y H Y H Y F b U m 0 j P j 0 D G N j F ).i.F R R Y Y Y G Q R O.+.=.R =.R R Y | ..Y +.T C b G D G R | R ;.| =.=.=.=.=.=.t.=.=.! =.=...=.;.-.D z H +.T ! R R Y =.=.=.R ..G } U.=.=...t.+.t.! +...e.=.=.R o.+.Y R Y U Y Y Y G Y l 0 4 k z m D G D D m 4 0 y.| Y | | | R H R | R Y F R } t.T Y ..Y ..| =.R Y Y R R Y Y +.%.F | ;.=.| F R } Y R R X.%.y.o.y.o.R =...R =.G } F R ;.R =.X.X.=.| H ..| } ..} &.i...-.X.=.R ..+.R =.=...=.R %.R +.&.R =.| | =.;.=...}  .R } Y ..| Y ..} R F Y R Y } X.=...Y R R R } ......;.=.| %.=.;.Y F =.=.%.=.Y : 0 9 0 b T c N b l j C V l 7 , N z Y Y Y Y ! ..Y Y } Y Y w.| w.R | w.} ....} ....} ..y.b.j.g.y.t.p.a.d.d.i.j.d.w.j.i.d.i.g.i.d.g.y.t.y.j.i.g.v.b.y.t.j.i.y.=.=.y.g.t.=.y.d.j.X.g.i.y.i.a.t.! t.! R Y Y Y F * : , N B b N z m l b b D z 0 j 0 , , : = 6 , j 6 , 7 7 : , 9 2 , : , - : + : & * * : - 4 4 7 , 4 4 , j j j 4 : , j , 4 , j 4 j , , 4 a , 4 6 9 : : , 9 , 4 , 9 = , 4 : : & ",
"4 , , , 9 , x N U l b m D b C D U l : & , l - 4 4 - 7 , 4 9 , 9 : : 7 b Y C D U Y Z U b D Y R D A w Y ..H D F ! %.R R Y R R +.=.D U Y Y R U D N 0 9 z b 7 : , 7 O Z.U.N Y Y U D Y Y +.R o.R R R Y t.+.=.| =.y.%.R D D ! Y R ..R =.R Y R R y.=.=.+.=.+.! R ;.| G ..R g.:.Y m D | ! R =.=.Y =.=.Y Y R G R Z.G =.=.=.R t.u.+.+.t.y.T G D R | R t.U U U Y T N N 0 , 9 7 m b D F D z 7 l f.| R | R =.R =.Y Y ..Y F R | D Y R | R R T R U N Y R R Y %.;.} | &.| R H Y F R Y =.%.| R =.=...i.X.-.......R ! } ....=.X.X.H =.Y Y ..} } X.+.z 4  .f.i.%.z b ..| =.=.=.=.&.=.&.D ..;...%...Y -.=.=.} X.=...| Y =.:.Y F =.Y B b Y } } } | | =.R ....| R | %.=.=.y.i.i.Y F ..} =.=.H - , w b U R U U U C b m 0 m b : l b n F n a c W L c L L | ......L Y } W Y } F W L | ..w.i.f.i.y...y.d.a.i.t.i.a.y.} ..y.=.=.y.y.y.;.g.i.x.:.v.i.:.i.t.t.y.y.y.i.i.j.a.=.y.=.y.y...y.=.i.i.=.=.! ! R | Y Y Y & a l N G N D N 0 l b D D N m 0 q 7 j 7 l j l x 4 l k l N z k 0 a p 4 : 4 : & , = k 0 b z a j b z z b N D m c b z j a c n a N U l b k z j x l k l l B N l b l , * j , j 4 ; ",
"j : : : l 0 c N b D D z V b C D D v b 9 j j 6 q j j l z l 9 4 x = , = x D D G T R T D b U b G T | G Y %.D D Y F S H Y F R %.=.=.F R +.G B G R l w l b j j > 9 : t.Q.R N R N D D T =.T R R | G ! =.R =.;.=.=.R =.=.R R R R R | =.=.R R =.=.=.R R +.y.+.=.y.+.| ..| =.=.R G b z R ..%.R R | X.| Y | } D R b.F R %.R R Q +.O.;.+.D * O : m Y R U U b T R U ! j k 4 : j D D D m z z 5 j x.R R R R Y %.| R | F T F F Y ..Y R L T B R G R N Y F } H Y R } H -.=.X.Y R =.Y ! X.=.R | =.=.F =.=.;.&.:...R } Y } R &.%.} X...| | } Y Y Y R k , Y y.&.=.z D ;.;...=.;.y.=.} ;...| %.R =.i.=.;.:.=.-.;.y...i.t.:.! &.H ..Y B | X.} Y ..} } Y R ....| =.R -.=.=.=.=.:.D F X.=...} | O 9 l b U U b R b b b N 0 z l j l N B } | | ....| L ..| | W w.} X...W } } ..Y T Y .. .y...N Y R B ..Y ....U N F Y Y F F H N Y Y R Y Y R +.R =.Y Y ! Y T T W Y ..R Y ..R Y U Y T R ! T F D R | =...=.W Y W Y 1 4 l b m D b U b D D D b D D z N b D b m j D D z N U b U N N b l 4 m , b , 4 , 9 l D D W U Y N N L Y ..R Y N U N N N Y L Y L Y Y N U D U N m D b U L U Y U D 0 b l l 4 9 a ",
", ; , , z j j l z 0 9 b z 0 l l b b z 0 7 l z D G D m z b w C c b l 9 l b U b D C D 0 D T R Y ! R R D R R G U Y Y =.R H Y %.R t.D R U D F U D j 9 k D b 4 D D + K.b.D F R Y G U C H H T T +.o.Y i.+.=.R ..=.=.R =.N N Y R ..X.R | ! =.R =.=.} =.=.=.+.y.i.i.i.y.y.i.y.G 7 0 P =.;.R ! ! =.;.=.;.! =.D ! P.! R =.| =.R H Y | Y 9 7 H g.j z G Y } G Y U R Y z l 2 , 9 z N b G B z 7 N i.} D H F %.R R =.Y Y Y G Y Y } Y R Y Y Y R } | Y } F Y H } &.| H %.| =.o.%.X.| =.....-.Y R R G F =.;.:.| =.| R D F } } &.| ..X...Y | =.R R R B = } =.=.=.N Z R ..Y Y | ;.=.R Y =.R R Y ....=.;.;.:.| =.=.=.:.=.-.| | =.| =.R Y } | } B } } R =.L | =.} X...%.=.o.| ;.H D | &.....F * 9 9 b P U W P c U b z m z z , j Y Y F Y ..Y } ..Y Y | } } | } X.X.Y | | | L } } | X...Y R R Y } R R ..R Y U T ..W N R R ! Y F U U U R Y R R R Y Y R R R R D ..Y ..=...R T R U ....U Y Y U ! R R ..Y Y ..Y = : 7 b U D T U U Y C l D D N m z F D b b ! ! U N U D T ..N R T j j k - q , z 0 z D U Y Y Y R ..R ....=...} } ..Y B D ..Y Y ....U T U T R T Y N T R R Y R R Y D k b b z x 4 ",
"4 : , 4 k 4 l l - : - : = - - 6 - + , : , = - * U b - : - & P b b j 6 b D T C T U U D T U U R R T D G =.R Y R %.%.R } Z Y G T G R U Y D z l D l l l C l 7 :.&.H c.D U %.F Y R U Y Y R +.Y G +.b R Y R =.=.=.=.R R F U ..! U T | ! t.=.=...=...=.R +.=.=.d.i.d.g.i.y.:.D j 9 U R =.R R | ..t.t.=.=.y.D ..n.R | =.Y ..=.%.R Y Y j | H b.Y V R Y =.R R D Y D k 0 - , 7 0 z b C N l 9 k -.} Y R Y Y Y G =.} R z l D T &.} W Y B N R Y Y Y Y Y Y R Y D %. .Y %.| %.=.Y  .;.H X.=.-.=.=.D ! s.=.y.y.| X.;.D F H ;.:.R =.R ..| | :.&...=.N & U =.s...} F -.Y R -.X.F Z Y Y N T R R | Y | =.}  .X...;.} | y.=.} | =.=.=.....Y | } w.W L R ..} Y R =.&.g.=.R y.=.:.Y Y y. ...X.F , , 6 D T P U U U C l l b j j j 4 n R ..} } Y | ..} X...} } X.w...} B } ..X.} w.Y Y X.-.Y Y } R R R ! W Y U U U N U U Y U R Y R U R W Y R R Y U H =.} W T R ..R ..T ..T Y R Y } Y T Y ! =.U D ..t.R } ....} : , 6 D T U T N b N b D D Y b D D Y Y R R U U W T N D R R T R N x z l , j j k z k G T ..R w.w...T ....R ..} } ..R Y ..R | | } W W W R R D B N Y R T T R ..Y G F 4 l j j x , ",
", : : 9 k 0 j D l l b z j C b v z b P D C C C C o.D V C l v c b v , q D T U b D C D G T Y R ! Y Y G D N D Y Y R F | Y F R D Y Y U U C b z z D N l j U b 0 B : j.b.D | Y D H G Y R R Y Y R D , * * 7 R =.+.=.R =.=.G F ..R R R T =.R =.R Y D ! =.%.=.=.Y =.T ! T Q =.y.T D C R R R R o.=.R R =.=.R t.D =.b.T Y G F R Y Y R T =.g.Y  .F b D H Y Y Y Y Y G F F N : , - z D N Y R N 0 v 2.} D F | ' F N F =.D , O & 7 Y H F Y D } Y R R F D D R H ..F ' Z X.%.| H =.Y &.;.} =.| =.y.t.! o.l.d.b.%.=.Y R Z R %.=.i.R =.Y Y } ..-. ...y.k : F =...=.F F ..Y =.=.=.X.| B ..N N U R ..} Y F | %.:.=...Y Y Y Y ..X.G } -.X.F Y R X.R R Y ..} W | ....| y.R =.} ..} U D =.} } ..N & : l l C b P b D U c b U 9 9 q b b D F L F Y F Y B Y W w.w.W B | } Y Y F ..Y } Y R } | Y Y Y Y Y N Y R U Y U U T L R R G ..R Y ..R R R +.! =.! Y W R ..R ..=.R t.R R Y Y F ..R Y } T Y U U G R W R N ..R Y O , 0 D D D U z b b D D l z m z z Z N N U b D b N N D m Y N T U j 4 c 4 j a k j 0 D D N U Y R Y U U D U ! U R R D } F Y N Y b N Y U Y n L D U z B L N D Y N z N k j 0 x 4 , ",
"4 , : , k 7 , b b b D D D C C R D C G Q T T T T U T O.U U b C C c 9 , D G U C R V R Y G R D Y D U G U U G o.T R R S G %.G F F Y D C C b D m D N 9 9 b z , , 0 I...U R Y F =.R Y T R T R D q - m i.G F =.=.U =.:.R Y G ..R T ! =.! R | t.=.! R R R Y R R ! R W U R +.+.R U R O.=.;.Y %.=.=.=.i.=.%.i.b %.b.U T Y ! Y U ..} R Y b.=.* l G Y D F Y F D | Y G F F X 9 4 0 N b Y } z N j :.| R F Y } F U R R 7 , z h.Y D Y -.Y ! R Y =.Y Y Y Y Y Y Y } Y Y ..| | =.:.Y =.} %.=.=.+.=.=.U T y.;.i.=.=.%.%.F G R =.%.=.=.R ....t.......| z 9 :.X.-.i.F k  .A } F D %.| ..Y U z U Y R R H | Y R Y R  .Y Y | =.Z Y R F Y } ..R  .} Y R | Y R | L Y ....y...! =.R ..T F X.-.X...F X , l c U T U b b T P K b C l a 4 N D Y Y F } W W W } Y } w.} X...} } Y W B F } Y  ...X...W ..R Y Y Y W Y R ..U ..T U ....Y Y R ..R ....=.Y =...W | Y L R T ! ..t...T R } R T U l W U Y Y R R } ..R R ..Y N O , l l T U U N U N m w l w b z z z d & ; i ; = & = , X : & : : - - * & : & * : O : & O * i i x , = * & 6 : : : & j * : , > , : & 4 & & : : $ & & ; O : - : & & O X O , l x ",
", - , : z : 9 C b b U T D D D N G U P T o.I I o.T o.U T C C b b b j - z b Y Y b G G G Y R b R W U R U Y R R R R R %.| R R m G H D D U U G m b l l 7 M j 4 - D V.R G ! D F Y R ! G R ! =.R b H ' g.d.q R ! =.t...! ..! t.R R Y ! ..Y R =.t.! U =.o.=.E U ! T E Q P T =.R T =.o.o.;.;.Y +.R =.;.=.=.R b =.P.Y T T T L ! T U T Y Y l.+.o.H U G R R R Y U ! Y m N : k k 0 0 l Y N N j b y.X.| | R Y } =.y.=.l A &.x.y.9 Y Y R R Y R ;.Y H B F F | D } G R Z Y Y ;.| %.-.F | m Z R +.R Y R =.;.i.%.=.%.=.N U Q ....;.R ! Y R W | F ..! j 0 } R ;.y.B H } Y =.| } H Y R ..U F N D H T Y R R Y Y Y H =.} | | =.Y | X.Y Y Y } Y Y W | Y ....| | Y Y R L G N D U =.=.R R -...-.D : , 0 b D C U U b P P b N b k 4 j U } ....R t...} X...| X.w.} X...X.} } X.w.w.| } w.} | Y } Y } R Y Y | R U R Y Y L W T | R ..Y ....} R ..R T ..R R T D Y R ....R R U D R R Y Y W ..Y ....R R t.T ..R =.} F . , z Z b U D N U U D z 0 z 9 b D 4  .b.c.x.b.b.I.Z.V.k.Z.V.V.V.k.S.L.L.V.P.I.J.W.I.b.b.k.L.P.W.U.U.U.P.P.U.U.P.U.L.P.P.P.L.L.P.P.Y.Y.P.V.U.V.J.L.U.P.U.W.V.P.V.v.b.f.l , 0 ",
": , 6 , k : q b l b C G T R U G D G o.I P o.o.T I P T C C x b C j l j z N z m G Y R D U T T T R T R R D G R =.R H %.H Y H D T R T D T D R U G b 9 j b k l = R i.R R R H D T G D D G Y b Q v.H &.A G T R T ..=.! ! ....=.t.R R Q ..G Y | =...R | +.T T N Y R T U T R Q R U =.Y =.+.o.=.=.R =.y.o...=.b R b.D ! W R T T U U N F l D R D Y F =.| G D T N b D D Z : z N b k 0 m m 0 0 j h...| R Y R =.! t.=.v...:. .Y l R ..} T Y ;.=...Y } D } &.Y R | X...} R Y | } H G H Y } | =.! U D R T ;.| H =.o.Y D .... .R U R N F | ..U L N , 9 Y y.y.i.Y =...| R } } =.X.B Z D T D D Y B R T R H D Y %.;.;.;.=...} ....R | } Y R ..} L Y L ....y.| L Y R ! =.%.| :.=...i.y.a.y.D & : l 9 U c U C b b b N L c l j j L ..w.| w...} L W ..Y } } w.X.W } w.| X.X.| X.X.| | | Y Y m Y ..Y ..T Y ..N F N ..R R W ..X.W Y ..a...! ....R ..T ..U Y Y R ! R ! Y T Y Y w.T R U R R R Y ......}  .R =.Y : : z m b D b G m D b D l 7 l N j c.J.g.x.f.f.P.b.P.P.V.k.F.S.k.V.F.k.b.V.P.P.P.b.I.V.P.L.b.W.U.P.U.K.V.U.U.(.P.V.P.J.I.P.k.b.L.P._.(.L.U.L.L.b.V.U.(.I.b.V.V.P.V.b.k.-., , ",
"9 , 6 6 9 j 6 b V l C V G D C G D G O.T P +.T Q G T C V C l b 0 D j 9 F R G R ! G Y F U Y R U U D T ..U D R F ..=.| Y R | R R R R T D R D D Y G k x b b j = B =.G G Y R D D V D G T R R T v.z.= 9 Q o.T e.+.=.Y T %.i.=.=.Q R R =.R R R R R R R R Y U U T U R T R +.U F ! %.Y R ! R o.=.! ..=...R ! j D b.N U W T L U W Y Y T U R R ..Y D D R | Z G R R b T N & b N z z j 5 m 0 j l j.X.Y R Y Y R +.t.=.F.B.= w Q =...R U U Y =.=.=.Y H Y Y H | F ..} Y U Y | ..} Y } F G R H } R T | ! R :.=.! R R C U R Y X.Y ..} R F Y R B T l : j ..y.i.i.B Y =.Y } Y R R } } } R L T R Y R t.....R N } R ..Y :.=.R R %.R y.R ..Y Y | W W ..! ..R =.Y l R R =.=.;.-.y.=.;.X.-.d...Y : , N x C D b D b j m U N N l 4 b D Y Y ..B W | | ..w...| X.X.X.Y } X.w.X.f.} R ..W X.} L | Y | Y ....} T Y U Y R R D T ..L Y Y U T ..R +.=.R =.R | R ! R Y Y W R T U ..| Y T R R R ..} ..Y ..%...&.Y  .| D O : 9 D b D U G D D U b m 7 l O g.K.X.D D U L N B Y Y T } w.L U T b L L N Y Y m B L B R ..U Y ..Y Y B W B R ....m ....N y...l Y Y =...Y | L K x U T ..R L U N L Y c L w.B 4 ",
"9 , , , 7 , j T C C z C V C l G G T T U P C G C G V C C C C C v b D 0 Q =.Y R Y R G +.G +.Y D T R Y R R Y ..T D ;.R } %.%.H =.=.R T D b b U F l b , N l j = D -.T o.D b D D R R G R T R R G z.u.Q +.D R +.=.+.=.+.=.R ;.R R U R R R Q Y Y =.R =.R =.R R T Y D Y o.R G R Y Y R D R R =.R R ! R R R R k Y b.U E U b ! U N N Y U R U D ! N D Y Y D D Y F Y N N N : n k l j z b : j : m g...F } F Y Y Y y.=.+.v.u.o.....y.R R ! | ..%.| %.=.=.Y Y Y D } &.X.F R =.&...;.%.R D R X.} ;.H R =.:.&.R =.R ! D U Y R ;.=.&...T y...| W Y D : j ..y...&.z =...R &.X.| Y R R Y Y R R W R R R Y T T =.R T } ..| %.=.R H Y X.} R Y | ..| W Y D ..R ! G j ! =.R =.=...=.y.=.=.y.y.=.Y : , l l b b b D U b m l m N l : j m H D Y L W Y N Y F n | } X.R Y Y W Y Y R } N W Y | w.Y Y W ..R W R | Y Y R Y W T T T R R Y R ..R T T t.=.R R =.=.R T R U ! Y Y T Y R w.w.} F Y ..U =.Y R Y ......Y R Y z & : 9 z w D U N m G b D j , 7 b K.:.U ..| =.W ....| ..w...=.w...w.w.w...R } | ......Y Y ..w...w.X.......i.......y.-.w.w.i...Y w...a...-.t.X.R L ....y.f.| ....w.....X...N = ",
": j : , k 9 x D G G 0 b b b 0 D T G C b b C C P C U C C l z D l c l q R G D Y G Y F T G Y R R T D G Y U R R R U Y =.%.H R R H G G D F D D U T C l l D c 9 : | V.T R R R T Y R R R R T G Y T T o.R D G Y Y R R +.=.=.Y | =.=.F ! U U R U o...U U R =.R Y R R ! R R Q R R R o.R G R R R R G Y G G =...j R b.! ! R U L D U U b c R U U U R D D T Y F Y } =.R D m : l a 0 k l m N , : 7 2.R D F R D U Y +.;.y.+.o.D } ! ..W =.! =.Y R R -.=.%.R | Z Y ..g.Y Y Y Y D R R -...T R R ..-.F D | | i.=.} ! R b B G R =.Y Y Y X.w.y.X.U ..U k 1 W ..| } R X.X.H ' H ..F W ..} U N =.X.H R } ....=.R =.R ..Y H %.| R R H G Y ..W Y W W B Y U W R ..} D ....R =.o.=.=.R } R =.....N + = k l U l b 9 b C b l j k 4 , l B B U } ..} } | } w. .Y | } ....Y B ..Y Y } Y } Y | | Y | W Y ..R w.R | Y T ..X.W ! ! ! T R Y Y ..-.t.R R ! R +.R D } R ..T Y U R U T Y R ....R } Y Y R R } =.| ..} D Y l * & 7 j b D Y U b R U l l , 9 b f.F T T R ..Y -...W Y | y.-. ...T ..R ! t...w.R ..} W R R w.....| | Y | ..X.-...y.} i.i.a...Y ! t.i.y.=.t...Y R w.w.h.X.y...........| } c & ",
": , * : 9 7 l C C D C C b b v V C b U T b R T C P V V C v C l V l q 6 D H T G F N G R R R R D G Y T G T T U R D R +.T R ;.R Y R D m U D F G D b l q U c k & R j.R R T T o.Y G Y D T C C D R R R T D D O.=.G %.R =.y.R X.:.=.Y R R ! T R U U D U H G R T Y R Y ! U R U R ;.D D T H +.Y R Y D D D R R b R b.R U T T b R U L N R U Y Y Y G Y C ! U U N Y } Y F k & , j B k 4 k m N 9 9 :...R R D =.=.R =.| R +.T R R ..R | R R ! =.R ;.R Y R +.=.Y F } | | :.=.Y | R R R ..=.} R y...G D =.} :.=.F =...m G D ..=.H | R ..L ..Y W T U m , Y Y ....R z %.H %.R R U T t.U N b =.} Y | R =...} R =...X.=.R R :.=.| R =.W | ....W W W ..R R R Y Y ..=.! =.=.=.;.y.D R ..} ....N o , 9 j l D D b b N j c j 0 4 9 , } } T a.} w...w...w.X.W } } X.w.} } X...} } W W w.| L R Y R R Y W Y R R Y ..F Y Y ! U U L T T T Y T ..=.R ! R T G T W U q.T N U E ..R Y Y Y R T Y ..Y } Y =.} -.t...Y H b * O , , 4 6 k l 9 k j q : 0 l b f.t.D D R R ....| | ..X.R a.....W | t...U ....| t.t.| ..W ..W | W ..w.X...-...y.y.i.X.y.-.....y.i.t.g.-...t.| L ..t.........j.Y ........N : ",
": , 6 & b 9 j C T D D C l b l w D V D T C U v C U C D V G l U C G l q Y G o.+.R ..R R G =.R G D T R o.Y Y Y Y ;.R Y %.o.=.R =.Y Y Y T N Y D z l 6 : b j j : Y :.R D R R Y G R R D T b G R Y R D G G R R Y =.T +.=.;.Y R +.Y %.R T U U D U b b N U N Y G Y Y Y R U D D R =.Y b Y Y T Y Y R o.Y R R H D Y k...U N N R T N G D T U U Y G Y N Y U Y G U D Y Y Y j - 0 l 4 N z N m k 0 0 :...R Y F R ! ..| Y =.! ! Y R R T Y D ..| +.=.R %.=.+.R Y %.R Y &...| } ;.Y &.=.R ..W Y R R } F D =.| 3.=.| Y R b D Y W =.R | E W Y R } W W =.z , N ....W Y D R U  .F ..R ! W R N T R X...=.Y R F ..| ..W ....R y.=.} R | R W ..R Y w.w.Y L Y Y W W T Y ..=.=.....-.} F U ..} ..X.N , , , j D l l U l b b m D 4 l : , R y.} } ..w.W w.} W } } } } W ..} } | } } } } } } W B N k c c k l b N N z b D z N N N l D B l N N b l b N l b b z b N b l b D b D c b b k N N D N D C z Y } =.R R R Z G b O & = : & 9 9 7 , , , , : , 9 j =.R ! R !  .F w.} Y ......w...} ..R ..! R ....y.R W w.R W ..| ....w.....| } | ....R y.y.y...R i.i.....| ....W W W R W ! ..R ..-.! } ..| N : ",
"- , , : m 7 l v Z V C V C b D l z b b D P D b E C C P D V C G V D C j Y H =.o.R +.Y =.R | =.Y o.T D Y F R o.%.Y R ;.=.R o.=...Y Y U D D C m D w 9 j l j 7 : Y x.T Y H R +.O.%.T %.T 9 Y R Y G U D R R R H R Y F %.R G Y R H R R Y R D D ! b z D N D Y U U R D +.T R R U H G 9 R T H F R Y H R Y R | D F b...T D U F R ! G H R %.G Y R R G Y Y U R Y Y T N z , 2 k 0 j l j z j z x D f.} F F Y ..=.R ..Y U ! ! R U L W R U R Y Y R R R =.=.! Y ;.| | ..T =.=.=.Y T } R ..X...R R R b G R Y =.Y F Y =.b U U ..R R R Y N U ..W T ..G j : k T R ..D T w.R L R T L ..W U U D R Y U } t.Y ..R Y W W } =.Y Y N Y ..Y R ..T T ! t.w.W Y ....R Y ..U ....R ..=.=.t.R Y ..y.| Y U = j , c b b U P U D U l N b j 4 j R X.m } w.} } ..w...X.} X.} ..| X...X.W ..w.} | X.W L N c l k N z b a l k l z x k z c l N j l l b D 9 j k z z k z a z z N 0 k z z l N k z 5 k z 0 0 l 2 b ! ..! D R Y Y N + : 7 l N D 0 z b z 9 b 7 , 9 0 9 b D R D R L ..w.R R W ..w.t.R W Y R t.......w.W ....R ! ....w.W ....y.-...y.y...} ....y.w...-.y.y...W R | ..W ..w...w.......=.! ..| L & a ",
"7 l , , z , l 9 V b b D w b b D l C V C l b l C G v z l V D D V Z b 9 D o.S H R o.H G R %.| G G Z T Y D R S R G F } U D R =.G b D b C b m D z D q 9 U j 9 : b :.Y G D D G G D D Y G l D Y D G b D C D G Z Y G D D R b Z H G Y Y D G b U U j k D b N l D l D D G H G H T b l 7 U l b D b Z z D b z D C w 2.Y z D D G D G D b b z z D z b l m D F U b k M k & & k k 0 a n 0 z z z 0 B =.M F Y N D Y U F ....T T U U T N U Y N Y D =.R Y =.=.y.R T | %...=.=.=.-. ....... .} ..Y G ! Y N U Y =.Y ! U U D Y U ! -...| Y R R W ! R } R j = G T } } k T ..L T ..w.W U R U R Y ..Y R R R R Y N | L R } Y ..%.=.H Y ;.=.! ! q.W ....W Y } W | W U R ! =.| R =.| t.R U ..Y } T N & , > j b j b c c b 7 l k x x 5 : | X.F W B } w.a.X.} w.} w.w. .` | } Y w.w.X.| ..} } | Y L F Y U N N R T L Y Y U U T U D U T U U R U F R R R Y F U ..W Y T T Y R R R T b G Y T H Y Y G U ....D U D D Y Y Z & : 4 m N N l k D m z 0 0 & - 9 : , j D N z N B Y T N N T R ! U D U U R T W Y R U Y T R T U N Y R | Y F Y } T N U Y U B R Y Y N N L T W c Y N L U Y D N T D N U N N B : 4 k ",
"- j @ - , : 6 l 0 w 9 9 9 q q 9 7 6 b 6 7 l k q l 6 j l l 9 l q l j q l m D D b D m 9 : 4 k 9 D 0 w z m l b D D D D b z w b z l 7 z 9 7 0 D q l , 9 4 l q , q * . & & O . . O O O * O . X : X & & = * : & X & : , & - * & : : . & & . & 7 & & : * : * * : - : & : : & & . + , + & * O * O & - + - - * * + * * : * 2 : , o & O . * : O - - , * - - * - & , j k n k N l k z m D j N z k z 0 4 m z k B m Y T ! Y R ! b U R N W D Y Y Y R | R =.=.H =.| -.;.t.| %.=.R T =.Y Y B R R | Y D W F ;.Y R R R D R Y } ..R ......F T T T R z 4 : U B R T z R W b } ....Y T R ..R D R R ..T ..Y D N m Y Y F R R R ! | ;.X.Y ..R ........| W ..N L Y U R Y | Y Y D T ....=...Y R R N & : , , 9 x j j 4 j l , k 4 j 4 , } X.L } } } } w.} w...} } } `  .W W ..w...w.} W ..F W N } W R Y W W ..W ! ....U ! R ..! ! Q ! R R Q ! q.R =.y.t.=...w.E W ..! ! ..W W U W Y R R Y ..R ..} D T U U U z D D & * & : & X = & & ; = = = & 9 j 4 : & : & : $ & - & - & : : = & : & : : & : O : - & O : , ; 1 - & : 4 O : - & - : & & X :   & - & & ; , X & 4 & & & - 4 & + : & - O O , 4 5 "
};
