/* XPM */
static char *SKY[] = {
/* columns rows colors chars-per-pixel */
"64 64 135 2 ",
"   c #2C7DDC",
".  c #1D77E4",
"X  c #1F79E4",
"o  c #237CE5",
"O  c #287EE6",
"+  c #2F80DD",
"@  c #3284DD",
"#  c #398ADF",
"$  c #2780E6",
"%  c #2A82E7",
"&  c #2E86E8",
"*  c #2F88E9",
"=  c #3286E7",
"-  c #3D8DE0",
";  c #3087E8",
":  c #338BE9",
">  c #3A8EEA",
",  c #3F92E3",
"<  c #3790EA",
"1  c #3C93EB",
"2  c #3E98ED",
"3  c #418FE9",
"4  c #4394E2",
"5  c #4598E5",
"6  c #4C9BE4",
"7  c #4296EC",
"8  c #4A96EA",
"9  c #449BED",
"0  c #4A9DED",
"q  c #599EE4",
"w  c #539DEC",
"e  c #4EA0E6",
"r  c #47A1EE",
"t  c #4BA2EF",
"y  c #5DA1E5",
"u  c #53A3EE",
"i  c #5CA4ED",
"p  c #5CA8EF",
"a  c #4FA6F0",
"s  c #51A7F0",
"d  c #5CA7F0",
"f  c #55ACF2",
"g  c #5AADF1",
"h  c #57B0F3",
"j  c #5CB2F3",
"k  c #5FB8F4",
"l  c #62A6EE",
"z  c #64AAEE",
"x  c #6AAAEF",
"c  c #73AFEF",
"v  c #72B5EB",
"b  c #7DBAEC",
"n  c #63ADF1",
"m  c #69ADF0",
"M  c #72AFF0",
"N  c #64B4F3",
"B  c #6CB4F2",
"V  c #63BAF5",
"C  c #6BBBF4",
"Z  c #73B5F2",
"A  c #7DB6F1",
"S  c #73BBF4",
"D  c #7BBCF3",
"F  c #6EC0EF",
"G  c #6BC3F6",
"H  c #6CC6F8",
"J  c #6ECAF9",
"K  c #73C2F6",
"L  c #7CC3F5",
"P  c #73CBF3",
"I  c #7CC9F7",
"U  c #72C7F8",
"Y  c #73CCF9",
"T  c #7BCDF9",
"R  c #77D0F5",
"E  c #7AD3F6",
"W  c #76D3FC",
"Q  c #7AD5FC",
"!  c #7CDAFD",
"~  c #80B7F1",
"^  c #82BDF3",
"/  c #89BEF3",
"(  c #89C0ED",
")  c #9BC9EF",
"_  c #83C3F5",
"`  c #8BC4F5",
"'  c #84C9F7",
"]  c #8BCAF6",
"[  c #83CEF8",
"{  c #8BCEF8",
"}  c #93C5F4",
"|  c #99C6F4",
" . c #94CBF6",
".. c #9BCDF6",
"X. c #92CFF8",
"o. c #83D4FA",
"O. c #8CD3F9",
"+. c #80DDFE",
"@. c #8BDBFC",
"#. c #94D0F7",
"$. c #9BD0F7",
"%. c #94D4F9",
"&. c #9BD4F9",
"*. c #92DEFC",
"=. c #9DD9FA",
"-. c #A2CEF6",
";. c #A3D1F7",
":. c #ABD3F6",
">. c #A3D5F8",
",. c #AAD6F8",
"<. c #A4DAFA",
"1. c #ACDCFA",
"2. c #B2D5F2",
"3. c #B6D9F7",
"4. c #B9D9F5",
"5. c #B1D7F8",
"6. c #B3DCF9",
"7. c #B9DDF9",
"8. c #81E0FF",
"9. c #95E0FD",
"0. c #9BE2FD",
"q. c #A2E5FD",
"w. c #AFE0FA",
"e. c #B4E1FA",
"r. c #BBE3FA",
"t. c #C3E5FB",
"y. c #C8E7FB",
"u. c #C5E8FC",
"i. c #CCEAFC",
"p. c #D3EDFC",
"a. c #D8EFFC",
"s. c #D7F0FD",
"d. c #DCF1FD",
"f. c #E3F4FD",
"g. c #EBF6FD",
/* pixels */
"% % & & & = & = : : > > > 1 1 7 7 1 > > 1 > > > : : & O O . . . . o O O = * ; O o o . . o . o o o O O = & % o o . o o o O % %   ",
"& & = = = : : : : > > 1 1 7 1 7 7 7 7 7 7 1 1 > > * & & O . o o O O ; = 3 8 8 8 3 O O O o . . o o O % O $ o o o o o o % $ % %   ",
"; ; ; ; : = : : : > 1 1 1 1 7 7 7 7 7 7 7 7 > > > : & O O o O O O O > 3 w l x x x l l 8 O o o . o o O O o . . o o O % % & & ;   ",
": : ; : : : : : : > > 1 7 7 7 7 7 9 7 7 7 1 1 > > & & O O X O O O 8 w l M A ~ ~ ~ ~ A l 3 O o o X o o o o X o o o o % % & ; ; @ ",
": : : : : : : : : : > 1 > 1 1 7 7 7 7 7 7 1 1 < * O O o & ; O > 3 l c / / / -.| / ~ ~ l 8 = % O O $ O O O o o O o % % & & ; ; @ ",
": : : : : : * : : : : : > > 1 1 7 7 7 1 1 < < : & O O * 8 8 8 w l x ~ / / / | | / ~ c x w 0 > = : : ; ; * : ; ; = & & & & ; ; @ ",
": : : : : : : : : : : : : : > > 1 7 1 1 < : : * & O O > 8 w w i l x M A A A ~ ~ A m m l w w 0 7 1 7 7 7 7 9 7 > : > : : = : : = ",
": ; ; ; ; : : : : ; ; : : : : : : > < : : : * & & O % & ; > > 3 8 w d w w l l x d w w w 8 0 7 0 0 0 0 a s d l s 8 9 7 7 < < : @ ",
"< : ; * * ; ; ; ; ; * : * : : * : : : * * * * & & & & % % % % % ; > > 1 1 7 7 7 1 1 7 7 0 0 0 0 s d d n m Z Z Z v n i u w 7 1 - ",
"< < : * * * * * * * * * * : : : * : * : : : : : : : : : * : : ; ; ; : : < < 1 1 1 1 1 7 7 0 w f d n C S D ^ / / / ^ Z m n w 7 - ",
"< < : ; * * * * * * * * * : * : : : : < : < < < < < < < < < < < : : : > < < 1 1 1 1 7 7 0 f g g n S D ^ ` } | | | } / A M l s 4 ",
"9 9 7 < * * * * * * * * < * : < : : < < 1 1 1 1 1 2 2 1 2 1 1 1 1 < < 1 1 1 2 1 2 2 7 0 s g n B S ^ ^ ` } ..:.:.:.-.| ^ Z m w 4 ",
"u w u 8 1 : ; * * * * * * < < 1 1 1 1 1 1 2 7 7 9 9 0 0 0 7 7 7 2 2 2 1 2 2 2 2 2 7 0 t d n B D ` } ....-.,.3.3.:.:.../ A n 0 6 ",
"l l l u 0 7 < : : * : : 1 2 2 2 7 7 2 7 9 0 0 s d n m n d f t 9 7 7 7 7 7 2 2 2 0 0 t f g B D ` } $.>.,.5.5.3.4.3.5...` Z m i q ",
"z x l u r 7 < : : : < < 7 9 r r 9 t t 9 s d n B B D A Z M n f 0 9 9 7 9 7 9 7 9 0 a s f g B D ` ` } -.5.,.,.,.,.:.| | ` ^ Z n y ",
"i i u w 2 < < < : < 1 7 0 0 s s u t s f n B Z D ^ ^ ^ ^ D Z n d t t 9 9 9 9 9 0 0 r a s d j n B D D ` } } } | } ` ` ` D Z m n y ",
"0 0 2 1 < < : : : 1 2 0 s d d n n f f n B D ^ ^ ` ` ` ` ^ ^ S B n d t a 0 0 9 9 r r 0 a s s s d n n n d n m Z S Z Z B d s s s 6 ",
"1 1 2 1 1 1 < 2 2 7 a s n n m C B B n N Z D ` ` } } ..}  .` / ^ D B n d s s 0 0 0 0 r 0 0 0 a s a a a 0 a s f d d f s 0 9 9 7 4 ",
"7 2 2 2 2 2 2 2 r 0 d n B Z D D S D D D ^ ` ..$.,.,.;.,.-.$... .` D S m n g s a 0 a 9 r r a t r r a 0 0 0 0 a 0 a 0 r r r 9 7 4 ",
"9 9 9 9 9 9 r a g d B B S ^ _ ^ _ ` ` }  .-.;.,.5.5.3.7.6.5.,.;...] ^ S Z C N d a 0 a 9 a 0 r r r 0 a a a a a s r r 0 r 9 9 7 4 ",
"9 r 9 r r t f z m B B S D ` } ...... ...>.,.,.5.6.7.7.7.7.7.7.6.,.>.;. .} ` D C g s s a a a 9 r a 0 a s f d g s s a t r r 9 r 1 ",
"r r r t t f N B S D ` `  ...;.,.,.;...;.,.5.5.,.5.7.3.5.5.6.7.7.7.6.6.6.,.$.] D C n s s a a a a a a f g g g g g f a t r r 9 9 5 ",
"r a t a f g n B ^ ` ..$.>.>.>.,.,.;.>.5.7.7.,.,.,.5.6.5.5.5.5.6.7.7.7.6.1.>.] D S N g g f s a s s f d g g g n j g f a r r r r 5 ",
"t t a u d g B S ` } ..$.;.;.;.;.$...>.5.6.5.,.,.,.,.,.,.6.,.1.,.6.7.7.6.<...` D C N g g f s s s f f g g j j j g g f f a a r t 5 ",
"a a a f g g N S ^ ` .. . ..... . ...$.>.>.,.,.>.,.>.>.>.>.,.,.,.,.,.,.>.>.] L S N j g f u s s f h p p j j g h g g g p f t a a e ",
"f f s f f h n N C S ^ _ ` _ _ _ ` ]  . .X.&.$.$.$.$.$...X.$.>.>.$.X.` ] L S V N j f f f f f f g h h h g g f g g g g f f s a a e ",
"f f f h f f f h j j N C S S S L L L _ L ' ` ` ' L D L ' ' ` ` ` L S C N N j g g g f f f g g g g j p p h g f p f f g d f s f f e ",
"j h h f f f f f g g g n B C C S S S C C C S C S C V B S S S C N g g g h h g g f f g h N k N k j k N j N j j j j j j j j j h h u ",
"N j g g f f f h f f f h h k N N N N N N N N N N V V V N j j j g f f f f f f f f f j N V N C C C C C C C B C V V N C B V N j j y ",
"C N N j h h f h f f h f g f h h h h h h j V N V N N j h h f h f h f f f f a f f N V C B S K S K S K K K K L K D L S K B B N V z ",
"S S V N h f h f h h h h f f h f h f h h h j j j j j j j j j g f h f f f f g h j N C S L L I I L L ' ` ] ] ] ] ] ] ' _ K C B F v ",
"L S C N j g h f f f f h h h h h f h f h h h j j j j j j j h h j j h h h N V C V K K L I _ ' ] ] { #.%.$.&.=.>.>.&...#.] ' L _ b ",
"` ' D C N N j f h h h h h h h h h h h h h j j j j j j j k N N V V N N V C S L L ' ] ] ] { #.$.$.&.<.<.1.6.6.e.6.6.1.,.<.$. . ./ ",
"&.X.` ' L S C N j h h h h h h h h j j j j k k k k k k k k V S S K I S S K ' X.$.<.1.&.$.<.1.1.<.<.6.e.r.t.t.i.t.t.t.t.6.,.<.>.) ",
"6.,.;.X.] _ ' L H V j h j h k h j j k k V k V V N k V V V S ` %.$.$.X.{ ] X.1.e.r.r.e.e.t.t.y.t.e.r.t.i.i.i.i.i.a.i.i.t.e.2.1.:.",
"r.6.6.>.X.X.] ` L C k h k k k k k k k V k V V V V V V V C I &.1.r.r.7.1.$.=.6.t.u.u.i.s.d.d.f.a.a.i.i.p.i.a.a.a.a.p.i.t.t.7.t.2.",
"t.r.6.,.>.=.X.{ L C V k k k k k V V k V V V V V C S U C C ' <.6.t.i.i.r.6.6.e.e.r.u.p.s.g.g.g.d.a.a.p.i.i.p.a.a.p.i.t.t.t.y.y.2.",
"t.7.7.6.,.=.X.` I S V k k k V k V V V G C C G C I [ { { ' ] =.6.t.t.t.t.r.e.e.r.r.r.p.d.f.g.d.d.a.p.i.u.u.i.i.i.i.y.t.t.r.r.t.2.",
"e.7.7.1.>.&.] ' U C V V V V V V V V G J U U I [ &.=.$.<.&.X.%.1.7.e.t.i.i.t.r.u.u.i.s.g.f.f.d.p.t.t.u.u.t.u.t.u.y.t.t.r.e.7.2.2.",
"1.1.1.<.$.X.' U C G V V k G V V G C U I I [ %.<.1.e.e.6.6.<.=.<.6.6.e.r.t.i.i.p.p.s.s.d.d.d.s.i.r.r.r.r.r.r.r.r.t.7.r.e.e.w.w.) ",
"=.$.$.%.#.] [ K C H C V G V G G U Y T [ [ O.=.<.w.e.u.r.e.1.<.<.<.<.1.1.e.i.i.i.s.i.i.i.s.s.i.u.r.r.r.e.r.e.r.t.t.r.e.4.w.1.1.) ",
"#.X.#.X.{ ] I I U C C G G G C U I T T [ [ O.=.<.1.e.e.e.r.r.w.=.=.<.<.<.1.e.r.u.r.e.r.r.r.u.r.r.e.e.r.r.e.w.e.r.r.4.e.e.w.<.=.] ",
"{ { { O.{ [ ' I U H V G G V H J Y T [ T T T o.O.=.<.<.6.r.r.w.=.=.=.=.=.=.*.=.<.<.1.e.r.r.e.w.e.e.e.w.w.e.e.e.e.e.e.w.w.w.<.=.( ",
"{ [ [ ] { ] [ I U G H G G G G G U U U I T T I T { %.%.=.<.=.O.%.%.=.=.%.%.%.%.=.=.q.q.w.w.1.<.1.1.q.w.w.w.w.e.e.e.e.w.w.q.<.=.) ",
"] [ T [ [ T I I U G G G G G G H G J U U Y U Y I T T [ [ I T [ [ O.%.O.O.o.{ O.%.=.=.=.<.&.=.=.<.=.=.<.<.w.w.w.e.w.w.1.1.<.<.%.( ",
"[ [ T T T I I U J H G G H G J U U U U Y Y U U U U U U Y U U U U T T [ I T T [ O.O.O.O.O.O.O.O.X.O.O.%.%.=.<.1.q.w.1.w.q.=.%.O.' ",
"T T T I U H H H H G G J H J Y Y Y I T T I T T Y Y U U J J U J U Y U Y Y Y Y Y [ o.[ [ [ [ T I Y T T o.O.%.%.*.%.%.=.=.=.O.[ E L ",
"Y Y T Y U H H H H H H J Y Y Y T Y T T Q T Q T T T Y Y Y U Y J J Y J U Y U Y U Y T Y T T T U J J H U P T o.O.O.o.O.O.O.[ T I P F ",
"Y Y Y U Y J J J J H J Y Y T T Q E E o.T E [ Q T T T Y Y Y Y Y Y J J J J J J J H H J J H H H H H H H Y Y W Y Q T T o.T Y Y Y Y F ",
"Y I Y H J J J J H Y Y T o.o.o.o.o.o.E o.Q o.o.Q o.T T Q W T T Y J J J J H H H J J H H J H H H H H H J H J J Y Y Y Y Y Y Y U Y F ",
"Y H Y J Y Y Y Y W Q T o.@.*.*.*.@.O.o.o.o.o.o.o.o.o.o.o.o.o.o.E W W J J J J J J J J J J J J J J J J J J J J J J J J J J J R J F ",
"Y W Y Y T T W E E o.@.@.*.9.0.=.9.*.@.o.o.o.@.*.*.@.@.@.*.*.*.@.W W W J J J J J J J J J J J J J J J J J J J J J J J Y J J J Y G ",
"W J W Y W Q Q Q o.@.*.*.9.0.0.0.0.0.*.*.@.*.0.0.=.0.0.0.0.9.*.@.! +.E E W J J J J J J J J J J J J J J J J J J J J J J J W J W G ",
"R W J W Y Q Q o.@.*.*.9.0.0.0.0.0.0.0.0.q.q.q.q.q.q.q.q.0.0.9.9.8.8.Q Q J W J W J J J W W J J W J W W J J W W J J J W J J W W F ",
"W W W W W Q Q o.o.@.*.0.0.0.0.0.0.0.q.q.q.q.q.q.q.q.q.9.9.9.9.9.@.o.Q W W J J W W W W W W J W W W J W J Y Y Y W W W J W W P W G ",
"W J W J W Q Y Q o.+.+.9.*.9.*.*.9.0.0.0.0.0.0.0.0.0.9.9.@.@.@.@.o.Q W W W W W J W J W W W J W W W W W W W W W W W W W W W W W G ",
"W W W W Q W W W Q ! o.+.@.@.@.@.@.9.9.9.9.0.0.9.9.9.+.o.+.! ! ! Q W W W W W W W W W W W W W W W W W W W W W W W W W W W W W W J ",
"W ! W W W W ! W Q Q ! ! ! ! ! o.o.@.8.9.9.9.9.9.@.8.o.Q E W ! ! W Q W W W ! W W W ! ! W ! W W W ! W W W W W ! ! W W ! W W W W P ",
"! W ! W W ! ! W W ! W W Q ! ! ! ! ! +.+.8.8.9.+.! ! ! ! ! ! ! ! W W ! ! W W ! W ! ! ! ! W W ! W W ! W ! ! ! ! ! W ! W W W ! ! W ",
"! ! ! W ! ! ! ! ! W ! ! W ! ! ! ! ! o.! +.o.! ! ! ! ! ! W ! ! ! ! ! ! W ! ! ! ! ! ! ! ! ! ! ! ! ! ! ! ! ! W ! ! ! W ! ! ! ! ! P ",
"! ! ! ! ! ! ! ! ! ! ! ! ! ! ! ! ! ! ! ! ! ! ! ! ! ! ! ! ! ! ! ! ! ! ! ! ! ! ! ! ! ! ! ! ! ! ! ! ! ! ! ! ! ! ! ! ! ! ! ! ! ! ! P ",
"! ! ! ! 8.! ! ! ! 8.! ! ! ! ! ! ! ! ! ! ! 8.! ! ! ! ! ! ! ! ! ! ! ! ! ! ! ! ! ! ! ! ! ! ! 8.! ! ! ! ! ! ! ! ! ! ! ! ! ! ! ! ! R ",
"8.! ! ! 8.! 8.! 8.8.8.! 8.8.8.! 8.8.8.! 8.+.8.! 8.8.8.! 8.8.! 8.8.8.8.8.8.! ! ! 8.8.8.! 8.8.8.! ! ! ! ! 8.8.8.! 8.8.8.8.8.! ! E ",
"8.8.8.8.8.8.8.8.8.8.8.8.8.8.8.8.8.8.8.8.8.8.8.8.8.8.8.8.8.8.8.8.8.8.8.8.8.8.8.8.8.8.8.8.8.8.8.8.8.! ! ! 8.8.8.8.8.8.8.8.8.! ! E "
};
